NCOLS 415 
NROWS 250 
XLLCORNER -73.976375774 
YLLCORNER 45.40212923 
CELLSIZE 0.00120647298313256 
NODATA_value -9999 
-9999.000000000000000 -9999 -9999 -9999 -9999 -9999 -9999 -9999 -9999 -9999 -9999 -9999 -9999 -9999 -9999 -9999 -9999 -9999 -9999 -9999 -9999 -9999 -9999 -9999 -9999 -9999 -9999 -9999 -9999 -9999 -9999 -9999 -9999 -9999 -9999 -9999 -9999 -9999 -9999 -9999 -9999 -9999 -9999 -9999 -9999 -9999 -9999 -9999 -9999 -9999 -9999 -9999 -9999 -9999 -9999 -9999 -9999 -9999 -9999 -9999 -9999 -9999 -9999 -9999 -9999 -9999 -9999 -9999 -9999 -9999 -9999 -9999 -9999 -9999 -9999 -9999 -9999 -9999 -9999 -9999 -9999 -9999 -9999 -9999 -9999 -9999 -9999 -9999 -9999 -9999 -9999 -9999 -9999 -9999 -9999 -9999 -9999 -9999 -9999 -9999 -9999 -9999 -9999 -9999 -9999 -9999 -9999 -9999 -9999 -9999 -9999 -9999 -9999 -9999 -9999 -9999 -9999 -9999 -9999 -9999 -9999 -9999 -9999 -9999 -9999 -9999 -9999 -9999 -9999 -9999 -9999 -9999 -9999 -9999 -9999 -9999 -9999 -9999 -9999 -9999 -9999 -9999 -9999 -9999 -9999 -9999 -9999 -9999 -9999 -9999 -9999 -9999 -9999 -9999 -9999 -9999 -9999 -9999 -9999 -9999 -9999 -9999 -9999 -9999 -9999 -9999 -9999 -9999 -9999 -9999 -9999 -9999 -9999 -9999 -9999 -9999 -9999 -9999 -9999 -9999 -9999 -9999 -9999 -9999 -9999 -9999 -9999 -9999 -9999 -9999 -9999 -9999 -9999 -9999 -9999 -9999 -9999 -9999 -9999 -9999 -9999 -9999 -9999 -9999 -9999 -9999 -9999 -9999 -9999 -9999 -9999 -9999 -9999 -9999 -9999 -9999 -9999 -9999 -9999 -9999 -9999 -9999 -9999 -9999 -9999 -9999 -9999 -9999 -9999 -9999 -9999 -9999 -9999 -9999 -9999 -9999 -9999 -9999 -9999 -9999 -9999 -9999 -9999 -9999 -9999 -9999 -9999 -9999 -9999 -9999 -9999 -9999 -9999 -9999 -9999 -9999 -9999 -9999 -9999 -9999 -9999 -9999 -9999 -9999 -9999 -9999 -9999 -9999 -9999 -9999 -9999 -9999 -9999 -9999 -9999 -9999 -9999 -9999 -9999 -9999 -9999 -9999 -9999 -9999 -9999 -9999 -9999 -9999 -9999 -9999 -9999 -9999 -9999 -9999 -9999 -9999 -9999 -9999 -9999 -9999 -9999 -9999 -9999 -9999 -9999 -9999 -9999 -9999 -9999 -9999 -9999 -9999 -9999 -9999 -9999 -9999 -9999 -9999 -9999 -9999 -9999 -9999 -9999 -9999 -9999 -9999 -9999 -9999 -9999 -9999 -9999 -9999 -9999 -9999 -9999 -9999 -9999 -9999 -9999 -9999 -9999 -9999 -9999 -9999 -9999 -9999 -9999 -9999 -9999 -9999 -9999 -9999 -9999 -9999 -9999 -9999 -9999 -9999 -9999 -9999 -9999 -9999 -9999 -9999 -9999 -9999 -9999 -9999 -9999 -9999 -9999 -9999 -9999 -9999 -9999 -9999 -9999 -9999 -9999 -9999 -9999 -9999 -9999 -9999 -9999 -9999 -9999 -9999 -9999 -9999 -9999 -9999 -9999 -9999 -9999 -9999 -9999 -9999 -9999 0 0 -9999 -9999 -9999 -9999 -9999 -9999 -9999 -9999 -9999 -9999 -9999 -9999 -9999 -9999
-9999 -9999 -9999 -9999 -9999 -9999 -9999 -9999 -9999 -9999 -9999 -9999 -9999 -9999 -9999 -9999 -9999 -9999 -9999 -9999 -9999 -9999 -9999 -9999 -9999 -9999 -9999 -9999 -9999 -9999 -9999 -9999 -9999 -9999 -9999 -9999 -9999 -9999 -9999 -9999 -9999 -9999 -9999 -9999 -9999 -9999 -9999 -9999 -9999 -9999 -9999 -9999 -9999 -9999 -9999 -9999 -9999 -9999 -9999 -9999 -9999 -9999 -9999 -9999 -9999 -9999 -9999 -9999 -9999 -9999 -9999 -9999 -9999 -9999 -9999 -9999 -9999 -9999 -9999 -9999 -9999 -9999 -9999 -9999 -9999 -9999 -9999 -9999 -9999 -9999 -9999 -9999 -9999 -9999 -9999 -9999 -9999 -9999 -9999 -9999 -9999 -9999 -9999 -9999 -9999 -9999 -9999 -9999 -9999 -9999 -9999 -9999 -9999 -9999 -9999 -9999 -9999 -9999 -9999 -9999 -9999 -9999 -9999 -9999 -9999 -9999 -9999 -9999 -9999 -9999 -9999 -9999 -9999 -9999 -9999 -9999 -9999 -9999 -9999 -9999 -9999 -9999 -9999 -9999 -9999 -9999 -9999 -9999 -9999 -9999 -9999 -9999 -9999 -9999 -9999 -9999 -9999 -9999 -9999 -9999 -9999 -9999 -9999 -9999 -9999 -9999 -9999 -9999 -9999 -9999 -9999 -9999 -9999 -9999 -9999 -9999 -9999 -9999 -9999 -9999 -9999 -9999 -9999 -9999 -9999 -9999 -9999 -9999 -9999 -9999 -9999 -9999 -9999 -9999 -9999 -9999 -9999 -9999 -9999 -9999 -9999 -9999 -9999 -9999 -9999 -9999 -9999 -9999 -9999 -9999 -9999 -9999 -9999 -9999 -9999 -9999 -9999 -9999 -9999 -9999 -9999 -9999 -9999 -9999 -9999 -9999 -9999 -9999 -9999 -9999 -9999 -9999 -9999 -9999 -9999 -9999 -9999 -9999 -9999 -9999 -9999 -9999 -9999 -9999 -9999 -9999 -9999 -9999 -9999 -9999 -9999 -9999 -9999 -9999 -9999 -9999 -9999 -9999 -9999 -9999 -9999 -9999 -9999 -9999 -9999 -9999 -9999 -9999 -9999 -9999 -9999 -9999 -9999 -9999 -9999 -9999 -9999 -9999 -9999 -9999 -9999 -9999 -9999 -9999 -9999 -9999 -9999 -9999 -9999 -9999 -9999 -9999 -9999 -9999 -9999 -9999 -9999 -9999 -9999 -9999 -9999 -9999 -9999 -9999 -9999 -9999 -9999 -9999 -9999 -9999 -9999 -9999 -9999 -9999 -9999 -9999 -9999 -9999 -9999 -9999 -9999 -9999 -9999 -9999 -9999 -9999 -9999 -9999 -9999 -9999 -9999 -9999 -9999 -9999 -9999 -9999 -9999 -9999 -9999 -9999 -9999 -9999 -9999 -9999 -9999 -9999 -9999 -9999 -9999 -9999 -9999 -9999 -9999 -9999 -9999 -9999 -9999 -9999 -9999 -9999 -9999 -9999 -9999 -9999 -9999 -9999 -9999 -9999 -9999 -9999 -9999 -9999 -9999 -9999 -9999 -9999 -9999 -9999 -9999 -9999 -9999 -9999 -9999 -9999 -9999 -9999 -9999 -9999 -9999 -9999 -9999 -9999 -9999 -9999 -9999 0 0 0 0 0 -9999 -9999 -9999 -9999 -9999 -9999 -9999 -9999 -9999 -9999 2.4390243902439 2.4390243902439 2.4390243902439 2.4390243902439 -9999
-9999 -9999 -9999 -9999 -9999 -9999 -9999 -9999 -9999 -9999 -9999 -9999 -9999 -9999 -9999 -9999 -9999 -9999 -9999 -9999 -9999 -9999 -9999 -9999 -9999 -9999 -9999 -9999 -9999 -9999 -9999 -9999 -9999 -9999 -9999 -9999 -9999 -9999 -9999 -9999 -9999 -9999 -9999 -9999 -9999 -9999 -9999 -9999 -9999 -9999 -9999 -9999 -9999 -9999 -9999 -9999 -9999 -9999 -9999 -9999 -9999 -9999 -9999 -9999 -9999 -9999 -9999 -9999 -9999 -9999 -9999 -9999 -9999 -9999 -9999 -9999 -9999 -9999 -9999 -9999 -9999 -9999 -9999 -9999 -9999 -9999 -9999 -9999 -9999 -9999 -9999 -9999 -9999 -9999 -9999 -9999 -9999 -9999 -9999 -9999 -9999 -9999 -9999 -9999 -9999 -9999 -9999 -9999 -9999 -9999 -9999 -9999 -9999 -9999 -9999 -9999 -9999 -9999 -9999 -9999 -9999 -9999 -9999 -9999 -9999 -9999 -9999 -9999 -9999 -9999 -9999 -9999 -9999 -9999 -9999 -9999 -9999 -9999 -9999 -9999 -9999 -9999 -9999 -9999 -9999 -9999 -9999 -9999 -9999 -9999 -9999 -9999 -9999 -9999 -9999 -9999 -9999 -9999 -9999 -9999 -9999 -9999 -9999 -9999 -9999 -9999 -9999 -9999 -9999 -9999 -9999 -9999 -9999 -9999 -9999 -9999 -9999 -9999 -9999 -9999 -9999 -9999 -9999 -9999 -9999 -9999 -9999 -9999 -9999 -9999 -9999 -9999 -9999 -9999 -9999 -9999 -9999 -9999 -9999 -9999 -9999 -9999 -9999 -9999 -9999 -9999 -9999 -9999 -9999 -9999 -9999 -9999 -9999 -9999 -9999 -9999 -9999 -9999 -9999 -9999 -9999 -9999 -9999 -9999 -9999 -9999 -9999 -9999 -9999 -9999 -9999 -9999 -9999 -9999 -9999 -9999 -9999 -9999 -9999 -9999 -9999 -9999 -9999 -9999 -9999 -9999 -9999 -9999 -9999 -9999 -9999 -9999 -9999 -9999 -9999 -9999 -9999 -9999 -9999 -9999 -9999 -9999 -9999 -9999 -9999 -9999 -9999 -9999 -9999 -9999 -9999 -9999 -9999 -9999 -9999 -9999 -9999 -9999 -9999 -9999 -9999 -9999 -9999 -9999 -9999 -9999 -9999 -9999 -9999 -9999 -9999 -9999 -9999 -9999 -9999 -9999 -9999 -9999 -9999 -9999 -9999 -9999 -9999 -9999 -9999 -9999 -9999 -9999 -9999 -9999 -9999 -9999 -9999 -9999 -9999 -9999 -9999 -9999 -9999 -9999 -9999 -9999 -9999 -9999 -9999 -9999 -9999 -9999 -9999 -9999 -9999 -9999 -9999 -9999 -9999 -9999 -9999 -9999 -9999 -9999 -9999 -9999 -9999 -9999 -9999 -9999 -9999 -9999 -9999 -9999 -9999 -9999 -9999 -9999 -9999 -9999 -9999 -9999 -9999 -9999 -9999 -9999 -9999 -9999 -9999 -9999 -9999 -9999 -9999 -9999 -9999 -9999 -9999 -9999 -9999 -9999 -9999 -9999 -9999 -9999 -9999 -9999 -9999 -9999 -9999 -9999 -9999 -9999 -9999 -9999 -9999 -9999 -9999 -9999 -9999 0 0 0 -9999 -9999 -9999 -9999 -9999 -9999 -9999 0 0 0 0 0 0 2.4390243902439 2.4390243902439 -9999 -9999
-9999 -9999 -9999 -9999 -9999 -9999 -9999 -9999 -9999 -9999 -9999 -9999 -9999 -9999 -9999 -9999 -9999 -9999 -9999 -9999 -9999 -9999 -9999 -9999 -9999 -9999 -9999 -9999 -9999 -9999 -9999 -9999 -9999 -9999 -9999 -9999 -9999 -9999 -9999 -9999 -9999 -9999 -9999 -9999 -9999 -9999 -9999 -9999 -9999 -9999 -9999 -9999 -9999 -9999 -9999 -9999 -9999 -9999 -9999 -9999 -9999 -9999 -9999 -9999 -9999 -9999 -9999 -9999 -9999 -9999 -9999 -9999 -9999 -9999 -9999 -9999 -9999 -9999 -9999 -9999 -9999 -9999 -9999 -9999 -9999 -9999 -9999 -9999 -9999 -9999 -9999 -9999 -9999 -9999 -9999 -9999 -9999 -9999 -9999 -9999 -9999 -9999 -9999 -9999 -9999 -9999 -9999 -9999 -9999 -9999 -9999 -9999 -9999 -9999 -9999 -9999 -9999 -9999 -9999 -9999 -9999 -9999 -9999 -9999 -9999 -9999 -9999 -9999 -9999 -9999 -9999 -9999 -9999 -9999 -9999 -9999 -9999 -9999 -9999 -9999 -9999 -9999 -9999 -9999 -9999 -9999 -9999 -9999 -9999 -9999 -9999 -9999 -9999 -9999 -9999 -9999 -9999 -9999 -9999 -9999 -9999 -9999 -9999 -9999 -9999 -9999 -9999 -9999 -9999 -9999 -9999 -9999 -9999 -9999 -9999 -9999 -9999 -9999 -9999 -9999 -9999 -9999 -9999 -9999 -9999 -9999 -9999 -9999 -9999 -9999 -9999 -9999 -9999 -9999 -9999 -9999 -9999 -9999 -9999 -9999 -9999 -9999 -9999 -9999 -9999 -9999 -9999 -9999 -9999 -9999 -9999 -9999 -9999 -9999 -9999 -9999 -9999 -9999 -9999 -9999 -9999 -9999 -9999 -9999 -9999 -9999 -9999 -9999 -9999 -9999 -9999 -9999 -9999 -9999 -9999 -9999 -9999 -9999 -9999 -9999 -9999 -9999 -9999 -9999 -9999 -9999 -9999 -9999 -9999 -9999 -9999 -9999 -9999 -9999 -9999 -9999 -9999 -9999 -9999 -9999 -9999 -9999 -9999 -9999 -9999 -9999 -9999 -9999 -9999 -9999 -9999 -9999 -9999 -9999 -9999 -9999 -9999 -9999 -9999 -9999 -9999 -9999 -9999 -9999 -9999 -9999 -9999 -9999 -9999 -9999 -9999 -9999 -9999 -9999 -9999 -9999 -9999 -9999 -9999 -9999 -9999 -9999 -9999 -9999 -9999 -9999 -9999 -9999 -9999 -9999 -9999 -9999 -9999 -9999 -9999 -9999 -9999 -9999 -9999 -9999 -9999 -9999 -9999 -9999 -9999 -9999 -9999 -9999 -9999 -9999 -9999 -9999 -9999 -9999 -9999 -9999 -9999 -9999 -9999 -9999 -9999 -9999 -9999 -9999 -9999 -9999 -9999 -9999 -9999 -9999 -9999 -9999 -9999 -9999 -9999 -9999 -9999 -9999 -9999 -9999 -9999 -9999 -9999 -9999 -9999 -9999 -9999 -9999 -9999 -9999 -9999 -9999 -9999 -9999 -9999 -9999 -9999 -9999 -9999 -9999 -9999 -9999 -9999 -9999 -9999 -9999 -9999 -9999 -9999 0 2.5830258302583 0 0 -9999 -9999 -9999 0 -9999 -9999 -9999 -9999 -9999 0 0 0 0 0 0 0 0 0 2.4390243902439 -9999 -9999 -9999
-9999 -9999 -9999 -9999 -9999 -9999 -9999 -9999 -9999 -9999 -9999 -9999 -9999 -9999 -9999 -9999 -9999 -9999 -9999 -9999 -9999 -9999 -9999 -9999 -9999 -9999 -9999 -9999 -9999 -9999 -9999 -9999 -9999 -9999 -9999 -9999 -9999 -9999 -9999 -9999 -9999 -9999 -9999 -9999 -9999 -9999 -9999 -9999 -9999 -9999 -9999 -9999 -9999 -9999 -9999 -9999 -9999 -9999 -9999 -9999 -9999 -9999 -9999 -9999 -9999 -9999 -9999 -9999 -9999 -9999 -9999 -9999 -9999 -9999 -9999 -9999 -9999 -9999 -9999 -9999 -9999 -9999 -9999 -9999 -9999 -9999 -9999 -9999 -9999 -9999 -9999 -9999 -9999 -9999 -9999 -9999 -9999 -9999 -9999 -9999 -9999 -9999 -9999 -9999 -9999 -9999 -9999 -9999 -9999 -9999 -9999 -9999 -9999 -9999 -9999 -9999 -9999 -9999 -9999 -9999 -9999 -9999 -9999 -9999 -9999 -9999 -9999 -9999 -9999 -9999 -9999 -9999 -9999 -9999 -9999 -9999 -9999 -9999 -9999 -9999 -9999 -9999 -9999 -9999 -9999 -9999 -9999 -9999 -9999 -9999 -9999 -9999 -9999 -9999 -9999 -9999 -9999 -9999 -9999 -9999 -9999 -9999 -9999 -9999 -9999 -9999 -9999 -9999 -9999 -9999 -9999 -9999 -9999 -9999 -9999 -9999 -9999 -9999 -9999 -9999 -9999 -9999 -9999 -9999 -9999 -9999 -9999 -9999 -9999 -9999 -9999 -9999 -9999 -9999 -9999 -9999 -9999 -9999 -9999 -9999 -9999 -9999 -9999 -9999 -9999 -9999 -9999 -9999 -9999 -9999 -9999 -9999 -9999 -9999 -9999 -9999 -9999 -9999 -9999 -9999 -9999 -9999 -9999 -9999 -9999 -9999 -9999 -9999 -9999 -9999 -9999 -9999 -9999 -9999 -9999 -9999 -9999 -9999 -9999 -9999 -9999 -9999 -9999 -9999 -9999 -9999 -9999 -9999 -9999 -9999 -9999 -9999 -9999 -9999 -9999 -9999 -9999 -9999 -9999 -9999 -9999 -9999 -9999 -9999 -9999 -9999 -9999 -9999 -9999 -9999 -9999 -9999 -9999 -9999 -9999 -9999 -9999 -9999 -9999 -9999 -9999 -9999 -9999 -9999 -9999 -9999 -9999 -9999 -9999 -9999 -9999 -9999 -9999 -9999 -9999 -9999 -9999 -9999 -9999 -9999 -9999 -9999 -9999 -9999 -9999 -9999 -9999 -9999 -9999 -9999 -9999 -9999 -9999 -9999 -9999 -9999 -9999 -9999 -9999 -9999 -9999 -9999 -9999 -9999 -9999 -9999 -9999 -9999 -9999 -9999 -9999 -9999 -9999 -9999 -9999 -9999 -9999 -9999 -9999 -9999 -9999 -9999 -9999 -9999 -9999 -9999 -9999 -9999 -9999 -9999 -9999 -9999 -9999 -9999 -9999 -9999 -9999 -9999 -9999 -9999 -9999 -9999 -9999 -9999 -9999 -9999 -9999 -9999 -9999 -9999 -9999 -9999 -9999 -9999 -9999 -9999 -9999 -9999 -9999 -9999 -9999 -9999 -9999 -9999 -9999 4.44983818770227 4.44983818770227 2.5830258302583 2.5830258302583 2.5830258302583 2.5830258302583 2.5830258302583 0 0 -9999 -9999 -9999 -9999 -9999 0 0 0 0 0 0 0 -9999 3.77643504531722 0 0 2.4390243902439 2.4390243902439 -9999 -9999 -9999
-9999 -9999 -9999 -9999 -9999 -9999 -9999 -9999 -9999 -9999 -9999 -9999 -9999 -9999 -9999 -9999 -9999 -9999 -9999 -9999 -9999 -9999 -9999 -9999 -9999 -9999 -9999 -9999 -9999 -9999 -9999 -9999 -9999 -9999 -9999 -9999 -9999 -9999 -9999 -9999 -9999 -9999 -9999 -9999 -9999 -9999 -9999 -9999 -9999 -9999 -9999 -9999 -9999 -9999 -9999 -9999 -9999 -9999 -9999 -9999 -9999 -9999 -9999 -9999 -9999 -9999 -9999 -9999 -9999 -9999 -9999 -9999 -9999 -9999 -9999 -9999 -9999 -9999 -9999 -9999 -9999 -9999 -9999 -9999 -9999 -9999 -9999 -9999 -9999 -9999 -9999 -9999 -9999 -9999 -9999 -9999 -9999 -9999 -9999 -9999 -9999 -9999 -9999 -9999 -9999 -9999 -9999 -9999 -9999 -9999 -9999 -9999 -9999 -9999 -9999 -9999 -9999 -9999 -9999 -9999 -9999 -9999 -9999 -9999 -9999 -9999 -9999 -9999 -9999 -9999 -9999 -9999 -9999 -9999 -9999 -9999 -9999 -9999 -9999 -9999 -9999 -9999 -9999 -9999 -9999 -9999 -9999 -9999 -9999 -9999 -9999 -9999 -9999 -9999 -9999 -9999 -9999 -9999 -9999 -9999 -9999 -9999 -9999 -9999 -9999 -9999 -9999 -9999 -9999 -9999 -9999 -9999 -9999 -9999 -9999 -9999 -9999 -9999 -9999 -9999 -9999 -9999 -9999 -9999 -9999 -9999 -9999 -9999 -9999 -9999 -9999 -9999 -9999 -9999 -9999 -9999 -9999 -9999 -9999 -9999 -9999 -9999 -9999 -9999 -9999 -9999 -9999 -9999 -9999 -9999 -9999 -9999 -9999 -9999 -9999 -9999 -9999 -9999 -9999 -9999 -9999 -9999 -9999 -9999 -9999 -9999 -9999 -9999 -9999 -9999 -9999 -9999 -9999 -9999 -9999 -9999 -9999 -9999 -9999 -9999 -9999 -9999 -9999 -9999 -9999 -9999 -9999 -9999 -9999 -9999 -9999 -9999 -9999 -9999 -9999 -9999 -9999 -9999 -9999 -9999 -9999 -9999 -9999 -9999 -9999 -9999 -9999 -9999 -9999 -9999 -9999 -9999 -9999 -9999 -9999 -9999 -9999 -9999 -9999 -9999 -9999 -9999 -9999 -9999 -9999 -9999 -9999 -9999 -9999 -9999 -9999 -9999 -9999 -9999 -9999 -9999 -9999 -9999 -9999 -9999 -9999 -9999 -9999 -9999 -9999 -9999 -9999 -9999 -9999 -9999 -9999 -9999 -9999 -9999 -9999 -9999 -9999 -9999 -9999 -9999 -9999 -9999 -9999 -9999 -9999 -9999 -9999 -9999 -9999 -9999 -9999 -9999 -9999 -9999 -9999 -9999 -9999 -9999 -9999 -9999 -9999 -9999 -9999 -9999 -9999 -9999 -9999 -9999 -9999 -9999 -9999 -9999 -9999 -9999 -9999 -9999 -9999 -9999 -9999 -9999 -9999 -9999 -9999 -9999 -9999 -9999 -9999 -9999 -9999 -9999 -9999 -9999 -9999 -9999 -9999 -9999 -9999 -9999 -9999 -9999 -9999 -9999 4.44983818770227 4.44983818770227 4.44983818770227 4.44983818770227 4.44983818770227 2.5830258302583 2.5830258302583 2.5830258302583 2.5830258302583 2.5830258302583 2.5830258302583 0 0 0 0 2.5830258302583 2.5830258302583 2.5830258302583 2.5830258302583 2.5830258302583 -9999 -9999 -9999 -9999 3.77643504531722 0 0 0 2.4390243902439 2.4390243902439 -9999 -9999 -9999
-9999 -9999 -9999 -9999 -9999 -9999 -9999 -9999 -9999 -9999 -9999 -9999 -9999 -9999 -9999 -9999 -9999 -9999 -9999 -9999 -9999 -9999 -9999 -9999 -9999 -9999 -9999 -9999 -9999 -9999 -9999 -9999 -9999 -9999 -9999 -9999 -9999 -9999 -9999 -9999 -9999 -9999 -9999 -9999 -9999 -9999 -9999 -9999 -9999 -9999 -9999 -9999 -9999 -9999 -9999 -9999 -9999 -9999 -9999 -9999 -9999 -9999 -9999 -9999 -9999 -9999 -9999 -9999 -9999 -9999 -9999 -9999 -9999 -9999 -9999 -9999 -9999 -9999 -9999 -9999 -9999 -9999 -9999 -9999 -9999 -9999 -9999 -9999 -9999 -9999 -9999 -9999 -9999 -9999 -9999 -9999 -9999 -9999 -9999 -9999 -9999 -9999 -9999 -9999 -9999 -9999 -9999 -9999 -9999 -9999 -9999 -9999 -9999 -9999 -9999 -9999 -9999 -9999 -9999 -9999 -9999 -9999 -9999 -9999 -9999 -9999 -9999 -9999 -9999 -9999 -9999 -9999 -9999 -9999 -9999 -9999 -9999 -9999 -9999 -9999 -9999 -9999 -9999 -9999 -9999 -9999 -9999 -9999 -9999 -9999 -9999 -9999 -9999 -9999 -9999 -9999 -9999 -9999 -9999 -9999 -9999 -9999 -9999 -9999 -9999 -9999 -9999 -9999 -9999 -9999 -9999 -9999 -9999 -9999 -9999 -9999 -9999 -9999 -9999 -9999 -9999 -9999 -9999 -9999 -9999 -9999 -9999 -9999 -9999 -9999 -9999 -9999 -9999 -9999 -9999 -9999 -9999 -9999 -9999 -9999 -9999 -9999 -9999 -9999 -9999 -9999 -9999 -9999 -9999 -9999 -9999 -9999 -9999 -9999 -9999 -9999 -9999 -9999 -9999 -9999 -9999 -9999 -9999 -9999 -9999 -9999 -9999 -9999 -9999 -9999 -9999 -9999 -9999 -9999 -9999 -9999 -9999 -9999 -9999 -9999 -9999 -9999 -9999 -9999 -9999 -9999 -9999 -9999 -9999 -9999 -9999 -9999 -9999 -9999 -9999 -9999 -9999 -9999 -9999 -9999 -9999 -9999 -9999 -9999 -9999 -9999 -9999 -9999 -9999 -9999 -9999 -9999 -9999 -9999 -9999 -9999 -9999 -9999 -9999 -9999 -9999 -9999 -9999 -9999 -9999 -9999 -9999 -9999 -9999 -9999 -9999 -9999 -9999 -9999 -9999 -9999 -9999 -9999 -9999 -9999 -9999 -9999 -9999 -9999 -9999 -9999 -9999 -9999 -9999 -9999 -9999 -9999 -9999 -9999 -9999 -9999 -9999 -9999 -9999 -9999 -9999 -9999 -9999 -9999 -9999 -9999 -9999 -9999 -9999 -9999 -9999 -9999 -9999 -9999 -9999 -9999 -9999 -9999 -9999 -9999 -9999 -9999 -9999 -9999 -9999 -9999 -9999 -9999 -9999 -9999 -9999 -9999 -9999 -9999 -9999 -9999 -9999 -9999 -9999 -9999 -9999 -9999 -9999 -9999 -9999 -9999 -9999 -9999 -9999 -9999 -9999 -9999 -9999 -9999 -9999 -9999 -9999 -9999 -9999 4.44983818770227 4.44983818770227 4.44983818770227 4.44983818770227 4.44983818770227 4.44983818770227 4.44983818770227 4.44983818770227 2.5830258302583 2.5830258302583 2.5830258302583 2.5830258302583 2.5830258302583 2.5830258302583 2.5830258302583 2.5830258302583 0 0 2.5830258302583 2.5830258302583 2.5830258302583 -9999 -9999 -9999 -9999 -9999 -9999 0 0 0 2.4390243902439 2.4390243902439 -9999 -9999 -9999 -9999
-9999 -9999 -9999 -9999 -9999 -9999 -9999 -9999 -9999 -9999 -9999 -9999 -9999 -9999 -9999 -9999 -9999 -9999 -9999 -9999 -9999 -9999 -9999 -9999 -9999 -9999 -9999 -9999 -9999 -9999 -9999 -9999 -9999 -9999 -9999 -9999 -9999 -9999 -9999 -9999 -9999 -9999 -9999 -9999 -9999 -9999 -9999 -9999 -9999 -9999 -9999 -9999 -9999 -9999 -9999 -9999 -9999 -9999 -9999 -9999 -9999 -9999 -9999 -9999 -9999 -9999 -9999 -9999 -9999 -9999 -9999 -9999 -9999 -9999 -9999 -9999 -9999 -9999 -9999 -9999 -9999 -9999 -9999 -9999 -9999 -9999 -9999 -9999 -9999 -9999 -9999 -9999 -9999 -9999 -9999 -9999 -9999 -9999 -9999 -9999 -9999 -9999 -9999 -9999 -9999 -9999 -9999 -9999 -9999 -9999 -9999 -9999 -9999 -9999 -9999 -9999 -9999 -9999 -9999 -9999 -9999 -9999 -9999 -9999 -9999 -9999 -9999 -9999 -9999 -9999 -9999 -9999 -9999 -9999 -9999 -9999 -9999 -9999 -9999 -9999 -9999 -9999 -9999 -9999 -9999 -9999 -9999 -9999 -9999 -9999 -9999 -9999 -9999 -9999 -9999 -9999 -9999 -9999 -9999 -9999 -9999 -9999 -9999 -9999 -9999 -9999 -9999 -9999 -9999 -9999 -9999 -9999 -9999 -9999 -9999 -9999 -9999 -9999 -9999 -9999 -9999 -9999 -9999 -9999 -9999 -9999 -9999 -9999 -9999 -9999 -9999 -9999 -9999 -9999 -9999 -9999 -9999 -9999 -9999 -9999 -9999 -9999 -9999 -9999 -9999 -9999 -9999 -9999 -9999 -9999 -9999 -9999 -9999 -9999 -9999 -9999 -9999 -9999 -9999 -9999 -9999 -9999 -9999 -9999 -9999 -9999 -9999 -9999 -9999 -9999 -9999 -9999 -9999 -9999 -9999 -9999 -9999 -9999 -9999 -9999 -9999 -9999 -9999 -9999 -9999 -9999 -9999 -9999 -9999 -9999 -9999 -9999 -9999 -9999 -9999 -9999 -9999 -9999 -9999 -9999 -9999 -9999 -9999 -9999 -9999 -9999 -9999 -9999 -9999 -9999 -9999 -9999 -9999 -9999 -9999 -9999 -9999 -9999 -9999 -9999 -9999 -9999 -9999 -9999 -9999 -9999 -9999 -9999 -9999 -9999 -9999 -9999 -9999 -9999 -9999 -9999 -9999 -9999 -9999 -9999 -9999 -9999 -9999 -9999 -9999 -9999 -9999 -9999 -9999 -9999 -9999 -9999 -9999 -9999 -9999 -9999 -9999 -9999 -9999 -9999 -9999 -9999 -9999 -9999 -9999 -9999 -9999 -9999 -9999 -9999 -9999 -9999 -9999 -9999 -9999 -9999 -9999 -9999 -9999 -9999 -9999 -9999 -9999 -9999 -9999 -9999 -9999 -9999 -9999 -9999 -9999 -9999 -9999 -9999 -9999 -9999 -9999 -9999 -9999 -9999 -9999 -9999 -9999 -9999 -9999 -9999 -9999 -9999 -9999 -9999 -9999 -9999 -9999 -9999 -9999 -9999 -9999 4.44983818770227 4.44983818770227 4.44983818770227 4.44983818770227 4.44983818770227 4.44983818770227 4.44983818770227 4.44983818770227 4.44983818770227 4.44983818770227 2.5830258302583 2.5830258302583 2.5830258302583 2.5830258302583 2.5830258302583 2.5830258302583 2.5830258302583 2.5830258302583 2.5830258302583 2.5830258302583 2.5830258302583 -9999 -9999 -9999 -9999 -9999 -9999 3.77643504531722 0 0 0 0 2.4390243902439 2.4390243902439 -9999 -9999 -9999 -9999
-9999 -9999 -9999 -9999 -9999 -9999 -9999 -9999 -9999 -9999 -9999 -9999 -9999 -9999 -9999 -9999 -9999 -9999 -9999 -9999 -9999 -9999 -9999 -9999 -9999 -9999 -9999 -9999 -9999 -9999 -9999 -9999 -9999 -9999 -9999 -9999 -9999 -9999 -9999 -9999 -9999 -9999 -9999 -9999 -9999 -9999 -9999 -9999 -9999 -9999 -9999 -9999 -9999 -9999 -9999 -9999 -9999 -9999 -9999 -9999 -9999 -9999 -9999 -9999 -9999 -9999 -9999 -9999 -9999 -9999 -9999 -9999 -9999 -9999 -9999 -9999 -9999 -9999 -9999 -9999 -9999 -9999 -9999 -9999 -9999 -9999 -9999 -9999 -9999 -9999 -9999 -9999 -9999 -9999 -9999 -9999 -9999 -9999 -9999 -9999 -9999 -9999 -9999 -9999 -9999 -9999 -9999 -9999 -9999 -9999 -9999 -9999 -9999 -9999 -9999 -9999 -9999 -9999 -9999 -9999 -9999 -9999 -9999 -9999 -9999 -9999 -9999 -9999 -9999 -9999 -9999 -9999 -9999 -9999 -9999 -9999 -9999 -9999 -9999 -9999 -9999 -9999 -9999 -9999 -9999 -9999 -9999 -9999 -9999 -9999 -9999 -9999 -9999 -9999 -9999 -9999 -9999 -9999 -9999 -9999 -9999 -9999 -9999 -9999 -9999 -9999 -9999 -9999 -9999 -9999 -9999 -9999 -9999 -9999 -9999 -9999 -9999 -9999 -9999 -9999 -9999 -9999 -9999 -9999 -9999 -9999 -9999 -9999 -9999 -9999 -9999 -9999 -9999 -9999 -9999 -9999 -9999 -9999 -9999 -9999 -9999 -9999 -9999 -9999 -9999 -9999 -9999 -9999 -9999 -9999 -9999 -9999 -9999 -9999 -9999 -9999 -9999 -9999 -9999 -9999 -9999 -9999 -9999 -9999 -9999 -9999 -9999 -9999 -9999 -9999 -9999 -9999 -9999 -9999 -9999 -9999 -9999 -9999 -9999 -9999 -9999 -9999 -9999 -9999 -9999 -9999 -9999 -9999 -9999 -9999 -9999 -9999 -9999 -9999 -9999 -9999 -9999 -9999 -9999 -9999 -9999 -9999 -9999 -9999 -9999 -9999 -9999 -9999 -9999 -9999 -9999 -9999 -9999 -9999 -9999 -9999 -9999 -9999 -9999 -9999 -9999 -9999 -9999 -9999 -9999 -9999 -9999 -9999 -9999 -9999 -9999 -9999 -9999 -9999 -9999 -9999 -9999 -9999 -9999 -9999 -9999 -9999 -9999 -9999 -9999 -9999 -9999 -9999 -9999 -9999 -9999 -9999 -9999 -9999 -9999 -9999 -9999 -9999 -9999 -9999 -9999 -9999 -9999 -9999 -9999 -9999 -9999 -9999 -9999 -9999 -9999 -9999 -9999 -9999 -9999 -9999 -9999 -9999 -9999 -9999 -9999 -9999 -9999 -9999 -9999 -9999 -9999 -9999 -9999 -9999 -9999 -9999 -9999 -9999 -9999 -9999 -9999 -9999 -9999 -9999 -9999 -9999 -9999 -9999 -9999 -9999 -9999 -9999 -9999 -9999 -9999 -9999 -9999 -9999 -9999 -9999 4.44983818770227 4.44983818770227 4.44983818770227 4.44983818770227 4.44983818770227 4.44983818770227 4.44983818770227 4.44983818770227 4.44983818770227 4.44983818770227 4.44983818770227 2.5830258302583 2.5830258302583 2.5830258302583 2.5830258302583 2.5830258302583 2.5830258302583 2.5830258302583 2.5830258302583 2.5830258302583 2.5830258302583 2.5830258302583 -9999 -9999 -9999 -9999 -9999 3.77643504531722 3.77643504531722 0 0 0 0 2.4390243902439 -9999 -9999 -9999 -9999 -9999
-9999 -9999 -9999 -9999 -9999 -9999 -9999 -9999 -9999 -9999 -9999 -9999 -9999 -9999 -9999 -9999 -9999 -9999 -9999 -9999 -9999 -9999 -9999 -9999 -9999 -9999 -9999 -9999 -9999 -9999 -9999 -9999 -9999 -9999 -9999 -9999 -9999 -9999 -9999 -9999 -9999 -9999 -9999 -9999 -9999 -9999 -9999 -9999 -9999 -9999 -9999 -9999 -9999 -9999 -9999 -9999 -9999 -9999 -9999 -9999 -9999 -9999 -9999 -9999 -9999 -9999 -9999 -9999 -9999 -9999 -9999 -9999 -9999 -9999 -9999 -9999 -9999 -9999 -9999 -9999 -9999 -9999 -9999 -9999 -9999 -9999 -9999 -9999 -9999 -9999 -9999 -9999 -9999 -9999 -9999 -9999 -9999 -9999 -9999 -9999 -9999 -9999 -9999 -9999 -9999 -9999 -9999 -9999 -9999 -9999 -9999 -9999 -9999 -9999 -9999 -9999 -9999 -9999 -9999 -9999 -9999 -9999 -9999 -9999 -9999 -9999 -9999 -9999 -9999 -9999 -9999 -9999 -9999 -9999 -9999 -9999 -9999 -9999 -9999 -9999 -9999 -9999 -9999 -9999 -9999 -9999 -9999 -9999 -9999 -9999 -9999 -9999 -9999 -9999 -9999 -9999 -9999 -9999 -9999 -9999 -9999 -9999 -9999 -9999 -9999 -9999 -9999 -9999 -9999 -9999 -9999 -9999 -9999 -9999 -9999 -9999 -9999 -9999 -9999 -9999 -9999 -9999 -9999 -9999 -9999 -9999 -9999 -9999 -9999 -9999 -9999 -9999 -9999 -9999 -9999 -9999 -9999 -9999 -9999 -9999 -9999 -9999 -9999 -9999 -9999 -9999 -9999 -9999 -9999 -9999 -9999 -9999 -9999 -9999 -9999 -9999 -9999 -9999 -9999 -9999 -9999 -9999 -9999 -9999 -9999 -9999 -9999 -9999 -9999 -9999 -9999 -9999 -9999 -9999 -9999 -9999 -9999 -9999 -9999 -9999 -9999 -9999 -9999 -9999 -9999 -9999 -9999 -9999 -9999 -9999 -9999 -9999 -9999 -9999 -9999 -9999 -9999 -9999 -9999 -9999 -9999 -9999 -9999 -9999 -9999 -9999 -9999 -9999 -9999 -9999 -9999 -9999 -9999 -9999 -9999 -9999 -9999 -9999 -9999 -9999 -9999 -9999 -9999 -9999 -9999 -9999 -9999 -9999 -9999 -9999 -9999 -9999 -9999 -9999 -9999 -9999 -9999 -9999 -9999 -9999 -9999 -9999 -9999 -9999 -9999 -9999 -9999 -9999 -9999 -9999 -9999 -9999 -9999 -9999 -9999 -9999 -9999 -9999 -9999 -9999 -9999 -9999 -9999 -9999 -9999 -9999 -9999 -9999 -9999 -9999 -9999 -9999 -9999 -9999 -9999 -9999 -9999 -9999 -9999 -9999 -9999 -9999 -9999 -9999 -9999 -9999 -9999 -9999 -9999 -9999 -9999 -9999 -9999 -9999 -9999 -9999 -9999 -9999 -9999 -9999 -9999 -9999 -9999 -9999 -9999 -9999 -9999 -9999 -9999 -9999 -9999 -9999 -9999 -9999 -9999 -9999 4.44983818770227 4.44983818770227 4.44983818770227 4.44983818770227 4.44983818770227 4.44983818770227 4.44983818770227 4.44983818770227 4.44983818770227 4.44983818770227 2.5830258302583 2.5830258302583 2.5830258302583 2.5830258302583 2.5830258302583 2.5830258302583 2.5830258302583 2.5830258302583 2.5830258302583 2.5830258302583 2.5830258302583 -9999 -9999 -9999 -9999 -9999 3.77643504531722 3.77643504531722 3.77643504531722 3.77643504531722 0 0 0 2.4390243902439 -9999 -9999 -9999 -9999 -9999
-9999 -9999 -9999 -9999 -9999 -9999 -9999 -9999 -9999 -9999 -9999 -9999 -9999 -9999 -9999 -9999 -9999 -9999 -9999 -9999 -9999 -9999 -9999 -9999 -9999 -9999 -9999 -9999 -9999 -9999 -9999 -9999 -9999 -9999 -9999 -9999 -9999 -9999 -9999 -9999 -9999 -9999 -9999 -9999 -9999 -9999 -9999 -9999 -9999 -9999 -9999 -9999 -9999 -9999 -9999 -9999 -9999 -9999 -9999 -9999 -9999 -9999 -9999 -9999 -9999 -9999 -9999 -9999 -9999 -9999 -9999 -9999 -9999 -9999 -9999 -9999 -9999 -9999 -9999 -9999 -9999 -9999 -9999 -9999 -9999 -9999 -9999 -9999 -9999 -9999 -9999 -9999 -9999 -9999 -9999 -9999 -9999 -9999 -9999 -9999 -9999 -9999 -9999 -9999 -9999 -9999 -9999 -9999 -9999 -9999 -9999 -9999 -9999 -9999 -9999 -9999 -9999 -9999 -9999 -9999 -9999 -9999 -9999 -9999 -9999 -9999 -9999 -9999 -9999 -9999 -9999 -9999 -9999 -9999 -9999 -9999 -9999 -9999 -9999 -9999 -9999 -9999 -9999 -9999 -9999 -9999 -9999 -9999 -9999 -9999 -9999 -9999 -9999 -9999 -9999 -9999 -9999 -9999 -9999 -9999 -9999 -9999 -9999 -9999 -9999 -9999 -9999 -9999 -9999 -9999 -9999 -9999 -9999 -9999 -9999 -9999 -9999 -9999 -9999 -9999 -9999 -9999 -9999 -9999 -9999 -9999 -9999 -9999 -9999 -9999 -9999 -9999 -9999 -9999 -9999 -9999 -9999 -9999 -9999 -9999 -9999 -9999 -9999 -9999 -9999 -9999 -9999 -9999 -9999 -9999 -9999 -9999 -9999 -9999 -9999 -9999 -9999 -9999 -9999 -9999 -9999 -9999 -9999 -9999 -9999 -9999 -9999 -9999 -9999 -9999 -9999 -9999 -9999 -9999 -9999 -9999 -9999 -9999 -9999 -9999 -9999 -9999 -9999 -9999 -9999 -9999 -9999 -9999 -9999 -9999 -9999 -9999 -9999 -9999 -9999 -9999 -9999 -9999 -9999 -9999 -9999 -9999 -9999 -9999 -9999 -9999 -9999 -9999 -9999 -9999 -9999 -9999 -9999 -9999 -9999 -9999 -9999 -9999 -9999 -9999 -9999 -9999 -9999 -9999 -9999 -9999 -9999 -9999 -9999 -9999 -9999 -9999 -9999 -9999 -9999 -9999 -9999 -9999 -9999 -9999 -9999 -9999 -9999 -9999 -9999 -9999 -9999 -9999 -9999 -9999 -9999 -9999 -9999 -9999 -9999 -9999 -9999 -9999 -9999 -9999 -9999 -9999 -9999 -9999 -9999 -9999 -9999 -9999 -9999 -9999 -9999 -9999 -9999 -9999 -9999 -9999 -9999 -9999 -9999 -9999 -9999 -9999 -9999 -9999 -9999 -9999 -9999 -9999 -9999 -9999 -9999 -9999 -9999 -9999 -9999 -9999 -9999 -9999 -9999 -9999 -9999 -9999 -9999 -9999 -9999 -9999 -9999 -9999 -9999 -9999 -9999 -9999 -9999 -9999 -9999 4.44983818770227 4.44983818770227 4.44983818770227 4.44983818770227 4.44983818770227 4.44983818770227 4.44983818770227 4.44983818770227 4.44983818770227 4.44983818770227 4.44983818770227 2.5830258302583 2.5830258302583 2.5830258302583 2.5830258302583 2.5830258302583 2.5830258302583 2.5830258302583 2.5830258302583 2.5830258302583 2.5830258302583 2.5830258302583 -9999 -9999 0 0 3.77643504531722 3.77643504531722 3.77643504531722 3.77643504531722 3.77643504531722 0 0 2.4390243902439 -9999 -9999 -9999 -9999 -9999 -9999
-9999 -9999 -9999 -9999 -9999 -9999 -9999 -9999 -9999 -9999 -9999 -9999 -9999 -9999 -9999 -9999 -9999 -9999 -9999 -9999 -9999 -9999 -9999 -9999 -9999 -9999 -9999 -9999 -9999 -9999 -9999 -9999 -9999 -9999 -9999 -9999 -9999 -9999 -9999 -9999 -9999 -9999 -9999 -9999 -9999 -9999 -9999 -9999 -9999 -9999 -9999 -9999 -9999 -9999 -9999 -9999 -9999 -9999 -9999 -9999 -9999 -9999 -9999 -9999 -9999 -9999 -9999 -9999 -9999 -9999 -9999 -9999 -9999 -9999 -9999 -9999 -9999 -9999 -9999 -9999 -9999 -9999 -9999 -9999 -9999 -9999 -9999 -9999 -9999 -9999 -9999 -9999 -9999 -9999 -9999 -9999 -9999 -9999 -9999 -9999 -9999 -9999 -9999 -9999 -9999 -9999 -9999 -9999 -9999 -9999 -9999 -9999 -9999 -9999 -9999 -9999 -9999 -9999 -9999 -9999 -9999 -9999 -9999 -9999 -9999 -9999 -9999 -9999 -9999 -9999 -9999 -9999 -9999 -9999 -9999 -9999 -9999 -9999 -9999 -9999 -9999 -9999 -9999 -9999 -9999 -9999 -9999 -9999 -9999 -9999 -9999 -9999 -9999 -9999 -9999 -9999 -9999 -9999 -9999 -9999 -9999 -9999 -9999 -9999 -9999 -9999 -9999 -9999 -9999 -9999 -9999 -9999 -9999 -9999 -9999 -9999 -9999 -9999 -9999 -9999 -9999 -9999 -9999 -9999 -9999 -9999 -9999 -9999 -9999 -9999 -9999 -9999 -9999 -9999 -9999 -9999 -9999 -9999 -9999 -9999 -9999 -9999 -9999 -9999 -9999 -9999 -9999 -9999 -9999 -9999 -9999 -9999 -9999 -9999 -9999 -9999 -9999 -9999 -9999 -9999 -9999 -9999 -9999 -9999 -9999 -9999 -9999 -9999 -9999 -9999 -9999 -9999 -9999 -9999 -9999 -9999 -9999 -9999 -9999 -9999 -9999 -9999 -9999 -9999 -9999 -9999 -9999 -9999 -9999 -9999 -9999 -9999 -9999 -9999 -9999 -9999 -9999 -9999 -9999 -9999 -9999 -9999 -9999 -9999 -9999 -9999 -9999 -9999 -9999 -9999 -9999 -9999 -9999 -9999 -9999 -9999 -9999 -9999 -9999 -9999 -9999 -9999 -9999 -9999 -9999 -9999 -9999 -9999 -9999 -9999 -9999 -9999 -9999 -9999 -9999 -9999 -9999 -9999 -9999 -9999 -9999 -9999 -9999 -9999 -9999 -9999 -9999 -9999 -9999 -9999 -9999 -9999 -9999 -9999 -9999 -9999 -9999 -9999 -9999 -9999 -9999 -9999 -9999 -9999 -9999 -9999 -9999 -9999 -9999 -9999 -9999 -9999 -9999 -9999 -9999 -9999 -9999 -9999 -9999 -9999 -9999 -9999 -9999 -9999 -9999 -9999 -9999 -9999 -9999 -9999 -9999 -9999 -9999 -9999 -9999 -9999 -9999 -9999 -9999 -9999 -9999 -9999 -9999 -9999 -9999 -9999 -9999 -9999 -9999 -9999 -9999 -9999 -9999 -9999 4.44983818770227 4.44983818770227 4.44983818770227 4.44983818770227 4.44983818770227 4.44983818770227 4.44983818770227 4.44983818770227 4.44983818770227 4.44983818770227 4.44983818770227 2.5830258302583 2.5830258302583 2.5830258302583 2.5830258302583 2.5830258302583 2.5830258302583 2.5830258302583 2.5830258302583 2.5830258302583 2.5830258302583 2.5830258302583 2.5830258302583 0 0 0 0 3.77643504531722 3.77643504531722 3.77643504531722 0 0 0 -9999 -9999 -9999 -9999 -9999 -9999 -9999 -9999
-9999 -9999 -9999 -9999 -9999 -9999 -9999 -9999 -9999 -9999 -9999 -9999 -9999 -9999 -9999 -9999 -9999 -9999 -9999 -9999 -9999 -9999 -9999 -9999 -9999 -9999 -9999 -9999 -9999 -9999 -9999 -9999 -9999 -9999 -9999 -9999 -9999 -9999 -9999 -9999 -9999 -9999 -9999 -9999 -9999 -9999 -9999 -9999 -9999 -9999 -9999 -9999 -9999 -9999 -9999 -9999 -9999 -9999 -9999 -9999 -9999 -9999 -9999 -9999 -9999 -9999 -9999 -9999 -9999 -9999 -9999 -9999 -9999 -9999 -9999 -9999 -9999 -9999 -9999 -9999 -9999 -9999 -9999 -9999 -9999 -9999 -9999 -9999 -9999 -9999 -9999 -9999 -9999 -9999 -9999 -9999 -9999 -9999 -9999 -9999 -9999 -9999 -9999 -9999 -9999 -9999 -9999 -9999 -9999 -9999 -9999 -9999 -9999 -9999 -9999 -9999 -9999 -9999 -9999 -9999 -9999 -9999 -9999 -9999 -9999 -9999 -9999 -9999 -9999 -9999 -9999 -9999 -9999 -9999 -9999 -9999 -9999 -9999 -9999 -9999 -9999 -9999 -9999 -9999 -9999 -9999 -9999 -9999 -9999 -9999 -9999 -9999 -9999 -9999 -9999 -9999 -9999 -9999 -9999 -9999 -9999 -9999 -9999 -9999 -9999 -9999 -9999 -9999 -9999 -9999 -9999 -9999 -9999 -9999 -9999 -9999 -9999 -9999 -9999 -9999 -9999 -9999 -9999 -9999 -9999 -9999 -9999 -9999 -9999 -9999 -9999 -9999 -9999 -9999 -9999 -9999 -9999 -9999 -9999 -9999 -9999 -9999 -9999 -9999 -9999 -9999 -9999 -9999 -9999 -9999 -9999 -9999 -9999 -9999 -9999 -9999 -9999 -9999 -9999 -9999 -9999 -9999 -9999 -9999 -9999 -9999 -9999 -9999 -9999 -9999 -9999 -9999 -9999 -9999 -9999 -9999 -9999 -9999 -9999 -9999 -9999 -9999 -9999 -9999 -9999 -9999 -9999 -9999 -9999 -9999 -9999 -9999 -9999 -9999 -9999 -9999 -9999 -9999 -9999 -9999 -9999 -9999 -9999 -9999 -9999 -9999 -9999 -9999 -9999 -9999 -9999 -9999 -9999 -9999 -9999 -9999 -9999 -9999 -9999 -9999 -9999 -9999 -9999 -9999 -9999 -9999 -9999 -9999 -9999 -9999 -9999 -9999 -9999 -9999 -9999 -9999 -9999 -9999 -9999 -9999 -9999 -9999 -9999 -9999 -9999 -9999 -9999 -9999 -9999 -9999 -9999 -9999 -9999 -9999 -9999 -9999 -9999 -9999 -9999 -9999 -9999 -9999 -9999 -9999 -9999 -9999 -9999 -9999 -9999 -9999 -9999 -9999 -9999 -9999 -9999 -9999 -9999 -9999 -9999 -9999 -9999 -9999 -9999 -9999 -9999 -9999 -9999 -9999 -9999 -9999 -9999 -9999 -9999 -9999 -9999 -9999 -9999 -9999 -9999 -9999 -9999 -9999 -9999 -9999 -9999 -9999 -9999 -9999 -9999 -9999 -9999 -9999 -9999 4.44983818770227 4.44983818770227 4.44983818770227 4.44983818770227 4.44983818770227 4.44983818770227 4.44983818770227 4.44983818770227 4.44983818770227 4.44983818770227 4.44983818770227 4.44983818770227 2.5830258302583 2.5830258302583 2.5830258302583 2.5830258302583 2.5830258302583 2.5830258302583 2.5830258302583 2.5830258302583 2.5830258302583 2.5830258302583 2.5830258302583 0 0 0 0 0 8.56164383561644 8.56164383561644 0 0 2.4390243902439 2.4390243902439 -9999 -9999 -9999 -9999 -9999 -9999 -9999 -9999
-9999 -9999 -9999 -9999 -9999 -9999 -9999 -9999 -9999 -9999 -9999 -9999 -9999 -9999 -9999 -9999 -9999 -9999 -9999 -9999 -9999 -9999 -9999 -9999 -9999 -9999 -9999 -9999 -9999 -9999 -9999 -9999 -9999 -9999 -9999 -9999 -9999 -9999 -9999 -9999 -9999 -9999 -9999 -9999 -9999 -9999 -9999 -9999 -9999 -9999 -9999 -9999 -9999 -9999 -9999 -9999 -9999 -9999 -9999 -9999 -9999 -9999 -9999 -9999 -9999 -9999 -9999 -9999 -9999 -9999 -9999 -9999 -9999 -9999 -9999 -9999 -9999 -9999 -9999 -9999 -9999 -9999 -9999 -9999 -9999 -9999 -9999 -9999 -9999 -9999 -9999 -9999 -9999 -9999 -9999 -9999 -9999 -9999 -9999 -9999 -9999 -9999 -9999 -9999 -9999 -9999 -9999 -9999 -9999 -9999 -9999 -9999 -9999 -9999 -9999 -9999 -9999 -9999 -9999 -9999 -9999 -9999 -9999 -9999 -9999 -9999 -9999 -9999 -9999 -9999 -9999 -9999 -9999 -9999 -9999 -9999 -9999 -9999 -9999 -9999 -9999 -9999 -9999 -9999 -9999 -9999 -9999 -9999 -9999 -9999 -9999 -9999 -9999 -9999 -9999 -9999 -9999 -9999 -9999 -9999 -9999 -9999 -9999 -9999 -9999 -9999 -9999 -9999 -9999 -9999 -9999 -9999 -9999 -9999 -9999 -9999 -9999 -9999 -9999 -9999 -9999 -9999 -9999 -9999 -9999 -9999 -9999 -9999 -9999 -9999 -9999 -9999 -9999 -9999 -9999 -9999 -9999 -9999 -9999 -9999 -9999 -9999 -9999 -9999 -9999 -9999 -9999 -9999 -9999 -9999 -9999 -9999 -9999 -9999 -9999 -9999 -9999 -9999 -9999 -9999 -9999 -9999 -9999 -9999 -9999 -9999 -9999 -9999 -9999 -9999 -9999 -9999 -9999 -9999 -9999 -9999 -9999 -9999 -9999 -9999 -9999 -9999 -9999 -9999 -9999 -9999 -9999 -9999 -9999 -9999 -9999 -9999 -9999 -9999 -9999 -9999 -9999 -9999 -9999 -9999 -9999 -9999 -9999 -9999 -9999 -9999 -9999 -9999 -9999 -9999 -9999 -9999 -9999 -9999 -9999 -9999 -9999 -9999 -9999 -9999 -9999 -9999 -9999 -9999 -9999 -9999 -9999 -9999 -9999 -9999 -9999 -9999 -9999 -9999 -9999 -9999 -9999 -9999 -9999 -9999 -9999 -9999 -9999 -9999 -9999 -9999 -9999 -9999 -9999 -9999 -9999 -9999 -9999 -9999 -9999 -9999 -9999 -9999 -9999 -9999 -9999 -9999 -9999 -9999 -9999 -9999 -9999 -9999 -9999 -9999 -9999 -9999 -9999 -9999 -9999 -9999 -9999 -9999 -9999 -9999 -9999 -9999 -9999 -9999 -9999 -9999 -9999 -9999 -9999 -9999 -9999 -9999 -9999 -9999 -9999 -9999 -9999 -9999 -9999 -9999 -9999 -9999 -9999 -9999 -9999 -9999 -9999 -9999 -9999 -9999 -9999 -9999 4.44983818770227 4.44983818770227 4.44983818770227 4.44983818770227 4.44983818770227 4.44983818770227 4.44983818770227 4.44983818770227 4.44983818770227 4.44983818770227 4.44983818770227 4.44983818770227 2.5830258302583 2.5830258302583 2.5830258302583 2.5830258302583 2.5830258302583 2.5830258302583 2.5830258302583 2.5830258302583 2.5830258302583 2.5830258302583 2.5830258302583 2.5830258302583 0 0 0 0 0 0 0 2.4390243902439 2.4390243902439 -9999 -9999 -9999 -9999 -9999 -9999 -9999 -9999 -9999 -9999
-9999 -9999 -9999 -9999 -9999 -9999 -9999 -9999 -9999 -9999 -9999 -9999 -9999 -9999 -9999 -9999 -9999 -9999 -9999 -9999 -9999 -9999 -9999 -9999 -9999 -9999 -9999 -9999 -9999 -9999 -9999 -9999 -9999 -9999 -9999 -9999 -9999 -9999 -9999 -9999 -9999 -9999 -9999 -9999 -9999 -9999 -9999 -9999 -9999 -9999 -9999 -9999 -9999 -9999 -9999 -9999 -9999 -9999 -9999 -9999 -9999 -9999 -9999 -9999 -9999 -9999 -9999 -9999 -9999 -9999 -9999 -9999 -9999 -9999 -9999 -9999 -9999 -9999 -9999 -9999 -9999 -9999 -9999 -9999 -9999 -9999 -9999 -9999 -9999 -9999 -9999 -9999 -9999 -9999 -9999 -9999 -9999 -9999 -9999 -9999 -9999 -9999 -9999 -9999 -9999 -9999 -9999 -9999 -9999 -9999 -9999 -9999 -9999 -9999 -9999 -9999 -9999 -9999 -9999 -9999 -9999 -9999 -9999 -9999 -9999 -9999 -9999 -9999 -9999 -9999 -9999 -9999 -9999 -9999 -9999 -9999 -9999 -9999 -9999 -9999 -9999 -9999 -9999 -9999 -9999 -9999 -9999 -9999 -9999 -9999 -9999 -9999 -9999 -9999 -9999 -9999 -9999 -9999 -9999 -9999 -9999 -9999 -9999 -9999 -9999 -9999 -9999 -9999 -9999 -9999 -9999 -9999 -9999 -9999 -9999 -9999 -9999 -9999 -9999 -9999 -9999 -9999 -9999 -9999 -9999 -9999 -9999 -9999 -9999 -9999 -9999 -9999 -9999 -9999 -9999 -9999 -9999 -9999 -9999 -9999 -9999 -9999 -9999 -9999 -9999 -9999 -9999 -9999 -9999 -9999 -9999 -9999 -9999 -9999 -9999 -9999 -9999 -9999 -9999 -9999 -9999 -9999 -9999 -9999 -9999 -9999 -9999 -9999 -9999 -9999 -9999 -9999 -9999 -9999 -9999 -9999 -9999 -9999 -9999 -9999 -9999 -9999 -9999 -9999 -9999 -9999 -9999 -9999 -9999 -9999 -9999 -9999 -9999 -9999 -9999 -9999 -9999 -9999 -9999 -9999 -9999 -9999 -9999 -9999 -9999 -9999 -9999 -9999 -9999 -9999 -9999 -9999 -9999 -9999 -9999 -9999 -9999 -9999 -9999 -9999 -9999 -9999 -9999 -9999 -9999 -9999 -9999 -9999 -9999 -9999 -9999 -9999 -9999 -9999 -9999 -9999 -9999 -9999 -9999 -9999 -9999 -9999 -9999 -9999 -9999 -9999 -9999 -9999 -9999 -9999 -9999 -9999 -9999 -9999 -9999 -9999 -9999 -9999 -9999 -9999 -9999 -9999 -9999 -9999 -9999 -9999 -9999 -9999 -9999 -9999 -9999 -9999 -9999 -9999 -9999 -9999 -9999 -9999 -9999 -9999 -9999 -9999 -9999 -9999 -9999 -9999 -9999 -9999 -9999 -9999 -9999 -9999 -9999 -9999 -9999 -9999 -9999 -9999 -9999 -9999 -9999 -9999 -9999 -9999 -9999 -9999 -9999 -9999 -9999 -9999 -9999 -9999 4.44983818770227 4.44983818770227 4.44983818770227 4.44983818770227 4.44983818770227 4.44983818770227 4.44983818770227 4.44983818770227 4.44983818770227 4.44983818770227 4.44983818770227 4.44983818770227 2.5830258302583 2.5830258302583 2.5830258302583 2.5830258302583 2.5830258302583 2.5830258302583 2.5830258302583 2.5830258302583 2.5830258302583 2.5830258302583 2.5830258302583 0 0 0 0 0 8.56164383561644 0 0 2.4390243902439 -9999 -9999 -9999 -9999 -9999 -9999 -9999 -9999 -9999 -9999 -9999
-9999 -9999 -9999 -9999 -9999 -9999 -9999 -9999 -9999 -9999 -9999 -9999 -9999 -9999 -9999 -9999 -9999 -9999 -9999 -9999 -9999 -9999 -9999 -9999 -9999 -9999 -9999 -9999 -9999 -9999 -9999 -9999 -9999 -9999 -9999 -9999 -9999 -9999 -9999 -9999 -9999 -9999 -9999 -9999 -9999 -9999 -9999 -9999 -9999 -9999 -9999 -9999 -9999 -9999 -9999 -9999 -9999 -9999 -9999 -9999 -9999 -9999 -9999 -9999 -9999 -9999 -9999 -9999 -9999 -9999 -9999 -9999 -9999 -9999 -9999 -9999 -9999 -9999 -9999 -9999 -9999 -9999 -9999 -9999 -9999 -9999 -9999 -9999 -9999 -9999 -9999 -9999 -9999 -9999 -9999 -9999 -9999 -9999 -9999 -9999 -9999 -9999 -9999 -9999 -9999 -9999 -9999 -9999 -9999 -9999 -9999 -9999 -9999 -9999 -9999 -9999 -9999 -9999 -9999 -9999 -9999 -9999 -9999 -9999 -9999 -9999 -9999 -9999 -9999 -9999 -9999 -9999 -9999 -9999 -9999 -9999 -9999 -9999 -9999 -9999 -9999 -9999 -9999 -9999 -9999 -9999 -9999 -9999 -9999 -9999 -9999 -9999 -9999 -9999 -9999 -9999 -9999 -9999 -9999 -9999 -9999 -9999 -9999 -9999 -9999 -9999 -9999 -9999 -9999 -9999 -9999 -9999 -9999 -9999 -9999 -9999 -9999 -9999 -9999 -9999 -9999 -9999 -9999 -9999 -9999 -9999 -9999 -9999 -9999 -9999 -9999 -9999 -9999 -9999 -9999 -9999 -9999 -9999 -9999 -9999 -9999 -9999 -9999 -9999 -9999 -9999 -9999 -9999 -9999 -9999 -9999 -9999 -9999 -9999 -9999 -9999 -9999 -9999 -9999 -9999 -9999 -9999 -9999 -9999 -9999 -9999 -9999 -9999 -9999 -9999 -9999 -9999 -9999 -9999 -9999 -9999 -9999 -9999 -9999 -9999 -9999 -9999 -9999 -9999 -9999 -9999 -9999 -9999 -9999 -9999 -9999 -9999 -9999 -9999 -9999 -9999 -9999 -9999 -9999 -9999 -9999 -9999 -9999 -9999 -9999 -9999 -9999 -9999 -9999 -9999 -9999 -9999 -9999 -9999 -9999 -9999 -9999 -9999 -9999 -9999 -9999 -9999 -9999 -9999 -9999 -9999 -9999 -9999 -9999 -9999 -9999 -9999 -9999 -9999 -9999 -9999 -9999 -9999 -9999 -9999 -9999 -9999 -9999 -9999 -9999 -9999 -9999 -9999 -9999 -9999 -9999 -9999 -9999 -9999 -9999 -9999 -9999 -9999 -9999 -9999 -9999 -9999 -9999 -9999 -9999 -9999 -9999 -9999 -9999 -9999 -9999 -9999 -9999 -9999 -9999 -9999 -9999 -9999 -9999 -9999 -9999 -9999 -9999 -9999 -9999 -9999 -9999 -9999 -9999 -9999 -9999 -9999 -9999 -9999 -9999 -9999 -9999 -9999 -9999 -9999 -9999 -9999 -9999 -9999 -9999 -9999 -9999 -9999 -9999 -9999 -9999 4.44983818770227 4.44983818770227 4.44983818770227 4.44983818770227 4.44983818770227 4.44983818770227 4.44983818770227 4.44983818770227 4.44983818770227 4.44983818770227 4.44983818770227 4.44983818770227 2.5830258302583 2.5830258302583 2.5830258302583 2.5830258302583 2.5830258302583 2.5830258302583 2.5830258302583 2.5830258302583 2.5830258302583 2.5830258302583 2.5830258302583 2.5830258302583 0 0 0 0 0 8.56164383561644 8.56164383561644 0 2.4390243902439 -9999 -9999 -9999 -9999 -9999 -9999 -9999 -9999 -9999 -9999 -9999
-9999 -9999 -9999 -9999 -9999 -9999 -9999 -9999 -9999 -9999 -9999 -9999 -9999 -9999 -9999 -9999 -9999 -9999 -9999 -9999 -9999 -9999 -9999 -9999 -9999 -9999 -9999 -9999 -9999 -9999 -9999 -9999 -9999 -9999 -9999 -9999 -9999 -9999 -9999 -9999 -9999 -9999 -9999 -9999 -9999 -9999 -9999 -9999 -9999 -9999 -9999 -9999 -9999 -9999 -9999 -9999 -9999 -9999 -9999 -9999 -9999 -9999 -9999 -9999 -9999 -9999 -9999 -9999 -9999 -9999 -9999 -9999 -9999 -9999 -9999 -9999 -9999 -9999 -9999 -9999 -9999 -9999 -9999 -9999 -9999 -9999 -9999 -9999 -9999 -9999 -9999 -9999 -9999 -9999 -9999 -9999 -9999 -9999 -9999 -9999 -9999 -9999 -9999 -9999 -9999 -9999 -9999 -9999 -9999 -9999 -9999 -9999 -9999 -9999 -9999 -9999 -9999 -9999 -9999 -9999 -9999 -9999 -9999 -9999 -9999 -9999 -9999 -9999 -9999 -9999 -9999 -9999 -9999 -9999 -9999 -9999 -9999 -9999 -9999 -9999 -9999 -9999 -9999 -9999 -9999 -9999 -9999 -9999 -9999 -9999 -9999 -9999 -9999 -9999 -9999 -9999 -9999 -9999 -9999 -9999 -9999 -9999 -9999 -9999 -9999 -9999 -9999 -9999 -9999 -9999 -9999 -9999 -9999 -9999 -9999 -9999 -9999 -9999 -9999 -9999 -9999 -9999 -9999 -9999 -9999 -9999 -9999 -9999 -9999 -9999 -9999 -9999 -9999 -9999 -9999 -9999 -9999 -9999 -9999 -9999 -9999 -9999 -9999 -9999 -9999 -9999 -9999 -9999 -9999 -9999 -9999 -9999 -9999 -9999 -9999 -9999 -9999 -9999 -9999 -9999 -9999 -9999 -9999 -9999 -9999 -9999 -9999 -9999 -9999 -9999 -9999 -9999 -9999 -9999 -9999 -9999 -9999 -9999 -9999 -9999 -9999 -9999 -9999 -9999 -9999 -9999 -9999 -9999 -9999 -9999 -9999 -9999 -9999 -9999 -9999 -9999 -9999 -9999 -9999 -9999 -9999 -9999 -9999 -9999 -9999 -9999 -9999 -9999 -9999 -9999 -9999 -9999 -9999 -9999 -9999 -9999 -9999 -9999 -9999 -9999 -9999 -9999 -9999 -9999 -9999 -9999 -9999 -9999 -9999 -9999 -9999 -9999 -9999 -9999 -9999 -9999 -9999 -9999 -9999 -9999 -9999 -9999 -9999 -9999 -9999 -9999 -9999 -9999 -9999 -9999 -9999 -9999 -9999 -9999 -9999 -9999 -9999 -9999 -9999 -9999 -9999 -9999 -9999 -9999 -9999 -9999 -9999 -9999 -9999 -9999 -9999 -9999 -9999 -9999 -9999 -9999 -9999 -9999 -9999 -9999 -9999 -9999 -9999 -9999 -9999 -9999 -9999 -9999 -9999 -9999 -9999 -9999 -9999 -9999 -9999 -9999 -9999 -9999 -9999 -9999 -9999 -9999 -9999 -9999 -9999 -9999 -9999 -9999 -9999 -9999 4.44983818770227 4.44983818770227 4.44983818770227 4.44983818770227 4.44983818770227 4.44983818770227 4.44983818770227 4.44983818770227 4.44983818770227 4.44983818770227 4.44983818770227 4.44983818770227 4.44983818770227 2.5830258302583 2.5830258302583 2.5830258302583 2.5830258302583 2.5830258302583 2.5830258302583 2.5830258302583 2.5830258302583 2.5830258302583 2.5830258302583 2.5830258302583 2.5830258302583 0 0 0 0 0 8.56164383561644 8.56164383561644 2.4390243902439 2.4390243902439 -9999 -9999 -9999 -9999 -9999 -9999 -9999 -9999 -9999 -9999 -9999
-9999 -9999 -9999 -9999 -9999 -9999 -9999 -9999 -9999 -9999 -9999 -9999 -9999 -9999 -9999 -9999 -9999 -9999 -9999 -9999 -9999 -9999 -9999 -9999 -9999 -9999 -9999 -9999 -9999 -9999 -9999 -9999 -9999 -9999 -9999 -9999 -9999 -9999 -9999 -9999 -9999 -9999 -9999 -9999 -9999 -9999 -9999 -9999 -9999 -9999 -9999 -9999 -9999 -9999 -9999 -9999 -9999 -9999 -9999 -9999 -9999 -9999 -9999 -9999 -9999 -9999 -9999 -9999 -9999 -9999 -9999 -9999 -9999 -9999 -9999 -9999 -9999 -9999 -9999 -9999 -9999 -9999 -9999 -9999 -9999 -9999 -9999 -9999 -9999 -9999 -9999 -9999 -9999 -9999 -9999 -9999 -9999 -9999 -9999 -9999 -9999 -9999 -9999 -9999 -9999 -9999 -9999 -9999 -9999 -9999 -9999 -9999 -9999 -9999 -9999 -9999 -9999 -9999 -9999 -9999 -9999 -9999 -9999 -9999 -9999 -9999 -9999 -9999 -9999 -9999 -9999 -9999 -9999 -9999 -9999 -9999 -9999 -9999 -9999 -9999 -9999 -9999 -9999 -9999 -9999 -9999 -9999 -9999 -9999 -9999 -9999 -9999 -9999 -9999 -9999 -9999 -9999 -9999 -9999 -9999 -9999 -9999 -9999 -9999 -9999 -9999 -9999 -9999 -9999 -9999 -9999 -9999 -9999 -9999 -9999 -9999 -9999 -9999 -9999 -9999 -9999 -9999 -9999 -9999 -9999 -9999 -9999 -9999 -9999 -9999 -9999 -9999 -9999 -9999 -9999 -9999 -9999 -9999 -9999 -9999 -9999 -9999 -9999 -9999 -9999 -9999 -9999 -9999 -9999 -9999 -9999 -9999 -9999 -9999 -9999 -9999 -9999 -9999 -9999 -9999 -9999 -9999 -9999 -9999 -9999 -9999 -9999 -9999 -9999 -9999 -9999 -9999 -9999 -9999 -9999 -9999 -9999 -9999 -9999 -9999 -9999 -9999 -9999 -9999 -9999 -9999 -9999 -9999 -9999 -9999 -9999 -9999 -9999 -9999 -9999 -9999 -9999 -9999 -9999 -9999 -9999 -9999 -9999 -9999 -9999 -9999 -9999 -9999 -9999 -9999 -9999 -9999 -9999 -9999 -9999 -9999 -9999 -9999 -9999 -9999 -9999 -9999 -9999 -9999 -9999 -9999 -9999 -9999 -9999 -9999 -9999 -9999 -9999 -9999 -9999 -9999 -9999 -9999 -9999 -9999 -9999 -9999 -9999 -9999 -9999 -9999 -9999 -9999 -9999 -9999 -9999 -9999 -9999 -9999 -9999 -9999 -9999 -9999 -9999 -9999 -9999 -9999 -9999 -9999 -9999 -9999 -9999 -9999 -9999 -9999 -9999 -9999 -9999 -9999 -9999 -9999 -9999 -9999 -9999 -9999 -9999 -9999 -9999 -9999 -9999 -9999 -9999 -9999 -9999 -9999 -9999 -9999 -9999 -9999 -9999 -9999 -9999 -9999 -9999 -9999 -9999 -9999 -9999 -9999 -9999 -9999 -9999 -9999 -9999 4.44983818770227 4.44983818770227 4.44983818770227 4.44983818770227 4.44983818770227 4.44983818770227 4.44983818770227 4.44983818770227 4.44983818770227 4.44983818770227 4.44983818770227 4.44983818770227 4.44983818770227 2.5830258302583 2.5830258302583 2.5830258302583 2.5830258302583 2.5830258302583 2.5830258302583 2.5830258302583 2.5830258302583 2.5830258302583 2.5830258302583 2.5830258302583 2.5830258302583 0 0 0 0 0 0 0 8.56164383561644 2.4390243902439 -9999 -9999 -9999 -9999 -9999 -9999 -9999 -9999 -9999 -9999 -9999 -9999
-9999 -9999 -9999 -9999 -9999 -9999 -9999 -9999 -9999 -9999 -9999 -9999 -9999 -9999 -9999 -9999 -9999 -9999 -9999 -9999 -9999 -9999 -9999 -9999 -9999 -9999 -9999 -9999 -9999 -9999 -9999 -9999 -9999 -9999 -9999 -9999 -9999 -9999 -9999 -9999 -9999 -9999 -9999 -9999 -9999 -9999 -9999 -9999 -9999 -9999 -9999 -9999 -9999 -9999 -9999 -9999 -9999 -9999 -9999 -9999 -9999 -9999 -9999 -9999 -9999 -9999 -9999 -9999 -9999 -9999 -9999 -9999 -9999 -9999 -9999 -9999 -9999 -9999 -9999 -9999 -9999 -9999 -9999 -9999 -9999 -9999 -9999 -9999 -9999 -9999 -9999 -9999 -9999 -9999 -9999 -9999 -9999 -9999 -9999 -9999 -9999 -9999 -9999 -9999 -9999 -9999 -9999 -9999 -9999 -9999 -9999 -9999 -9999 -9999 -9999 -9999 -9999 -9999 -9999 -9999 -9999 -9999 -9999 -9999 -9999 -9999 -9999 -9999 -9999 -9999 -9999 -9999 -9999 -9999 -9999 -9999 -9999 -9999 -9999 -9999 -9999 -9999 -9999 -9999 -9999 -9999 -9999 -9999 -9999 -9999 -9999 -9999 -9999 -9999 -9999 -9999 -9999 -9999 -9999 -9999 -9999 -9999 -9999 -9999 -9999 -9999 -9999 -9999 -9999 -9999 -9999 -9999 -9999 -9999 -9999 -9999 -9999 -9999 -9999 -9999 -9999 -9999 -9999 -9999 -9999 -9999 -9999 -9999 -9999 -9999 -9999 -9999 -9999 -9999 -9999 -9999 -9999 -9999 -9999 -9999 -9999 -9999 -9999 -9999 -9999 -9999 -9999 -9999 -9999 -9999 -9999 -9999 -9999 -9999 -9999 -9999 -9999 -9999 -9999 -9999 -9999 -9999 -9999 -9999 -9999 -9999 -9999 -9999 -9999 -9999 -9999 -9999 -9999 -9999 -9999 -9999 -9999 -9999 -9999 -9999 -9999 -9999 -9999 -9999 -9999 -9999 -9999 -9999 -9999 -9999 -9999 -9999 -9999 -9999 -9999 -9999 -9999 -9999 -9999 -9999 -9999 -9999 -9999 -9999 -9999 -9999 -9999 -9999 -9999 -9999 -9999 -9999 -9999 -9999 -9999 -9999 -9999 -9999 -9999 -9999 -9999 -9999 -9999 -9999 -9999 -9999 -9999 -9999 -9999 -9999 -9999 -9999 -9999 -9999 -9999 -9999 -9999 -9999 -9999 -9999 -9999 -9999 -9999 -9999 -9999 -9999 -9999 -9999 -9999 -9999 -9999 -9999 -9999 -9999 -9999 -9999 -9999 -9999 -9999 -9999 -9999 -9999 -9999 -9999 -9999 -9999 -9999 -9999 -9999 -9999 -9999 -9999 -9999 -9999 -9999 -9999 -9999 -9999 -9999 -9999 -9999 -9999 -9999 -9999 -9999 -9999 -9999 -9999 -9999 -9999 -9999 -9999 -9999 -9999 -9999 -9999 -9999 -9999 -9999 -9999 -9999 -9999 -9999 -9999 -9999 -9999 -9999 -9999 4.44983818770227 4.44983818770227 4.44983818770227 4.44983818770227 4.44983818770227 4.44983818770227 4.44983818770227 4.44983818770227 4.44983818770227 4.44983818770227 4.44983818770227 4.44983818770227 4.44983818770227 4.44983818770227 2.5830258302583 2.5830258302583 2.5830258302583 2.5830258302583 2.5830258302583 2.5830258302583 2.5830258302583 2.5830258302583 2.5830258302583 2.5830258302583 2.5830258302583 2.5830258302583 0 0 0 0 0 0 0 0 0 -9999 -9999 -9999 -9999 -9999 -9999 -9999 -9999 -9999 -9999 -9999 -9999
-9999 -9999 -9999 -9999 -9999 -9999 -9999 -9999 -9999 -9999 -9999 -9999 -9999 -9999 -9999 -9999 -9999 -9999 -9999 -9999 -9999 -9999 -9999 -9999 -9999 -9999 -9999 -9999 -9999 -9999 -9999 -9999 -9999 -9999 -9999 -9999 -9999 -9999 -9999 -9999 -9999 -9999 -9999 -9999 -9999 -9999 -9999 -9999 -9999 -9999 -9999 -9999 -9999 -9999 -9999 -9999 -9999 -9999 -9999 -9999 -9999 -9999 -9999 -9999 -9999 -9999 -9999 -9999 -9999 -9999 -9999 -9999 -9999 -9999 -9999 -9999 -9999 -9999 -9999 -9999 -9999 -9999 -9999 -9999 -9999 -9999 -9999 -9999 -9999 -9999 -9999 -9999 -9999 -9999 -9999 -9999 -9999 -9999 -9999 -9999 -9999 -9999 -9999 -9999 -9999 -9999 -9999 -9999 -9999 -9999 -9999 -9999 -9999 -9999 -9999 -9999 -9999 -9999 -9999 -9999 -9999 -9999 -9999 -9999 -9999 -9999 -9999 -9999 -9999 -9999 -9999 -9999 -9999 -9999 -9999 -9999 -9999 -9999 -9999 -9999 -9999 -9999 -9999 -9999 -9999 -9999 -9999 -9999 -9999 -9999 -9999 -9999 -9999 -9999 -9999 -9999 -9999 -9999 -9999 -9999 -9999 -9999 -9999 -9999 -9999 -9999 -9999 -9999 -9999 -9999 -9999 -9999 -9999 -9999 -9999 -9999 -9999 -9999 -9999 -9999 -9999 -9999 -9999 -9999 -9999 -9999 -9999 -9999 -9999 -9999 -9999 -9999 -9999 -9999 -9999 -9999 -9999 -9999 -9999 -9999 -9999 -9999 -9999 -9999 -9999 -9999 -9999 -9999 -9999 -9999 -9999 -9999 -9999 -9999 -9999 -9999 -9999 -9999 -9999 -9999 -9999 -9999 -9999 -9999 -9999 -9999 -9999 -9999 -9999 -9999 -9999 -9999 -9999 -9999 -9999 -9999 -9999 -9999 -9999 -9999 -9999 -9999 -9999 -9999 -9999 -9999 -9999 -9999 -9999 -9999 -9999 -9999 -9999 -9999 -9999 -9999 -9999 -9999 -9999 -9999 -9999 -9999 -9999 -9999 -9999 -9999 -9999 -9999 -9999 -9999 -9999 -9999 -9999 -9999 -9999 -9999 -9999 -9999 -9999 -9999 -9999 -9999 -9999 -9999 -9999 -9999 -9999 -9999 -9999 -9999 -9999 -9999 -9999 -9999 -9999 -9999 -9999 -9999 -9999 -9999 -9999 -9999 -9999 -9999 -9999 -9999 -9999 -9999 -9999 -9999 -9999 -9999 -9999 -9999 -9999 -9999 -9999 -9999 -9999 -9999 -9999 -9999 -9999 -9999 -9999 -9999 -9999 -9999 -9999 -9999 -9999 -9999 -9999 -9999 -9999 -9999 -9999 -9999 -9999 -9999 -9999 -9999 -9999 -9999 -9999 -9999 -9999 -9999 -9999 -9999 -9999 -9999 -9999 -9999 -9999 -9999 -9999 -9999 -9999 -9999 -9999 -9999 -9999 -9999 -9999 -9999 -9999 4.44983818770227 4.44983818770227 4.44983818770227 4.44983818770227 4.44983818770227 4.44983818770227 4.44983818770227 4.44983818770227 4.44983818770227 4.44983818770227 4.44983818770227 4.44983818770227 4.44983818770227 4.44983818770227 2.5830258302583 2.5830258302583 2.5830258302583 2.5830258302583 2.5830258302583 2.5830258302583 2.5830258302583 2.5830258302583 2.5830258302583 2.5830258302583 2.5830258302583 2.5830258302583 2.5830258302583 0 0 0 0 0 0 0 0 0 -9999 -9999 -9999 -9999 -9999 -9999 -9999 -9999 -9999 -9999 -9999 -9999
-9999 -9999 -9999 -9999 -9999 -9999 -9999 -9999 -9999 -9999 -9999 -9999 -9999 -9999 -9999 -9999 -9999 -9999 -9999 -9999 -9999 -9999 -9999 -9999 -9999 -9999 -9999 -9999 -9999 -9999 -9999 -9999 -9999 -9999 -9999 -9999 -9999 -9999 -9999 -9999 -9999 -9999 -9999 -9999 -9999 -9999 -9999 -9999 -9999 -9999 -9999 -9999 -9999 -9999 -9999 -9999 -9999 -9999 -9999 -9999 -9999 -9999 -9999 -9999 -9999 -9999 -9999 -9999 -9999 -9999 -9999 -9999 -9999 -9999 -9999 -9999 -9999 -9999 -9999 -9999 -9999 -9999 -9999 -9999 -9999 -9999 -9999 -9999 -9999 -9999 -9999 -9999 -9999 -9999 -9999 -9999 -9999 -9999 -9999 -9999 -9999 -9999 -9999 -9999 -9999 -9999 -9999 -9999 -9999 -9999 -9999 -9999 -9999 -9999 -9999 -9999 -9999 -9999 -9999 -9999 -9999 -9999 -9999 -9999 -9999 -9999 -9999 -9999 -9999 -9999 -9999 -9999 -9999 -9999 -9999 -9999 -9999 -9999 -9999 -9999 -9999 -9999 -9999 -9999 -9999 -9999 -9999 -9999 -9999 -9999 -9999 -9999 -9999 -9999 -9999 -9999 -9999 -9999 -9999 -9999 -9999 -9999 -9999 -9999 -9999 -9999 -9999 -9999 -9999 -9999 -9999 -9999 -9999 -9999 -9999 -9999 -9999 -9999 -9999 -9999 -9999 -9999 -9999 -9999 -9999 -9999 -9999 -9999 -9999 -9999 -9999 -9999 -9999 -9999 -9999 -9999 -9999 -9999 -9999 -9999 -9999 -9999 -9999 -9999 -9999 -9999 -9999 -9999 -9999 -9999 -9999 -9999 -9999 -9999 -9999 -9999 -9999 -9999 -9999 -9999 -9999 -9999 -9999 -9999 -9999 -9999 -9999 -9999 -9999 -9999 -9999 -9999 -9999 -9999 -9999 -9999 -9999 -9999 -9999 -9999 -9999 -9999 -9999 -9999 -9999 -9999 -9999 -9999 -9999 -9999 -9999 -9999 -9999 -9999 -9999 -9999 -9999 -9999 -9999 -9999 -9999 -9999 -9999 -9999 -9999 -9999 -9999 -9999 -9999 -9999 -9999 -9999 -9999 -9999 -9999 -9999 -9999 -9999 -9999 -9999 -9999 -9999 -9999 -9999 -9999 -9999 -9999 -9999 -9999 -9999 -9999 -9999 -9999 -9999 -9999 -9999 -9999 -9999 -9999 -9999 -9999 -9999 -9999 -9999 -9999 -9999 -9999 -9999 -9999 -9999 -9999 -9999 -9999 -9999 -9999 -9999 -9999 -9999 -9999 -9999 -9999 -9999 -9999 -9999 -9999 -9999 -9999 -9999 -9999 -9999 -9999 -9999 -9999 -9999 -9999 -9999 -9999 -9999 -9999 -9999 -9999 -9999 -9999 -9999 -9999 -9999 -9999 -9999 -9999 -9999 -9999 -9999 -9999 -9999 -9999 -9999 -9999 -9999 -9999 -9999 -9999 -9999 -9999 -9999 -9999 -9999 4.44983818770227 4.44983818770227 4.44983818770227 4.44983818770227 4.44983818770227 4.44983818770227 4.44983818770227 4.44983818770227 4.44983818770227 4.44983818770227 4.44983818770227 4.44983818770227 4.44983818770227 4.44983818770227 4.44983818770227 2.5830258302583 2.5830258302583 2.5830258302583 2.5830258302583 2.5830258302583 2.5830258302583 2.5830258302583 2.5830258302583 2.5830258302583 2.5830258302583 2.5830258302583 2.5830258302583 0 0 0 0 0 0 0 0 0 0 -9999 -9999 -9999 -9999 -9999 -9999 -9999 -9999 -9999 -9999 -9999 -9999
-9999 -9999 -9999 -9999 -9999 -9999 -9999 -9999 -9999 -9999 -9999 -9999 -9999 -9999 -9999 -9999 -9999 -9999 -9999 -9999 -9999 -9999 -9999 -9999 -9999 -9999 -9999 -9999 -9999 -9999 -9999 -9999 -9999 -9999 -9999 -9999 -9999 -9999 -9999 -9999 -9999 -9999 -9999 -9999 -9999 -9999 -9999 -9999 -9999 -9999 -9999 -9999 -9999 -9999 -9999 -9999 -9999 -9999 -9999 -9999 -9999 -9999 -9999 -9999 -9999 -9999 -9999 -9999 -9999 -9999 -9999 -9999 -9999 -9999 -9999 -9999 -9999 -9999 -9999 -9999 -9999 -9999 -9999 -9999 -9999 -9999 -9999 -9999 -9999 -9999 -9999 -9999 -9999 -9999 -9999 -9999 -9999 -9999 -9999 -9999 -9999 -9999 -9999 -9999 -9999 -9999 -9999 -9999 -9999 -9999 -9999 -9999 -9999 -9999 -9999 -9999 -9999 -9999 -9999 -9999 -9999 -9999 -9999 -9999 -9999 -9999 -9999 -9999 -9999 -9999 -9999 -9999 -9999 -9999 -9999 -9999 -9999 -9999 -9999 -9999 -9999 -9999 -9999 -9999 -9999 -9999 -9999 -9999 -9999 -9999 -9999 -9999 -9999 -9999 -9999 -9999 -9999 -9999 -9999 -9999 -9999 -9999 -9999 -9999 -9999 -9999 -9999 -9999 -9999 -9999 -9999 -9999 -9999 -9999 -9999 -9999 -9999 -9999 -9999 -9999 -9999 -9999 -9999 -9999 -9999 -9999 -9999 -9999 -9999 -9999 -9999 -9999 -9999 -9999 -9999 -9999 -9999 -9999 -9999 -9999 -9999 -9999 -9999 -9999 -9999 -9999 -9999 -9999 -9999 -9999 -9999 -9999 -9999 -9999 -9999 -9999 -9999 -9999 -9999 -9999 -9999 -9999 -9999 -9999 -9999 -9999 -9999 -9999 -9999 -9999 -9999 -9999 -9999 -9999 -9999 -9999 -9999 -9999 -9999 -9999 -9999 -9999 -9999 -9999 -9999 -9999 -9999 -9999 -9999 -9999 -9999 -9999 -9999 -9999 -9999 -9999 -9999 -9999 -9999 -9999 -9999 -9999 -9999 -9999 -9999 -9999 -9999 -9999 -9999 -9999 -9999 -9999 -9999 -9999 -9999 -9999 -9999 -9999 -9999 -9999 -9999 -9999 -9999 -9999 -9999 -9999 -9999 -9999 -9999 -9999 -9999 -9999 -9999 -9999 -9999 -9999 -9999 -9999 -9999 -9999 -9999 -9999 -9999 -9999 -9999 -9999 -9999 -9999 -9999 -9999 -9999 -9999 -9999 -9999 -9999 -9999 -9999 -9999 -9999 -9999 -9999 -9999 -9999 -9999 -9999 -9999 -9999 -9999 -9999 -9999 -9999 -9999 -9999 -9999 -9999 -9999 -9999 -9999 -9999 -9999 -9999 -9999 -9999 -9999 -9999 -9999 -9999 -9999 -9999 -9999 -9999 -9999 -9999 -9999 -9999 -9999 -9999 -9999 -9999 -9999 -9999 -9999 -9999 -9999 -9999 -9999 4.44983818770227 4.44983818770227 4.44983818770227 4.44983818770227 4.44983818770227 4.44983818770227 4.44983818770227 4.44983818770227 4.44983818770227 4.44983818770227 4.44983818770227 4.44983818770227 4.44983818770227 4.44983818770227 4.44983818770227 2.5830258302583 2.5830258302583 2.5830258302583 2.5830258302583 2.5830258302583 2.5830258302583 2.5830258302583 2.5830258302583 2.5830258302583 2.5830258302583 2.5830258302583 2.5830258302583 0 0 0 0 0 0 0 0 0 0 -9999 -9999 -9999 -9999 -9999 -9999 -9999 -9999 -9999 -9999 -9999 -9999
-9999 -9999 -9999 -9999 -9999 -9999 -9999 -9999 -9999 -9999 -9999 -9999 -9999 -9999 -9999 -9999 -9999 -9999 -9999 -9999 -9999 -9999 -9999 -9999 -9999 -9999 -9999 -9999 -9999 -9999 -9999 -9999 -9999 -9999 -9999 -9999 -9999 -9999 -9999 -9999 -9999 -9999 -9999 -9999 -9999 -9999 -9999 -9999 -9999 -9999 -9999 -9999 -9999 -9999 -9999 -9999 -9999 -9999 -9999 -9999 -9999 -9999 -9999 -9999 -9999 -9999 -9999 -9999 -9999 -9999 -9999 -9999 -9999 -9999 -9999 -9999 -9999 -9999 -9999 -9999 -9999 -9999 -9999 -9999 -9999 -9999 -9999 -9999 -9999 -9999 -9999 -9999 -9999 -9999 -9999 -9999 -9999 -9999 -9999 -9999 -9999 -9999 -9999 -9999 -9999 -9999 -9999 -9999 -9999 -9999 -9999 -9999 -9999 -9999 -9999 -9999 -9999 -9999 -9999 -9999 -9999 -9999 -9999 -9999 -9999 -9999 -9999 -9999 -9999 -9999 -9999 -9999 -9999 -9999 -9999 -9999 -9999 -9999 -9999 -9999 -9999 -9999 -9999 -9999 -9999 -9999 -9999 -9999 -9999 -9999 -9999 -9999 -9999 -9999 -9999 -9999 -9999 -9999 -9999 -9999 -9999 -9999 -9999 -9999 -9999 -9999 -9999 -9999 -9999 -9999 -9999 -9999 -9999 -9999 -9999 -9999 -9999 -9999 -9999 -9999 -9999 -9999 -9999 -9999 -9999 -9999 -9999 -9999 -9999 -9999 -9999 -9999 -9999 -9999 -9999 -9999 -9999 -9999 -9999 -9999 -9999 -9999 -9999 -9999 -9999 -9999 -9999 -9999 -9999 -9999 -9999 -9999 -9999 -9999 -9999 -9999 -9999 -9999 -9999 -9999 -9999 -9999 -9999 -9999 -9999 -9999 -9999 -9999 -9999 -9999 -9999 -9999 -9999 -9999 -9999 -9999 -9999 -9999 -9999 -9999 -9999 -9999 -9999 -9999 -9999 -9999 -9999 -9999 -9999 -9999 -9999 -9999 -9999 -9999 -9999 -9999 -9999 -9999 -9999 -9999 -9999 -9999 -9999 -9999 -9999 -9999 -9999 -9999 -9999 -9999 -9999 -9999 -9999 -9999 -9999 -9999 -9999 -9999 -9999 -9999 -9999 -9999 -9999 -9999 -9999 -9999 -9999 -9999 -9999 -9999 -9999 -9999 -9999 -9999 -9999 -9999 -9999 -9999 -9999 -9999 -9999 -9999 -9999 -9999 -9999 -9999 -9999 -9999 -9999 -9999 -9999 -9999 -9999 -9999 -9999 -9999 -9999 -9999 -9999 -9999 -9999 -9999 -9999 -9999 -9999 -9999 -9999 -9999 -9999 -9999 -9999 -9999 -9999 -9999 -9999 -9999 -9999 -9999 -9999 -9999 -9999 -9999 -9999 -9999 -9999 -9999 -9999 -9999 -9999 -9999 -9999 -9999 -9999 -9999 -9999 -9999 -9999 -9999 -9999 -9999 -9999 -9999 -9999 -9999 -9999 4.44983818770227 4.44983818770227 4.44983818770227 4.44983818770227 4.44983818770227 4.44983818770227 4.44983818770227 4.44983818770227 4.44983818770227 4.44983818770227 4.44983818770227 4.44983818770227 4.44983818770227 4.44983818770227 4.44983818770227 2.5830258302583 2.5830258302583 2.5830258302583 2.5830258302583 2.5830258302583 2.5830258302583 2.5830258302583 2.5830258302583 2.5830258302583 2.5830258302583 2.5830258302583 2.5830258302583 2.5830258302583 0 0 0 0 0 0 0 0 0 0 -9999 -9999 -9999 -9999 -9999 -9999 -9999 -9999 -9999 -9999 -9999 -9999
-9999 -9999 -9999 -9999 -9999 -9999 -9999 -9999 -9999 -9999 -9999 -9999 -9999 -9999 -9999 -9999 -9999 -9999 -9999 -9999 -9999 -9999 -9999 -9999 -9999 -9999 -9999 -9999 -9999 -9999 -9999 -9999 -9999 -9999 -9999 -9999 -9999 -9999 -9999 -9999 -9999 -9999 -9999 -9999 -9999 -9999 -9999 -9999 -9999 -9999 -9999 -9999 -9999 -9999 -9999 -9999 -9999 -9999 -9999 -9999 -9999 -9999 -9999 -9999 -9999 -9999 -9999 -9999 -9999 -9999 -9999 -9999 -9999 -9999 -9999 -9999 -9999 -9999 -9999 -9999 -9999 -9999 -9999 -9999 -9999 -9999 -9999 -9999 -9999 -9999 -9999 -9999 -9999 -9999 -9999 -9999 -9999 -9999 -9999 -9999 -9999 -9999 -9999 -9999 -9999 -9999 -9999 -9999 -9999 -9999 -9999 -9999 -9999 -9999 -9999 -9999 -9999 -9999 -9999 -9999 -9999 -9999 -9999 -9999 -9999 -9999 -9999 -9999 -9999 -9999 -9999 -9999 -9999 -9999 -9999 -9999 -9999 -9999 -9999 -9999 -9999 -9999 -9999 -9999 -9999 -9999 -9999 -9999 -9999 -9999 -9999 -9999 -9999 -9999 -9999 -9999 -9999 -9999 -9999 -9999 -9999 -9999 -9999 -9999 -9999 -9999 -9999 -9999 -9999 -9999 -9999 -9999 -9999 -9999 -9999 -9999 -9999 -9999 -9999 -9999 -9999 -9999 -9999 -9999 -9999 -9999 -9999 -9999 -9999 -9999 -9999 -9999 -9999 -9999 -9999 -9999 -9999 -9999 -9999 -9999 -9999 -9999 -9999 -9999 -9999 -9999 -9999 -9999 -9999 -9999 -9999 -9999 -9999 -9999 -9999 -9999 -9999 -9999 -9999 -9999 -9999 -9999 -9999 -9999 -9999 -9999 -9999 -9999 -9999 -9999 -9999 -9999 -9999 -9999 -9999 -9999 -9999 -9999 -9999 -9999 -9999 -9999 -9999 -9999 -9999 -9999 -9999 -9999 -9999 -9999 -9999 -9999 -9999 -9999 -9999 -9999 -9999 -9999 -9999 -9999 -9999 -9999 -9999 -9999 -9999 -9999 -9999 -9999 -9999 -9999 -9999 -9999 -9999 -9999 -9999 -9999 -9999 -9999 -9999 -9999 -9999 -9999 -9999 -9999 -9999 -9999 -9999 -9999 -9999 -9999 -9999 -9999 -9999 -9999 -9999 -9999 -9999 -9999 -9999 -9999 -9999 -9999 -9999 -9999 -9999 -9999 -9999 -9999 -9999 -9999 -9999 -9999 -9999 -9999 -9999 -9999 -9999 -9999 -9999 -9999 -9999 -9999 -9999 -9999 -9999 -9999 -9999 -9999 -9999 -9999 -9999 -9999 -9999 -9999 -9999 -9999 -9999 -9999 -9999 -9999 -9999 -9999 -9999 -9999 -9999 -9999 -9999 -9999 -9999 -9999 -9999 -9999 -9999 -9999 -9999 -9999 -9999 -9999 -9999 -9999 -9999 -9999 -9999 4.44983818770227 4.44983818770227 4.44983818770227 4.44983818770227 4.44983818770227 4.44983818770227 4.44983818770227 4.44983818770227 4.44983818770227 4.44983818770227 4.44983818770227 4.44983818770227 4.44983818770227 4.44983818770227 4.44983818770227 4.44983818770227 4.44983818770227 2.5830258302583 2.5830258302583 2.5830258302583 2.5830258302583 2.5830258302583 2.5830258302583 2.5830258302583 2.5830258302583 2.5830258302583 2.5830258302583 2.5830258302583 2.5830258302583 0 0 3.1055900621118 3.1055900621118 0 0 0 0 0 0 0 -9999 -9999 -9999 -9999 -9999 -9999 -9999 -9999 -9999 -9999 -9999 -9999
-9999 -9999 -9999 -9999 -9999 -9999 -9999 -9999 -9999 -9999 -9999 -9999 -9999 -9999 -9999 -9999 -9999 -9999 -9999 -9999 -9999 -9999 -9999 -9999 -9999 -9999 -9999 -9999 -9999 -9999 -9999 -9999 -9999 -9999 -9999 -9999 -9999 -9999 -9999 -9999 -9999 -9999 -9999 -9999 -9999 -9999 -9999 -9999 -9999 -9999 -9999 -9999 -9999 -9999 -9999 -9999 -9999 -9999 -9999 -9999 -9999 -9999 -9999 -9999 -9999 -9999 -9999 -9999 -9999 -9999 -9999 -9999 -9999 -9999 -9999 -9999 -9999 -9999 -9999 -9999 -9999 -9999 -9999 -9999 -9999 -9999 -9999 -9999 -9999 -9999 -9999 -9999 -9999 -9999 -9999 -9999 -9999 -9999 -9999 -9999 -9999 -9999 -9999 -9999 -9999 -9999 -9999 -9999 -9999 -9999 -9999 -9999 -9999 -9999 -9999 -9999 -9999 -9999 -9999 -9999 -9999 -9999 -9999 -9999 -9999 -9999 -9999 -9999 -9999 -9999 -9999 -9999 -9999 -9999 -9999 -9999 -9999 -9999 -9999 -9999 -9999 -9999 -9999 -9999 -9999 -9999 -9999 -9999 -9999 -9999 -9999 -9999 -9999 -9999 -9999 -9999 -9999 -9999 -9999 -9999 -9999 -9999 -9999 -9999 -9999 -9999 -9999 -9999 -9999 -9999 -9999 -9999 -9999 -9999 -9999 -9999 -9999 -9999 -9999 -9999 -9999 -9999 -9999 -9999 -9999 -9999 -9999 -9999 -9999 -9999 -9999 -9999 -9999 -9999 -9999 -9999 -9999 -9999 -9999 -9999 -9999 -9999 -9999 -9999 -9999 -9999 -9999 -9999 -9999 -9999 -9999 -9999 -9999 -9999 -9999 -9999 -9999 -9999 -9999 -9999 -9999 -9999 -9999 -9999 -9999 -9999 -9999 -9999 -9999 -9999 -9999 -9999 -9999 -9999 -9999 -9999 -9999 -9999 -9999 -9999 -9999 -9999 -9999 -9999 -9999 -9999 -9999 -9999 -9999 -9999 -9999 -9999 -9999 -9999 -9999 -9999 -9999 -9999 -9999 -9999 -9999 -9999 -9999 -9999 -9999 -9999 -9999 -9999 -9999 -9999 -9999 -9999 -9999 -9999 -9999 -9999 -9999 -9999 -9999 -9999 -9999 -9999 -9999 -9999 -9999 -9999 -9999 -9999 -9999 -9999 -9999 -9999 -9999 -9999 -9999 -9999 -9999 -9999 -9999 -9999 -9999 -9999 -9999 -9999 -9999 -9999 -9999 -9999 -9999 -9999 -9999 -9999 -9999 -9999 -9999 -9999 -9999 -9999 -9999 -9999 -9999 -9999 -9999 -9999 -9999 -9999 -9999 -9999 -9999 -9999 -9999 -9999 -9999 -9999 -9999 -9999 -9999 -9999 -9999 -9999 -9999 -9999 -9999 -9999 -9999 -9999 -9999 -9999 -9999 -9999 -9999 -9999 -9999 -9999 -9999 -9999 -9999 -9999 -9999 -9999 -9999 4.44983818770227 4.44983818770227 4.44983818770227 4.44983818770227 4.44983818770227 4.44983818770227 4.44983818770227 4.44983818770227 4.44983818770227 4.44983818770227 4.44983818770227 4.44983818770227 4.44983818770227 4.44983818770227 4.44983818770227 4.44983818770227 4.44983818770227 4.44983818770227 2.5830258302583 2.5830258302583 2.5830258302583 2.5830258302583 2.5830258302583 2.5830258302583 2.5830258302583 2.5830258302583 2.5830258302583 4.92957746478873 4.92957746478873 4.92957746478873 4.92957746478873 0 0 3.1055900621118 3.1055900621118 3.1055900621118 10.2249488752556 10.2249488752556 0 0 0 -9999 -9999 -9999 -9999 -9999 -9999 -9999 -9999 -9999 -9999 -9999 -9999 -9999
-9999 -9999 -9999 -9999 -9999 -9999 -9999 -9999 -9999 -9999 -9999 -9999 -9999 -9999 -9999 -9999 -9999 -9999 -9999 -9999 -9999 -9999 -9999 -9999 -9999 -9999 -9999 -9999 -9999 -9999 -9999 -9999 -9999 -9999 -9999 -9999 -9999 -9999 -9999 -9999 -9999 -9999 -9999 -9999 -9999 -9999 -9999 -9999 -9999 -9999 -9999 -9999 -9999 -9999 -9999 -9999 -9999 -9999 -9999 -9999 -9999 -9999 -9999 -9999 -9999 -9999 -9999 -9999 -9999 -9999 -9999 -9999 -9999 -9999 -9999 -9999 -9999 -9999 -9999 -9999 -9999 -9999 -9999 -9999 -9999 -9999 -9999 -9999 -9999 -9999 -9999 -9999 -9999 -9999 -9999 -9999 -9999 -9999 -9999 -9999 -9999 -9999 -9999 -9999 -9999 -9999 -9999 -9999 -9999 -9999 -9999 -9999 -9999 -9999 -9999 -9999 -9999 -9999 -9999 -9999 -9999 -9999 -9999 -9999 -9999 -9999 -9999 -9999 -9999 -9999 -9999 -9999 -9999 -9999 -9999 -9999 -9999 -9999 -9999 -9999 -9999 -9999 -9999 -9999 -9999 -9999 -9999 -9999 -9999 -9999 -9999 -9999 -9999 -9999 -9999 -9999 -9999 -9999 -9999 -9999 -9999 -9999 -9999 -9999 -9999 -9999 -9999 -9999 -9999 -9999 -9999 -9999 -9999 -9999 -9999 -9999 -9999 -9999 -9999 -9999 -9999 -9999 -9999 -9999 -9999 -9999 -9999 -9999 -9999 -9999 -9999 -9999 -9999 -9999 -9999 -9999 -9999 -9999 -9999 -9999 -9999 -9999 -9999 -9999 -9999 -9999 -9999 -9999 -9999 -9999 -9999 -9999 -9999 -9999 -9999 -9999 -9999 -9999 -9999 -9999 -9999 -9999 -9999 -9999 -9999 -9999 -9999 -9999 -9999 -9999 -9999 -9999 -9999 -9999 -9999 -9999 -9999 -9999 -9999 -9999 -9999 -9999 -9999 -9999 -9999 -9999 -9999 -9999 -9999 -9999 -9999 -9999 -9999 -9999 -9999 -9999 -9999 -9999 -9999 -9999 -9999 -9999 -9999 -9999 -9999 -9999 -9999 -9999 -9999 -9999 -9999 -9999 -9999 -9999 -9999 -9999 -9999 -9999 -9999 -9999 -9999 -9999 -9999 -9999 -9999 -9999 -9999 -9999 -9999 -9999 -9999 -9999 -9999 -9999 -9999 -9999 -9999 -9999 -9999 -9999 -9999 -9999 -9999 -9999 -9999 -9999 -9999 -9999 -9999 -9999 -9999 -9999 -9999 -9999 -9999 -9999 -9999 -9999 -9999 -9999 -9999 -9999 -9999 -9999 -9999 -9999 -9999 -9999 -9999 -9999 -9999 -9999 -9999 -9999 -9999 -9999 -9999 -9999 -9999 -9999 -9999 -9999 -9999 -9999 -9999 -9999 -9999 -9999 -9999 -9999 -9999 -9999 -9999 -9999 -9999 -9999 -9999 -9999 -9999 -9999 4.44983818770227 4.44983818770227 4.44983818770227 4.44983818770227 4.44983818770227 4.44983818770227 4.44983818770227 4.44983818770227 4.44983818770227 4.44983818770227 4.44983818770227 4.44983818770227 4.44983818770227 4.44983818770227 4.44983818770227 4.44983818770227 4.44983818770227 4.44983818770227 4.44983818770227 2.5830258302583 2.5830258302583 2.5830258302583 2.5830258302583 4.92957746478873 4.92957746478873 4.92957746478873 4.92957746478873 4.92957746478873 4.92957746478873 4.92957746478873 4.92957746478873 4.92957746478873 0 0 3.1055900621118 3.1055900621118 10.2249488752556 10.2249488752556 10.2249488752556 0 0 0 -9999 -9999 -9999 -9999 -9999 -9999 -9999 -9999 -9999 -9999 -9999 -9999 -9999
-9999 -9999 -9999 -9999 -9999 -9999 -9999 -9999 -9999 -9999 -9999 -9999 -9999 -9999 -9999 -9999 -9999 -9999 -9999 -9999 -9999 -9999 -9999 -9999 -9999 -9999 -9999 -9999 -9999 -9999 -9999 -9999 -9999 -9999 -9999 -9999 -9999 -9999 -9999 -9999 -9999 -9999 -9999 -9999 -9999 -9999 -9999 -9999 -9999 -9999 -9999 -9999 -9999 -9999 -9999 -9999 -9999 -9999 -9999 -9999 -9999 -9999 -9999 -9999 -9999 -9999 -9999 -9999 -9999 -9999 -9999 -9999 -9999 -9999 -9999 -9999 -9999 -9999 -9999 -9999 -9999 -9999 -9999 -9999 -9999 -9999 -9999 -9999 -9999 -9999 -9999 -9999 -9999 -9999 -9999 -9999 -9999 -9999 -9999 -9999 -9999 -9999 -9999 -9999 -9999 -9999 -9999 -9999 -9999 -9999 -9999 -9999 -9999 -9999 -9999 -9999 -9999 -9999 -9999 -9999 -9999 -9999 -9999 -9999 -9999 -9999 -9999 -9999 -9999 -9999 -9999 -9999 -9999 -9999 -9999 -9999 -9999 -9999 -9999 -9999 -9999 -9999 -9999 -9999 -9999 -9999 -9999 -9999 -9999 -9999 -9999 -9999 -9999 -9999 -9999 -9999 -9999 -9999 -9999 -9999 -9999 -9999 -9999 -9999 -9999 -9999 -9999 -9999 -9999 -9999 -9999 -9999 -9999 -9999 -9999 -9999 -9999 -9999 -9999 -9999 -9999 -9999 -9999 -9999 -9999 -9999 -9999 -9999 -9999 -9999 -9999 -9999 -9999 -9999 -9999 -9999 -9999 -9999 -9999 -9999 -9999 -9999 -9999 -9999 -9999 -9999 -9999 -9999 -9999 -9999 -9999 -9999 -9999 -9999 -9999 -9999 -9999 -9999 -9999 -9999 -9999 -9999 -9999 -9999 -9999 -9999 -9999 -9999 -9999 -9999 -9999 -9999 -9999 -9999 -9999 -9999 -9999 -9999 -9999 -9999 -9999 -9999 -9999 -9999 -9999 -9999 -9999 -9999 -9999 -9999 -9999 -9999 -9999 -9999 -9999 -9999 -9999 -9999 -9999 -9999 -9999 -9999 -9999 -9999 -9999 -9999 -9999 -9999 -9999 -9999 -9999 -9999 -9999 -9999 -9999 -9999 -9999 -9999 -9999 -9999 -9999 -9999 -9999 -9999 -9999 -9999 -9999 -9999 -9999 -9999 -9999 -9999 -9999 -9999 -9999 -9999 -9999 -9999 -9999 -9999 -9999 -9999 -9999 -9999 -9999 -9999 -9999 -9999 -9999 -9999 -9999 -9999 -9999 -9999 -9999 -9999 -9999 -9999 -9999 -9999 -9999 -9999 -9999 -9999 -9999 -9999 -9999 -9999 -9999 -9999 -9999 -9999 -9999 -9999 -9999 -9999 -9999 -9999 -9999 -9999 -9999 -9999 -9999 -9999 -9999 -9999 -9999 -9999 -9999 -9999 -9999 -9999 -9999 -9999 -9999 -9999 -9999 -9999 4.44983818770227 0 4.44983818770227 4.44983818770227 4.44983818770227 4.44983818770227 4.44983818770227 4.44983818770227 4.44983818770227 4.44983818770227 4.44983818770227 4.44983818770227 4.44983818770227 4.44983818770227 4.44983818770227 4.44983818770227 4.44983818770227 4.44983818770227 4.44983818770227 4.44983818770227 4.44983818770227 4.92957746478873 4.92957746478873 4.92957746478873 4.92957746478873 4.92957746478873 4.92957746478873 4.92957746478873 4.92957746478873 -9999 -9999 -9999 4.92957746478873 5.92885375494071 5.92885375494071 3.1055900621118 3.1055900621118 3.1055900621118 10.2249488752556 10.2249488752556 0 0 0 0 -9999 -9999 -9999 -9999 -9999 -9999 -9999 -9999 -9999 -9999 -9999 -9999 -9999
-9999 -9999 -9999 -9999 -9999 -9999 -9999 -9999 -9999 -9999 -9999 -9999 -9999 -9999 -9999 -9999 -9999 -9999 -9999 -9999 -9999 -9999 -9999 -9999 -9999 -9999 -9999 -9999 -9999 -9999 -9999 -9999 -9999 -9999 -9999 -9999 -9999 -9999 -9999 -9999 -9999 -9999 -9999 -9999 -9999 -9999 -9999 -9999 -9999 -9999 -9999 -9999 -9999 -9999 -9999 -9999 -9999 -9999 -9999 -9999 -9999 -9999 -9999 -9999 -9999 -9999 -9999 -9999 -9999 -9999 -9999 -9999 -9999 -9999 -9999 -9999 -9999 -9999 -9999 -9999 -9999 -9999 -9999 -9999 -9999 -9999 -9999 -9999 -9999 -9999 -9999 -9999 -9999 -9999 -9999 -9999 -9999 -9999 -9999 -9999 -9999 -9999 -9999 -9999 -9999 -9999 -9999 -9999 -9999 -9999 -9999 -9999 -9999 -9999 -9999 -9999 -9999 -9999 -9999 -9999 -9999 -9999 -9999 -9999 -9999 -9999 -9999 -9999 -9999 -9999 -9999 -9999 -9999 -9999 -9999 -9999 -9999 -9999 -9999 -9999 -9999 -9999 -9999 -9999 -9999 -9999 -9999 -9999 -9999 -9999 -9999 -9999 -9999 -9999 -9999 -9999 -9999 -9999 -9999 -9999 -9999 -9999 -9999 -9999 -9999 -9999 -9999 -9999 -9999 -9999 -9999 -9999 -9999 -9999 -9999 -9999 -9999 -9999 -9999 -9999 -9999 -9999 -9999 -9999 -9999 -9999 -9999 -9999 -9999 -9999 -9999 -9999 -9999 -9999 -9999 -9999 -9999 -9999 -9999 -9999 -9999 -9999 -9999 -9999 -9999 -9999 -9999 -9999 -9999 -9999 -9999 -9999 -9999 -9999 -9999 -9999 -9999 -9999 -9999 -9999 -9999 -9999 -9999 -9999 -9999 -9999 -9999 -9999 -9999 -9999 -9999 -9999 -9999 -9999 -9999 -9999 -9999 -9999 -9999 -9999 -9999 -9999 -9999 -9999 -9999 -9999 -9999 -9999 -9999 -9999 -9999 -9999 -9999 -9999 -9999 -9999 -9999 -9999 -9999 -9999 -9999 -9999 -9999 -9999 -9999 -9999 -9999 -9999 -9999 -9999 -9999 -9999 -9999 -9999 -9999 -9999 -9999 -9999 -9999 -9999 -9999 -9999 -9999 -9999 -9999 -9999 -9999 -9999 -9999 -9999 -9999 -9999 -9999 -9999 -9999 -9999 -9999 -9999 -9999 -9999 -9999 -9999 -9999 -9999 -9999 -9999 -9999 -9999 -9999 -9999 -9999 -9999 -9999 -9999 -9999 -9999 -9999 -9999 -9999 -9999 -9999 -9999 -9999 -9999 -9999 -9999 -9999 -9999 -9999 -9999 -9999 -9999 -9999 -9999 -9999 -9999 -9999 -9999 -9999 -9999 -9999 -9999 -9999 -9999 -9999 -9999 -9999 -9999 -9999 -9999 -9999 -9999 4.44983818770227 0 0 0 0 0 0 0 0 0 0 4.44983818770227 4.44983818770227 4.44983818770227 4.44983818770227 4.44983818770227 4.44983818770227 4.44983818770227 4.44983818770227 4.44983818770227 4.44983818770227 4.44983818770227 4.44983818770227 4.44983818770227 4.44983818770227 4.44983818770227 4.44983818770227 4.92957746478873 4.92957746478873 4.92957746478873 4.92957746478873 4.92957746478873 4.92957746478873 4.92957746478873 4.92957746478873 -9999 -9999 -9999 -9999 5.92885375494071 5.92885375494071 5.92885375494071 5.92885375494071 5.92885375494071 8.62068965517241 8.62068965517241 2.5 0 2.5 0 -9999 -9999 -9999 -9999 -9999 -9999 -9999 -9999 -9999 -9999 -9999 -9999 -9999
-9999 -9999 -9999 -9999 -9999 -9999 -9999 -9999 -9999 -9999 -9999 -9999 -9999 -9999 -9999 -9999 -9999 -9999 -9999 -9999 -9999 -9999 -9999 -9999 -9999 -9999 -9999 -9999 -9999 -9999 -9999 -9999 -9999 -9999 -9999 -9999 -9999 -9999 -9999 -9999 -9999 -9999 -9999 -9999 -9999 -9999 -9999 -9999 -9999 -9999 -9999 -9999 -9999 -9999 -9999 -9999 -9999 -9999 -9999 -9999 -9999 -9999 -9999 -9999 -9999 -9999 -9999 -9999 -9999 -9999 -9999 -9999 -9999 -9999 -9999 -9999 -9999 -9999 -9999 -9999 -9999 -9999 -9999 -9999 -9999 -9999 -9999 -9999 -9999 -9999 -9999 -9999 -9999 -9999 -9999 -9999 -9999 -9999 -9999 -9999 -9999 -9999 -9999 -9999 -9999 -9999 -9999 -9999 -9999 -9999 -9999 -9999 -9999 -9999 -9999 -9999 -9999 -9999 -9999 -9999 -9999 -9999 -9999 -9999 -9999 -9999 -9999 -9999 -9999 -9999 -9999 -9999 -9999 -9999 -9999 -9999 -9999 -9999 -9999 -9999 -9999 -9999 -9999 -9999 -9999 -9999 -9999 -9999 -9999 -9999 -9999 -9999 -9999 -9999 -9999 -9999 -9999 -9999 -9999 -9999 -9999 -9999 -9999 -9999 -9999 -9999 -9999 -9999 -9999 -9999 -9999 -9999 -9999 -9999 -9999 -9999 -9999 -9999 -9999 -9999 -9999 -9999 -9999 -9999 -9999 -9999 -9999 -9999 -9999 -9999 -9999 -9999 -9999 -9999 -9999 -9999 -9999 -9999 -9999 -9999 -9999 -9999 -9999 -9999 -9999 -9999 -9999 -9999 -9999 -9999 -9999 -9999 -9999 -9999 -9999 -9999 -9999 -9999 -9999 -9999 -9999 -9999 -9999 -9999 -9999 -9999 -9999 -9999 -9999 -9999 -9999 -9999 -9999 -9999 -9999 -9999 -9999 -9999 -9999 -9999 -9999 -9999 -9999 -9999 -9999 -9999 -9999 -9999 -9999 -9999 -9999 -9999 -9999 -9999 -9999 -9999 -9999 -9999 -9999 -9999 -9999 -9999 -9999 -9999 -9999 -9999 -9999 -9999 -9999 -9999 -9999 -9999 -9999 -9999 -9999 -9999 -9999 -9999 -9999 -9999 -9999 -9999 -9999 -9999 -9999 -9999 -9999 -9999 -9999 -9999 -9999 -9999 -9999 -9999 -9999 -9999 -9999 -9999 -9999 -9999 -9999 -9999 -9999 -9999 -9999 -9999 -9999 -9999 -9999 -9999 -9999 -9999 -9999 -9999 -9999 -9999 -9999 -9999 -9999 -9999 -9999 -9999 -9999 -9999 -9999 -9999 -9999 -9999 -9999 -9999 -9999 -9999 -9999 -9999 -9999 -9999 -9999 -9999 -9999 -9999 -9999 -9999 -9999 -9999 -9999 -9999 -9999 -9999 -9999 -9999 -9999 8.28729281767956 8.28729281767956 8.28729281767956 0 0 0 0 0 0 0 0 0 0 4.44983818770227 4.44983818770227 4.44983818770227 4.44983818770227 4.44983818770227 4.44983818770227 4.44983818770227 4.44983818770227 4.44983818770227 4.44983818770227 4.44983818770227 4.44983818770227 4.44983818770227 4.44983818770227 4.44983818770227 4.92957746478873 4.92957746478873 4.92957746478873 4.92957746478873 4.92957746478873 4.92957746478873 4.92957746478873 4.92957746478873 0 0 0 0 5.92885375494071 5.92885375494071 15.9774436090226 5.92885375494071 8.62068965517241 8.62068965517241 8.62068965517241 2.5 2.5 2.5 2.5 -9999 -9999 -9999 -9999 -9999 -9999 -9999 -9999 -9999 -9999 -9999 -9999 -9999
-9999 -9999 -9999 -9999 -9999 -9999 -9999 -9999 -9999 -9999 -9999 -9999 -9999 -9999 -9999 -9999 -9999 -9999 -9999 -9999 -9999 -9999 -9999 -9999 -9999 -9999 -9999 -9999 -9999 -9999 -9999 -9999 -9999 -9999 -9999 -9999 -9999 -9999 -9999 -9999 -9999 -9999 -9999 -9999 -9999 -9999 -9999 -9999 -9999 -9999 -9999 -9999 -9999 -9999 -9999 -9999 -9999 -9999 -9999 -9999 -9999 -9999 -9999 -9999 -9999 -9999 -9999 -9999 -9999 -9999 -9999 -9999 -9999 -9999 -9999 -9999 -9999 -9999 -9999 -9999 -9999 -9999 -9999 -9999 -9999 -9999 -9999 -9999 -9999 -9999 -9999 -9999 -9999 -9999 -9999 -9999 -9999 -9999 -9999 -9999 -9999 -9999 -9999 -9999 -9999 -9999 -9999 -9999 -9999 -9999 -9999 -9999 -9999 -9999 -9999 -9999 -9999 -9999 -9999 -9999 -9999 -9999 -9999 -9999 -9999 -9999 -9999 -9999 -9999 -9999 -9999 -9999 -9999 -9999 -9999 -9999 -9999 -9999 -9999 -9999 -9999 -9999 -9999 -9999 -9999 -9999 -9999 -9999 -9999 -9999 -9999 -9999 -9999 -9999 -9999 -9999 -9999 -9999 -9999 -9999 -9999 -9999 -9999 -9999 -9999 -9999 -9999 -9999 -9999 -9999 -9999 -9999 -9999 -9999 -9999 -9999 -9999 -9999 -9999 -9999 -9999 -9999 -9999 -9999 -9999 -9999 -9999 -9999 -9999 -9999 -9999 -9999 -9999 -9999 -9999 -9999 -9999 -9999 -9999 -9999 -9999 -9999 -9999 -9999 -9999 -9999 -9999 -9999 -9999 -9999 -9999 -9999 -9999 -9999 -9999 -9999 -9999 -9999 -9999 -9999 -9999 -9999 -9999 -9999 -9999 -9999 -9999 -9999 -9999 -9999 -9999 -9999 -9999 -9999 -9999 -9999 -9999 -9999 -9999 -9999 -9999 -9999 -9999 -9999 -9999 -9999 -9999 -9999 -9999 -9999 -9999 -9999 -9999 -9999 -9999 -9999 -9999 -9999 -9999 -9999 -9999 -9999 -9999 -9999 -9999 -9999 -9999 -9999 -9999 -9999 -9999 -9999 -9999 -9999 -9999 -9999 -9999 -9999 -9999 -9999 -9999 -9999 -9999 -9999 -9999 -9999 -9999 -9999 -9999 -9999 -9999 -9999 -9999 -9999 -9999 -9999 -9999 -9999 -9999 -9999 -9999 -9999 -9999 -9999 -9999 -9999 -9999 -9999 -9999 -9999 -9999 -9999 -9999 -9999 -9999 -9999 -9999 -9999 -9999 -9999 -9999 -9999 -9999 -9999 -9999 -9999 -9999 -9999 -9999 -9999 -9999 -9999 -9999 -9999 -9999 -9999 -9999 -9999 -9999 -9999 -9999 -9999 -9999 -9999 -9999 -9999 -9999 -9999 -9999 -9999 4.44983818770227 8.28729281767956 8.28729281767956 8.28729281767956 5.95947556615018 0 0 0 0 0 0 0 0 0 4.44983818770227 4.44983818770227 4.44983818770227 4.44983818770227 4.44983818770227 4.44983818770227 4.44983818770227 4.44983818770227 4.44983818770227 4.44983818770227 4.44983818770227 4.44983818770227 4.44983818770227 4.44983818770227 4.44983818770227 4.92957746478873 4.92957746478873 4.92957746478873 4.92957746478873 4.92957746478873 4.92957746478873 4.92957746478873 0 0 0 0 0 15.9774436090226 0 15.9774436090226 15.9774436090226 3.75375375375375 3.75375375375375 8.62068965517241 2.5 2.5 2.5 2.5 -9999 -9999 -9999 -9999 -9999 -9999 -9999 -9999 -9999 -9999 -9999 -9999 -9999
-9999 -9999 -9999 -9999 -9999 -9999 -9999 -9999 -9999 -9999 -9999 -9999 -9999 -9999 -9999 -9999 -9999 -9999 -9999 -9999 -9999 -9999 -9999 -9999 -9999 -9999 -9999 -9999 -9999 -9999 -9999 -9999 -9999 -9999 -9999 -9999 -9999 -9999 -9999 -9999 -9999 -9999 -9999 -9999 -9999 -9999 -9999 -9999 -9999 -9999 -9999 -9999 -9999 -9999 -9999 -9999 -9999 -9999 -9999 -9999 -9999 -9999 -9999 -9999 -9999 -9999 -9999 -9999 -9999 -9999 -9999 -9999 -9999 -9999 -9999 -9999 -9999 -9999 -9999 -9999 -9999 -9999 -9999 -9999 -9999 -9999 -9999 -9999 -9999 -9999 -9999 -9999 -9999 -9999 -9999 -9999 -9999 -9999 -9999 -9999 -9999 -9999 -9999 -9999 -9999 -9999 -9999 -9999 -9999 -9999 -9999 -9999 -9999 -9999 -9999 -9999 -9999 -9999 -9999 -9999 -9999 -9999 -9999 -9999 -9999 -9999 -9999 -9999 -9999 -9999 -9999 -9999 -9999 -9999 -9999 -9999 -9999 -9999 -9999 -9999 -9999 -9999 -9999 -9999 -9999 -9999 -9999 -9999 -9999 -9999 -9999 -9999 -9999 -9999 -9999 -9999 -9999 -9999 -9999 -9999 -9999 -9999 -9999 -9999 -9999 -9999 -9999 -9999 -9999 -9999 -9999 -9999 -9999 -9999 -9999 -9999 -9999 -9999 -9999 -9999 -9999 -9999 -9999 -9999 -9999 -9999 -9999 -9999 -9999 -9999 -9999 -9999 -9999 -9999 -9999 -9999 -9999 -9999 -9999 -9999 -9999 -9999 -9999 -9999 -9999 -9999 -9999 -9999 -9999 -9999 -9999 -9999 -9999 -9999 -9999 -9999 -9999 -9999 -9999 -9999 -9999 -9999 -9999 -9999 -9999 -9999 -9999 -9999 -9999 -9999 -9999 -9999 -9999 -9999 -9999 -9999 -9999 -9999 -9999 -9999 -9999 -9999 -9999 -9999 -9999 -9999 -9999 -9999 -9999 -9999 -9999 -9999 -9999 -9999 -9999 -9999 -9999 -9999 -9999 -9999 -9999 -9999 -9999 -9999 -9999 -9999 -9999 -9999 -9999 -9999 -9999 -9999 -9999 -9999 -9999 -9999 -9999 -9999 -9999 -9999 -9999 -9999 -9999 -9999 -9999 -9999 -9999 -9999 -9999 -9999 -9999 -9999 -9999 -9999 -9999 -9999 -9999 -9999 -9999 -9999 -9999 -9999 -9999 -9999 -9999 -9999 -9999 -9999 -9999 -9999 -9999 -9999 -9999 -9999 -9999 -9999 -9999 -9999 -9999 -9999 -9999 -9999 -9999 -9999 -9999 -9999 -9999 -9999 -9999 -9999 -9999 -9999 -9999 -9999 -9999 -9999 -9999 -9999 -9999 -9999 -9999 -9999 -9999 -9999 -9999 -9999 -9999 -9999 4.44983818770227 4.44983818770227 8.28729281767956 8.28729281767956 5.95947556615018 5.95947556615018 5.95947556615018 5.95947556615018 0 0 0 0 0 0 0 0 4.44983818770227 4.44983818770227 4.44983818770227 4.44983818770227 4.44983818770227 4.44983818770227 4.44983818770227 4.44983818770227 4.44983818770227 4.44983818770227 4.44983818770227 4.44983818770227 4.44983818770227 4.44983818770227 4.44983818770227 5.08130081300813 4.92957746478873 4.92957746478873 4.92957746478873 4.92957746478873 4.92957746478873 4.92957746478873 0 0 0 0 12.6705653021442 12.6705653021442 0 0 0 3.75375375375375 3.75375375375375 3.75375375375375 3.75375375375375 2.5 2.5 2.5 -9999 -9999 -9999 -9999 -9999 -9999 -9999 -9999 -9999 -9999 -9999 -9999 -9999
-9999 -9999 -9999 -9999 -9999 -9999 -9999 -9999 -9999 -9999 -9999 -9999 -9999 -9999 -9999 -9999 -9999 -9999 -9999 -9999 -9999 -9999 -9999 -9999 -9999 -9999 -9999 -9999 -9999 -9999 -9999 -9999 -9999 -9999 -9999 -9999 -9999 -9999 -9999 -9999 -9999 -9999 -9999 -9999 -9999 -9999 -9999 -9999 -9999 -9999 -9999 -9999 -9999 -9999 -9999 -9999 -9999 -9999 -9999 -9999 -9999 -9999 -9999 -9999 -9999 -9999 -9999 -9999 -9999 -9999 -9999 -9999 -9999 -9999 -9999 -9999 -9999 -9999 -9999 -9999 -9999 -9999 -9999 -9999 -9999 -9999 -9999 -9999 -9999 -9999 -9999 -9999 -9999 -9999 -9999 -9999 -9999 -9999 -9999 -9999 -9999 -9999 -9999 -9999 -9999 -9999 -9999 -9999 -9999 -9999 -9999 -9999 -9999 -9999 -9999 -9999 -9999 -9999 -9999 -9999 -9999 -9999 -9999 -9999 -9999 -9999 -9999 -9999 -9999 -9999 -9999 -9999 -9999 -9999 -9999 -9999 -9999 -9999 -9999 -9999 -9999 -9999 -9999 -9999 -9999 -9999 -9999 -9999 -9999 -9999 -9999 -9999 -9999 -9999 -9999 -9999 -9999 -9999 -9999 -9999 -9999 -9999 -9999 -9999 -9999 -9999 -9999 -9999 -9999 -9999 -9999 -9999 -9999 -9999 -9999 -9999 -9999 -9999 -9999 -9999 -9999 -9999 -9999 -9999 -9999 -9999 -9999 -9999 -9999 -9999 -9999 -9999 -9999 -9999 -9999 -9999 -9999 -9999 -9999 -9999 -9999 -9999 -9999 -9999 -9999 -9999 -9999 -9999 -9999 -9999 -9999 -9999 -9999 -9999 -9999 -9999 -9999 -9999 -9999 -9999 -9999 -9999 -9999 -9999 -9999 -9999 -9999 -9999 -9999 -9999 -9999 -9999 -9999 -9999 -9999 -9999 -9999 -9999 -9999 -9999 -9999 -9999 -9999 -9999 -9999 -9999 -9999 -9999 -9999 -9999 -9999 -9999 -9999 -9999 -9999 -9999 -9999 -9999 -9999 -9999 -9999 -9999 -9999 -9999 -9999 -9999 -9999 -9999 -9999 -9999 -9999 -9999 -9999 -9999 -9999 -9999 -9999 -9999 -9999 -9999 -9999 -9999 -9999 -9999 -9999 -9999 -9999 -9999 -9999 -9999 -9999 -9999 -9999 -9999 -9999 -9999 -9999 -9999 -9999 -9999 -9999 -9999 -9999 -9999 -9999 -9999 -9999 -9999 -9999 -9999 -9999 -9999 -9999 -9999 -9999 -9999 -9999 -9999 -9999 -9999 -9999 -9999 -9999 -9999 -9999 -9999 -9999 -9999 -9999 -9999 -9999 -9999 -9999 -9999 -9999 -9999 -9999 -9999 -9999 -9999 -9999 -9999 -9999 -9999 -9999 -9999 -9999 11.011011011011 11.011011011011 4.44983818770227 4.44983818770227 5.95947556615018 5.95947556615018 5.95947556615018 5.95947556615018 5.95947556615018 0 0 0 0 0 0 0 0 0 4.44983818770227 4.44983818770227 4.44983818770227 4.44983818770227 4.44983818770227 4.44983818770227 4.44983818770227 4.44983818770227 4.44983818770227 4.44983818770227 4.44983818770227 4.44983818770227 4.44983818770227 4.44983818770227 5.08130081300813 5.08130081300813 4.92957746478873 4.92957746478873 5.08130081300813 5.08130081300813 4.92957746478873 0 0 0 0 12.6705653021442 12.6705653021442 0 0 0 0 0 0 3.75375375375375 0 2.5 2.5 -9999 -9999 -9999 -9999 -9999 -9999 -9999 -9999 -9999 -9999 -9999 -9999 -9999
-9999 -9999 -9999 -9999 -9999 -9999 -9999 -9999 -9999 -9999 -9999 -9999 -9999 -9999 -9999 -9999 -9999 -9999 -9999 -9999 -9999 -9999 -9999 -9999 -9999 -9999 -9999 -9999 -9999 -9999 -9999 -9999 -9999 -9999 -9999 -9999 -9999 -9999 -9999 -9999 -9999 -9999 -9999 -9999 -9999 -9999 -9999 -9999 -9999 -9999 -9999 -9999 -9999 -9999 -9999 -9999 -9999 -9999 -9999 -9999 -9999 -9999 -9999 -9999 -9999 -9999 -9999 -9999 -9999 -9999 -9999 -9999 -9999 -9999 -9999 -9999 -9999 -9999 -9999 -9999 -9999 -9999 -9999 -9999 -9999 -9999 -9999 -9999 -9999 -9999 -9999 -9999 -9999 -9999 -9999 -9999 -9999 -9999 -9999 -9999 -9999 -9999 -9999 -9999 -9999 -9999 -9999 -9999 -9999 -9999 -9999 -9999 -9999 -9999 -9999 -9999 -9999 -9999 -9999 -9999 -9999 -9999 -9999 -9999 -9999 -9999 -9999 -9999 -9999 -9999 -9999 -9999 -9999 -9999 -9999 -9999 -9999 -9999 -9999 -9999 -9999 -9999 -9999 -9999 -9999 -9999 -9999 -9999 -9999 -9999 -9999 -9999 -9999 -9999 -9999 -9999 -9999 -9999 -9999 -9999 -9999 -9999 -9999 -9999 -9999 -9999 -9999 -9999 -9999 -9999 -9999 -9999 -9999 -9999 -9999 -9999 -9999 -9999 -9999 -9999 -9999 -9999 -9999 -9999 -9999 -9999 -9999 -9999 -9999 -9999 -9999 -9999 -9999 -9999 -9999 -9999 -9999 -9999 -9999 -9999 -9999 -9999 -9999 -9999 -9999 -9999 -9999 -9999 -9999 -9999 -9999 -9999 -9999 -9999 -9999 -9999 -9999 -9999 -9999 -9999 -9999 -9999 -9999 -9999 -9999 -9999 -9999 -9999 -9999 -9999 -9999 -9999 -9999 -9999 -9999 -9999 -9999 -9999 -9999 -9999 -9999 -9999 -9999 -9999 -9999 -9999 -9999 -9999 -9999 -9999 -9999 -9999 -9999 -9999 -9999 -9999 -9999 -9999 -9999 -9999 -9999 -9999 -9999 -9999 -9999 -9999 -9999 -9999 -9999 -9999 -9999 -9999 -9999 -9999 -9999 -9999 -9999 -9999 -9999 -9999 -9999 -9999 -9999 -9999 -9999 -9999 -9999 -9999 -9999 -9999 -9999 -9999 -9999 -9999 -9999 -9999 -9999 -9999 -9999 -9999 -9999 -9999 -9999 -9999 -9999 -9999 -9999 -9999 -9999 -9999 -9999 -9999 -9999 -9999 -9999 -9999 -9999 -9999 -9999 -9999 -9999 -9999 -9999 -9999 -9999 -9999 -9999 -9999 -9999 -9999 -9999 -9999 -9999 -9999 -9999 -9999 -9999 -9999 -9999 -9999 -9999 -9999 -9999 -9999 -9999 11.011011011011 11.011011011011 11.011011011011 4.44983818770227 4.44983818770227 6.83279742765273 6.83279742765273 5.95947556615018 5.95947556615018 5.95947556615018 5.95947556615018 5.95947556615018 0 0 0 0 0 0 0 0 0 0 4.44983818770227 4.44983818770227 4.44983818770227 4.44983818770227 4.44983818770227 4.44983818770227 4.44983818770227 4.44983818770227 4.44983818770227 4.44983818770227 4.44983818770227 4.44983818770227 5.08130081300813 5.08130081300813 5.08130081300813 5.08130081300813 5.08130081300813 5.08130081300813 8.73362445414847 8.73362445414847 8.73362445414847 8.73362445414847 5.91016548463357 5.91016548463357 0 0 0 18.6246418338109 0 0 0 0 0 2.5 2.5 -9999 -9999 -9999 -9999 -9999 -9999 -9999 -9999 -9999 -9999 -9999 -9999 -9999
-9999 -9999 -9999 -9999 -9999 -9999 -9999 -9999 -9999 -9999 -9999 -9999 -9999 -9999 -9999 -9999 -9999 -9999 -9999 -9999 -9999 -9999 -9999 -9999 -9999 -9999 -9999 -9999 -9999 -9999 -9999 -9999 -9999 -9999 -9999 -9999 -9999 -9999 -9999 -9999 -9999 -9999 -9999 -9999 -9999 -9999 -9999 -9999 -9999 -9999 -9999 -9999 -9999 -9999 -9999 -9999 -9999 -9999 -9999 -9999 -9999 -9999 -9999 -9999 -9999 -9999 -9999 -9999 -9999 -9999 -9999 -9999 -9999 -9999 -9999 -9999 -9999 -9999 -9999 -9999 -9999 -9999 -9999 -9999 -9999 -9999 -9999 -9999 -9999 -9999 -9999 -9999 -9999 -9999 -9999 -9999 -9999 -9999 -9999 -9999 -9999 -9999 -9999 -9999 -9999 -9999 -9999 -9999 -9999 -9999 -9999 -9999 -9999 -9999 -9999 -9999 -9999 -9999 -9999 -9999 -9999 -9999 -9999 -9999 -9999 -9999 -9999 -9999 -9999 -9999 -9999 -9999 -9999 -9999 -9999 -9999 -9999 -9999 -9999 -9999 -9999 -9999 -9999 -9999 -9999 -9999 -9999 -9999 -9999 -9999 -9999 -9999 -9999 -9999 -9999 -9999 -9999 -9999 -9999 -9999 -9999 -9999 -9999 -9999 -9999 -9999 -9999 -9999 -9999 -9999 -9999 -9999 -9999 -9999 -9999 -9999 -9999 -9999 -9999 -9999 -9999 -9999 -9999 -9999 -9999 -9999 -9999 -9999 -9999 -9999 -9999 -9999 -9999 -9999 -9999 -9999 -9999 -9999 -9999 -9999 -9999 -9999 -9999 -9999 -9999 -9999 -9999 -9999 -9999 -9999 -9999 -9999 -9999 -9999 -9999 -9999 -9999 -9999 -9999 -9999 -9999 -9999 -9999 -9999 -9999 -9999 -9999 -9999 -9999 -9999 -9999 -9999 -9999 -9999 -9999 -9999 -9999 -9999 -9999 -9999 -9999 -9999 -9999 -9999 -9999 -9999 -9999 -9999 -9999 -9999 -9999 -9999 -9999 -9999 -9999 -9999 -9999 -9999 -9999 -9999 -9999 -9999 -9999 -9999 -9999 -9999 -9999 -9999 -9999 -9999 -9999 -9999 -9999 -9999 -9999 -9999 -9999 -9999 -9999 -9999 -9999 -9999 -9999 -9999 -9999 -9999 -9999 -9999 -9999 -9999 -9999 -9999 -9999 -9999 -9999 -9999 -9999 -9999 -9999 -9999 -9999 -9999 -9999 -9999 -9999 -9999 -9999 -9999 -9999 -9999 -9999 -9999 -9999 -9999 -9999 -9999 -9999 -9999 -9999 -9999 -9999 -9999 -9999 -9999 -9999 -9999 -9999 -9999 -9999 -9999 -9999 -9999 -9999 -9999 -9999 -9999 -9999 -9999 -9999 -9999 -9999 -9999 -9999 16.1676646706587 16.1676646706587 11.011011011011 11.011011011011 11.011011011011 6.83279742765273 6.83279742765273 6.83279742765273 10.4761904761905 6.83279742765273 21.9298245614035 21.9298245614035 5.95947556615018 5.95947556615018 5.95947556615018 0 0 0 0 0 0 0 0 6.83279742765273 4.44983818770227 4.44983818770227 4.44983818770227 4.44983818770227 4.44983818770227 4.44983818770227 4.44983818770227 4.44983818770227 4.44983818770227 4.44983818770227 4.44983818770227 4.44983818770227 4.44983818770227 5.08130081300813 5.08130081300813 5.08130081300813 5.08130081300813 8.73362445414847 8.73362445414847 8.73362445414847 8.73362445414847 8.73362445414847 4.91159135559921 5.91016548463357 5.91016548463357 5.91016548463357 5.91016548463357 18.6246418338109 18.6246418338109 18.6246418338109 0 0 9.40860215053763 0 0 -9999 -9999 -9999 -9999 -9999 -9999 -9999 -9999 -9999 -9999 -9999 -9999 -9999
-9999 -9999 -9999 -9999 -9999 -9999 -9999 -9999 -9999 -9999 -9999 -9999 -9999 -9999 -9999 -9999 -9999 -9999 -9999 -9999 -9999 -9999 -9999 -9999 -9999 -9999 -9999 -9999 -9999 -9999 -9999 -9999 -9999 -9999 -9999 -9999 -9999 -9999 -9999 -9999 -9999 -9999 -9999 -9999 -9999 -9999 -9999 -9999 -9999 -9999 -9999 -9999 -9999 -9999 -9999 -9999 -9999 -9999 -9999 -9999 -9999 -9999 -9999 -9999 -9999 -9999 -9999 -9999 -9999 -9999 -9999 -9999 -9999 -9999 -9999 -9999 -9999 -9999 -9999 -9999 -9999 -9999 -9999 -9999 -9999 -9999 -9999 -9999 -9999 -9999 -9999 -9999 -9999 -9999 -9999 -9999 -9999 -9999 -9999 -9999 -9999 -9999 -9999 -9999 -9999 -9999 -9999 -9999 -9999 -9999 -9999 -9999 -9999 -9999 -9999 -9999 -9999 -9999 -9999 -9999 -9999 -9999 -9999 -9999 -9999 -9999 -9999 -9999 -9999 -9999 -9999 -9999 -9999 -9999 -9999 -9999 -9999 -9999 -9999 -9999 -9999 -9999 -9999 -9999 -9999 -9999 -9999 -9999 -9999 -9999 -9999 -9999 -9999 -9999 -9999 -9999 -9999 -9999 -9999 -9999 -9999 -9999 -9999 -9999 -9999 -9999 -9999 -9999 -9999 -9999 -9999 -9999 -9999 -9999 -9999 -9999 -9999 -9999 -9999 -9999 -9999 -9999 -9999 -9999 -9999 -9999 -9999 -9999 -9999 -9999 -9999 -9999 -9999 -9999 -9999 -9999 -9999 -9999 -9999 -9999 -9999 -9999 -9999 -9999 -9999 -9999 -9999 -9999 -9999 -9999 -9999 -9999 -9999 -9999 -9999 -9999 -9999 -9999 -9999 -9999 -9999 -9999 -9999 -9999 -9999 -9999 -9999 -9999 -9999 -9999 -9999 -9999 -9999 -9999 -9999 -9999 -9999 -9999 -9999 -9999 -9999 -9999 -9999 -9999 -9999 -9999 -9999 -9999 -9999 -9999 -9999 -9999 -9999 -9999 -9999 -9999 -9999 -9999 -9999 -9999 -9999 -9999 -9999 -9999 -9999 -9999 -9999 -9999 -9999 -9999 -9999 -9999 -9999 -9999 -9999 -9999 -9999 -9999 -9999 -9999 -9999 -9999 -9999 -9999 -9999 -9999 -9999 -9999 -9999 -9999 -9999 -9999 -9999 -9999 -9999 -9999 -9999 -9999 -9999 -9999 -9999 -9999 -9999 -9999 -9999 -9999 -9999 -9999 -9999 -9999 -9999 -9999 -9999 -9999 -9999 -9999 -9999 -9999 -9999 -9999 -9999 -9999 -9999 -9999 -9999 -9999 -9999 -9999 -9999 -9999 -9999 -9999 -9999 -9999 -9999 -9999 -9999 -9999 -9999 -9999 -9999 16.1676646706587 16.1676646706587 16.1676646706587 16.1676646706587 11.011011011011 11.011011011011 11.011011011011 11.011011011011 10.4761904761905 10.4761904761905 10.4761904761905 10.4761904761905 6.83279742765273 21.9298245614035 5.95947556615018 5.95947556615018 5.95947556615018 0 0 0 0 0 0 6.83279742765273 6.83279742765273 6.83279742765273 4.44983818770227 4.44983818770227 4.44983818770227 4.44983818770227 4.44983818770227 4.44983818770227 4.44983818770227 4.44983818770227 4.44983818770227 4.44983818770227 4.44983818770227 4.44983818770227 4.44983818770227 5.08130081300813 5.08130081300813 5.08130081300813 8.73362445414847 8.73362445414847 8.73362445414847 8.73362445414847 8.73362445414847 8.73362445414847 4.91159135559921 4.91159135559921 4.91159135559921 4.91159135559921 20.3836930455636 20.3836930455636 20.3836930455636 20.3836930455636 20.3836930455636 20.3836930455636 9.40860215053763 0 0 0 -9999 -9999 -9999 -9999 -9999 -9999 -9999 -9999 -9999 -9999 -9999 -9999
-9999 -9999 -9999 -9999 -9999 -9999 -9999 -9999 -9999 -9999 -9999 -9999 -9999 -9999 -9999 -9999 -9999 -9999 -9999 -9999 -9999 -9999 -9999 -9999 -9999 -9999 -9999 -9999 -9999 -9999 -9999 -9999 -9999 -9999 -9999 -9999 -9999 -9999 -9999 -9999 -9999 -9999 -9999 -9999 -9999 -9999 -9999 -9999 -9999 -9999 -9999 -9999 -9999 -9999 -9999 -9999 -9999 -9999 -9999 -9999 -9999 -9999 -9999 -9999 -9999 -9999 -9999 -9999 -9999 -9999 -9999 -9999 -9999 -9999 -9999 -9999 -9999 -9999 -9999 -9999 -9999 -9999 -9999 -9999 -9999 -9999 -9999 -9999 -9999 -9999 -9999 -9999 -9999 -9999 -9999 -9999 -9999 -9999 -9999 -9999 -9999 -9999 -9999 -9999 -9999 -9999 -9999 -9999 -9999 -9999 -9999 -9999 -9999 -9999 -9999 -9999 -9999 -9999 -9999 -9999 -9999 -9999 -9999 -9999 -9999 -9999 -9999 -9999 -9999 -9999 -9999 -9999 -9999 -9999 -9999 -9999 -9999 -9999 -9999 -9999 -9999 -9999 -9999 -9999 -9999 -9999 -9999 -9999 -9999 -9999 -9999 -9999 -9999 -9999 -9999 -9999 -9999 -9999 -9999 -9999 -9999 -9999 -9999 -9999 -9999 -9999 -9999 -9999 -9999 -9999 -9999 -9999 -9999 -9999 -9999 -9999 -9999 -9999 -9999 -9999 -9999 -9999 -9999 -9999 -9999 -9999 -9999 -9999 -9999 -9999 -9999 -9999 -9999 -9999 -9999 -9999 -9999 -9999 -9999 -9999 -9999 -9999 -9999 -9999 -9999 -9999 -9999 -9999 -9999 -9999 -9999 -9999 -9999 -9999 -9999 -9999 -9999 -9999 -9999 -9999 -9999 -9999 -9999 -9999 -9999 -9999 -9999 -9999 -9999 -9999 -9999 -9999 -9999 -9999 -9999 -9999 -9999 -9999 -9999 -9999 -9999 -9999 -9999 -9999 -9999 -9999 -9999 -9999 -9999 -9999 -9999 -9999 -9999 -9999 -9999 -9999 -9999 -9999 -9999 -9999 -9999 -9999 -9999 -9999 -9999 -9999 -9999 -9999 -9999 -9999 -9999 -9999 -9999 -9999 -9999 -9999 -9999 -9999 -9999 -9999 -9999 -9999 -9999 -9999 -9999 -9999 -9999 -9999 -9999 -9999 -9999 -9999 -9999 -9999 -9999 -9999 -9999 -9999 -9999 -9999 -9999 -9999 -9999 -9999 -9999 -9999 -9999 -9999 -9999 -9999 -9999 -9999 -9999 -9999 -9999 -9999 -9999 -9999 -9999 -9999 -9999 -9999 -9999 -9999 -9999 -9999 -9999 -9999 -9999 -9999 -9999 -9999 -9999 -9999 -9999 -9999 16.1676646706587 16.1676646706587 16.1676646706587 16.1676646706587 16.1676646706587 16.1676646706587 16.1676646706587 16.1676646706587 16.1676646706587 13.4741442097597 11.011011011011 11.011011011011 11.3636363636364 11.3636363636364 10.4761904761905 6.83279742765273 6.83279742765273 6.83279742765273 21.9298245614035 5.95947556615018 5.95947556615018 5.95947556615018 5.95947556615018 0 0 0 6.83279742765273 6.83279742765273 6.83279742765273 6.83279742765273 6.83279742765273 6.83279742765273 4.44983818770227 4.44983818770227 4.44983818770227 4.44983818770227 4.44983818770227 4.44983818770227 4.44983818770227 4.44983818770227 4.44983818770227 4.44983818770227 4.44983818770227 5.34045393858478 5.08130081300813 5.34045393858478 5.34045393858478 8.73362445414847 8.73362445414847 8.73362445414847 8.73362445414847 8.73362445414847 4.91159135559921 4.91159135559921 4.91159135559921 4.91159135559921 4.91159135559921 9.40860215053763 9.40860215053763 9.40860215053763 9.40860215053763 9.40860215053763 9.40860215053763 9.40860215053763 0 0 0 -9999 -9999 -9999 -9999 -9999 -9999 -9999 -9999 -9999 -9999 -9999 -9999
-9999 -9999 -9999 -9999 -9999 -9999 -9999 -9999 -9999 -9999 -9999 -9999 -9999 -9999 -9999 -9999 -9999 -9999 -9999 -9999 -9999 -9999 -9999 -9999 -9999 -9999 -9999 -9999 -9999 -9999 -9999 -9999 -9999 -9999 -9999 -9999 -9999 -9999 -9999 -9999 -9999 -9999 -9999 -9999 -9999 -9999 -9999 -9999 -9999 -9999 -9999 -9999 -9999 -9999 -9999 -9999 -9999 -9999 -9999 -9999 -9999 -9999 -9999 -9999 -9999 -9999 -9999 -9999 -9999 -9999 -9999 -9999 -9999 -9999 -9999 -9999 -9999 -9999 -9999 -9999 -9999 -9999 -9999 -9999 -9999 -9999 -9999 -9999 -9999 -9999 -9999 -9999 -9999 -9999 -9999 -9999 -9999 -9999 -9999 -9999 -9999 -9999 -9999 -9999 -9999 -9999 -9999 -9999 -9999 -9999 -9999 -9999 -9999 -9999 -9999 -9999 -9999 -9999 -9999 -9999 -9999 -9999 -9999 -9999 -9999 -9999 -9999 -9999 -9999 -9999 -9999 -9999 -9999 -9999 -9999 -9999 -9999 -9999 -9999 -9999 -9999 -9999 -9999 -9999 -9999 -9999 -9999 -9999 -9999 -9999 -9999 -9999 -9999 -9999 -9999 -9999 -9999 -9999 -9999 -9999 -9999 -9999 -9999 -9999 -9999 -9999 -9999 -9999 -9999 -9999 -9999 -9999 -9999 -9999 -9999 -9999 -9999 -9999 -9999 -9999 -9999 -9999 -9999 -9999 -9999 -9999 -9999 -9999 -9999 -9999 -9999 -9999 -9999 -9999 -9999 -9999 -9999 -9999 -9999 -9999 -9999 -9999 -9999 -9999 -9999 -9999 -9999 -9999 -9999 -9999 -9999 -9999 -9999 -9999 -9999 -9999 -9999 -9999 -9999 -9999 -9999 -9999 -9999 -9999 -9999 -9999 -9999 -9999 -9999 -9999 -9999 -9999 -9999 -9999 -9999 -9999 -9999 -9999 -9999 -9999 -9999 -9999 -9999 -9999 -9999 -9999 -9999 -9999 -9999 -9999 -9999 -9999 -9999 -9999 -9999 -9999 -9999 -9999 -9999 -9999 -9999 -9999 -9999 -9999 -9999 -9999 -9999 -9999 -9999 -9999 -9999 -9999 -9999 -9999 -9999 -9999 -9999 -9999 -9999 -9999 -9999 -9999 -9999 -9999 -9999 -9999 -9999 -9999 -9999 -9999 -9999 -9999 -9999 -9999 -9999 -9999 -9999 -9999 -9999 -9999 -9999 -9999 -9999 -9999 -9999 -9999 -9999 -9999 -9999 -9999 -9999 -9999 -9999 -9999 -9999 -9999 -9999 -9999 -9999 -9999 -9999 -9999 -9999 -9999 -9999 -9999 -9999 -9999 -9999 -9999 -9999 -9999 -9999 -9999 16.3447251114413 16.3447251114413 16.1676646706587 16.1676646706587 16.1676646706587 16.1676646706587 21.9546742209632 16.1676646706587 16.1676646706587 13.4741442097597 13.4741442097597 13.4741442097597 13.4741442097597 12.20703125 11.3636363636364 11.3636363636364 11.3636363636364 6.83279742765273 6.83279742765273 6.83279742765273 6.83279742765273 5.95947556615018 5.95947556615018 5.95947556615018 5.95947556615018 5.95947556615018 0 6.83279742765273 6.83279742765273 6.83279742765273 6.83279742765273 6.83279742765273 6.83279742765273 6.83279742765273 6.83279742765273 4.44983818770227 4.44983818770227 4.44983818770227 4.44983818770227 4.44983818770227 4.44983818770227 4.44983818770227 4.44983818770227 5.34045393858478 5.34045393858478 5.34045393858478 5.34045393858478 5.34045393858478 5.34045393858478 8.73362445414847 8.73362445414847 5.34045393858478 8.73362445414847 8.73362445414847 0 0 4.91159135559921 0 0 9.40860215053763 9.40860215053763 9.40860215053763 9.40860215053763 9.40860215053763 9.40860215053763 9.40860215053763 9.40860215053763 0 0 -9999 -9999 -9999 -9999 -9999 -9999 -9999 -9999 -9999 -9999 -9999 -9999
-9999 -9999 -9999 -9999 -9999 -9999 -9999 -9999 -9999 -9999 -9999 -9999 -9999 -9999 -9999 -9999 -9999 -9999 -9999 -9999 -9999 -9999 -9999 -9999 -9999 -9999 -9999 -9999 -9999 -9999 -9999 -9999 -9999 -9999 -9999 -9999 -9999 -9999 -9999 -9999 -9999 -9999 -9999 -9999 -9999 -9999 -9999 -9999 -9999 -9999 -9999 -9999 -9999 -9999 -9999 -9999 -9999 -9999 -9999 -9999 -9999 -9999 -9999 -9999 -9999 -9999 -9999 -9999 -9999 -9999 -9999 -9999 -9999 -9999 -9999 -9999 -9999 -9999 -9999 -9999 -9999 -9999 -9999 -9999 -9999 -9999 -9999 -9999 -9999 -9999 -9999 -9999 -9999 -9999 -9999 -9999 -9999 -9999 -9999 -9999 -9999 -9999 -9999 -9999 -9999 -9999 -9999 -9999 -9999 -9999 -9999 -9999 -9999 -9999 -9999 -9999 -9999 -9999 -9999 -9999 -9999 -9999 -9999 -9999 -9999 -9999 -9999 -9999 -9999 -9999 -9999 -9999 -9999 -9999 -9999 -9999 -9999 -9999 -9999 -9999 -9999 -9999 -9999 -9999 -9999 -9999 -9999 -9999 -9999 -9999 -9999 -9999 -9999 -9999 -9999 -9999 -9999 -9999 -9999 -9999 -9999 -9999 -9999 -9999 -9999 -9999 -9999 -9999 -9999 -9999 -9999 -9999 -9999 -9999 -9999 -9999 -9999 -9999 -9999 -9999 -9999 -9999 -9999 -9999 -9999 -9999 -9999 -9999 -9999 -9999 -9999 -9999 -9999 -9999 -9999 -9999 -9999 -9999 -9999 -9999 -9999 -9999 -9999 -9999 -9999 -9999 -9999 -9999 -9999 -9999 -9999 -9999 -9999 -9999 -9999 -9999 -9999 -9999 -9999 -9999 -9999 -9999 -9999 -9999 -9999 -9999 -9999 -9999 -9999 -9999 -9999 -9999 -9999 -9999 -9999 -9999 -9999 -9999 -9999 -9999 -9999 -9999 -9999 -9999 -9999 -9999 -9999 -9999 -9999 -9999 -9999 -9999 -9999 -9999 -9999 -9999 -9999 -9999 -9999 -9999 -9999 -9999 -9999 -9999 -9999 -9999 -9999 -9999 -9999 -9999 -9999 -9999 -9999 -9999 -9999 -9999 -9999 -9999 -9999 -9999 -9999 -9999 -9999 -9999 -9999 -9999 -9999 -9999 -9999 -9999 -9999 -9999 -9999 -9999 -9999 -9999 -9999 -9999 -9999 -9999 -9999 -9999 -9999 -9999 -9999 -9999 -9999 -9999 -9999 -9999 -9999 -9999 -9999 -9999 -9999 -9999 -9999 -9999 -9999 -9999 -9999 -9999 -9999 -9999 -9999 -9999 -9999 -9999 -9999 -9999 -9999 -9999 -9999 16.3447251114413 16.3447251114413 16.3447251114413 16.3447251114413 16.1676646706587 21.9546742209632 21.9546742209632 21.9546742209632 21.9546742209632 13.4741442097597 13.4741442097597 13.4741442097597 13.4741442097597 13.4741442097597 12.20703125 11.3636363636364 12.20703125 12.20703125 12.20703125 12.20703125 12.20703125 6.83279742765273 6.83279742765273 5.95947556615018 6.83279742765273 6.83279742765273 6.83279742765273 6.83279742765273 6.83279742765273 6.83279742765273 6.83279742765273 6.83279742765273 6.83279742765273 6.83279742765273 6.83279742765273 6.83279742765273 6.83279742765273 4.44983818770227 4.44983818770227 4.44983818770227 4.44983818770227 4.44983818770227 5.34045393858478 5.34045393858478 5.34045393858478 5.34045393858478 5.34045393858478 5.34045393858478 5.34045393858478 5.34045393858478 5.34045393858478 5.34045393858478 5.34045393858478 5.34045393858478 8.73362445414847 0 0 0 0 9.40860215053763 9.40860215053763 9.40860215053763 19.8487712665406 19.8487712665406 19.8487712665406 19.8487712665406 19.8487712665406 9.24024640657084 0 0 0 -9999 -9999 -9999 -9999 -9999 -9999 -9999 -9999 -9999 -9999 -9999
-9999 -9999 -9999 -9999 -9999 -9999 -9999 -9999 -9999 -9999 -9999 -9999 -9999 -9999 -9999 -9999 -9999 -9999 -9999 -9999 -9999 -9999 -9999 -9999 -9999 -9999 -9999 -9999 -9999 -9999 -9999 -9999 -9999 -9999 -9999 -9999 -9999 -9999 -9999 -9999 -9999 -9999 -9999 -9999 -9999 -9999 -9999 -9999 -9999 -9999 -9999 -9999 -9999 -9999 -9999 -9999 -9999 -9999 -9999 -9999 -9999 -9999 -9999 -9999 -9999 -9999 -9999 -9999 -9999 -9999 -9999 -9999 -9999 -9999 -9999 -9999 -9999 -9999 -9999 -9999 -9999 -9999 -9999 -9999 -9999 -9999 -9999 -9999 -9999 -9999 -9999 -9999 -9999 -9999 -9999 -9999 -9999 -9999 -9999 -9999 -9999 -9999 -9999 -9999 -9999 -9999 -9999 -9999 -9999 -9999 -9999 -9999 -9999 -9999 -9999 -9999 -9999 -9999 -9999 -9999 -9999 -9999 -9999 -9999 -9999 -9999 -9999 -9999 -9999 -9999 -9999 -9999 -9999 -9999 -9999 -9999 -9999 -9999 -9999 -9999 -9999 -9999 -9999 -9999 -9999 -9999 -9999 -9999 -9999 -9999 -9999 -9999 -9999 -9999 -9999 -9999 -9999 -9999 -9999 -9999 -9999 -9999 -9999 -9999 -9999 -9999 -9999 -9999 -9999 -9999 -9999 -9999 -9999 -9999 -9999 -9999 -9999 -9999 -9999 -9999 -9999 -9999 -9999 -9999 -9999 -9999 -9999 -9999 -9999 -9999 -9999 -9999 -9999 -9999 -9999 -9999 -9999 -9999 -9999 -9999 -9999 -9999 -9999 -9999 -9999 -9999 -9999 -9999 -9999 -9999 -9999 -9999 -9999 -9999 -9999 -9999 -9999 -9999 -9999 -9999 -9999 -9999 -9999 -9999 -9999 -9999 -9999 -9999 -9999 -9999 -9999 -9999 -9999 -9999 -9999 -9999 -9999 -9999 -9999 -9999 -9999 -9999 -9999 -9999 -9999 -9999 -9999 -9999 -9999 -9999 -9999 -9999 -9999 -9999 -9999 -9999 -9999 -9999 -9999 -9999 -9999 -9999 -9999 -9999 -9999 -9999 -9999 -9999 -9999 -9999 -9999 -9999 -9999 -9999 -9999 -9999 -9999 -9999 -9999 -9999 -9999 -9999 -9999 -9999 -9999 -9999 -9999 -9999 -9999 -9999 -9999 -9999 -9999 -9999 -9999 -9999 -9999 -9999 -9999 -9999 -9999 -9999 -9999 -9999 -9999 -9999 -9999 -9999 -9999 -9999 -9999 -9999 -9999 -9999 -9999 -9999 -9999 -9999 -9999 -9999 -9999 -9999 -9999 -9999 -9999 -9999 -9999 -9999 -9999 -9999 -9999 16.3447251114413 11.0663983903421 16.3447251114413 16.3447251114413 16.3447251114413 12.241054613936 12.241054613936 21.9546742209632 21.9546742209632 21.9546742209632 21.9546742209632 21.9546742209632 13.4741442097597 13.4741442097597 13.4741442097597 13.4741442097597 13.4741442097597 12.20703125 12.20703125 12.20703125 12.20703125 12.20703125 12.20703125 12.20703125 6.83279742765273 6.83279742765273 6.83279742765273 6.83279742765273 6.83279742765273 6.83279742765273 6.83279742765273 6.83279742765273 6.83279742765273 6.83279742765273 6.83279742765273 6.83279742765273 6.83279742765273 6.83279742765273 6.83279742765273 4.44983818770227 4.44983818770227 4.44983818770227 5.34045393858478 5.34045393858478 5.34045393858478 5.34045393858478 5.34045393858478 5.34045393858478 5.34045393858478 5.34045393858478 5.34045393858478 5.34045393858478 5.34045393858478 5.34045393858478 5.34045393858478 5.34045393858478 0 0 0 0 0 4.88599348534202 4.88599348534202 9.40860215053763 9.24024640657084 9.24024640657084 19.8487712665406 19.8487712665406 9.24024640657084 9.24024640657084 0 0 0 -9999 -9999 -9999 -9999 -9999 -9999 -9999 -9999 -9999 -9999 -9999
-9999 -9999 -9999 -9999 -9999 -9999 -9999 -9999 -9999 -9999 -9999 -9999 -9999 -9999 -9999 -9999 -9999 -9999 -9999 -9999 -9999 -9999 -9999 -9999 -9999 -9999 -9999 -9999 -9999 -9999 -9999 -9999 -9999 -9999 -9999 -9999 -9999 -9999 -9999 -9999 -9999 -9999 -9999 -9999 -9999 -9999 -9999 -9999 -9999 -9999 -9999 -9999 -9999 -9999 -9999 -9999 -9999 -9999 -9999 -9999 -9999 -9999 -9999 -9999 -9999 -9999 -9999 -9999 -9999 -9999 -9999 -9999 -9999 -9999 -9999 -9999 -9999 -9999 -9999 -9999 -9999 -9999 -9999 -9999 -9999 -9999 -9999 -9999 -9999 -9999 -9999 -9999 -9999 -9999 -9999 -9999 -9999 -9999 -9999 -9999 -9999 -9999 -9999 -9999 -9999 -9999 -9999 -9999 -9999 -9999 -9999 -9999 -9999 -9999 -9999 -9999 -9999 -9999 -9999 -9999 -9999 -9999 -9999 -9999 -9999 -9999 -9999 -9999 -9999 -9999 -9999 -9999 -9999 -9999 -9999 -9999 -9999 -9999 -9999 -9999 -9999 -9999 -9999 -9999 -9999 -9999 -9999 -9999 -9999 -9999 -9999 -9999 -9999 -9999 -9999 -9999 -9999 -9999 -9999 -9999 -9999 -9999 -9999 -9999 -9999 -9999 -9999 -9999 -9999 -9999 -9999 -9999 -9999 -9999 -9999 -9999 -9999 -9999 -9999 -9999 -9999 -9999 -9999 -9999 -9999 -9999 -9999 -9999 -9999 -9999 -9999 -9999 -9999 -9999 -9999 -9999 -9999 -9999 -9999 -9999 -9999 -9999 -9999 -9999 -9999 -9999 -9999 -9999 -9999 -9999 -9999 -9999 -9999 -9999 -9999 -9999 -9999 -9999 -9999 -9999 -9999 -9999 -9999 -9999 -9999 -9999 -9999 -9999 -9999 -9999 -9999 -9999 -9999 -9999 -9999 -9999 -9999 -9999 -9999 -9999 -9999 -9999 -9999 -9999 -9999 -9999 -9999 -9999 -9999 -9999 -9999 -9999 -9999 -9999 -9999 -9999 -9999 -9999 -9999 -9999 -9999 -9999 -9999 -9999 -9999 -9999 -9999 -9999 -9999 -9999 -9999 -9999 -9999 -9999 -9999 -9999 -9999 -9999 -9999 -9999 -9999 -9999 -9999 -9999 -9999 -9999 -9999 -9999 -9999 -9999 -9999 -9999 -9999 -9999 -9999 -9999 -9999 -9999 -9999 -9999 -9999 -9999 -9999 -9999 -9999 -9999 -9999 -9999 -9999 -9999 -9999 -9999 -9999 -9999 -9999 -9999 -9999 -9999 -9999 -9999 -9999 -9999 -9999 -9999 -9999 -9999 -9999 -9999 -9999 16.3447251114413 21.9435736677116 21.9435736677116 11.0663983903421 11.0663983903421 12.241054613936 12.241054613936 12.241054613936 12.241054613936 12.241054613936 21.9546742209632 21.9546742209632 19.9004975124378 19.9004975124378 13.4741442097597 13.4741442097597 13.4741442097597 13.4741442097597 13.4741442097597 13.4741442097597 12.20703125 12.20703125 12.20703125 12.20703125 12.20703125 6.83279742765273 6.83279742765273 6.83279742765273 6.83279742765273 6.83279742765273 6.83279742765273 6.83279742765273 6.83279742765273 6.83279742765273 6.83279742765273 6.83279742765273 6.83279742765273 6.83279742765273 6.83279742765273 6.83279742765273 6.83279742765273 6.83279742765273 5.34045393858478 5.34045393858478 5.34045393858478 5.34045393858478 5.34045393858478 5.34045393858478 5.34045393858478 5.34045393858478 5.34045393858478 5.34045393858478 5.34045393858478 5.34045393858478 5.34045393858478 5.34045393858478 5.34045393858478 5.34045393858478 0 0 0 0 0 4.88599348534202 4.88599348534202 4.88599348534202 4.88599348534202 4.88599348534202 4.88599348534202 4.88599348534202 4.88599348534202 9.24024640657084 9.24024640657084 0 0 -9999 -9999 -9999 -9999 -9999 -9999 -9999 -9999 -9999 -9999 -9999
-9999 -9999 -9999 -9999 -9999 -9999 -9999 -9999 -9999 -9999 -9999 -9999 -9999 -9999 -9999 -9999 -9999 -9999 -9999 -9999 -9999 -9999 -9999 -9999 -9999 -9999 -9999 -9999 -9999 -9999 -9999 -9999 -9999 -9999 -9999 -9999 -9999 -9999 -9999 -9999 -9999 -9999 -9999 -9999 -9999 -9999 -9999 -9999 -9999 -9999 -9999 -9999 -9999 -9999 -9999 -9999 -9999 -9999 -9999 -9999 -9999 -9999 -9999 -9999 -9999 -9999 -9999 -9999 -9999 -9999 -9999 -9999 -9999 -9999 -9999 -9999 -9999 -9999 -9999 -9999 -9999 -9999 -9999 -9999 -9999 -9999 -9999 -9999 -9999 -9999 -9999 -9999 -9999 -9999 -9999 -9999 -9999 -9999 -9999 -9999 -9999 -9999 -9999 -9999 -9999 -9999 -9999 -9999 -9999 -9999 -9999 -9999 -9999 -9999 -9999 -9999 -9999 -9999 -9999 -9999 -9999 -9999 -9999 -9999 -9999 -9999 -9999 -9999 -9999 -9999 -9999 -9999 -9999 -9999 -9999 -9999 -9999 -9999 -9999 -9999 -9999 -9999 -9999 -9999 -9999 -9999 -9999 -9999 -9999 -9999 -9999 -9999 -9999 -9999 -9999 -9999 -9999 -9999 -9999 -9999 -9999 -9999 -9999 -9999 -9999 -9999 -9999 -9999 -9999 -9999 -9999 -9999 -9999 -9999 -9999 -9999 -9999 -9999 -9999 -9999 -9999 -9999 -9999 -9999 -9999 -9999 -9999 -9999 -9999 -9999 -9999 -9999 -9999 -9999 -9999 -9999 -9999 -9999 -9999 -9999 -9999 -9999 -9999 -9999 -9999 -9999 -9999 -9999 -9999 -9999 -9999 -9999 -9999 -9999 -9999 -9999 -9999 -9999 -9999 -9999 -9999 -9999 -9999 -9999 -9999 -9999 -9999 -9999 -9999 -9999 -9999 -9999 -9999 -9999 -9999 -9999 -9999 -9999 -9999 -9999 -9999 -9999 -9999 -9999 -9999 -9999 -9999 -9999 -9999 -9999 -9999 -9999 -9999 -9999 -9999 -9999 -9999 -9999 -9999 -9999 -9999 -9999 -9999 -9999 -9999 -9999 -9999 -9999 -9999 -9999 -9999 -9999 -9999 -9999 -9999 -9999 -9999 -9999 -9999 -9999 -9999 -9999 -9999 -9999 -9999 -9999 -9999 -9999 -9999 -9999 -9999 -9999 -9999 -9999 -9999 -9999 -9999 -9999 -9999 -9999 -9999 -9999 -9999 -9999 -9999 -9999 -9999 -9999 -9999 -9999 -9999 -9999 -9999 -9999 -9999 -9999 -9999 -9999 -9999 -9999 -9999 -9999 -9999 -9999 -9999 -9999 -9999 16.3447251114413 25.6166982922201 25.6166982922201 21.9435736677116 21.9435736677116 11.0663983903421 11.0663983903421 11.0663983903421 12.241054613936 12.241054613936 12.241054613936 12.241054613936 29.2035398230088 19.9004975124378 19.9004975124378 19.9004975124378 19.9004975124378 13.4741442097597 13.4741442097597 13.4741442097597 13.4741442097597 13.4741442097597 12.20703125 12.20703125 6.83279742765273 6.83279742765273 6.83279742765273 6.83279742765273 6.83279742765273 6.83279742765273 6.83279742765273 6.83279742765273 6.83279742765273 6.83279742765273 6.83279742765273 6.83279742765273 6.83279742765273 6.83279742765273 6.83279742765273 6.83279742765273 6.83279742765273 6.83279742765273 5.34045393858478 5.34045393858478 5.34045393858478 5.34045393858478 5.34045393858478 5.34045393858478 5.34045393858478 5.34045393858478 5.34045393858478 5.34045393858478 5.34045393858478 5.34045393858478 5.34045393858478 5.34045393858478 5.34045393858478 5.34045393858478 5.34045393858478 5.34045393858478 0 0 0 0 4.88599348534202 4.88599348534202 4.88599348534202 4.88599348534202 0 0 0 0 0 6.91244239631336 6.91244239631336 0 0 0 -9999 -9999 -9999 -9999 -9999 -9999 -9999 -9999 -9999 -9999
-9999 -9999 -9999 -9999 -9999 -9999 -9999 -9999 -9999 -9999 -9999 -9999 -9999 -9999 -9999 -9999 -9999 -9999 -9999 -9999 -9999 -9999 -9999 -9999 -9999 -9999 -9999 -9999 -9999 -9999 -9999 -9999 -9999 -9999 -9999 -9999 -9999 -9999 -9999 -9999 -9999 -9999 -9999 -9999 -9999 -9999 -9999 -9999 -9999 -9999 -9999 -9999 -9999 -9999 -9999 -9999 -9999 -9999 -9999 -9999 -9999 -9999 -9999 -9999 -9999 -9999 -9999 -9999 -9999 -9999 -9999 -9999 -9999 -9999 -9999 -9999 -9999 -9999 -9999 -9999 -9999 -9999 -9999 -9999 -9999 -9999 -9999 -9999 -9999 -9999 -9999 -9999 -9999 -9999 -9999 -9999 -9999 -9999 -9999 -9999 -9999 -9999 -9999 -9999 -9999 -9999 -9999 -9999 -9999 -9999 -9999 -9999 -9999 -9999 -9999 -9999 -9999 -9999 -9999 -9999 -9999 -9999 -9999 -9999 -9999 -9999 -9999 -9999 -9999 -9999 -9999 -9999 -9999 -9999 -9999 -9999 -9999 -9999 -9999 -9999 -9999 -9999 -9999 -9999 -9999 -9999 -9999 -9999 -9999 -9999 -9999 -9999 -9999 -9999 -9999 -9999 -9999 -9999 -9999 -9999 -9999 -9999 -9999 -9999 -9999 -9999 -9999 -9999 -9999 -9999 -9999 -9999 -9999 -9999 -9999 -9999 -9999 -9999 -9999 -9999 -9999 -9999 -9999 -9999 -9999 -9999 -9999 -9999 -9999 -9999 -9999 -9999 -9999 -9999 -9999 -9999 -9999 -9999 -9999 -9999 -9999 -9999 -9999 -9999 -9999 -9999 -9999 -9999 -9999 -9999 -9999 -9999 -9999 -9999 -9999 -9999 -9999 -9999 -9999 -9999 -9999 -9999 -9999 -9999 -9999 -9999 -9999 -9999 -9999 -9999 -9999 -9999 -9999 -9999 -9999 -9999 -9999 -9999 -9999 -9999 -9999 -9999 -9999 -9999 -9999 -9999 -9999 -9999 -9999 -9999 -9999 -9999 -9999 -9999 -9999 -9999 -9999 -9999 -9999 -9999 -9999 -9999 -9999 -9999 -9999 -9999 -9999 -9999 -9999 -9999 -9999 -9999 -9999 -9999 -9999 -9999 -9999 -9999 -9999 -9999 -9999 -9999 -9999 -9999 -9999 -9999 -9999 -9999 -9999 -9999 -9999 -9999 -9999 -9999 -9999 -9999 -9999 -9999 -9999 -9999 -9999 -9999 -9999 -9999 -9999 -9999 -9999 -9999 -9999 -9999 -9999 -9999 -9999 -9999 -9999 -9999 -9999 -9999 -9999 -9999 -9999 -9999 -9999 -9999 -9999 -9999 25.6166982922201 25.6166982922201 25.6166982922201 25.6166982922201 21.9435736677116 21.9435736677116 11.0663983903421 11.0663983903421 22.202486678508 22.202486678508 22.202486678508 29.2035398230088 29.2035398230088 29.2035398230088 29.2035398230088 19.9004975124378 19.9004975124378 32.064128256513 32.064128256513 13.4741442097597 13.4741442097597 13.4741442097597 13.4741442097597 6.83279742765273 6.83279742765273 6.83279742765273 6.83279742765273 6.83279742765273 6.83279742765273 6.83279742765273 6.83279742765273 6.83279742765273 6.83279742765273 6.83279742765273 6.83279742765273 6.83279742765273 6.83279742765273 6.83279742765273 6.83279742765273 6.83279742765273 6.83279742765273 5.34045393858478 5.34045393858478 5.34045393858478 5.34045393858478 5.34045393858478 5.34045393858478 5.34045393858478 5.34045393858478 5.34045393858478 5.34045393858478 5.34045393858478 5.34045393858478 5.34045393858478 5.34045393858478 5.34045393858478 5.34045393858478 5.34045393858478 5.34045393858478 5.34045393858478 0 0 0 0 0 0 4.88599348534202 4.88599348534202 0 0 0 0 0 0 6.91244239631336 6.91244239631336 6.91244239631336 0 0 -9999 -9999 -9999 -9999 -9999 -9999 -9999 -9999 -9999 -9999
-9999 -9999 -9999 -9999 -9999 -9999 -9999 -9999 -9999 -9999 -9999 -9999 -9999 -9999 -9999 -9999 -9999 -9999 -9999 -9999 -9999 -9999 -9999 -9999 -9999 -9999 -9999 -9999 -9999 -9999 -9999 -9999 -9999 -9999 -9999 -9999 -9999 -9999 -9999 -9999 -9999 -9999 -9999 -9999 -9999 -9999 -9999 -9999 -9999 -9999 -9999 -9999 -9999 -9999 -9999 -9999 -9999 -9999 -9999 -9999 -9999 -9999 -9999 -9999 -9999 -9999 -9999 -9999 -9999 -9999 -9999 -9999 -9999 -9999 -9999 -9999 -9999 -9999 -9999 -9999 -9999 -9999 -9999 -9999 -9999 -9999 -9999 -9999 -9999 -9999 -9999 -9999 -9999 -9999 -9999 -9999 -9999 -9999 -9999 -9999 -9999 -9999 -9999 -9999 -9999 -9999 -9999 -9999 -9999 -9999 -9999 -9999 -9999 -9999 -9999 -9999 -9999 -9999 -9999 -9999 -9999 -9999 -9999 -9999 -9999 -9999 -9999 -9999 -9999 -9999 -9999 -9999 -9999 -9999 -9999 -9999 -9999 -9999 -9999 -9999 -9999 -9999 -9999 -9999 -9999 -9999 -9999 -9999 -9999 -9999 -9999 -9999 -9999 -9999 -9999 -9999 -9999 -9999 -9999 -9999 -9999 -9999 -9999 -9999 -9999 -9999 -9999 -9999 -9999 -9999 -9999 -9999 -9999 -9999 -9999 -9999 -9999 -9999 -9999 -9999 -9999 -9999 -9999 -9999 -9999 -9999 -9999 -9999 -9999 -9999 -9999 -9999 -9999 -9999 -9999 -9999 -9999 -9999 -9999 -9999 -9999 -9999 -9999 -9999 -9999 -9999 -9999 -9999 -9999 -9999 -9999 -9999 -9999 -9999 -9999 -9999 -9999 -9999 -9999 -9999 -9999 -9999 -9999 -9999 -9999 -9999 -9999 -9999 -9999 -9999 -9999 -9999 -9999 -9999 -9999 -9999 -9999 -9999 -9999 -9999 -9999 -9999 -9999 -9999 -9999 -9999 -9999 -9999 -9999 -9999 -9999 -9999 -9999 -9999 -9999 -9999 -9999 -9999 -9999 -9999 -9999 -9999 -9999 -9999 -9999 -9999 -9999 -9999 -9999 -9999 -9999 -9999 -9999 -9999 -9999 -9999 -9999 -9999 -9999 -9999 -9999 -9999 -9999 -9999 -9999 -9999 -9999 -9999 -9999 -9999 -9999 -9999 -9999 -9999 -9999 -9999 -9999 -9999 -9999 -9999 -9999 -9999 -9999 -9999 -9999 -9999 -9999 -9999 -9999 -9999 -9999 -9999 -9999 -9999 -9999 -9999 -9999 -9999 -9999 -9999 -9999 -9999 -9999 -9999 7.67085076708508 25.5813953488372 25.5813953488372 25.6166982922201 25.6166982922201 25.6166982922201 25.6166982922201 25.6166982922201 22.202486678508 22.202486678508 22.202486678508 5.14579759862779 5.14579759862779 5.14579759862779 29.2035398230088 29.2035398230088 29.2035398230088 27.6008492569002 32.064128256513 32.064128256513 32.064128256513 32.064128256513 13.4741442097597 6.83279742765273 6.83279742765273 6.83279742765273 6.83279742765273 6.83279742765273 6.83279742765273 6.83279742765273 6.83279742765273 6.83279742765273 6.83279742765273 6.83279742765273 6.83279742765273 6.83279742765273 6.83279742765273 6.83279742765273 6.83279742765273 6.83279742765273 6.83279742765273 5.34045393858478 5.34045393858478 5.34045393858478 5.34045393858478 5.34045393858478 5.34045393858478 5.34045393858478 5.34045393858478 5.34045393858478 5.34045393858478 5.34045393858478 5.34045393858478 5.34045393858478 5.34045393858478 5.34045393858478 5.34045393858478 5.34045393858478 5.34045393858478 5.34045393858478 5.34045393858478 5.34045393858478 0 0 2.9585798816568 2.9585798816568 2.9585798816568 2.9585798816568 2.9585798816568 2.67022696929239 0 0 0 0 0 6.91244239631336 6.91244239631336 6.34517766497462 6.34517766497462 0 0 -9999 -9999 -9999 -9999 -9999 -9999 -9999 -9999 -9999 -9999
-9999 -9999 -9999 -9999 -9999 -9999 -9999 -9999 -9999 -9999 -9999 -9999 -9999 -9999 -9999 -9999 -9999 -9999 -9999 -9999 -9999 -9999 -9999 -9999 -9999 -9999 -9999 -9999 -9999 -9999 -9999 -9999 -9999 -9999 -9999 -9999 -9999 -9999 -9999 -9999 -9999 -9999 -9999 -9999 -9999 -9999 -9999 -9999 -9999 -9999 -9999 -9999 -9999 -9999 -9999 -9999 -9999 -9999 -9999 -9999 -9999 -9999 -9999 -9999 -9999 -9999 -9999 -9999 -9999 -9999 -9999 -9999 -9999 -9999 -9999 -9999 -9999 -9999 -9999 -9999 -9999 -9999 -9999 -9999 -9999 -9999 -9999 -9999 -9999 -9999 -9999 -9999 -9999 -9999 -9999 -9999 -9999 -9999 -9999 -9999 -9999 -9999 -9999 -9999 -9999 -9999 -9999 -9999 -9999 -9999 -9999 -9999 -9999 -9999 -9999 -9999 -9999 -9999 -9999 -9999 -9999 -9999 -9999 -9999 -9999 -9999 -9999 -9999 -9999 -9999 -9999 -9999 -9999 -9999 -9999 -9999 -9999 -9999 -9999 -9999 -9999 -9999 -9999 -9999 -9999 -9999 -9999 -9999 -9999 -9999 -9999 -9999 -9999 -9999 -9999 -9999 -9999 -9999 -9999 -9999 -9999 -9999 -9999 -9999 -9999 -9999 -9999 -9999 -9999 -9999 -9999 -9999 -9999 -9999 -9999 -9999 -9999 -9999 -9999 -9999 -9999 -9999 -9999 -9999 -9999 -9999 -9999 -9999 -9999 -9999 -9999 -9999 -9999 -9999 -9999 -9999 -9999 -9999 -9999 -9999 -9999 -9999 -9999 -9999 -9999 -9999 -9999 -9999 -9999 -9999 -9999 -9999 -9999 -9999 -9999 -9999 -9999 -9999 -9999 -9999 -9999 -9999 -9999 -9999 -9999 -9999 -9999 -9999 -9999 -9999 -9999 -9999 -9999 -9999 -9999 -9999 -9999 -9999 -9999 -9999 -9999 -9999 -9999 -9999 -9999 -9999 -9999 -9999 -9999 -9999 -9999 -9999 -9999 -9999 -9999 -9999 -9999 -9999 -9999 -9999 -9999 -9999 -9999 -9999 -9999 -9999 -9999 -9999 -9999 -9999 -9999 -9999 -9999 -9999 -9999 -9999 -9999 -9999 -9999 -9999 -9999 -9999 -9999 -9999 -9999 -9999 -9999 -9999 -9999 -9999 -9999 -9999 -9999 -9999 -9999 -9999 -9999 -9999 -9999 -9999 -9999 -9999 -9999 -9999 -9999 -9999 -9999 -9999 -9999 -9999 -9999 -9999 -9999 -9999 -9999 -9999 -9999 -9999 -9999 -9999 -9999 -9999 7.67085076708508 7.67085076708508 21.4285714285714 21.4285714285714 25.5813953488372 25.5813953488372 25.6166982922201 25.6166982922201 25.6166982922201 25.6166982922201 25.6166982922201 25.6166982922201 22.202486678508 5.14579759862779 5.14579759862779 5.14579759862779 5.14579759862779 27.6008492569002 27.6008492569002 27.6008492569002 27.6008492569002 32.064128256513 32.064128256513 6.83279742765273 6.83279742765273 6.83279742765273 6.83279742765273 6.83279742765273 6.83279742765273 6.83279742765273 6.83279742765273 6.83279742765273 6.83279742765273 6.83279742765273 6.83279742765273 6.83279742765273 6.83279742765273 6.83279742765273 6.83279742765273 6.83279742765273 6.83279742765273 5.34045393858478 5.34045393858478 5.34045393858478 5.34045393858478 5.34045393858478 5.34045393858478 5.34045393858478 5.34045393858478 5.34045393858478 5.34045393858478 5.34045393858478 5.34045393858478 5.34045393858478 5.34045393858478 5.34045393858478 5.34045393858478 5.34045393858478 5.34045393858478 5.34045393858478 5.34045393858478 5.34045393858478 5.34045393858478 0 0 0 15.1515151515152 15.1515151515152 15.1515151515152 15.1515151515152 15.1515151515152 9.38967136150235 2.67022696929239 2.67022696929239 2.67022696929239 2.67022696929239 2.67022696929239 6.91244239631336 6.91244239631336 4.18760469011725 4.18760469011725 6.34517766497462 0 0 -9999 -9999 -9999 -9999 -9999 -9999 -9999 -9999 -9999
-9999 -9999 -9999 -9999 -9999 -9999 -9999 -9999 -9999 -9999 -9999 -9999 -9999 -9999 -9999 -9999 -9999 -9999 -9999 -9999 -9999 -9999 -9999 -9999 -9999 -9999 -9999 -9999 -9999 -9999 -9999 -9999 -9999 -9999 -9999 -9999 -9999 -9999 -9999 -9999 -9999 -9999 -9999 -9999 -9999 -9999 -9999 -9999 -9999 -9999 -9999 -9999 -9999 -9999 -9999 -9999 -9999 -9999 -9999 -9999 -9999 -9999 -9999 -9999 -9999 -9999 -9999 -9999 -9999 -9999 -9999 -9999 -9999 -9999 -9999 -9999 -9999 -9999 -9999 -9999 -9999 -9999 -9999 -9999 -9999 -9999 -9999 -9999 -9999 -9999 -9999 -9999 -9999 -9999 -9999 -9999 -9999 -9999 -9999 -9999 -9999 -9999 -9999 -9999 -9999 -9999 -9999 -9999 -9999 -9999 -9999 -9999 -9999 -9999 -9999 -9999 -9999 -9999 -9999 -9999 -9999 -9999 -9999 -9999 -9999 -9999 -9999 -9999 -9999 -9999 -9999 -9999 -9999 -9999 -9999 -9999 -9999 -9999 -9999 -9999 -9999 -9999 -9999 -9999 -9999 -9999 -9999 -9999 -9999 -9999 -9999 -9999 -9999 -9999 -9999 -9999 -9999 -9999 -9999 -9999 -9999 -9999 -9999 -9999 -9999 -9999 -9999 -9999 -9999 -9999 -9999 -9999 -9999 -9999 -9999 -9999 -9999 -9999 -9999 -9999 -9999 -9999 -9999 -9999 -9999 -9999 -9999 -9999 -9999 -9999 -9999 -9999 -9999 -9999 -9999 -9999 -9999 -9999 -9999 -9999 -9999 -9999 -9999 -9999 -9999 -9999 -9999 -9999 -9999 -9999 -9999 -9999 -9999 -9999 -9999 -9999 -9999 -9999 -9999 -9999 -9999 -9999 -9999 -9999 -9999 -9999 -9999 -9999 -9999 -9999 -9999 -9999 -9999 -9999 -9999 -9999 -9999 -9999 -9999 -9999 -9999 -9999 -9999 -9999 -9999 -9999 -9999 -9999 -9999 -9999 -9999 -9999 -9999 -9999 -9999 -9999 -9999 -9999 -9999 -9999 -9999 -9999 -9999 -9999 -9999 -9999 -9999 -9999 -9999 -9999 -9999 -9999 -9999 -9999 -9999 -9999 -9999 -9999 -9999 -9999 -9999 -9999 -9999 -9999 -9999 -9999 -9999 -9999 -9999 -9999 -9999 -9999 -9999 -9999 -9999 -9999 -9999 -9999 -9999 -9999 -9999 -9999 -9999 -9999 -9999 -9999 -9999 -9999 -9999 -9999 -9999 -9999 -9999 -9999 -9999 -9999 -9999 -9999 -9999 -9999 7.67085076708508 7.67085076708508 10.2669404517454 5.89622641509434 21.4285714285714 21.4285714285714 21.4285714285714 25.5813953488372 25.5813953488372 25.6166982922201 5.4249547920434 5.4249547920434 25.6166982922201 25.6166982922201 5.4249547920434 5.4249547920434 5.14579759862779 12.8205128205128 12.8205128205128 12.8205128205128 12.8205128205128 27.6008492569002 27.6008492569002 27.6008492569002 6.83279742765273 6.83279742765273 6.83279742765273 6.83279742765273 6.83279742765273 6.83279742765273 6.83279742765273 6.83279742765273 6.83279742765273 6.83279742765273 6.83279742765273 6.83279742765273 6.83279742765273 6.83279742765273 6.83279742765273 6.83279742765273 6.83279742765273 5.34045393858478 5.34045393858478 5.34045393858478 5.34045393858478 5.34045393858478 5.34045393858478 5.34045393858478 5.34045393858478 5.34045393858478 5.34045393858478 5.34045393858478 5.34045393858478 5.34045393858478 5.34045393858478 5.34045393858478 5.34045393858478 5.34045393858478 5.34045393858478 5.34045393858478 5.34045393858478 5.34045393858478 5.34045393858478 5.34045393858478 5.34045393858478 0 0 14.5278450363196 14.5278450363196 14.5278450363196 14.5278450363196 0 9.38967136150235 9.38967136150235 9.38967136150235 9.38967136150235 9.38967136150235 9.38967136150235 9.38967136150235 0 6.91244239631336 4.18760469011725 4.18760469011725 4.18760469011725 4.18760469011725 0 -9999 -9999 -9999 -9999 -9999 -9999 -9999 -9999 -9999
-9999 -9999 -9999 -9999 -9999 -9999 -9999 -9999 -9999 -9999 -9999 -9999 -9999 -9999 -9999 -9999 -9999 -9999 -9999 -9999 -9999 -9999 -9999 -9999 -9999 -9999 -9999 -9999 -9999 -9999 -9999 -9999 -9999 -9999 -9999 -9999 -9999 -9999 -9999 -9999 -9999 -9999 -9999 -9999 -9999 -9999 -9999 -9999 -9999 -9999 -9999 -9999 -9999 -9999 -9999 -9999 -9999 -9999 -9999 -9999 -9999 -9999 -9999 -9999 -9999 -9999 -9999 -9999 -9999 -9999 -9999 -9999 -9999 -9999 -9999 -9999 -9999 -9999 -9999 -9999 -9999 -9999 -9999 -9999 -9999 -9999 -9999 -9999 -9999 -9999 -9999 -9999 -9999 -9999 -9999 -9999 -9999 -9999 -9999 -9999 -9999 -9999 -9999 -9999 -9999 -9999 -9999 -9999 -9999 -9999 -9999 -9999 -9999 -9999 -9999 -9999 -9999 -9999 -9999 -9999 -9999 -9999 -9999 -9999 -9999 -9999 -9999 -9999 -9999 -9999 -9999 -9999 -9999 -9999 -9999 -9999 -9999 -9999 -9999 -9999 -9999 -9999 -9999 -9999 -9999 -9999 -9999 -9999 -9999 -9999 -9999 -9999 -9999 -9999 -9999 -9999 -9999 -9999 -9999 -9999 -9999 -9999 -9999 -9999 -9999 -9999 -9999 -9999 -9999 -9999 -9999 -9999 -9999 -9999 -9999 -9999 -9999 -9999 -9999 -9999 -9999 -9999 -9999 -9999 -9999 -9999 -9999 -9999 -9999 -9999 -9999 -9999 -9999 -9999 -9999 -9999 -9999 -9999 -9999 -9999 -9999 -9999 -9999 -9999 -9999 -9999 -9999 -9999 -9999 -9999 -9999 -9999 -9999 -9999 -9999 -9999 -9999 -9999 -9999 -9999 -9999 -9999 -9999 -9999 -9999 -9999 -9999 -9999 -9999 -9999 -9999 -9999 -9999 -9999 -9999 -9999 -9999 -9999 -9999 -9999 -9999 -9999 -9999 -9999 -9999 -9999 -9999 -9999 -9999 -9999 -9999 -9999 -9999 -9999 -9999 -9999 -9999 -9999 -9999 -9999 -9999 -9999 -9999 -9999 -9999 -9999 -9999 -9999 -9999 -9999 -9999 -9999 -9999 -9999 -9999 -9999 -9999 -9999 -9999 -9999 -9999 -9999 -9999 -9999 -9999 -9999 -9999 -9999 -9999 -9999 -9999 -9999 -9999 -9999 -9999 -9999 -9999 -9999 -9999 -9999 -9999 -9999 -9999 -9999 -9999 -9999 -9999 -9999 -9999 -9999 -9999 -9999 -9999 -9999 -9999 -9999 -9999 -9999 -9999 7.67085076708508 10.2669404517454 10.2669404517454 10.2669404517454 10.2669404517454 5.89622641509434 21.4285714285714 25.5813953488372 25.5813953488372 25.5813953488372 12.1713729308666 5.4249547920434 5.4249547920434 5.4249547920434 5.4249547920434 5.4249547920434 5.4249547920434 5.4249547920434 12.8205128205128 12.8205128205128 12.8205128205128 12.8205128205128 27.6008492569002 27.6008492569002 27.6008492569002 27.6008492569002 27.6008492569002 6.83279742765273 6.83279742765273 6.83279742765273 6.83279742765273 6.83279742765273 6.83279742765273 6.83279742765273 6.83279742765273 6.83279742765273 6.83279742765273 6.83279742765273 6.83279742765273 6.83279742765273 5.34045393858478 5.34045393858478 5.34045393858478 5.34045393858478 5.34045393858478 5.34045393858478 5.34045393858478 5.34045393858478 5.34045393858478 5.34045393858478 5.34045393858478 5.34045393858478 5.34045393858478 5.34045393858478 5.34045393858478 5.34045393858478 5.34045393858478 5.34045393858478 5.34045393858478 5.34045393858478 5.34045393858478 5.34045393858478 5.34045393858478 5.34045393858478 5.34045393858478 5.34045393858478 0 7.49464668094218 7.49464668094218 7.49464668094218 7.49464668094218 0 0 9.38967136150235 9.38967136150235 9.38967136150235 9.38967136150235 9.38967136150235 9.38967136150235 0 14.7368421052632 0 4.31778929188256 4.31778929188256 4.31778929188256 4.31778929188256 -9999 -9999 -9999 -9999 -9999 -9999 -9999 -9999 -9999 -9999
-9999 -9999 -9999 -9999 -9999 -9999 -9999 -9999 -9999 -9999 -9999 -9999 -9999 -9999 -9999 -9999 -9999 -9999 -9999 -9999 -9999 -9999 -9999 -9999 -9999 -9999 -9999 -9999 -9999 -9999 -9999 -9999 -9999 -9999 -9999 -9999 -9999 -9999 -9999 -9999 -9999 -9999 -9999 -9999 -9999 -9999 -9999 -9999 -9999 -9999 -9999 -9999 -9999 -9999 -9999 -9999 -9999 -9999 -9999 -9999 -9999 -9999 -9999 -9999 -9999 -9999 -9999 -9999 -9999 -9999 -9999 -9999 -9999 -9999 -9999 -9999 -9999 -9999 -9999 -9999 -9999 -9999 -9999 -9999 -9999 -9999 -9999 -9999 -9999 -9999 -9999 -9999 -9999 -9999 -9999 -9999 -9999 -9999 -9999 -9999 -9999 -9999 -9999 -9999 -9999 -9999 -9999 -9999 -9999 -9999 -9999 -9999 -9999 -9999 -9999 -9999 -9999 -9999 -9999 -9999 -9999 -9999 -9999 -9999 -9999 -9999 -9999 -9999 -9999 -9999 -9999 -9999 -9999 -9999 -9999 -9999 -9999 -9999 -9999 -9999 -9999 -9999 -9999 -9999 -9999 -9999 -9999 -9999 -9999 -9999 -9999 -9999 -9999 -9999 -9999 -9999 -9999 -9999 -9999 -9999 -9999 -9999 -9999 -9999 -9999 -9999 -9999 -9999 -9999 -9999 -9999 -9999 -9999 -9999 -9999 -9999 -9999 -9999 -9999 -9999 -9999 -9999 -9999 -9999 -9999 -9999 -9999 -9999 -9999 -9999 -9999 -9999 -9999 -9999 -9999 -9999 -9999 -9999 -9999 -9999 -9999 -9999 -9999 -9999 -9999 -9999 -9999 -9999 -9999 -9999 -9999 -9999 -9999 -9999 -9999 -9999 -9999 -9999 -9999 -9999 -9999 -9999 -9999 -9999 -9999 -9999 -9999 -9999 -9999 -9999 -9999 -9999 -9999 -9999 -9999 -9999 -9999 -9999 -9999 -9999 -9999 -9999 -9999 -9999 -9999 -9999 -9999 -9999 -9999 -9999 -9999 -9999 -9999 -9999 -9999 -9999 -9999 -9999 -9999 -9999 -9999 -9999 -9999 -9999 -9999 -9999 -9999 -9999 -9999 -9999 -9999 -9999 -9999 -9999 -9999 -9999 -9999 -9999 -9999 -9999 -9999 -9999 -9999 -9999 -9999 -9999 -9999 -9999 -9999 -9999 -9999 -9999 -9999 -9999 -9999 -9999 -9999 -9999 -9999 -9999 -9999 -9999 -9999 -9999 -9999 -9999 -9999 -9999 -9999 -9999 -9999 -9999 -9999 -9999 -9999 -9999 -9999 -9999 7.67085076708508 10.2669404517454 10.2669404517454 10.2669404517454 10.2669404517454 5.89622641509434 5.89622641509434 5.89622641509434 25.5813953488372 25.5813953488372 12.1713729308666 12.1713729308666 12.1713729308666 5.4249547920434 5.4249547920434 5.4249547920434 5.4249547920434 5.99315068493151 5.99315068493151 5.99315068493151 5.99315068493151 5.99315068493151 5.99315068493151 5.99315068493151 27.6008492569002 27.6008492569002 27.6008492569002 27.6008492569002 5.99315068493151 6.83279742765273 6.83279742765273 6.83279742765273 6.83279742765273 6.83279742765273 6.83279742765273 6.83279742765273 6.83279742765273 6.83279742765273 6.83279742765273 0 0 5.34045393858478 5.34045393858478 5.34045393858478 5.34045393858478 5.34045393858478 5.34045393858478 5.34045393858478 5.34045393858478 5.34045393858478 5.34045393858478 5.34045393858478 5.34045393858478 5.34045393858478 5.34045393858478 5.34045393858478 5.34045393858478 5.34045393858478 5.34045393858478 5.34045393858478 5.34045393858478 5.34045393858478 5.34045393858478 5.34045393858478 5.34045393858478 5.34045393858478 0 7.49464668094218 7.49464668094218 7.49464668094218 7.49464668094218 0 0 0 9.38967136150235 9.38967136150235 9.38967136150235 14.4124168514412 0 6.13496932515337 6.13496932515337 6.13496932515337 14.7368421052632 4.31778929188256 4.31778929188256 4.31778929188256 0 -9999 -9999 -9999 -9999 -9999 -9999 -9999 -9999 -9999 -9999
-9999 -9999 -9999 -9999 -9999 -9999 -9999 -9999 -9999 -9999 -9999 -9999 -9999 -9999 -9999 -9999 -9999 -9999 -9999 -9999 -9999 -9999 -9999 -9999 -9999 -9999 -9999 -9999 -9999 -9999 -9999 -9999 -9999 -9999 -9999 -9999 -9999 -9999 -9999 -9999 -9999 -9999 -9999 -9999 -9999 -9999 -9999 -9999 -9999 -9999 -9999 -9999 -9999 -9999 -9999 -9999 -9999 -9999 -9999 -9999 -9999 -9999 -9999 -9999 -9999 -9999 -9999 -9999 -9999 -9999 -9999 -9999 -9999 -9999 -9999 -9999 -9999 -9999 -9999 -9999 -9999 -9999 -9999 -9999 -9999 -9999 -9999 -9999 -9999 -9999 -9999 -9999 -9999 -9999 -9999 -9999 -9999 -9999 -9999 -9999 -9999 -9999 -9999 -9999 -9999 -9999 -9999 -9999 -9999 -9999 -9999 -9999 -9999 -9999 -9999 -9999 -9999 -9999 -9999 -9999 -9999 -9999 -9999 -9999 -9999 -9999 -9999 -9999 -9999 -9999 -9999 -9999 -9999 -9999 -9999 -9999 -9999 -9999 -9999 -9999 -9999 -9999 -9999 -9999 -9999 -9999 -9999 -9999 -9999 -9999 -9999 -9999 -9999 -9999 -9999 -9999 -9999 -9999 -9999 -9999 -9999 -9999 -9999 -9999 -9999 -9999 -9999 -9999 -9999 -9999 -9999 -9999 -9999 -9999 -9999 -9999 -9999 -9999 -9999 -9999 -9999 -9999 -9999 -9999 -9999 -9999 -9999 -9999 -9999 -9999 -9999 -9999 -9999 -9999 -9999 -9999 -9999 -9999 -9999 -9999 -9999 -9999 -9999 -9999 -9999 -9999 -9999 -9999 -9999 -9999 -9999 -9999 -9999 -9999 -9999 -9999 -9999 -9999 -9999 -9999 -9999 -9999 -9999 -9999 -9999 -9999 -9999 -9999 -9999 -9999 -9999 -9999 -9999 -9999 -9999 -9999 -9999 -9999 -9999 -9999 -9999 -9999 -9999 -9999 -9999 -9999 -9999 -9999 -9999 -9999 -9999 -9999 -9999 -9999 -9999 -9999 -9999 -9999 -9999 -9999 -9999 -9999 -9999 -9999 -9999 -9999 -9999 -9999 -9999 -9999 -9999 -9999 -9999 -9999 -9999 -9999 -9999 -9999 -9999 -9999 -9999 -9999 -9999 -9999 -9999 -9999 -9999 -9999 -9999 -9999 -9999 -9999 -9999 -9999 -9999 -9999 -9999 -9999 -9999 -9999 -9999 -9999 -9999 -9999 -9999 -9999 -9999 -9999 -9999 -9999 -9999 -9999 -9999 -9999 -9999 -9999 7.67085076708508 7.67085076708508 7.67085076708508 10.2669404517454 10.2669404517454 10.2669404517454 17.9856115107914 17.9856115107914 5.89622641509434 5.89622641509434 6.94444444444444 12.1713729308666 12.1713729308666 12.1713729308666 12.1713729308666 12.1713729308666 5.4249547920434 5.99315068493151 5.99315068493151 5.99315068493151 5.99315068493151 5.99315068493151 5.99315068493151 5.99315068493151 5.99315068493151 5.99315068493151 5.99315068493151 27.6008492569002 5.99315068493151 5.99315068493151 5.99315068493151 5.99315068493151 6.83279742765273 6.83279742765273 6.83279742765273 6.83279742765273 6.83279742765273 6.83279742765273 6.83279742765273 0 0 0 0 0 0 5.34045393858478 5.34045393858478 5.34045393858478 5.34045393858478 5.34045393858478 5.34045393858478 5.34045393858478 5.34045393858478 5.34045393858478 5.34045393858478 5.34045393858478 5.34045393858478 5.34045393858478 5.34045393858478 5.34045393858478 5.34045393858478 5.34045393858478 5.34045393858478 5.34045393858478 5.34045393858478 5.34045393858478 5.34045393858478 5.34045393858478 0 0 0 7.49464668094218 7.49464668094218 0 0 0 9.38967136150235 9.38967136150235 14.4124168514412 14.4124168514412 14.4124168514412 14.4124168514412 6.13496932515337 6.13496932515337 14.7368421052632 4.31778929188256 4.31778929188256 4.31778929188256 0 -9999 -9999 -9999 -9999 -9999 -9999 -9999 -9999 -9999 -9999
-9999 -9999 -9999 -9999 -9999 -9999 -9999 -9999 -9999 -9999 -9999 -9999 -9999 -9999 -9999 -9999 -9999 -9999 -9999 -9999 -9999 -9999 -9999 -9999 -9999 -9999 -9999 -9999 -9999 -9999 -9999 -9999 -9999 -9999 -9999 -9999 -9999 -9999 -9999 -9999 -9999 -9999 -9999 -9999 -9999 -9999 -9999 -9999 -9999 -9999 -9999 -9999 -9999 -9999 -9999 -9999 -9999 -9999 -9999 -9999 -9999 -9999 -9999 -9999 -9999 -9999 -9999 -9999 -9999 -9999 -9999 -9999 -9999 -9999 -9999 -9999 -9999 -9999 -9999 -9999 -9999 -9999 -9999 -9999 -9999 -9999 -9999 -9999 -9999 -9999 -9999 -9999 -9999 -9999 -9999 -9999 -9999 -9999 -9999 -9999 -9999 -9999 -9999 -9999 -9999 -9999 -9999 -9999 -9999 -9999 -9999 -9999 -9999 -9999 -9999 -9999 -9999 -9999 -9999 -9999 -9999 -9999 -9999 -9999 -9999 -9999 -9999 -9999 -9999 -9999 -9999 -9999 -9999 -9999 -9999 -9999 -9999 -9999 -9999 -9999 -9999 -9999 -9999 -9999 -9999 -9999 -9999 -9999 -9999 -9999 -9999 -9999 -9999 -9999 -9999 -9999 -9999 -9999 -9999 -9999 -9999 -9999 -9999 -9999 -9999 -9999 -9999 -9999 -9999 -9999 -9999 -9999 -9999 -9999 -9999 -9999 -9999 -9999 -9999 -9999 -9999 -9999 -9999 -9999 -9999 -9999 -9999 -9999 -9999 -9999 -9999 -9999 -9999 -9999 -9999 -9999 -9999 -9999 -9999 -9999 -9999 -9999 -9999 -9999 -9999 -9999 -9999 -9999 -9999 -9999 -9999 -9999 -9999 -9999 -9999 -9999 -9999 -9999 -9999 -9999 -9999 -9999 -9999 -9999 -9999 -9999 -9999 -9999 -9999 -9999 -9999 -9999 -9999 -9999 -9999 -9999 -9999 -9999 -9999 -9999 -9999 -9999 -9999 -9999 -9999 -9999 -9999 -9999 -9999 -9999 -9999 -9999 -9999 -9999 -9999 -9999 -9999 -9999 -9999 -9999 -9999 -9999 -9999 -9999 -9999 -9999 -9999 -9999 -9999 -9999 -9999 -9999 -9999 -9999 -9999 -9999 -9999 -9999 -9999 -9999 -9999 -9999 -9999 -9999 -9999 -9999 -9999 -9999 -9999 -9999 -9999 -9999 -9999 -9999 -9999 -9999 -9999 -9999 -9999 -9999 -9999 -9999 -9999 -9999 -9999 -9999 -9999 -9999 -9999 -9999 -9999 -9999 -9999 -9999 -9999 7.67085076708508 7.67085076708508 7.67085076708508 7.67085076708508 7.67085076708508 17.9856115107914 17.9856115107914 17.9856115107914 17.9856115107914 17.9856115107914 6.94444444444444 6.94444444444444 10.4477611940298 12.1713729308666 12.1713729308666 12.1713729308666 13.3570792520036 13.3570792520036 5.99315068493151 5.99315068493151 5.99315068493151 5.99315068493151 5.99315068493151 5.99315068493151 5.99315068493151 5.99315068493151 5.99315068493151 5.99315068493151 5.99315068493151 5.99315068493151 5.99315068493151 5.99315068493151 5.99315068493151 5.99315068493151 6.83279742765273 6.83279742765273 6.83279742765273 6.83279742765273 0 0 0 0 0 0 0 0 0 0 5.34045393858478 5.34045393858478 5.34045393858478 5.34045393858478 5.34045393858478 5.34045393858478 5.34045393858478 5.34045393858478 5.34045393858478 5.34045393858478 5.34045393858478 5.34045393858478 5.34045393858478 5.34045393858478 5.34045393858478 5.34045393858478 5.34045393858478 5.34045393858478 5.34045393858478 5.34045393858478 5.34045393858478 0 0 0 0 0 0 9.45378151260504 9.45378151260504 9.45378151260504 9.45378151260504 14.4124168514412 14.4124168514412 14.4124168514412 14.4124168514412 14.4124168514412 6.13496932515337 6.13496932515337 4.31778929188256 0 0 0 -9999 -9999 -9999 -9999 -9999 -9999 -9999 -9999 -9999 -9999
-9999 -9999 -9999 -9999 -9999 -9999 -9999 -9999 -9999 -9999 -9999 -9999 -9999 -9999 -9999 -9999 -9999 -9999 -9999 -9999 -9999 -9999 -9999 -9999 -9999 -9999 -9999 -9999 -9999 -9999 -9999 -9999 -9999 -9999 -9999 -9999 -9999 -9999 -9999 -9999 -9999 -9999 -9999 -9999 -9999 -9999 -9999 -9999 -9999 -9999 -9999 -9999 -9999 -9999 -9999 -9999 -9999 -9999 -9999 -9999 -9999 -9999 -9999 -9999 -9999 -9999 -9999 -9999 -9999 -9999 -9999 -9999 -9999 -9999 -9999 -9999 -9999 -9999 -9999 -9999 -9999 -9999 -9999 -9999 -9999 -9999 -9999 -9999 -9999 -9999 -9999 -9999 -9999 -9999 -9999 -9999 -9999 -9999 -9999 -9999 -9999 -9999 -9999 -9999 -9999 -9999 -9999 -9999 -9999 -9999 -9999 -9999 -9999 -9999 -9999 -9999 -9999 -9999 -9999 -9999 -9999 -9999 -9999 -9999 -9999 -9999 -9999 -9999 -9999 -9999 -9999 -9999 -9999 -9999 -9999 -9999 -9999 -9999 -9999 -9999 -9999 -9999 -9999 -9999 -9999 -9999 -9999 -9999 -9999 -9999 -9999 -9999 -9999 -9999 -9999 -9999 -9999 -9999 -9999 -9999 -9999 -9999 -9999 -9999 -9999 -9999 -9999 -9999 -9999 -9999 -9999 -9999 -9999 -9999 -9999 -9999 -9999 -9999 -9999 -9999 -9999 -9999 -9999 -9999 -9999 -9999 -9999 -9999 -9999 -9999 -9999 -9999 -9999 -9999 -9999 -9999 -9999 -9999 -9999 -9999 -9999 -9999 -9999 -9999 -9999 -9999 -9999 -9999 -9999 -9999 -9999 -9999 -9999 -9999 -9999 -9999 -9999 -9999 -9999 -9999 -9999 -9999 -9999 -9999 -9999 -9999 -9999 -9999 -9999 -9999 -9999 -9999 -9999 -9999 -9999 -9999 -9999 -9999 -9999 -9999 -9999 -9999 -9999 -9999 -9999 -9999 -9999 -9999 -9999 -9999 -9999 -9999 -9999 -9999 -9999 -9999 -9999 -9999 -9999 -9999 -9999 -9999 -9999 -9999 -9999 -9999 -9999 -9999 -9999 -9999 -9999 -9999 -9999 -9999 -9999 -9999 -9999 -9999 -9999 -9999 -9999 -9999 -9999 -9999 -9999 -9999 -9999 -9999 -9999 -9999 -9999 -9999 -9999 -9999 -9999 -9999 -9999 -9999 -9999 -9999 -9999 -9999 -9999 -9999 -9999 -9999 -9999 10.8892921960073 -9999 10.8892921960073 10.8892921960073 -9999 -9999 7.67085076708508 7.67085076708508 12.1681415929204 7.67085076708508 7.67085076708508 7.67085076708508 7.67085076708508 17.9856115107914 17.9856115107914 17.9856115107914 6.51465798045603 6.94444444444444 10.4477611940298 10.4477611940298 10.4477611940298 10.4477611940298 13.3570792520036 13.3570792520036 13.3570792520036 13.3570792520036 13.3570792520036 5.99315068493151 5.99315068493151 5.99315068493151 5.99315068493151 5.99315068493151 5.99315068493151 5.99315068493151 5.99315068493151 5.99315068493151 5.99315068493151 5.99315068493151 5.99315068493151 5.99315068493151 5.99315068493151 5.99315068493151 5.99315068493151 6.83279742765273 0 0 0 0 0 0 0 0 0 0 0 0 0 0 0 5.34045393858478 5.34045393858478 5.34045393858478 5.34045393858478 5.34045393858478 5.34045393858478 5.34045393858478 5.34045393858478 5.34045393858478 5.34045393858478 5.34045393858478 5.34045393858478 5.34045393858478 5.34045393858478 5.34045393858478 5.34045393858478 5.34045393858478 0 9.18196994991653 9.18196994991653 9.18196994991653 9.18196994991653 9.18196994991653 0 9.45378151260504 9.45378151260504 9.45378151260504 9.45378151260504 8.31600831600832 2.79329608938547 2.79329608938547 2.79329608938547 2.79329608938547 0 6.13496932515337 4.31778929188256 0 0 -9999 -9999 -9999 -9999 -9999 -9999 -9999 -9999 -9999 -9999 -9999
-9999 -9999 -9999 -9999 -9999 -9999 -9999 -9999 -9999 -9999 -9999 -9999 -9999 -9999 -9999 -9999 -9999 -9999 -9999 -9999 -9999 -9999 -9999 -9999 -9999 -9999 -9999 -9999 -9999 -9999 -9999 -9999 -9999 -9999 -9999 -9999 -9999 -9999 -9999 -9999 -9999 -9999 -9999 -9999 -9999 -9999 -9999 -9999 -9999 -9999 -9999 -9999 -9999 -9999 -9999 -9999 -9999 -9999 -9999 -9999 -9999 -9999 -9999 -9999 -9999 -9999 -9999 -9999 -9999 -9999 -9999 -9999 -9999 -9999 -9999 -9999 -9999 -9999 -9999 -9999 -9999 -9999 -9999 -9999 -9999 -9999 -9999 -9999 -9999 -9999 -9999 -9999 -9999 -9999 -9999 -9999 -9999 -9999 -9999 -9999 -9999 -9999 -9999 -9999 -9999 -9999 -9999 -9999 -9999 -9999 -9999 -9999 -9999 -9999 -9999 -9999 -9999 -9999 -9999 -9999 -9999 -9999 -9999 -9999 -9999 -9999 -9999 -9999 -9999 -9999 -9999 -9999 -9999 -9999 -9999 -9999 -9999 -9999 -9999 -9999 -9999 -9999 -9999 -9999 -9999 -9999 -9999 -9999 -9999 -9999 -9999 -9999 -9999 -9999 -9999 -9999 -9999 -9999 -9999 -9999 -9999 -9999 -9999 -9999 -9999 -9999 -9999 -9999 -9999 -9999 -9999 -9999 -9999 -9999 -9999 -9999 -9999 -9999 -9999 -9999 -9999 -9999 -9999 -9999 -9999 -9999 -9999 -9999 -9999 -9999 -9999 -9999 -9999 -9999 -9999 -9999 -9999 -9999 -9999 -9999 -9999 -9999 -9999 -9999 -9999 -9999 -9999 -9999 -9999 -9999 -9999 -9999 -9999 -9999 -9999 -9999 -9999 -9999 -9999 -9999 -9999 -9999 -9999 -9999 -9999 -9999 -9999 -9999 -9999 -9999 -9999 -9999 -9999 -9999 -9999 -9999 -9999 -9999 -9999 -9999 -9999 -9999 -9999 -9999 -9999 -9999 -9999 -9999 -9999 -9999 -9999 -9999 -9999 -9999 -9999 -9999 -9999 -9999 -9999 -9999 -9999 -9999 -9999 -9999 -9999 -9999 -9999 -9999 -9999 -9999 -9999 -9999 -9999 -9999 -9999 -9999 -9999 -9999 -9999 -9999 -9999 -9999 -9999 -9999 -9999 -9999 -9999 -9999 -9999 -9999 -9999 -9999 -9999 -9999 -9999 -9999 -9999 -9999 -9999 -9999 -9999 -9999 -9999 -9999 -9999 -9999 10.8892921960073 10.8892921960073 10.8892921960073 -9999 -9999 -9999 10.8892921960073 10.498687664042 10.498687664042 12.1681415929204 12.1681415929204 7.67085076708508 7.67085076708508 12.1681415929204 12.1681415929204 6.51465798045603 6.51465798045603 0 0 10.4477611940298 10.4477611940298 10.4477611940298 10.4477611940298 6.58857979502196 13.3570792520036 13.3570792520036 13.3570792520036 16.8634064080944 16.8634064080944 5.99315068493151 5.99315068493151 5.99315068493151 5.99315068493151 5.99315068493151 5.99315068493151 5.99315068493151 5.99315068493151 5.99315068493151 5.99315068493151 5.99315068493151 5.99315068493151 5.99315068493151 5.99315068493151 0 0 0 0 0 0 0 0 0 0 0 0 0 0 0 0 0 0 0 5.34045393858478 5.34045393858478 5.34045393858478 5.34045393858478 5.34045393858478 5.34045393858478 5.34045393858478 5.34045393858478 5.34045393858478 5.34045393858478 5.34045393858478 5.34045393858478 5.34045393858478 5.34045393858478 5.34045393858478 8.15850815850816 8.15850815850816 8.15850815850816 8.15850815850816 3.382949932341 3.382949932341 9.18196994991653 9.45378151260504 9.45378151260504 9.45378151260504 8.31600831600832 8.31600831600832 8.31600831600832 8.31600831600832 2.79329608938547 2.79329608938547 0 0 0 0 0 -9999 -9999 -9999 -9999 -9999 -9999 -9999 -9999 -9999 -9999 -9999
-9999 -9999 -9999 -9999 -9999 -9999 -9999 -9999 -9999 -9999 -9999 -9999 -9999 -9999 -9999 -9999 -9999 -9999 -9999 -9999 -9999 -9999 -9999 -9999 -9999 -9999 -9999 -9999 -9999 -9999 -9999 -9999 -9999 -9999 -9999 -9999 -9999 -9999 -9999 -9999 -9999 -9999 -9999 -9999 -9999 -9999 -9999 -9999 -9999 -9999 -9999 -9999 -9999 -9999 -9999 -9999 -9999 -9999 -9999 -9999 -9999 -9999 -9999 -9999 -9999 -9999 -9999 -9999 -9999 -9999 -9999 -9999 -9999 -9999 -9999 -9999 -9999 -9999 -9999 -9999 -9999 -9999 -9999 -9999 -9999 -9999 -9999 -9999 -9999 -9999 -9999 -9999 -9999 -9999 -9999 -9999 -9999 -9999 -9999 -9999 -9999 -9999 -9999 -9999 -9999 -9999 -9999 -9999 -9999 -9999 -9999 -9999 -9999 -9999 -9999 -9999 -9999 -9999 -9999 -9999 -9999 -9999 -9999 -9999 -9999 -9999 -9999 -9999 -9999 -9999 -9999 -9999 -9999 -9999 -9999 -9999 -9999 -9999 -9999 -9999 -9999 -9999 -9999 -9999 -9999 -9999 -9999 -9999 -9999 -9999 -9999 -9999 -9999 -9999 -9999 -9999 -9999 -9999 -9999 -9999 -9999 -9999 -9999 -9999 -9999 -9999 -9999 -9999 -9999 -9999 -9999 -9999 -9999 -9999 -9999 -9999 -9999 -9999 -9999 -9999 -9999 -9999 -9999 -9999 -9999 -9999 -9999 -9999 -9999 -9999 -9999 -9999 -9999 -9999 -9999 -9999 -9999 -9999 -9999 -9999 -9999 -9999 -9999 -9999 -9999 -9999 -9999 -9999 -9999 -9999 -9999 -9999 -9999 -9999 -9999 -9999 -9999 -9999 -9999 -9999 -9999 -9999 -9999 -9999 -9999 -9999 -9999 -9999 -9999 -9999 -9999 -9999 -9999 -9999 -9999 -9999 -9999 -9999 -9999 -9999 -9999 -9999 -9999 -9999 -9999 -9999 -9999 -9999 -9999 -9999 -9999 -9999 -9999 -9999 -9999 -9999 -9999 -9999 -9999 -9999 -9999 -9999 -9999 -9999 -9999 -9999 -9999 -9999 -9999 -9999 -9999 -9999 -9999 -9999 -9999 -9999 -9999 -9999 -9999 -9999 -9999 -9999 -9999 -9999 -9999 -9999 -9999 -9999 -9999 -9999 -9999 -9999 -9999 -9999 -9999 -9999 -9999 -9999 -9999 -9999 -9999 -9999 -9999 -9999 -9999 10.8892921960073 -9999 -9999 -9999 -9999 -9999 10.8892921960073 26.0869565217391 10.498687664042 10.498687664042 10.498687664042 10.498687664042 12.1681415929204 12.1681415929204 17.6715176715177 17.6715176715177 17.6715176715177 6.51465798045603 6.51465798045603 0 0 10.4477611940298 10.4477611940298 6.58857979502196 6.58857979502196 6.58857979502196 13.3570792520036 13.9563106796117 16.8634064080944 16.8634064080944 16.8634064080944 5.99315068493151 5.99315068493151 5.99315068493151 5.99315068493151 5.99315068493151 5.99315068493151 5.99315068493151 5.99315068493151 5.99315068493151 5.99315068493151 5.99315068493151 5.99315068493151 0 0 0 0 0 0 0 0 0 0 0 0 0 0 0 0 0 0 0 0 0 0 5.34045393858478 5.34045393858478 5.34045393858478 5.34045393858478 5.34045393858478 5.34045393858478 5.34045393858478 5.34045393858478 5.34045393858478 5.34045393858478 5.34045393858478 5.34045393858478 5.34045393858478 0 0 8.15850815850816 8.15850815850816 3.382949932341 3.382949932341 3.382949932341 3.382949932341 3.382949932341 3.382949932341 3.382949932341 0 0 0 0 0 0 0 0 0 0 -9999 -9999 -9999 -9999 -9999 -9999 -9999 -9999 -9999 -9999 -9999
-9999 -9999 -9999 -9999 -9999 -9999 -9999 -9999 -9999 -9999 -9999 -9999 -9999 -9999 -9999 -9999 -9999 -9999 -9999 -9999 -9999 -9999 -9999 -9999 -9999 -9999 -9999 -9999 -9999 -9999 -9999 -9999 -9999 -9999 -9999 -9999 -9999 -9999 -9999 -9999 -9999 -9999 -9999 -9999 -9999 -9999 -9999 -9999 -9999 -9999 -9999 -9999 -9999 -9999 -9999 -9999 -9999 -9999 -9999 -9999 -9999 -9999 -9999 -9999 -9999 -9999 -9999 -9999 -9999 -9999 -9999 -9999 -9999 -9999 -9999 -9999 -9999 -9999 -9999 -9999 -9999 -9999 -9999 -9999 -9999 -9999 -9999 -9999 -9999 -9999 -9999 -9999 -9999 -9999 -9999 -9999 -9999 -9999 -9999 -9999 -9999 -9999 -9999 -9999 -9999 -9999 -9999 -9999 -9999 -9999 -9999 -9999 -9999 -9999 -9999 -9999 -9999 -9999 -9999 -9999 -9999 -9999 -9999 -9999 -9999 -9999 -9999 -9999 -9999 -9999 -9999 -9999 -9999 -9999 -9999 -9999 -9999 -9999 -9999 -9999 -9999 -9999 -9999 -9999 -9999 -9999 -9999 -9999 -9999 -9999 -9999 -9999 -9999 -9999 -9999 -9999 -9999 -9999 -9999 -9999 -9999 -9999 -9999 -9999 -9999 -9999 -9999 -9999 -9999 -9999 -9999 -9999 -9999 -9999 -9999 -9999 -9999 -9999 -9999 -9999 -9999 -9999 -9999 -9999 -9999 -9999 -9999 -9999 -9999 -9999 -9999 -9999 -9999 -9999 -9999 -9999 -9999 -9999 -9999 -9999 -9999 -9999 -9999 -9999 -9999 -9999 -9999 -9999 -9999 -9999 -9999 -9999 -9999 -9999 -9999 -9999 -9999 -9999 -9999 -9999 -9999 -9999 -9999 -9999 -9999 -9999 -9999 -9999 -9999 -9999 -9999 -9999 -9999 -9999 -9999 -9999 -9999 -9999 -9999 -9999 -9999 -9999 -9999 -9999 -9999 -9999 -9999 -9999 -9999 -9999 -9999 -9999 -9999 -9999 -9999 -9999 -9999 -9999 -9999 -9999 -9999 -9999 -9999 -9999 -9999 -9999 -9999 -9999 -9999 -9999 -9999 -9999 -9999 -9999 -9999 -9999 -9999 -9999 -9999 -9999 -9999 -9999 -9999 -9999 -9999 -9999 -9999 -9999 -9999 -9999 -9999 -9999 -9999 -9999 -9999 -9999 -9999 -9999 -9999 -9999 -9999 -9999 -9999 -9999 10.8892921960073 10.8892921960073 10.8892921960073 -9999 -9999 -9999 26.0869565217391 26.0869565217391 26.0869565217391 26.0869565217391 10.498687664042 10.498687664042 10.498687664042 10.498687664042 18.6440677966102 17.6715176715177 17.6715176715177 17.6715176715177 17.6715176715177 6.51465798045603 0 0 0 6.58857979502196 6.58857979502196 6.58857979502196 13.3333333333333 13.9563106796117 13.9563106796117 16.8634064080944 16.8634064080944 7.36377025036819 7.36377025036819 5.99315068493151 5.99315068493151 5.99315068493151 5.99315068493151 5.99315068493151 5.99315068493151 5.99315068493151 5.99315068493151 5.99315068493151 0 0 0 0 0 0 0 0 0 0 0 0 0 0 0 0 0 0 0 0 0 0 0 0 0 0 5.34045393858478 5.34045393858478 5.34045393858478 5.34045393858478 5.34045393858478 5.34045393858478 5.34045393858478 5.34045393858478 5.34045393858478 5.34045393858478 0 0 0 0 0 3.382949932341 3.382949932341 3.382949932341 3.382949932341 3.382949932341 0 0 0 0 0 3.14465408805031 3.14465408805031 3.14465408805031 3.14465408805031 0 0 0 0 -9999 -9999 -9999 -9999 -9999 -9999 -9999 -9999 -9999 -9999
-9999 -9999 -9999 -9999 -9999 -9999 -9999 -9999 -9999 -9999 -9999 -9999 -9999 -9999 -9999 -9999 -9999 -9999 -9999 -9999 -9999 -9999 -9999 -9999 -9999 -9999 -9999 -9999 -9999 -9999 -9999 -9999 -9999 -9999 -9999 -9999 -9999 -9999 -9999 -9999 -9999 -9999 -9999 -9999 -9999 -9999 -9999 -9999 -9999 -9999 -9999 -9999 -9999 -9999 -9999 -9999 -9999 -9999 -9999 -9999 -9999 -9999 -9999 -9999 -9999 -9999 -9999 -9999 -9999 -9999 -9999 -9999 -9999 -9999 -9999 -9999 -9999 -9999 -9999 -9999 -9999 -9999 -9999 -9999 -9999 -9999 -9999 -9999 -9999 -9999 -9999 -9999 -9999 -9999 -9999 -9999 -9999 -9999 -9999 -9999 -9999 -9999 -9999 -9999 -9999 -9999 -9999 -9999 -9999 -9999 -9999 -9999 -9999 -9999 -9999 -9999 -9999 -9999 -9999 -9999 -9999 -9999 -9999 -9999 -9999 -9999 -9999 -9999 -9999 -9999 -9999 -9999 -9999 -9999 -9999 -9999 -9999 -9999 -9999 -9999 -9999 -9999 -9999 -9999 -9999 -9999 -9999 -9999 -9999 -9999 -9999 -9999 -9999 -9999 -9999 -9999 -9999 -9999 -9999 -9999 -9999 -9999 -9999 -9999 -9999 -9999 -9999 -9999 -9999 -9999 -9999 -9999 -9999 -9999 -9999 -9999 -9999 -9999 -9999 -9999 -9999 -9999 -9999 -9999 -9999 -9999 -9999 -9999 -9999 -9999 -9999 -9999 -9999 -9999 -9999 -9999 -9999 -9999 -9999 -9999 -9999 -9999 -9999 -9999 -9999 -9999 -9999 -9999 -9999 -9999 -9999 -9999 -9999 -9999 -9999 -9999 -9999 -9999 -9999 -9999 -9999 -9999 -9999 -9999 -9999 -9999 -9999 -9999 -9999 -9999 -9999 -9999 -9999 -9999 -9999 -9999 -9999 -9999 -9999 -9999 -9999 -9999 -9999 -9999 -9999 -9999 -9999 -9999 -9999 -9999 -9999 -9999 -9999 -9999 -9999 -9999 -9999 -9999 -9999 -9999 -9999 -9999 -9999 -9999 -9999 -9999 -9999 -9999 -9999 -9999 -9999 -9999 -9999 -9999 -9999 -9999 -9999 -9999 -9999 -9999 -9999 -9999 -9999 -9999 -9999 -9999 -9999 -9999 -9999 -9999 -9999 -9999 -9999 -9999 -9999 -9999 -9999 -9999 -9999 -9999 -9999 -9999 -9999 -9999 -9999 -9999 -9999 -9999 10.8892921960073 10.8892921960073 26.0869565217391 26.0869565217391 26.0869565217391 26.0869565217391 10.498687664042 10.498687664042 28.0898876404494 18.6440677966102 18.6440677966102 18.6440677966102 17.6715176715177 0 0 0 0 0 0 0 6.58857979502196 13.3333333333333 4.82315112540193 4.82315112540193 13.9563106796117 7.36377025036819 7.36377025036819 7.36377025036819 7.36377025036819 7.36377025036819 5.99315068493151 5.99315068493151 5.99315068493151 5.99315068493151 5.99315068493151 5.99315068493151 5.99315068493151 0 0 0 0 0 0 0 0 0 0 0 0 0 0 0 0 0 0 0 0 0 0 0 0 0 0 0 0 0 5.34045393858478 5.34045393858478 5.34045393858478 5.34045393858478 5.34045393858478 5.34045393858478 5.34045393858478 5.34045393858478 0 0 0 0 0 3.382949932341 3.382949932341 3.382949932341 3.382949932341 0 0 0 0 0 8.65384615384615 3.14465408805031 3.14465408805031 3.14465408805031 3.14465408805031 5.55555555555556 5.55555555555556 5.55555555555556 0 -9999 -9999 -9999 -9999 -9999 -9999 -9999 -9999 -9999 -9999
-9999 -9999 -9999 -9999 -9999 -9999 -9999 -9999 -9999 -9999 -9999 -9999 -9999 -9999 -9999 -9999 -9999 -9999 -9999 -9999 -9999 -9999 -9999 -9999 -9999 -9999 -9999 -9999 -9999 -9999 -9999 -9999 -9999 -9999 -9999 -9999 -9999 -9999 -9999 -9999 -9999 -9999 -9999 -9999 -9999 -9999 -9999 -9999 -9999 -9999 -9999 -9999 -9999 -9999 -9999 -9999 -9999 -9999 -9999 -9999 -9999 -9999 -9999 -9999 -9999 -9999 -9999 -9999 -9999 -9999 -9999 -9999 -9999 -9999 -9999 -9999 -9999 -9999 -9999 -9999 -9999 -9999 -9999 -9999 -9999 -9999 -9999 -9999 -9999 -9999 -9999 -9999 -9999 -9999 -9999 -9999 -9999 -9999 -9999 -9999 -9999 -9999 -9999 -9999 -9999 -9999 -9999 -9999 -9999 -9999 -9999 -9999 -9999 -9999 -9999 -9999 -9999 -9999 -9999 -9999 -9999 -9999 -9999 -9999 -9999 -9999 -9999 -9999 -9999 -9999 -9999 -9999 -9999 -9999 -9999 -9999 -9999 -9999 -9999 -9999 -9999 -9999 -9999 -9999 -9999 -9999 -9999 -9999 -9999 -9999 -9999 -9999 -9999 -9999 -9999 -9999 -9999 -9999 -9999 -9999 -9999 -9999 -9999 -9999 -9999 -9999 -9999 -9999 -9999 -9999 -9999 -9999 -9999 -9999 -9999 -9999 -9999 -9999 -9999 -9999 -9999 -9999 -9999 -9999 -9999 -9999 -9999 -9999 -9999 -9999 -9999 -9999 -9999 -9999 -9999 -9999 -9999 -9999 -9999 -9999 -9999 -9999 -9999 -9999 -9999 -9999 -9999 -9999 -9999 -9999 -9999 -9999 -9999 -9999 -9999 -9999 -9999 -9999 -9999 -9999 -9999 -9999 -9999 -9999 -9999 -9999 -9999 -9999 -9999 -9999 -9999 -9999 -9999 -9999 -9999 -9999 -9999 -9999 -9999 -9999 -9999 -9999 -9999 -9999 -9999 -9999 -9999 -9999 -9999 -9999 -9999 -9999 -9999 -9999 -9999 -9999 -9999 -9999 -9999 -9999 -9999 -9999 -9999 -9999 -9999 -9999 -9999 -9999 -9999 -9999 -9999 -9999 -9999 -9999 -9999 -9999 -9999 -9999 -9999 -9999 -9999 -9999 -9999 -9999 -9999 -9999 -9999 -9999 -9999 -9999 -9999 -9999 -9999 -9999 -9999 -9999 -9999 -9999 -9999 -9999 -9999 0 -9999 -9999 0 -9999 -9999 10.8892921960073 10.8892921960073 10.8892921960073 26.0869565217391 26.0869565217391 19.9667221297837 19.9667221297837 19.9667221297837 28.0898876404494 28.0898876404494 33.195020746888 18.6440677966102 18.6440677966102 18.6440677966102 0 0 7.44047619047619 7.44047619047619 0 0 0 11.9581464872945 13.3333333333333 4.82315112540193 7.36377025036819 13.9563106796117 13.9563106796117 7.36377025036819 7.36377025036819 7.36377025036819 7.36377025036819 7.36377025036819 5.99315068493151 5.99315068493151 5.99315068493151 5.99315068493151 0 0 0 0 0 0 0 0 0 0 0 0 0 0 0 0 0 0 0 0 0 0 0 0 0 0 0 0 0 0 0 0 0 0 5.34045393858478 5.34045393858478 5.34045393858478 5.34045393858478 5.34045393858478 0 0 0 0 0 0 0 0 0 0 0 0 0 0 0 8.65384615384615 8.65384615384615 8.65384615384615 5.55555555555556 5.55555555555556 0 0 -9999 -9999 -9999 -9999 -9999 -9999 -9999 -9999 -9999 -9999 -9999
-9999 -9999 -9999 -9999 -9999 -9999 -9999 -9999 -9999 -9999 -9999 -9999 -9999 -9999 -9999 -9999 -9999 -9999 -9999 -9999 -9999 -9999 -9999 -9999 -9999 -9999 -9999 -9999 -9999 -9999 -9999 -9999 -9999 -9999 -9999 -9999 -9999 -9999 -9999 -9999 -9999 -9999 -9999 -9999 -9999 -9999 -9999 -9999 -9999 -9999 -9999 -9999 -9999 -9999 -9999 -9999 -9999 -9999 -9999 -9999 -9999 -9999 -9999 -9999 -9999 -9999 -9999 -9999 -9999 -9999 -9999 -9999 -9999 -9999 -9999 -9999 -9999 -9999 -9999 -9999 -9999 -9999 -9999 -9999 -9999 -9999 -9999 -9999 -9999 -9999 -9999 -9999 -9999 -9999 -9999 -9999 -9999 -9999 -9999 -9999 -9999 -9999 -9999 -9999 -9999 -9999 -9999 -9999 -9999 -9999 -9999 -9999 -9999 -9999 -9999 -9999 -9999 -9999 -9999 -9999 -9999 -9999 -9999 -9999 -9999 -9999 -9999 -9999 -9999 -9999 -9999 -9999 -9999 -9999 -9999 -9999 -9999 -9999 -9999 -9999 -9999 -9999 -9999 -9999 -9999 -9999 -9999 -9999 -9999 -9999 -9999 -9999 -9999 -9999 -9999 -9999 -9999 -9999 -9999 -9999 -9999 -9999 -9999 -9999 -9999 -9999 -9999 -9999 -9999 -9999 -9999 -9999 -9999 -9999 -9999 -9999 -9999 -9999 -9999 -9999 -9999 -9999 -9999 -9999 -9999 -9999 -9999 -9999 -9999 -9999 -9999 -9999 -9999 -9999 -9999 -9999 -9999 -9999 -9999 -9999 -9999 -9999 -9999 -9999 -9999 -9999 -9999 -9999 -9999 -9999 -9999 -9999 -9999 -9999 -9999 -9999 -9999 -9999 -9999 -9999 -9999 -9999 -9999 -9999 -9999 -9999 -9999 -9999 -9999 -9999 -9999 -9999 -9999 -9999 -9999 -9999 -9999 -9999 -9999 -9999 -9999 -9999 -9999 -9999 -9999 -9999 -9999 -9999 -9999 -9999 -9999 -9999 -9999 -9999 -9999 -9999 -9999 -9999 -9999 -9999 -9999 -9999 -9999 -9999 -9999 -9999 -9999 -9999 -9999 -9999 -9999 -9999 -9999 -9999 -9999 -9999 -9999 -9999 -9999 -9999 -9999 -9999 -9999 -9999 -9999 -9999 -9999 -9999 -9999 -9999 -9999 -9999 -9999 -9999 -9999 -9999 -9999 -9999 -9999 0 -9999 -9999 0 0 -9999 0 37.1819960861057 37.1819960861057 10.8892921960073 10.8892921960073 10.8892921960073 26.0869565217391 4.22832980972516 4.22832980972516 19.9667221297837 19.9667221297837 27.6752767527675 27.6752767527675 33.195020746888 33.195020746888 18.6440677966102 8.33333333333333 8.33333333333333 8.33333333333333 7.44047619047619 7.44047619047619 11.9581464872945 11.9581464872945 11.9581464872945 4.82315112540193 7.36377025036819 7.36377025036819 13.9563106796117 13.9563106796117 7.36377025036819 7.36377025036819 7.36377025036819 7.36377025036819 7.36377025036819 7.36377025036819 5.99315068493151 0 0 0 0 0 0 0 0 0 0 0 0 0 0 0 0 0 0 0 0 0 0 0 0 0 0 0 0 0 0 0 0 0 0 0 0 0 0 0 0 0 0 0 0 0 0 0 0 0 0 0 0 8.7719298245614 8.7719298245614 8.7719298245614 0 0 0 0 5.55555555555556 5.55555555555556 0 -9999 -9999 -9999 -9999 -9999 -9999 -9999 -9999 -9999 -9999 -9999 -9999
-9999 -9999 -9999 -9999 -9999 -9999 -9999 -9999 -9999 -9999 -9999 -9999 -9999 -9999 -9999 -9999 -9999 -9999 -9999 -9999 -9999 -9999 -9999 -9999 -9999 -9999 -9999 -9999 -9999 -9999 -9999 -9999 -9999 -9999 -9999 -9999 -9999 -9999 -9999 -9999 -9999 -9999 -9999 -9999 -9999 -9999 -9999 -9999 -9999 -9999 -9999 -9999 -9999 -9999 -9999 -9999 -9999 -9999 -9999 -9999 -9999 -9999 -9999 -9999 -9999 -9999 -9999 -9999 -9999 -9999 -9999 -9999 -9999 -9999 -9999 -9999 -9999 -9999 -9999 -9999 -9999 -9999 -9999 -9999 -9999 -9999 -9999 -9999 -9999 -9999 -9999 -9999 -9999 -9999 -9999 -9999 -9999 -9999 -9999 -9999 -9999 -9999 -9999 -9999 -9999 -9999 -9999 -9999 -9999 -9999 -9999 -9999 -9999 -9999 -9999 -9999 -9999 -9999 -9999 -9999 -9999 -9999 -9999 -9999 -9999 -9999 -9999 -9999 -9999 -9999 -9999 -9999 -9999 -9999 -9999 -9999 -9999 -9999 -9999 -9999 -9999 -9999 -9999 -9999 -9999 -9999 -9999 -9999 -9999 -9999 -9999 -9999 -9999 -9999 -9999 -9999 -9999 -9999 -9999 -9999 -9999 -9999 -9999 -9999 -9999 -9999 -9999 -9999 -9999 -9999 -9999 -9999 -9999 -9999 -9999 -9999 -9999 -9999 -9999 -9999 -9999 -9999 -9999 -9999 -9999 -9999 -9999 -9999 -9999 -9999 -9999 -9999 -9999 -9999 -9999 -9999 -9999 -9999 -9999 -9999 -9999 -9999 -9999 -9999 -9999 -9999 -9999 -9999 -9999 -9999 -9999 -9999 -9999 -9999 -9999 -9999 -9999 -9999 -9999 -9999 -9999 -9999 -9999 -9999 -9999 -9999 -9999 -9999 -9999 -9999 -9999 -9999 -9999 -9999 -9999 -9999 -9999 -9999 -9999 -9999 -9999 -9999 -9999 -9999 -9999 -9999 -9999 -9999 -9999 -9999 -9999 -9999 -9999 -9999 -9999 -9999 -9999 -9999 -9999 -9999 -9999 -9999 -9999 -9999 -9999 -9999 -9999 -9999 -9999 -9999 -9999 -9999 -9999 -9999 -9999 -9999 -9999 -9999 -9999 -9999 -9999 -9999 -9999 -9999 -9999 -9999 -9999 -9999 -9999 -9999 -9999 -9999 -9999 -9999 -9999 -9999 -9999 -9999 0 0 0 0 0 -9999 0 37.1819960861057 37.1819960861057 37.1819960861057 37.1819960861057 10.8892921960073 0 4.22832980972516 19.9667221297837 19.9667221297837 2.08333333333333 2.08333333333333 19.9667221297837 27.6752767527675 33.195020746888 6.05326876513317 6.05326876513317 8.33333333333333 8.33333333333333 8.33333333333333 8.33333333333333 31.4465408805031 31.4465408805031 11.9581464872945 11.9581464872945 11.9581464872945 0 7.36377025036819 7.36377025036819 7.36377025036819 7.36377025036819 7.36377025036819 7.36377025036819 7.36377025036819 7.36377025036819 0 0 0 0 0 0 0 0 0 0 0 0 0 0 0 0 0 0 0 0 0 0 0 0 0 0 0 0 0 0 0 0 0 0 0 0 0 0 0 0 0 0 0 0 0 0 0 0 0 0 0 0 0 0 8.7719298245614 8.7719298245614 0 0 0 0 0 0 0 0 -9999 -9999 -9999 -9999 -9999 -9999 -9999 -9999 -9999 -9999 -9999 -9999
-9999 -9999 -9999 -9999 -9999 -9999 -9999 -9999 -9999 -9999 -9999 -9999 -9999 -9999 -9999 -9999 -9999 -9999 -9999 -9999 -9999 -9999 -9999 -9999 -9999 -9999 -9999 -9999 -9999 -9999 -9999 -9999 -9999 -9999 -9999 -9999 -9999 -9999 -9999 -9999 -9999 -9999 -9999 -9999 -9999 -9999 -9999 -9999 -9999 -9999 -9999 -9999 -9999 -9999 -9999 -9999 -9999 -9999 -9999 -9999 -9999 -9999 -9999 -9999 -9999 -9999 -9999 -9999 -9999 -9999 -9999 -9999 -9999 -9999 -9999 -9999 -9999 -9999 -9999 -9999 -9999 -9999 -9999 -9999 -9999 -9999 -9999 -9999 -9999 -9999 -9999 -9999 -9999 -9999 -9999 -9999 -9999 -9999 -9999 -9999 -9999 -9999 -9999 -9999 -9999 -9999 -9999 -9999 -9999 -9999 -9999 -9999 -9999 -9999 -9999 -9999 -9999 -9999 -9999 -9999 -9999 -9999 -9999 -9999 -9999 -9999 -9999 -9999 -9999 -9999 -9999 -9999 -9999 -9999 -9999 -9999 -9999 -9999 -9999 -9999 -9999 -9999 -9999 -9999 -9999 -9999 -9999 -9999 -9999 -9999 -9999 -9999 -9999 -9999 -9999 -9999 -9999 -9999 -9999 -9999 -9999 -9999 -9999 -9999 -9999 -9999 -9999 -9999 -9999 -9999 -9999 -9999 -9999 -9999 -9999 -9999 -9999 -9999 -9999 -9999 -9999 -9999 -9999 -9999 -9999 -9999 -9999 -9999 -9999 -9999 -9999 -9999 -9999 -9999 -9999 -9999 -9999 -9999 -9999 -9999 -9999 -9999 -9999 -9999 -9999 -9999 -9999 -9999 -9999 -9999 -9999 -9999 -9999 -9999 -9999 -9999 -9999 -9999 -9999 -9999 -9999 -9999 -9999 -9999 -9999 -9999 -9999 -9999 -9999 -9999 -9999 -9999 -9999 -9999 -9999 -9999 -9999 -9999 -9999 -9999 -9999 -9999 -9999 -9999 -9999 -9999 -9999 -9999 -9999 -9999 -9999 -9999 -9999 -9999 -9999 -9999 -9999 -9999 -9999 -9999 -9999 -9999 -9999 -9999 -9999 -9999 -9999 -9999 -9999 -9999 -9999 -9999 -9999 -9999 -9999 -9999 -9999 -9999 -9999 -9999 -9999 -9999 -9999 -9999 -9999 -9999 -9999 -9999 -9999 -9999 -9999 -9999 -9999 -9999 -9999 -9999 -9999 -9999 -9999 -9999 -9999 -9999 -9999 6.83371298405467 6.83371298405467 24.948024948025 37.1819960861057 37.1819960861057 7.85973397823458 7.85973397823458 0 0 4.22832980972516 2.08333333333333 2.08333333333333 2.08333333333333 2.08333333333333 33.9321357285429 36.0294117647059 6.05326876513317 6.05326876513317 6.05326876513317 6.05326876513317 6.05326876513317 31.4465408805031 31.4465408805031 4.6189376443418 4.6189376443418 4.6189376443418 0 0 0 7.36377025036819 7.36377025036819 7.36377025036819 7.36377025036819 7.36377025036819 7.36377025036819 0 0 0 0 0 0 0 0 0 0 0 0 0 0 0 0 0 0 0 0 0 0 0 0 0 0 0 0 0 0 0 0 0 0 0 0 0 0 0 0 0 0 0 0 0 0 0 0 0 0 0 0 0 0 0 8.7719298245614 8.7719298245614 0 0 0 0 0 0 0 -9999 -9999 -9999 -9999 -9999 -9999 -9999 -9999 -9999 -9999 -9999 -9999 -9999
-9999 -9999 -9999 -9999 -9999 -9999 -9999 -9999 -9999 -9999 -9999 -9999 -9999 -9999 -9999 -9999 -9999 -9999 -9999 -9999 -9999 -9999 -9999 -9999 -9999 -9999 -9999 -9999 -9999 -9999 -9999 -9999 -9999 -9999 -9999 -9999 -9999 -9999 -9999 -9999 -9999 -9999 -9999 -9999 -9999 -9999 -9999 -9999 -9999 -9999 -9999 -9999 -9999 -9999 -9999 -9999 -9999 -9999 -9999 -9999 -9999 -9999 -9999 -9999 -9999 -9999 -9999 -9999 -9999 -9999 -9999 -9999 -9999 -9999 -9999 -9999 -9999 -9999 -9999 -9999 -9999 -9999 -9999 -9999 -9999 -9999 -9999 -9999 -9999 -9999 -9999 -9999 -9999 -9999 -9999 -9999 -9999 -9999 -9999 -9999 -9999 -9999 -9999 -9999 -9999 -9999 -9999 -9999 -9999 -9999 -9999 -9999 -9999 -9999 -9999 -9999 -9999 -9999 -9999 -9999 -9999 -9999 -9999 -9999 -9999 -9999 -9999 -9999 -9999 -9999 -9999 -9999 -9999 -9999 -9999 -9999 -9999 -9999 -9999 -9999 -9999 -9999 -9999 -9999 -9999 -9999 -9999 -9999 -9999 -9999 -9999 -9999 -9999 -9999 -9999 -9999 -9999 -9999 -9999 -9999 -9999 -9999 -9999 -9999 -9999 -9999 -9999 -9999 -9999 -9999 -9999 -9999 -9999 -9999 -9999 -9999 -9999 -9999 -9999 -9999 -9999 -9999 -9999 -9999 -9999 -9999 -9999 -9999 -9999 -9999 -9999 -9999 -9999 -9999 -9999 -9999 -9999 -9999 -9999 -9999 -9999 -9999 -9999 -9999 -9999 -9999 -9999 -9999 -9999 -9999 -9999 -9999 -9999 -9999 -9999 -9999 -9999 -9999 -9999 -9999 -9999 -9999 -9999 -9999 -9999 -9999 -9999 -9999 -9999 -9999 -9999 -9999 -9999 -9999 -9999 -9999 -9999 -9999 -9999 -9999 -9999 -9999 -9999 -9999 -9999 -9999 -9999 -9999 -9999 -9999 -9999 -9999 -9999 -9999 -9999 -9999 -9999 -9999 -9999 -9999 -9999 -9999 -9999 -9999 -9999 -9999 -9999 -9999 -9999 -9999 -9999 -9999 -9999 -9999 -9999 -9999 -9999 -9999 -9999 -9999 -9999 -9999 -9999 -9999 -9999 -9999 -9999 -9999 -9999 -9999 -9999 -9999 -9999 -9999 -9999 -9999 -9999 -9999 -9999 -9999 0 0 6.83371298405467 6.83371298405467 6.83371298405467 24.948024948025 12.924071082391 12.924071082391 7.85973397823458 7.85973397823458 7.85973397823458 0 0 4.22832980972516 2.08333333333333 4.31034482758621 4.31034482758621 33.9321357285429 33.9321357285429 36.0294117647059 6.05326876513317 36.0294117647059 6.05326876513317 3.2 3.2 3.2 31.4465408805031 4.6189376443418 3.2 3.2 3.2 7.36377025036819 7.36377025036819 7.36377025036819 7.36377025036819 7.36377025036819 10.1237345331834 10.1237345331834 10.1237345331834 10.1237345331834 0 0 0 0 0 0 0 0 0 0 0 0 0 0 0 0 0 0 0 0 0 0 0 0 0 0 0 0 0 0 0 0 0 0 0 0 0 0 0 0 0 0 0 0 0 0 0 0 0 0 0 0 0 0 0 14.9082568807339 14.9082568807339 14.9082568807339 14.9082568807339 0 0 0 -9999 -9999 -9999 -9999 -9999 -9999 -9999 -9999 -9999 -9999 -9999 -9999 -9999
-9999 -9999 -9999 -9999 -9999 -9999 -9999 -9999 -9999 -9999 -9999 -9999 -9999 -9999 -9999 -9999 -9999 -9999 -9999 -9999 -9999 -9999 -9999 -9999 -9999 -9999 -9999 -9999 -9999 -9999 -9999 -9999 -9999 -9999 -9999 -9999 -9999 -9999 -9999 -9999 -9999 -9999 -9999 -9999 -9999 -9999 -9999 -9999 -9999 -9999 -9999 -9999 -9999 -9999 -9999 -9999 -9999 -9999 -9999 -9999 -9999 -9999 -9999 -9999 -9999 -9999 -9999 -9999 -9999 -9999 -9999 -9999 -9999 -9999 -9999 -9999 -9999 -9999 -9999 -9999 -9999 -9999 -9999 -9999 -9999 -9999 -9999 -9999 -9999 -9999 -9999 -9999 -9999 -9999 -9999 -9999 -9999 -9999 -9999 -9999 -9999 -9999 -9999 -9999 -9999 -9999 -9999 -9999 -9999 -9999 -9999 -9999 -9999 -9999 -9999 -9999 -9999 -9999 -9999 -9999 -9999 -9999 -9999 -9999 -9999 -9999 -9999 -9999 -9999 -9999 -9999 -9999 -9999 -9999 -9999 -9999 -9999 -9999 -9999 -9999 -9999 -9999 -9999 -9999 -9999 -9999 -9999 -9999 -9999 -9999 -9999 -9999 -9999 -9999 -9999 -9999 -9999 -9999 -9999 -9999 -9999 -9999 -9999 -9999 -9999 -9999 -9999 -9999 -9999 -9999 -9999 -9999 -9999 -9999 -9999 -9999 -9999 -9999 -9999 -9999 -9999 -9999 -9999 -9999 -9999 -9999 -9999 -9999 -9999 -9999 -9999 -9999 -9999 -9999 -9999 -9999 -9999 -9999 -9999 -9999 -9999 -9999 -9999 -9999 -9999 -9999 -9999 -9999 -9999 -9999 -9999 -9999 -9999 -9999 -9999 -9999 -9999 -9999 -9999 -9999 -9999 -9999 -9999 -9999 -9999 -9999 -9999 -9999 -9999 -9999 -9999 -9999 -9999 -9999 -9999 -9999 -9999 -9999 -9999 -9999 -9999 -9999 -9999 -9999 -9999 -9999 -9999 -9999 -9999 -9999 -9999 -9999 -9999 -9999 -9999 -9999 -9999 -9999 -9999 -9999 -9999 -9999 -9999 -9999 -9999 -9999 -9999 -9999 -9999 -9999 -9999 -9999 -9999 -9999 -9999 -9999 -9999 -9999 -9999 -9999 -9999 -9999 -9999 -9999 -9999 -9999 -9999 -9999 -9999 -9999 -9999 -9999 -9999 -9999 -9999 -9999 -9999 -9999 0 0 2.48344370860927 2.48344370860927 6.83371298405467 6.83371298405467 23.2558139534884 17.4418604651163 17.4418604651163 12.924071082391 12.924071082391 7.85973397823458 7.85973397823458 7.85973397823458 0 2.66429840142096 4.31034482758621 4.31034482758621 4.31034482758621 4.31034482758621 33.9321357285429 35.6294536817102 36.0294117647059 4.78011472275335 4.78011472275335 4.78011472275335 4.78011472275335 4.78011472275335 3.2 3.2 3.2 7.36377025036819 7.36377025036819 7.36377025036819 7.36377025036819 7.36377025036819 7.36377025036819 10.1237345331834 10.1237345331834 10.1237345331834 10.1237345331834 10.1237345331834 10.1237345331834 10.1237345331834 0 0 0 0 0 0 0 0 0 0 0 0 0 0 0 0 0 0 0 0 0 0 0 0 0 0 0 0 0 0 0 0 0 0 0 0 0 0 0 0 0 0 0 0 0 0 0 0 0 0 5.70342205323194 5.70342205323194 14.9082568807339 14.9082568807339 3.8659793814433 14.9082568807339 14.9082568807339 0 0 -9999 -9999 -9999 -9999 -9999 -9999 -9999 -9999 -9999 -9999 -9999 -9999 -9999 -9999
-9999 -9999 -9999 -9999 -9999 -9999 -9999 -9999 -9999 -9999 -9999 -9999 -9999 -9999 -9999 -9999 -9999 -9999 -9999 -9999 -9999 -9999 -9999 -9999 -9999 -9999 -9999 -9999 -9999 -9999 -9999 -9999 -9999 -9999 -9999 -9999 -9999 -9999 -9999 -9999 -9999 -9999 -9999 -9999 -9999 -9999 -9999 -9999 -9999 -9999 -9999 -9999 -9999 -9999 -9999 -9999 -9999 -9999 -9999 -9999 -9999 -9999 -9999 -9999 -9999 -9999 -9999 -9999 -9999 -9999 -9999 -9999 -9999 -9999 -9999 -9999 -9999 -9999 -9999 -9999 -9999 -9999 -9999 -9999 -9999 -9999 -9999 -9999 -9999 -9999 -9999 -9999 -9999 -9999 -9999 -9999 -9999 -9999 -9999 -9999 -9999 -9999 -9999 -9999 -9999 -9999 -9999 -9999 -9999 -9999 -9999 -9999 -9999 -9999 -9999 -9999 -9999 -9999 -9999 -9999 -9999 -9999 -9999 -9999 -9999 -9999 -9999 -9999 -9999 -9999 -9999 -9999 -9999 -9999 -9999 -9999 -9999 -9999 -9999 -9999 -9999 -9999 -9999 -9999 -9999 -9999 -9999 -9999 -9999 -9999 -9999 -9999 -9999 -9999 -9999 -9999 -9999 -9999 -9999 -9999 -9999 -9999 -9999 -9999 -9999 -9999 -9999 -9999 -9999 -9999 -9999 -9999 -9999 -9999 -9999 -9999 -9999 -9999 -9999 -9999 -9999 -9999 -9999 -9999 -9999 -9999 -9999 -9999 -9999 -9999 -9999 -9999 -9999 -9999 -9999 -9999 -9999 -9999 -9999 -9999 -9999 -9999 -9999 -9999 -9999 -9999 -9999 -9999 -9999 -9999 -9999 -9999 -9999 -9999 -9999 -9999 -9999 -9999 -9999 -9999 -9999 -9999 -9999 -9999 -9999 -9999 -9999 -9999 -9999 -9999 -9999 -9999 -9999 -9999 -9999 -9999 -9999 -9999 -9999 -9999 -9999 -9999 -9999 -9999 -9999 -9999 -9999 -9999 -9999 -9999 -9999 -9999 -9999 -9999 -9999 -9999 -9999 -9999 -9999 -9999 -9999 -9999 -9999 -9999 -9999 -9999 -9999 -9999 -9999 -9999 -9999 -9999 -9999 -9999 -9999 -9999 -9999 -9999 -9999 -9999 -9999 -9999 -9999 -9999 -9999 -9999 -9999 -9999 -9999 -9999 -9999 -9999 -9999 -9999 -9999 0 0 0 2.48344370860927 2.48344370860927 2.48344370860927 2.48344370860927 2.48344370860927 23.2558139534884 23.2558139534884 0 17.4418604651163 17.4418604651163 12.924071082391 12.924071082391 7.85973397823458 17.1232876712329 17.1232876712329 2.66429840142096 2.66429840142096 4.31034482758621 2.66429840142096 35.6294536817102 35.6294536817102 35.6294536817102 20.9876543209877 4.78011472275335 4.78011472275335 4.78011472275335 4.78011472275335 4.78011472275335 4.78011472275335 7.36377025036819 7.36377025036819 7.36377025036819 7.36377025036819 7.36377025036819 7.36377025036819 10.1237345331834 10.1237345331834 10.1237345331834 10.1237345331834 10.1237345331834 10.1237345331834 10.1237345331834 10.1237345331834 10.1237345331834 10.1237345331834 10.1237345331834 0 0 0 0 0 0 0 0 0 0 0 0 0 0 0 0 0 0 0 0 0 0 0 0 0 0 0 0 0 0 0 0 0 0 0 0 0 0 0 0 0 0 0 0 0 0 0 0 5.70342205323194 5.70342205323194 5.70342205323194 3.8659793814433 3.8659793814433 3.8659793814433 0 0 0 -9999 -9999 -9999 -9999 -9999 -9999 -9999 -9999 -9999 -9999 -9999 -9999 -9999 -9999
-9999 -9999 -9999 -9999 -9999 -9999 -9999 -9999 -9999 -9999 -9999 -9999 -9999 -9999 -9999 -9999 -9999 -9999 -9999 -9999 -9999 -9999 -9999 -9999 -9999 -9999 -9999 -9999 -9999 -9999 -9999 -9999 -9999 -9999 -9999 -9999 -9999 -9999 -9999 -9999 -9999 -9999 -9999 -9999 -9999 -9999 -9999 -9999 -9999 -9999 -9999 -9999 -9999 -9999 -9999 -9999 -9999 -9999 -9999 -9999 -9999 -9999 -9999 -9999 -9999 -9999 -9999 -9999 -9999 -9999 -9999 -9999 -9999 -9999 -9999 -9999 -9999 -9999 -9999 -9999 -9999 -9999 -9999 -9999 -9999 -9999 -9999 -9999 -9999 -9999 -9999 -9999 -9999 -9999 -9999 -9999 -9999 -9999 -9999 -9999 -9999 -9999 -9999 -9999 -9999 -9999 -9999 -9999 -9999 -9999 -9999 -9999 -9999 -9999 -9999 -9999 -9999 -9999 -9999 -9999 -9999 -9999 -9999 -9999 -9999 -9999 -9999 -9999 -9999 -9999 -9999 -9999 -9999 -9999 -9999 -9999 -9999 -9999 -9999 -9999 -9999 -9999 -9999 -9999 -9999 -9999 -9999 -9999 -9999 -9999 -9999 -9999 -9999 -9999 -9999 -9999 -9999 -9999 -9999 -9999 -9999 -9999 -9999 -9999 -9999 -9999 -9999 -9999 -9999 -9999 -9999 -9999 -9999 -9999 -9999 -9999 -9999 -9999 -9999 -9999 -9999 -9999 -9999 -9999 -9999 -9999 -9999 -9999 -9999 -9999 -9999 -9999 -9999 -9999 -9999 -9999 -9999 -9999 -9999 -9999 -9999 -9999 -9999 -9999 -9999 -9999 -9999 -9999 -9999 -9999 -9999 -9999 -9999 -9999 -9999 -9999 -9999 -9999 -9999 -9999 -9999 -9999 -9999 -9999 -9999 -9999 -9999 -9999 -9999 -9999 -9999 -9999 -9999 -9999 -9999 -9999 -9999 -9999 -9999 -9999 -9999 -9999 -9999 -9999 -9999 -9999 -9999 -9999 -9999 -9999 -9999 -9999 -9999 -9999 -9999 -9999 -9999 -9999 -9999 -9999 -9999 -9999 -9999 -9999 -9999 -9999 -9999 -9999 -9999 -9999 -9999 -9999 -9999 -9999 -9999 -9999 -9999 -9999 -9999 -9999 -9999 -9999 -9999 -9999 -9999 -9999 -9999 -9999 -9999 -9999 -9999 -9999 -9999 -9999 -9999 0 5.69259962049336 5.69259962049336 2.48344370860927 2.48344370860927 2.48344370860927 2.48344370860927 -9999 -9999 23.2558139534884 23.2558139534884 0 0 17.4418604651163 13.268156424581 13.268156424581 17.1232876712329 17.1232876712329 17.1232876712329 2.66429840142096 2.66429840142096 2.66429840142096 2.66429840142096 35.6294536817102 13.2743362831858 20.9876543209877 20.9876543209877 20.9876543209877 4.78011472275335 4.78011472275335 4.78011472275335 4.78011472275335 7.36377025036819 7.36377025036819 7.36377025036819 7.36377025036819 7.36377025036819 10.1237345331834 10.1237345331834 10.1237345331834 10.1237345331834 10.1237345331834 10.1237345331834 10.1237345331834 10.1237345331834 10.1237345331834 10.1237345331834 10.1237345331834 10.1237345331834 10.1237345331834 10.1237345331834 10.1237345331834 0 0 0 0 0 0 0 0 0 0 0 0 0 0 0 0 0 0 0 0 0 0 0 0 0 0 0 0 0 0 0 0 0 0 0 0 0 0 0 0 0 0 0 0 0 0 0 3.8659793814433 3.8659793814433 3.8659793814433 3.8659793814433 0 -9999 -9999 -9999 -9999 -9999 -9999 -9999 -9999 -9999 -9999 -9999 -9999 -9999 -9999 -9999 -9999
-9999 -9999 -9999 -9999 -9999 -9999 -9999 -9999 -9999 -9999 -9999 -9999 -9999 -9999 -9999 -9999 -9999 -9999 -9999 -9999 -9999 -9999 -9999 -9999 -9999 -9999 -9999 -9999 -9999 -9999 -9999 -9999 -9999 -9999 -9999 -9999 -9999 -9999 -9999 -9999 -9999 -9999 -9999 -9999 -9999 -9999 -9999 -9999 -9999 -9999 -9999 -9999 -9999 -9999 -9999 -9999 -9999 -9999 -9999 -9999 -9999 -9999 -9999 -9999 -9999 -9999 -9999 -9999 -9999 -9999 -9999 -9999 -9999 -9999 -9999 -9999 -9999 -9999 -9999 -9999 -9999 -9999 -9999 -9999 -9999 -9999 -9999 -9999 -9999 -9999 -9999 -9999 -9999 -9999 -9999 -9999 -9999 -9999 -9999 -9999 -9999 -9999 -9999 -9999 -9999 -9999 -9999 -9999 -9999 -9999 -9999 -9999 -9999 -9999 -9999 -9999 -9999 -9999 -9999 -9999 -9999 -9999 -9999 -9999 -9999 -9999 -9999 -9999 -9999 -9999 -9999 -9999 -9999 -9999 -9999 -9999 -9999 -9999 -9999 -9999 -9999 -9999 -9999 -9999 -9999 -9999 -9999 -9999 -9999 -9999 -9999 -9999 -9999 -9999 -9999 -9999 -9999 -9999 -9999 -9999 -9999 -9999 -9999 -9999 -9999 -9999 -9999 -9999 -9999 -9999 -9999 -9999 -9999 -9999 -9999 -9999 -9999 -9999 -9999 -9999 -9999 -9999 -9999 -9999 -9999 -9999 -9999 -9999 -9999 -9999 -9999 -9999 -9999 -9999 -9999 -9999 -9999 -9999 -9999 -9999 -9999 -9999 -9999 -9999 -9999 -9999 -9999 -9999 -9999 -9999 -9999 -9999 -9999 -9999 -9999 -9999 -9999 -9999 -9999 -9999 -9999 -9999 -9999 -9999 -9999 -9999 -9999 -9999 -9999 -9999 -9999 -9999 -9999 -9999 -9999 -9999 -9999 -9999 -9999 -9999 -9999 -9999 -9999 -9999 -9999 -9999 -9999 -9999 -9999 -9999 -9999 -9999 -9999 -9999 -9999 -9999 -9999 -9999 -9999 -9999 -9999 -9999 -9999 -9999 -9999 -9999 -9999 -9999 -9999 -9999 -9999 -9999 -9999 -9999 -9999 -9999 -9999 -9999 -9999 -9999 -9999 -9999 -9999 -9999 -9999 -9999 -9999 -9999 -9999 -9999 -9999 -9999 -9999 -9999 0 -9999 5.69259962049336 5.69259962049336 5.69259962049336 2.48344370860927 2.48344370860927 -9999 -9999 -9999 -9999 23.2558139534884 23.2558139534884 0 0 13.268156424581 13.268156424581 13.268156424581 17.1232876712329 13.268156424581 13.268156424581 2.66429840142096 2.66429840142096 9.38967136150235 13.2743362831858 13.2743362831858 13.2743362831858 20.9876543209877 7.27650727650728 7.27650727650728 4.78011472275335 4.78011472275335 4.78011472275335 4.78011472275335 7.36377025036819 7.36377025036819 7.36377025036819 10.1237345331834 10.1237345331834 10.1237345331834 10.1237345331834 10.1237345331834 10.1237345331834 10.1237345331834 10.1237345331834 10.1237345331834 10.1237345331834 10.1237345331834 10.1237345331834 10.1237345331834 10.1237345331834 10.1237345331834 10.1237345331834 10.1237345331834 10.1237345331834 0 0 0 0 0 0 0 0 0 0 0 0 0 0 0 0 0 0 0 0 0 0 0 0 0 0 0 0 0 0 0 0 0 0 0 0 0 0 0 0 0 0 0 0 3.8659793814433 3.8659793814433 0 0 0 -9999 -9999 -9999 -9999 -9999 -9999 -9999 -9999 -9999 -9999 -9999 -9999 -9999 -9999 -9999 -9999 -9999
-9999 -9999 -9999 -9999 -9999 -9999 -9999 -9999 -9999 -9999 -9999 -9999 -9999 -9999 -9999 -9999 -9999 -9999 -9999 -9999 -9999 -9999 -9999 -9999 -9999 -9999 -9999 -9999 -9999 -9999 -9999 -9999 -9999 -9999 -9999 -9999 -9999 -9999 -9999 -9999 -9999 -9999 -9999 -9999 -9999 -9999 -9999 -9999 -9999 -9999 -9999 -9999 -9999 -9999 -9999 -9999 -9999 -9999 -9999 -9999 -9999 -9999 -9999 -9999 -9999 -9999 -9999 -9999 -9999 -9999 -9999 -9999 -9999 -9999 -9999 -9999 -9999 -9999 -9999 -9999 -9999 -9999 -9999 -9999 -9999 -9999 -9999 -9999 -9999 -9999 -9999 -9999 -9999 -9999 -9999 -9999 -9999 -9999 -9999 -9999 -9999 -9999 -9999 -9999 -9999 -9999 -9999 -9999 -9999 -9999 -9999 -9999 -9999 -9999 -9999 -9999 -9999 -9999 -9999 -9999 -9999 -9999 -9999 -9999 -9999 -9999 -9999 -9999 -9999 -9999 -9999 -9999 -9999 -9999 -9999 -9999 -9999 -9999 -9999 -9999 -9999 -9999 -9999 -9999 -9999 -9999 -9999 -9999 -9999 -9999 -9999 -9999 -9999 -9999 -9999 -9999 -9999 -9999 -9999 -9999 -9999 -9999 -9999 -9999 -9999 -9999 -9999 -9999 -9999 -9999 -9999 -9999 -9999 -9999 -9999 -9999 -9999 -9999 -9999 -9999 -9999 -9999 -9999 -9999 -9999 -9999 -9999 -9999 -9999 -9999 -9999 -9999 -9999 -9999 -9999 -9999 -9999 -9999 -9999 -9999 -9999 -9999 -9999 -9999 -9999 -9999 -9999 -9999 -9999 -9999 -9999 -9999 -9999 -9999 -9999 -9999 -9999 -9999 -9999 -9999 -9999 -9999 -9999 -9999 -9999 -9999 -9999 -9999 -9999 -9999 -9999 -9999 -9999 -9999 -9999 -9999 -9999 -9999 -9999 -9999 -9999 -9999 -9999 -9999 -9999 -9999 -9999 -9999 -9999 -9999 -9999 -9999 -9999 -9999 -9999 -9999 -9999 -9999 -9999 -9999 -9999 -9999 -9999 -9999 -9999 -9999 -9999 -9999 -9999 -9999 -9999 -9999 -9999 -9999 -9999 -9999 -9999 -9999 -9999 -9999 -9999 -9999 -9999 -9999 -9999 -9999 -9999 -9999 -9999 -9999 -9999 -9999 0 0 -9999 -9999 -9999 -9999 5.69259962049336 -9999 -9999 -9999 -9999 -9999 -9999 -9999 10.5140186915888 10.5140186915888 0 0 0 34.4202898550725 13.268156424581 13.268156424581 13.268156424581 2.66429840142096 9.38967136150235 9.38967136150235 9.38967136150235 13.2743362831858 13.2743362831858 9.38967136150235 7.27650727650728 7.27650727650728 7.27650727650728 4.78011472275335 4.78011472275335 4.78011472275335 4.78011472275335 10.1237345331834 10.1237345331834 10.1237345331834 10.1237345331834 10.1237345331834 10.1237345331834 10.1237345331834 10.1237345331834 10.1237345331834 10.1237345331834 10.1237345331834 10.1237345331834 10.1237345331834 10.1237345331834 10.1237345331834 10.1237345331834 10.1237345331834 10.1237345331834 10.1237345331834 10.1237345331834 10.1237345331834 10.1237345331834 10.1237345331834 0 0 0 0 0 0 0 0 0 0 0 0 0 0 0 0 0 0 0 0 0 0 0 0 0 0 0 0 0 0 0 0 0 0 0 0 0 0 0 0 3.8659793814433 3.8659793814433 0 0 0 0 0 -9999 -9999 -9999 -9999 -9999 -9999 -9999 -9999 -9999 -9999 -9999 -9999 -9999 -9999 -9999 -9999
-9999 -9999 -9999 -9999 -9999 -9999 -9999 -9999 -9999 -9999 -9999 -9999 -9999 -9999 -9999 -9999 -9999 -9999 -9999 -9999 -9999 -9999 -9999 -9999 -9999 -9999 -9999 -9999 -9999 -9999 -9999 -9999 -9999 -9999 -9999 -9999 -9999 -9999 -9999 -9999 -9999 -9999 -9999 -9999 -9999 -9999 -9999 -9999 -9999 -9999 -9999 -9999 -9999 -9999 -9999 -9999 -9999 -9999 -9999 -9999 -9999 -9999 -9999 -9999 -9999 -9999 -9999 -9999 -9999 -9999 -9999 -9999 -9999 -9999 -9999 -9999 -9999 -9999 -9999 -9999 -9999 -9999 -9999 -9999 -9999 -9999 -9999 -9999 -9999 -9999 -9999 -9999 -9999 -9999 -9999 -9999 -9999 -9999 -9999 -9999 -9999 -9999 -9999 -9999 -9999 -9999 -9999 -9999 -9999 -9999 -9999 -9999 -9999 -9999 -9999 -9999 -9999 -9999 -9999 -9999 -9999 -9999 -9999 -9999 -9999 -9999 -9999 -9999 -9999 -9999 -9999 -9999 -9999 -9999 -9999 -9999 -9999 -9999 -9999 -9999 -9999 -9999 -9999 -9999 -9999 -9999 -9999 -9999 -9999 -9999 -9999 -9999 -9999 -9999 -9999 -9999 -9999 -9999 -9999 -9999 -9999 -9999 -9999 -9999 -9999 -9999 -9999 -9999 -9999 -9999 -9999 -9999 -9999 -9999 -9999 -9999 -9999 -9999 -9999 -9999 -9999 -9999 -9999 -9999 -9999 -9999 -9999 -9999 -9999 -9999 -9999 -9999 -9999 -9999 -9999 -9999 -9999 -9999 -9999 -9999 -9999 -9999 -9999 -9999 -9999 -9999 -9999 -9999 -9999 -9999 -9999 -9999 -9999 -9999 -9999 -9999 -9999 -9999 -9999 -9999 -9999 -9999 -9999 -9999 -9999 -9999 -9999 -9999 -9999 -9999 -9999 -9999 -9999 -9999 -9999 -9999 -9999 -9999 -9999 -9999 -9999 -9999 -9999 -9999 -9999 -9999 -9999 -9999 -9999 -9999 -9999 -9999 -9999 -9999 -9999 -9999 -9999 -9999 -9999 -9999 -9999 -9999 -9999 -9999 -9999 -9999 -9999 -9999 -9999 -9999 -9999 -9999 -9999 -9999 -9999 -9999 -9999 -9999 -9999 -9999 -9999 -9999 -9999 -9999 -9999 -9999 -9999 -9999 -9999 -9999 -9999 0 -9999 -9999 -9999 -9999 -9999 -9999 17.9127725856698 -9999 -9999 -9999 -9999 -9999 -9999 -9999 -9999 10.5140186915888 10.5140186915888 34.4202898550725 34.4202898550725 34.4202898550725 13.268156424581 13.268156424581 7.27650727650728 7.27650727650728 9.38967136150235 9.38967136150235 9.38967136150235 9.38967136150235 9.38967136150235 9.38967136150235 7.27650727650728 7.27650727650728 7.27650727650728 7.27650727650728 7.27650727650728 4.78011472275335 10.1237345331834 10.1237345331834 10.1237345331834 10.1237345331834 10.1237345331834 10.1237345331834 10.1237345331834 10.1237345331834 10.1237345331834 10.1237345331834 10.1237345331834 10.1237345331834 10.1237345331834 10.1237345331834 10.1237345331834 10.1237345331834 10.1237345331834 10.1237345331834 10.1237345331834 10.1237345331834 10.1237345331834 10.1237345331834 10.1237345331834 10.1237345331834 10.1237345331834 0 0 0 0 0 0 0 0 0 0 0 0 0 0 0 0 0 0 0 0 0 0 0 0 0 0 0 0 0 0 0 0 0 0 0 0 0 0 0 0 0 0 0 0 -9999 -9999 -9999 -9999 -9999 -9999 -9999 -9999 -9999 -9999 -9999 -9999 -9999 -9999 -9999 -9999 -9999 -9999
-9999 -9999 -9999 -9999 -9999 -9999 -9999 -9999 -9999 -9999 -9999 -9999 -9999 -9999 -9999 -9999 -9999 -9999 -9999 -9999 -9999 -9999 -9999 -9999 -9999 -9999 -9999 -9999 -9999 -9999 -9999 -9999 -9999 -9999 -9999 -9999 -9999 -9999 -9999 -9999 -9999 -9999 -9999 -9999 -9999 -9999 -9999 -9999 -9999 -9999 -9999 -9999 -9999 -9999 -9999 -9999 -9999 -9999 -9999 -9999 -9999 -9999 -9999 -9999 -9999 -9999 -9999 -9999 -9999 -9999 -9999 -9999 -9999 -9999 -9999 -9999 -9999 -9999 -9999 -9999 -9999 -9999 -9999 -9999 -9999 -9999 -9999 -9999 -9999 -9999 -9999 -9999 -9999 -9999 -9999 -9999 -9999 -9999 -9999 -9999 -9999 -9999 -9999 -9999 -9999 -9999 -9999 -9999 -9999 -9999 -9999 -9999 -9999 -9999 -9999 -9999 -9999 -9999 -9999 -9999 -9999 -9999 -9999 -9999 -9999 -9999 -9999 -9999 -9999 -9999 -9999 -9999 -9999 -9999 -9999 -9999 -9999 -9999 -9999 -9999 -9999 -9999 -9999 -9999 -9999 -9999 -9999 -9999 -9999 -9999 -9999 -9999 -9999 -9999 -9999 -9999 -9999 -9999 -9999 -9999 -9999 -9999 -9999 -9999 -9999 -9999 -9999 -9999 -9999 -9999 -9999 -9999 -9999 -9999 -9999 -9999 -9999 -9999 -9999 -9999 -9999 -9999 -9999 -9999 -9999 -9999 -9999 -9999 -9999 -9999 -9999 -9999 -9999 -9999 -9999 -9999 -9999 -9999 -9999 -9999 -9999 -9999 -9999 -9999 -9999 -9999 -9999 -9999 -9999 -9999 -9999 -9999 -9999 -9999 -9999 -9999 -9999 -9999 -9999 -9999 -9999 -9999 -9999 -9999 -9999 -9999 -9999 -9999 -9999 -9999 -9999 -9999 -9999 -9999 -9999 -9999 -9999 -9999 -9999 -9999 -9999 -9999 -9999 -9999 -9999 -9999 -9999 -9999 -9999 -9999 -9999 -9999 -9999 -9999 -9999 -9999 -9999 -9999 -9999 -9999 -9999 -9999 -9999 -9999 -9999 -9999 -9999 -9999 -9999 -9999 -9999 -9999 -9999 -9999 -9999 -9999 -9999 -9999 -9999 -9999 -9999 -9999 -9999 -9999 -9999 -9999 -9999 -9999 -9999 -9999 0 3.87596899224806 35.0274725274725 17.9127725856698 -9999 -9999 17.9127725856698 17.9127725856698 17.9127725856698 17.9127725856698 -9999 -9999 -9999 -9999 -9999 -9999 -9999 -9999 10.5140186915888 10.5140186915888 34.4202898550725 34.4202898550725 7.27650727650728 7.27650727650728 7.27650727650728 7.27650727650728 7.27650727650728 7.27650727650728 7.27650727650728 9.38967136150235 7.27650727650728 7.27650727650728 7.27650727650728 7.27650727650728 7.27650727650728 7.27650727650728 7.27650727650728 10.1237345331834 10.1237345331834 10.1237345331834 10.1237345331834 10.1237345331834 10.1237345331834 10.1237345331834 10.1237345331834 10.1237345331834 10.1237345331834 10.1237345331834 10.1237345331834 10.1237345331834 10.1237345331834 10.1237345331834 10.1237345331834 10.1237345331834 10.1237345331834 10.1237345331834 10.1237345331834 10.1237345331834 10.1237345331834 10.1237345331834 10.1237345331834 10.1237345331834 10.1237345331834 10.1237345331834 2.9585798816568 0 0 0 0 0 0 0 0 0 0 0 0 0 0 0 0 0 0 0 0 0 0 0 0 0 0 0 0 0 0 0 0 0 0 0 0 0 0 0 0 -9999 0 -9999 -9999 -9999 -9999 -9999 -9999 -9999 -9999 -9999 -9999 -9999 -9999 -9999 -9999 -9999 -9999 -9999 -9999
-9999 -9999 -9999 -9999 -9999 -9999 -9999 -9999 -9999 -9999 -9999 -9999 -9999 -9999 -9999 -9999 -9999 -9999 -9999 -9999 -9999 -9999 -9999 -9999 -9999 -9999 -9999 -9999 -9999 -9999 -9999 -9999 -9999 -9999 -9999 -9999 -9999 -9999 -9999 -9999 -9999 -9999 -9999 -9999 -9999 -9999 -9999 -9999 -9999 -9999 -9999 -9999 -9999 -9999 -9999 -9999 -9999 -9999 -9999 -9999 -9999 -9999 -9999 -9999 -9999 -9999 -9999 -9999 -9999 -9999 -9999 -9999 -9999 -9999 -9999 -9999 -9999 -9999 -9999 -9999 -9999 -9999 -9999 -9999 -9999 -9999 -9999 -9999 -9999 -9999 -9999 -9999 -9999 -9999 -9999 -9999 -9999 -9999 -9999 -9999 -9999 -9999 -9999 -9999 -9999 -9999 -9999 -9999 -9999 -9999 -9999 -9999 -9999 -9999 -9999 -9999 -9999 -9999 -9999 -9999 -9999 -9999 -9999 -9999 -9999 -9999 -9999 -9999 -9999 -9999 -9999 -9999 -9999 -9999 -9999 -9999 -9999 -9999 -9999 -9999 -9999 -9999 -9999 -9999 -9999 -9999 -9999 -9999 -9999 -9999 -9999 -9999 -9999 -9999 -9999 -9999 -9999 -9999 -9999 -9999 -9999 -9999 -9999 -9999 -9999 -9999 -9999 -9999 -9999 -9999 -9999 -9999 -9999 -9999 -9999 -9999 -9999 -9999 -9999 -9999 -9999 -9999 -9999 -9999 -9999 -9999 -9999 -9999 -9999 -9999 -9999 -9999 -9999 -9999 -9999 -9999 -9999 -9999 -9999 -9999 -9999 -9999 -9999 -9999 -9999 -9999 -9999 -9999 -9999 -9999 -9999 -9999 -9999 -9999 -9999 -9999 -9999 -9999 -9999 -9999 -9999 -9999 -9999 -9999 -9999 -9999 -9999 -9999 -9999 -9999 -9999 -9999 -9999 -9999 -9999 -9999 -9999 -9999 -9999 -9999 -9999 -9999 -9999 -9999 -9999 -9999 -9999 -9999 -9999 -9999 -9999 -9999 -9999 -9999 -9999 -9999 -9999 -9999 -9999 -9999 -9999 -9999 -9999 -9999 -9999 -9999 -9999 -9999 -9999 -9999 -9999 -9999 -9999 -9999 -9999 -9999 -9999 -9999 -9999 -9999 -9999 -9999 -9999 -9999 -9999 -9999 -9999 -9999 0 3.87596899224806 3.87596899224806 35.0274725274725 35.0274725274725 35.0274725274725 17.9127725856698 17.9127725856698 17.9127725856698 17.9127725856698 17.9127725856698 17.9127725856698 17.9127725856698 -9999 -9999 -9999 -9999 -9999 -9999 -9999 -9999 10.5140186915888 -9999 7.27650727650728 7.27650727650728 7.27650727650728 7.27650727650728 7.27650727650728 7.27650727650728 7.27650727650728 7.27650727650728 7.27650727650728 7.27650727650728 7.27650727650728 7.27650727650728 7.27650727650728 7.27650727650728 10.1237345331834 10.1237345331834 10.1237345331834 10.1237345331834 10.1237345331834 10.1237345331834 10.1237345331834 10.1237345331834 10.1237345331834 10.1237345331834 10.1237345331834 10.1237345331834 10.1237345331834 10.1237345331834 10.1237345331834 10.1237345331834 10.1237345331834 10.1237345331834 10.1237345331834 10.1237345331834 10.1237345331834 10.1237345331834 10.1237345331834 10.1237345331834 10.1237345331834 10.1237345331834 10.1237345331834 10.1237345331834 2.9585798816568 2.9585798816568 2.9585798816568 2.9585798816568 0 0 0 0 0 0 0 0 0 0 0 0 0 0 0 0 0 0 0 0 0 0 0 0 0 0 0 0 0 0 0 0 0 0 0 0 0 -9999 -9999 -9999 -9999 -9999 -9999 -9999 -9999 -9999 -9999 -9999 -9999 -9999 -9999 -9999 -9999 -9999 -9999 -9999 -9999 -9999
-9999 -9999 -9999 -9999 -9999 -9999 -9999 -9999 -9999 -9999 -9999 -9999 -9999 -9999 -9999 -9999 -9999 -9999 -9999 -9999 -9999 -9999 -9999 -9999 -9999 -9999 -9999 -9999 -9999 -9999 -9999 -9999 -9999 -9999 -9999 -9999 -9999 -9999 -9999 -9999 -9999 -9999 -9999 -9999 -9999 -9999 -9999 -9999 -9999 -9999 -9999 -9999 -9999 -9999 -9999 -9999 -9999 -9999 -9999 -9999 -9999 -9999 -9999 -9999 -9999 -9999 -9999 -9999 -9999 -9999 -9999 -9999 -9999 -9999 -9999 -9999 -9999 -9999 -9999 -9999 -9999 -9999 -9999 -9999 -9999 -9999 -9999 -9999 -9999 -9999 -9999 -9999 -9999 -9999 -9999 -9999 -9999 -9999 -9999 -9999 -9999 -9999 -9999 -9999 -9999 -9999 -9999 -9999 -9999 -9999 -9999 -9999 -9999 -9999 -9999 -9999 -9999 -9999 -9999 -9999 -9999 -9999 -9999 -9999 -9999 -9999 -9999 -9999 -9999 -9999 -9999 -9999 -9999 -9999 -9999 -9999 -9999 -9999 -9999 -9999 -9999 -9999 -9999 -9999 -9999 -9999 -9999 -9999 -9999 -9999 -9999 -9999 -9999 -9999 -9999 -9999 -9999 -9999 -9999 -9999 -9999 -9999 -9999 -9999 -9999 -9999 -9999 -9999 -9999 -9999 -9999 -9999 -9999 -9999 -9999 -9999 -9999 -9999 -9999 -9999 -9999 -9999 -9999 -9999 -9999 -9999 -9999 -9999 -9999 -9999 -9999 -9999 -9999 -9999 -9999 -9999 -9999 -9999 -9999 -9999 -9999 -9999 -9999 -9999 -9999 -9999 -9999 -9999 -9999 -9999 -9999 -9999 -9999 -9999 -9999 -9999 -9999 -9999 -9999 -9999 -9999 -9999 -9999 -9999 -9999 -9999 -9999 -9999 -9999 -9999 -9999 -9999 -9999 -9999 -9999 -9999 -9999 -9999 -9999 -9999 -9999 -9999 -9999 -9999 -9999 -9999 -9999 -9999 -9999 -9999 -9999 -9999 -9999 -9999 -9999 -9999 -9999 -9999 -9999 -9999 -9999 -9999 -9999 -9999 -9999 -9999 -9999 -9999 -9999 -9999 -9999 -9999 -9999 -9999 -9999 -9999 -9999 -9999 -9999 -9999 -9999 -9999 -9999 -9999 -9999 -9999 -9999 15.748031496063 15.748031496063 15.748031496063 3.87596899224806 3.87596899224806 19.8019801980198 19.8019801980198 29.5536791314837 13.7096774193548 17.9127725856698 17.9127725856698 17.9127725856698 17.9127725856698 19.4300518134715 19.4300518134715 -9999 -9999 -9999 -9999 -9999 -9999 -9999 -9999 -9999 -9999 7.27650727650728 7.27650727650728 7.27650727650728 7.27650727650728 7.27650727650728 7.27650727650728 7.27650727650728 7.27650727650728 7.27650727650728 7.27650727650728 7.27650727650728 7.27650727650728 10.1237345331834 10.1237345331834 10.1237345331834 10.1237345331834 10.1237345331834 10.1237345331834 10.1237345331834 10.1237345331834 10.1237345331834 10.1237345331834 10.1237345331834 10.1237345331834 10.1237345331834 10.1237345331834 10.1237345331834 10.1237345331834 10.1237345331834 10.1237345331834 10.1237345331834 10.1237345331834 10.1237345331834 10.1237345331834 10.1237345331834 10.1237345331834 10.1237345331834 10.1237345331834 10.1237345331834 10.1237345331834 2.9585798816568 2.9585798816568 2.9585798816568 2.9585798816568 2.9585798816568 2.9585798816568 2.9585798816568 0 0 0 0 0 0 0 0 0 0 0 0 0 0 0 0 0 0 0 0 0 0 0 0 0 0 0 0 0 0 0 0 0 0 0 0 -9999 -9999 -9999 -9999 -9999 -9999 -9999 -9999 -9999 -9999 -9999 -9999 -9999 -9999 -9999 -9999 -9999 -9999 -9999 -9999
-9999 -9999 -9999 -9999 -9999 -9999 -9999 -9999 -9999 -9999 -9999 -9999 -9999 -9999 -9999 -9999 -9999 -9999 -9999 -9999 -9999 -9999 -9999 -9999 -9999 -9999 -9999 -9999 -9999 -9999 -9999 -9999 -9999 -9999 -9999 -9999 -9999 -9999 -9999 -9999 -9999 -9999 -9999 -9999 -9999 -9999 -9999 -9999 -9999 -9999 -9999 -9999 -9999 -9999 -9999 -9999 -9999 -9999 -9999 -9999 -9999 -9999 -9999 -9999 -9999 -9999 -9999 -9999 -9999 -9999 -9999 -9999 -9999 -9999 -9999 -9999 -9999 -9999 -9999 -9999 -9999 -9999 -9999 -9999 -9999 -9999 -9999 -9999 -9999 -9999 -9999 -9999 -9999 -9999 -9999 -9999 -9999 -9999 -9999 -9999 -9999 -9999 -9999 -9999 -9999 -9999 -9999 -9999 -9999 -9999 -9999 -9999 -9999 -9999 -9999 -9999 -9999 -9999 -9999 -9999 -9999 -9999 -9999 -9999 -9999 -9999 -9999 -9999 -9999 -9999 -9999 -9999 -9999 -9999 -9999 -9999 -9999 -9999 -9999 -9999 -9999 -9999 -9999 -9999 -9999 -9999 -9999 -9999 -9999 -9999 -9999 -9999 -9999 -9999 -9999 -9999 -9999 -9999 -9999 -9999 -9999 -9999 -9999 -9999 -9999 -9999 -9999 -9999 -9999 -9999 -9999 -9999 -9999 -9999 -9999 -9999 -9999 -9999 -9999 -9999 -9999 -9999 -9999 -9999 -9999 -9999 -9999 -9999 -9999 -9999 -9999 -9999 -9999 -9999 -9999 -9999 -9999 -9999 -9999 -9999 -9999 -9999 -9999 -9999 -9999 -9999 -9999 -9999 -9999 -9999 -9999 -9999 -9999 -9999 -9999 -9999 -9999 -9999 -9999 -9999 -9999 -9999 -9999 -9999 -9999 -9999 -9999 -9999 -9999 -9999 -9999 -9999 -9999 -9999 -9999 -9999 -9999 -9999 -9999 -9999 -9999 -9999 -9999 -9999 -9999 -9999 -9999 -9999 -9999 -9999 -9999 -9999 -9999 -9999 -9999 -9999 -9999 -9999 -9999 -9999 -9999 -9999 -9999 -9999 -9999 -9999 -9999 -9999 -9999 -9999 -9999 -9999 -9999 -9999 -9999 -9999 -9999 -9999 -9999 -9999 -9999 -9999 -9999 -9999 -9999 -9999 10.0182149362477 10.0182149362477 15.748031496063 15.748031496063 15.748031496063 19.8019801980198 29.5536791314837 17.426273458445 36.5296803652968 42.5824175824176 13.7096774193548 17.9127725856698 17.9127725856698 19.4300518134715 19.4300518134715 19.4300518134715 19.4300518134715 -9999 -9999 -9999 -9999 -9999 -9999 -9999 -9999 -9999 -9999 7.27650727650728 7.27650727650728 7.27650727650728 7.27650727650728 7.27650727650728 7.27650727650728 7.27650727650728 7.27650727650728 7.27650727650728 10.1237345331834 10.1237345331834 10.1237345331834 10.1237345331834 10.1237345331834 10.1237345331834 10.1237345331834 10.1237345331834 10.1237345331834 10.1237345331834 10.1237345331834 10.1237345331834 10.1237345331834 10.1237345331834 10.1237345331834 10.1237345331834 10.1237345331834 10.1237345331834 10.1237345331834 10.1237345331834 10.1237345331834 10.1237345331834 10.1237345331834 10.1237345331834 10.1237345331834 10.1237345331834 10.1237345331834 10.1237345331834 10.1237345331834 10.1237345331834 2.9585798816568 2.9585798816568 2.9585798816568 2.9585798816568 2.9585798816568 2.9585798816568 2.9585798816568 2.9585798816568 2.9585798816568 2.9585798816568 0 0 0 0 0 0 0 0 0 0 0 0 0 0 0 0 0 0 0 0 0 0 0 0 0 0 0 0 0 0 0 0 -9999 -9999 -9999 -9999 -9999 -9999 -9999 -9999 -9999 -9999 -9999 -9999 -9999 -9999 -9999 -9999 -9999 -9999 -9999 -9999 -9999
-9999 -9999 -9999 -9999 -9999 -9999 -9999 -9999 -9999 -9999 -9999 -9999 -9999 -9999 -9999 -9999 -9999 -9999 -9999 -9999 -9999 -9999 -9999 -9999 -9999 -9999 -9999 -9999 -9999 -9999 -9999 -9999 -9999 -9999 -9999 -9999 -9999 -9999 -9999 -9999 -9999 -9999 -9999 -9999 -9999 -9999 -9999 -9999 -9999 -9999 -9999 -9999 -9999 -9999 -9999 -9999 -9999 -9999 -9999 -9999 -9999 -9999 -9999 -9999 -9999 -9999 -9999 -9999 -9999 -9999 -9999 -9999 -9999 -9999 -9999 -9999 -9999 -9999 -9999 -9999 -9999 -9999 -9999 -9999 -9999 -9999 -9999 -9999 -9999 -9999 -9999 -9999 -9999 -9999 -9999 -9999 -9999 -9999 -9999 -9999 -9999 -9999 -9999 -9999 -9999 -9999 -9999 -9999 -9999 -9999 -9999 -9999 -9999 -9999 -9999 -9999 -9999 -9999 -9999 -9999 -9999 -9999 -9999 -9999 -9999 -9999 -9999 -9999 -9999 -9999 -9999 -9999 -9999 -9999 -9999 -9999 -9999 -9999 -9999 -9999 -9999 -9999 -9999 -9999 -9999 -9999 -9999 -9999 -9999 -9999 -9999 -9999 -9999 -9999 -9999 -9999 -9999 -9999 -9999 -9999 -9999 -9999 -9999 -9999 -9999 -9999 -9999 -9999 -9999 -9999 -9999 -9999 -9999 -9999 -9999 -9999 -9999 -9999 -9999 -9999 -9999 -9999 -9999 -9999 -9999 -9999 -9999 -9999 -9999 -9999 -9999 -9999 -9999 -9999 -9999 -9999 -9999 -9999 -9999 -9999 -9999 -9999 -9999 -9999 -9999 -9999 -9999 -9999 -9999 -9999 -9999 -9999 -9999 -9999 -9999 -9999 -9999 -9999 -9999 -9999 -9999 -9999 -9999 -9999 -9999 -9999 -9999 -9999 -9999 -9999 -9999 -9999 -9999 -9999 -9999 -9999 -9999 -9999 -9999 -9999 -9999 -9999 -9999 -9999 -9999 -9999 -9999 -9999 -9999 -9999 -9999 -9999 -9999 -9999 -9999 -9999 -9999 -9999 -9999 -9999 -9999 -9999 -9999 -9999 -9999 -9999 -9999 -9999 -9999 -9999 -9999 -9999 -9999 -9999 -9999 -9999 -9999 -9999 -9999 -9999 -9999 -9999 -9999 -9999 0 10.0182149362477 10.0182149362477 10.0182149362477 10.0182149362477 15.748031496063 21.978021978022 21.8818380743982 13.0081300813008 13.0081300813008 17.426273458445 36.5296803652968 25.7660167130919 11.6279069767442 19.4300518134715 19.4300518134715 19.4300518134715 19.4300518134715 19.4300518134715 19.4300518134715 -9999 -9999 -9999 -9999 -9999 -9999 -9999 -9999 -9999 -9999 7.27650727650728 7.27650727650728 7.27650727650728 7.27650727650728 7.27650727650728 7.27650727650728 7.27650727650728 10.1237345331834 10.1237345331834 10.1237345331834 10.1237345331834 10.1237345331834 10.1237345331834 10.1237345331834 10.1237345331834 10.1237345331834 10.1237345331834 10.1237345331834 10.1237345331834 10.1237345331834 10.1237345331834 10.1237345331834 10.1237345331834 10.1237345331834 10.1237345331834 10.1237345331834 10.1237345331834 10.1237345331834 10.1237345331834 10.1237345331834 10.1237345331834 10.1237345331834 10.1237345331834 10.1237345331834 10.1237345331834 10.1237345331834 10.1237345331834 2.9585798816568 2.9585798816568 2.9585798816568 2.9585798816568 2.9585798816568 2.9585798816568 2.9585798816568 2.9585798816568 2.9585798816568 2.9585798816568 2.9585798816568 2.9585798816568 2.9585798816568 0 0 0 0 0 0 0 0 0 0 0 0 0 0 0 0 0 0 0 0 0 0 0 0 0 0 0 0 0 -9999 -9999 -9999 -9999 -9999 -9999 -9999 -9999 -9999 -9999 -9999 -9999 -9999 -9999 -9999 -9999 -9999 -9999 -9999 -9999 -9999 -9999
-9999 -9999 -9999 -9999 -9999 -9999 -9999 -9999 -9999 -9999 -9999 -9999 -9999 -9999 -9999 -9999 -9999 -9999 -9999 -9999 -9999 -9999 -9999 -9999 -9999 -9999 -9999 -9999 -9999 -9999 -9999 -9999 -9999 -9999 -9999 -9999 -9999 -9999 -9999 -9999 -9999 -9999 -9999 -9999 -9999 -9999 -9999 -9999 -9999 -9999 -9999 -9999 -9999 -9999 -9999 -9999 -9999 -9999 -9999 -9999 -9999 -9999 -9999 -9999 -9999 -9999 -9999 -9999 -9999 -9999 -9999 -9999 -9999 -9999 -9999 -9999 -9999 -9999 -9999 -9999 -9999 -9999 -9999 -9999 -9999 -9999 -9999 -9999 -9999 -9999 -9999 -9999 -9999 -9999 -9999 -9999 -9999 -9999 -9999 -9999 -9999 -9999 -9999 -9999 -9999 -9999 -9999 -9999 -9999 -9999 -9999 -9999 -9999 -9999 -9999 -9999 -9999 -9999 -9999 -9999 -9999 -9999 -9999 -9999 -9999 -9999 -9999 -9999 -9999 -9999 -9999 -9999 -9999 -9999 -9999 -9999 -9999 -9999 -9999 -9999 -9999 -9999 -9999 -9999 -9999 -9999 -9999 -9999 -9999 -9999 -9999 -9999 -9999 -9999 -9999 -9999 -9999 -9999 -9999 -9999 -9999 -9999 -9999 -9999 -9999 -9999 -9999 -9999 -9999 -9999 -9999 -9999 -9999 -9999 -9999 -9999 -9999 -9999 -9999 -9999 -9999 -9999 -9999 -9999 -9999 -9999 -9999 -9999 -9999 -9999 -9999 -9999 -9999 -9999 -9999 -9999 -9999 -9999 -9999 -9999 -9999 -9999 -9999 -9999 -9999 -9999 -9999 -9999 -9999 -9999 -9999 -9999 -9999 -9999 -9999 -9999 -9999 -9999 -9999 -9999 -9999 -9999 -9999 -9999 -9999 -9999 -9999 -9999 -9999 -9999 -9999 -9999 -9999 -9999 -9999 -9999 -9999 -9999 -9999 -9999 -9999 -9999 -9999 -9999 -9999 -9999 -9999 -9999 -9999 -9999 -9999 -9999 -9999 -9999 -9999 -9999 -9999 -9999 -9999 -9999 -9999 -9999 -9999 -9999 -9999 -9999 -9999 -9999 -9999 -9999 -9999 -9999 -9999 -9999 -9999 -9999 -9999 -9999 -9999 -9999 -9999 -9999 -9999 -9999 12.3339658444023 10.0182149362477 10.0182149362477 10.0182149362477 10.0182149362477 21.978021978022 11.482254697286 11.482254697286 21.8818380743982 13.0081300813008 25.7660167130919 23.5783633841886 23.5783633841886 30.7262569832402 11.6279069767442 19.4300518134715 19.4300518134715 19.4300518134715 11.472275334608 11.472275334608 11.472275334608 11.472275334608 -9999 -9999 -9999 -9999 -9999 -9999 -9999 -9999 -9999 7.27650727650728 7.27650727650728 7.27650727650728 7.27650727650728 10.1237345331834 10.1237345331834 10.1237345331834 10.1237345331834 10.1237345331834 10.1237345331834 10.1237345331834 10.1237345331834 10.1237345331834 10.1237345331834 10.1237345331834 10.1237345331834 10.1237345331834 10.1237345331834 10.1237345331834 10.1237345331834 10.1237345331834 10.1237345331834 10.1237345331834 10.1237345331834 10.1237345331834 10.1237345331834 10.1237345331834 10.1237345331834 10.1237345331834 10.1237345331834 10.1237345331834 10.1237345331834 10.1237345331834 10.1237345331834 10.1237345331834 2.66429840142096 2.66429840142096 2.9585798816568 2.9585798816568 2.9585798816568 2.9585798816568 2.9585798816568 2.9585798816568 2.9585798816568 2.9585798816568 2.9585798816568 2.9585798816568 2.9585798816568 2.9585798816568 2.9585798816568 0 0 0 0 0 0 0 0 0 0 0 0 0 0 0 0 0 0 0 0 0 0 0 0 0 0 0 0 -9999 -9999 -9999 -9999 -9999 -9999 -9999 -9999 -9999 -9999 -9999 -9999 -9999 -9999 -9999 -9999 -9999 -9999 -9999 -9999 -9999 -9999
-9999 -9999 -9999 -9999 -9999 -9999 -9999 -9999 -9999 -9999 -9999 -9999 -9999 -9999 -9999 -9999 -9999 -9999 -9999 -9999 -9999 -9999 -9999 -9999 -9999 -9999 -9999 -9999 -9999 -9999 -9999 -9999 -9999 -9999 -9999 -9999 -9999 -9999 -9999 -9999 -9999 -9999 -9999 -9999 -9999 -9999 -9999 -9999 -9999 -9999 -9999 -9999 -9999 -9999 -9999 -9999 -9999 -9999 -9999 -9999 -9999 -9999 -9999 -9999 -9999 -9999 -9999 -9999 -9999 -9999 -9999 -9999 -9999 -9999 -9999 -9999 -9999 -9999 -9999 -9999 -9999 -9999 -9999 -9999 -9999 -9999 -9999 -9999 -9999 -9999 -9999 -9999 -9999 -9999 -9999 -9999 -9999 -9999 -9999 -9999 -9999 -9999 -9999 -9999 -9999 -9999 -9999 -9999 -9999 -9999 -9999 -9999 -9999 -9999 -9999 -9999 -9999 -9999 -9999 -9999 -9999 -9999 -9999 -9999 -9999 -9999 -9999 -9999 -9999 -9999 -9999 -9999 -9999 -9999 -9999 -9999 -9999 -9999 -9999 -9999 -9999 -9999 -9999 -9999 -9999 -9999 -9999 -9999 -9999 -9999 -9999 -9999 -9999 -9999 -9999 -9999 -9999 -9999 -9999 -9999 -9999 -9999 -9999 -9999 -9999 -9999 -9999 -9999 -9999 -9999 -9999 -9999 -9999 -9999 -9999 -9999 -9999 -9999 -9999 -9999 -9999 -9999 -9999 -9999 -9999 -9999 -9999 -9999 -9999 -9999 -9999 -9999 -9999 -9999 -9999 -9999 -9999 -9999 -9999 -9999 -9999 -9999 -9999 -9999 -9999 -9999 -9999 -9999 -9999 -9999 -9999 -9999 -9999 -9999 -9999 -9999 -9999 -9999 -9999 -9999 -9999 -9999 -9999 -9999 -9999 -9999 -9999 -9999 -9999 -9999 -9999 -9999 -9999 -9999 -9999 -9999 -9999 -9999 -9999 -9999 -9999 -9999 -9999 -9999 -9999 -9999 -9999 -9999 -9999 -9999 -9999 -9999 -9999 -9999 -9999 -9999 -9999 -9999 -9999 -9999 -9999 -9999 -9999 -9999 -9999 -9999 -9999 -9999 -9999 -9999 -9999 -9999 -9999 -9999 -9999 -9999 -9999 -9999 -9999 -9999 -9999 -9999 -9999 12.3339658444023 12.3339658444023 12.3339658444023 10.0182149362477 10.0182149362477 13.0522088353414 13.0522088353414 15.1033386327504 11.482254697286 11.482254697286 15.1033386327504 23.5783633841886 15.8878504672897 42.5531914893617 24.5762711864407 19.4300518134715 19.4300518134715 11.472275334608 11.472275334608 11.472275334608 11.472275334608 11.472275334608 11.472275334608 11.472275334608 -9999 -9999 -9999 -9999 -9999 -9999 -9999 -9999 -9999 7.27650727650728 7.27650727650728 10.1237345331834 10.1237345331834 10.1237345331834 10.1237345331834 10.1237345331834 10.1237345331834 10.1237345331834 10.1237345331834 10.1237345331834 10.1237345331834 10.1237345331834 10.1237345331834 10.1237345331834 10.1237345331834 10.1237345331834 10.1237345331834 10.1237345331834 10.1237345331834 10.1237345331834 10.1237345331834 10.1237345331834 10.1237345331834 10.1237345331834 10.1237345331834 10.1237345331834 10.1237345331834 10.1237345331834 10.1237345331834 10.1237345331834 10.1237345331834 10.1237345331834 2.66429840142096 2.66429840142096 2.66429840142096 2.66429840142096 4.34782608695652 2.9585798816568 2.9585798816568 2.9585798816568 2.9585798816568 2.9585798816568 2.9585798816568 2.9585798816568 2.9585798816568 2.9585798816568 2.9585798816568 0 0 0 0 0 0 0 0 0 0 0 0 0 0 0 0 0 0 0 0 0 0 0 0 0 0 0 0 -9999 -9999 -9999 -9999 -9999 -9999 -9999 -9999 -9999 -9999 -9999 -9999 -9999 -9999 -9999 -9999 -9999 -9999 -9999 -9999 -9999 -9999 -9999
-9999 -9999 -9999 -9999 -9999 -9999 -9999 -9999 -9999 -9999 -9999 -9999 -9999 -9999 -9999 -9999 -9999 -9999 -9999 -9999 -9999 -9999 -9999 -9999 -9999 -9999 -9999 -9999 -9999 -9999 -9999 -9999 -9999 -9999 -9999 -9999 -9999 -9999 -9999 -9999 -9999 -9999 -9999 -9999 -9999 -9999 -9999 -9999 -9999 -9999 -9999 -9999 -9999 -9999 -9999 -9999 -9999 -9999 -9999 -9999 -9999 -9999 -9999 -9999 -9999 -9999 -9999 -9999 -9999 -9999 -9999 -9999 -9999 -9999 -9999 -9999 -9999 -9999 -9999 -9999 -9999 -9999 -9999 -9999 -9999 -9999 -9999 -9999 -9999 -9999 -9999 -9999 -9999 -9999 -9999 -9999 -9999 -9999 -9999 -9999 -9999 -9999 -9999 -9999 -9999 -9999 -9999 -9999 -9999 -9999 -9999 -9999 -9999 -9999 -9999 -9999 -9999 -9999 -9999 -9999 -9999 -9999 -9999 -9999 -9999 -9999 -9999 -9999 -9999 -9999 -9999 -9999 -9999 -9999 -9999 -9999 -9999 -9999 -9999 -9999 -9999 -9999 -9999 -9999 -9999 -9999 -9999 -9999 -9999 -9999 -9999 -9999 -9999 -9999 -9999 -9999 -9999 -9999 -9999 -9999 -9999 -9999 -9999 -9999 -9999 -9999 -9999 -9999 -9999 -9999 -9999 -9999 -9999 -9999 -9999 -9999 -9999 -9999 -9999 -9999 -9999 -9999 -9999 -9999 -9999 -9999 -9999 -9999 -9999 -9999 -9999 -9999 -9999 -9999 -9999 -9999 -9999 -9999 -9999 -9999 -9999 -9999 -9999 -9999 -9999 -9999 -9999 -9999 -9999 -9999 -9999 -9999 -9999 -9999 -9999 -9999 -9999 -9999 -9999 -9999 -9999 -9999 -9999 -9999 -9999 -9999 -9999 -9999 -9999 -9999 -9999 -9999 -9999 -9999 -9999 -9999 -9999 -9999 -9999 -9999 -9999 -9999 -9999 -9999 -9999 -9999 -9999 -9999 -9999 -9999 -9999 -9999 -9999 -9999 -9999 -9999 -9999 -9999 -9999 -9999 -9999 -9999 -9999 -9999 -9999 -9999 -9999 -9999 -9999 -9999 -9999 -9999 -9999 -9999 -9999 -9999 -9999 -9999 -9999 -9999 -9999 -9999 5.11247443762781 12.3339658444023 12.3339658444023 12.3339658444023 12.3339658444023 10.0182149362477 13.0522088353414 13.0522088353414 13.0522088353414 15.1033386327504 15.1033386327504 15.1033386327504 15.1033386327504 12.6146788990826 15.8878504672897 42.5531914893617 36.9181380417335 36.9181380417335 36.9181380417335 11.472275334608 11.472275334608 11.472275334608 11.472275334608 20.6611570247934 20.6611570247934 20.6611570247934 -9999 -9999 -9999 -9999 -9999 -9999 -9999 -9999 1.60462130937099 1.60462130937099 10.1237345331834 10.1237345331834 10.1237345331834 10.1237345331834 10.1237345331834 10.1237345331834 10.1237345331834 10.1237345331834 10.1237345331834 10.1237345331834 10.1237345331834 10.1237345331834 10.1237345331834 10.1237345331834 10.1237345331834 10.1237345331834 10.1237345331834 10.1237345331834 10.1237345331834 10.1237345331834 10.1237345331834 10.1237345331834 10.1237345331834 10.1237345331834 10.1237345331834 10.1237345331834 10.1237345331834 10.1237345331834 10.1237345331834 10.1237345331834 18.3098591549296 18.3098591549296 14.8741418764302 2.66429840142096 4.34782608695652 4.34782608695652 4.34782608695652 4.34782608695652 2.9585798816568 2.9585798816568 2.9585798816568 2.9585798816568 2.9585798816568 2.9585798816568 2.9585798816568 2.9585798816568 0 0 0 0 0 0 0 0 0 0 0 0 0 0 0 0 0 0 0 0 0 0 0 0 0 0 0 -9999 -9999 -9999 -9999 -9999 -9999 -9999 -9999 -9999 -9999 -9999 -9999 -9999 -9999 -9999 -9999 -9999 -9999 -9999 -9999 -9999 -9999 -9999 -9999
-9999 -9999 -9999 -9999 -9999 -9999 -9999 -9999 -9999 -9999 -9999 -9999 -9999 -9999 -9999 -9999 -9999 -9999 -9999 -9999 -9999 -9999 -9999 -9999 -9999 -9999 -9999 -9999 -9999 -9999 -9999 -9999 -9999 -9999 -9999 -9999 -9999 -9999 -9999 -9999 -9999 -9999 -9999 -9999 -9999 -9999 -9999 -9999 -9999 -9999 -9999 -9999 -9999 -9999 -9999 -9999 -9999 -9999 -9999 -9999 -9999 -9999 -9999 -9999 -9999 -9999 -9999 -9999 -9999 -9999 -9999 -9999 -9999 -9999 -9999 -9999 -9999 -9999 -9999 -9999 -9999 -9999 -9999 -9999 -9999 -9999 -9999 -9999 -9999 -9999 -9999 -9999 -9999 -9999 -9999 -9999 -9999 -9999 -9999 -9999 -9999 -9999 -9999 -9999 -9999 -9999 -9999 -9999 -9999 -9999 -9999 -9999 -9999 -9999 -9999 -9999 -9999 -9999 -9999 -9999 -9999 -9999 -9999 -9999 -9999 -9999 -9999 -9999 -9999 -9999 -9999 -9999 -9999 -9999 -9999 -9999 -9999 -9999 -9999 -9999 -9999 -9999 -9999 -9999 -9999 -9999 -9999 -9999 -9999 -9999 -9999 -9999 -9999 -9999 -9999 -9999 -9999 -9999 -9999 -9999 -9999 -9999 -9999 -9999 -9999 -9999 -9999 -9999 -9999 -9999 -9999 -9999 -9999 -9999 -9999 -9999 -9999 -9999 -9999 -9999 -9999 -9999 -9999 -9999 -9999 -9999 -9999 -9999 -9999 -9999 -9999 -9999 -9999 -9999 -9999 -9999 -9999 -9999 -9999 -9999 -9999 -9999 -9999 -9999 -9999 -9999 -9999 -9999 -9999 -9999 -9999 -9999 -9999 -9999 -9999 -9999 -9999 -9999 -9999 -9999 -9999 -9999 -9999 -9999 -9999 -9999 -9999 -9999 -9999 -9999 -9999 -9999 -9999 -9999 -9999 -9999 -9999 -9999 -9999 -9999 -9999 -9999 -9999 -9999 -9999 -9999 -9999 -9999 -9999 -9999 -9999 -9999 -9999 -9999 -9999 -9999 -9999 -9999 -9999 -9999 -9999 -9999 -9999 -9999 -9999 -9999 -9999 -9999 -9999 -9999 -9999 -9999 -9999 -9999 -9999 -9999 -9999 -9999 -9999 -9999 -9999 -9999 5.11247443762781 5.11247443762781 5.11247443762781 12.3339658444023 12.3339658444023 12.3339658444023 13.0522088353414 5.79470198675497 5.79470198675497 5.79470198675497 15.1033386327504 15.1033386327504 15.1033386327504 15.1033386327504 26.6903914590747 26.6903914590747 26.6903914590747 19.6629213483146 36.9181380417335 28.9179104477612 11.472275334608 20.6611570247934 20.6611570247934 20.6611570247934 20.6611570247934 20.6611570247934 -9999 -9999 -9999 -9999 -9999 -9999 -9999 1.60462130937099 1.60462130937099 1.60462130937099 1.60462130937099 10.1237345331834 10.1237345331834 10.1237345331834 10.1237345331834 10.1237345331834 10.1237345331834 10.1237345331834 10.1237345331834 10.1237345331834 10.1237345331834 10.1237345331834 10.1237345331834 10.1237345331834 10.1237345331834 10.1237345331834 10.1237345331834 10.1237345331834 10.1237345331834 10.1237345331834 10.1237345331834 10.1237345331834 10.1237345331834 10.1237345331834 10.1237345331834 10.1237345331834 10.1237345331834 10.1237345331834 10.1237345331834 9.36768149882904 18.3098591549296 18.3098591549296 18.3098591549296 24.0963855421687 14.8741418764302 4.34782608695652 4.34782608695652 4.34782608695652 2.9585798816568 2.9585798816568 2.9585798816568 2.9585798816568 2.9585798816568 2.9585798816568 2.9585798816568 2.9585798816568 6.87929956222639 6.87929956222639 6.87929956222639 6.87929956222639 0 0 0 0 0 0 0 0 0 0 0 0 0 0 0 0 0 0 0 0 0 0 0 -9999 -9999 -9999 -9999 -9999 -9999 -9999 -9999 -9999 -9999 -9999 -9999 -9999 -9999 -9999 -9999 -9999 -9999 -9999 -9999 -9999 -9999 -9999 -9999
-9999 -9999 -9999 -9999 -9999 -9999 -9999 -9999 -9999 -9999 -9999 -9999 -9999 -9999 -9999 -9999 -9999 -9999 -9999 -9999 -9999 -9999 -9999 -9999 -9999 -9999 -9999 -9999 -9999 -9999 -9999 -9999 -9999 -9999 -9999 -9999 -9999 -9999 -9999 -9999 -9999 -9999 -9999 -9999 -9999 -9999 -9999 -9999 -9999 -9999 -9999 -9999 -9999 -9999 -9999 -9999 -9999 -9999 -9999 -9999 -9999 -9999 -9999 -9999 -9999 -9999 -9999 -9999 -9999 -9999 -9999 -9999 -9999 -9999 -9999 -9999 -9999 -9999 -9999 -9999 -9999 -9999 -9999 -9999 -9999 -9999 -9999 -9999 -9999 -9999 -9999 -9999 -9999 -9999 -9999 -9999 -9999 -9999 -9999 -9999 -9999 -9999 -9999 -9999 -9999 -9999 -9999 -9999 -9999 -9999 -9999 -9999 -9999 -9999 -9999 -9999 -9999 -9999 -9999 -9999 -9999 -9999 -9999 -9999 -9999 -9999 -9999 -9999 -9999 -9999 -9999 -9999 -9999 -9999 -9999 -9999 -9999 -9999 -9999 -9999 -9999 -9999 -9999 -9999 -9999 -9999 -9999 -9999 -9999 -9999 -9999 -9999 -9999 -9999 -9999 -9999 -9999 -9999 -9999 -9999 -9999 -9999 -9999 -9999 -9999 -9999 -9999 -9999 -9999 -9999 -9999 -9999 -9999 -9999 -9999 -9999 -9999 -9999 -9999 -9999 -9999 -9999 -9999 -9999 -9999 -9999 -9999 -9999 -9999 -9999 -9999 -9999 -9999 -9999 -9999 -9999 -9999 -9999 -9999 -9999 -9999 -9999 -9999 -9999 -9999 -9999 -9999 -9999 -9999 -9999 -9999 -9999 -9999 -9999 -9999 -9999 -9999 -9999 -9999 -9999 -9999 -9999 -9999 -9999 -9999 -9999 -9999 -9999 -9999 -9999 -9999 -9999 -9999 -9999 -9999 -9999 -9999 -9999 -9999 -9999 -9999 -9999 -9999 -9999 -9999 -9999 -9999 -9999 -9999 -9999 -9999 -9999 -9999 -9999 -9999 -9999 -9999 -9999 -9999 -9999 -9999 -9999 -9999 -9999 -9999 -9999 -9999 -9999 -9999 -9999 -9999 -9999 -9999 -9999 -9999 -9999 -9999 -9999 -9999 -9999 -9999 -9999 5.11247443762781 5.11247443762781 8.66336633663366 8.66336633663366 19.7132616487455 19.7132616487455 19.7132616487455 5.79470198675497 5.79470198675497 5.79470198675497 5.79470198675497 15.1033386327504 26.1506276150628 26.1506276150628 14.9892933618844 19.6629213483146 19.6629213483146 19.6629213483146 28.9179104477612 10.7843137254902 10.7843137254902 12.1212121212121 20.6611570247934 20.6611570247934 20.6611570247934 20.6611570247934 20.6611570247934 -9999 -9999 -9999 -9999 1.60462130937099 1.60462130937099 1.60462130937099 1.60462130937099 1.60462130937099 1.60462130937099 1.60462130937099 1.60462130937099 10.1237345331834 10.1237345331834 10.1237345331834 10.1237345331834 10.1237345331834 10.1237345331834 10.1237345331834 10.1237345331834 10.1237345331834 10.1237345331834 10.1237345331834 10.1237345331834 10.1237345331834 10.1237345331834 10.1237345331834 10.1237345331834 10.1237345331834 10.1237345331834 10.1237345331834 10.1237345331834 10.1237345331834 10.1237345331834 10.1237345331834 10.1237345331834 10.1237345331834 9.36768149882904 9.36768149882904 9.36768149882904 9.36768149882904 5.94059405940594 5.94059405940594 24.0963855421687 24.0963855421687 14.4329896907216 14.4329896907216 14.4329896907216 6.87929956222639 6.87929956222639 6.87929956222639 6.87929956222639 6.87929956222639 6.87929956222639 6.87929956222639 6.87929956222639 6.87929956222639 6.87929956222639 6.87929956222639 6.87929956222639 6.87929956222639 6.87929956222639 6.87929956222639 6.87929956222639 0 0 0 0 0 0 0 0 0 0 0 0 0 0 0 0 0 -9999 -9999 -9999 -9999 -9999 -9999 -9999 -9999 -9999 -9999 -9999 -9999 -9999 -9999 -9999 -9999 -9999 -9999 -9999 -9999 -9999 -9999 -9999 -9999 -9999
-9999 -9999 -9999 -9999 -9999 -9999 -9999 -9999 -9999 -9999 -9999 -9999 -9999 -9999 -9999 -9999 -9999 -9999 -9999 -9999 -9999 -9999 -9999 -9999 -9999 -9999 -9999 -9999 -9999 -9999 -9999 -9999 -9999 -9999 -9999 -9999 -9999 -9999 -9999 -9999 -9999 -9999 -9999 -9999 -9999 -9999 -9999 -9999 -9999 -9999 -9999 -9999 -9999 -9999 -9999 -9999 -9999 -9999 -9999 -9999 -9999 -9999 -9999 -9999 -9999 -9999 -9999 -9999 -9999 -9999 -9999 -9999 -9999 -9999 -9999 -9999 -9999 -9999 -9999 -9999 -9999 -9999 -9999 -9999 -9999 -9999 -9999 -9999 -9999 -9999 -9999 -9999 -9999 -9999 -9999 -9999 -9999 -9999 -9999 -9999 -9999 -9999 -9999 -9999 -9999 -9999 -9999 -9999 -9999 -9999 -9999 -9999 -9999 -9999 -9999 -9999 -9999 -9999 -9999 -9999 -9999 -9999 -9999 -9999 -9999 -9999 -9999 -9999 -9999 -9999 -9999 -9999 -9999 -9999 -9999 -9999 -9999 -9999 -9999 -9999 -9999 -9999 -9999 -9999 -9999 -9999 -9999 -9999 -9999 -9999 -9999 -9999 -9999 -9999 -9999 -9999 -9999 -9999 -9999 -9999 -9999 -9999 -9999 -9999 -9999 -9999 -9999 -9999 -9999 -9999 -9999 -9999 -9999 -9999 -9999 -9999 -9999 -9999 -9999 -9999 -9999 -9999 -9999 -9999 -9999 -9999 -9999 -9999 -9999 -9999 -9999 -9999 -9999 -9999 -9999 -9999 -9999 -9999 -9999 -9999 -9999 -9999 -9999 -9999 -9999 -9999 -9999 -9999 -9999 -9999 -9999 -9999 -9999 -9999 -9999 -9999 -9999 -9999 -9999 -9999 -9999 -9999 -9999 -9999 -9999 -9999 -9999 -9999 -9999 -9999 -9999 -9999 -9999 -9999 -9999 -9999 -9999 -9999 -9999 -9999 -9999 -9999 -9999 -9999 -9999 -9999 -9999 -9999 -9999 -9999 -9999 -9999 -9999 -9999 -9999 -9999 -9999 -9999 -9999 -9999 -9999 -9999 -9999 -9999 -9999 -9999 -9999 -9999 -9999 -9999 -9999 -9999 -9999 -9999 -9999 -9999 -9999 -9999 -9999 -9999 -9999 6.11620795107034 9.84251968503937 5.11247443762781 8.66336633663366 8.66336633663366 19.7132616487455 19.7132616487455 19.7132616487455 19.7132616487455 5.79470198675497 5.79470198675497 13.38199513382 33.4872979214781 33.4872979214781 26.1506276150628 26.1506276150628 14.9892933618844 28.9179104477612 10.7843137254902 10.6132075471698 19.1204588910134 19.1204588910134 10.9051254089422 12.1212121212121 20.6611570247934 20.6611570247934 20.6611570247934 20.6611570247934 20.6611570247934 1.60462130937099 1.60462130937099 1.60462130937099 1.60462130937099 1.60462130937099 1.60462130937099 1.60462130937099 1.60462130937099 1.60462130937099 1.60462130937099 1.60462130937099 1.60462130937099 1.60462130937099 1.60462130937099 10.1237345331834 10.1237345331834 10.1237345331834 10.1237345331834 10.1237345331834 10.1237345331834 10.1237345331834 10.1237345331834 10.1237345331834 10.1237345331834 10.1237345331834 10.1237345331834 10.1237345331834 10.1237345331834 10.1237345331834 10.1237345331834 10.1237345331834 10.1237345331834 10.1237345331834 10.1237345331834 10.1237345331834 10.6007067137809 10.6007067137809 10.6007067137809 10.2459016393443 22.5140712945591 22.5140712945591 10.8267716535433 10.8267716535433 13.9826422372228 13.9826422372228 13.9826422372228 6.87929956222639 6.02409638554217 6.87929956222639 6.87929956222639 0 6.87929956222639 6.87929956222639 6.87929956222639 6.87929956222639 6.87929956222639 6.87929956222639 6.87929956222639 6.87929956222639 6.87929956222639 6.87929956222639 6.87929956222639 6.87929956222639 6.87929956222639 2.1505376344086 2.1505376344086 2.9126213592233 2.9126213592233 2.9126213592233 0 0 0 0 0 0 0 0 0 0 0 -9999 -9999 -9999 -9999 -9999 -9999 -9999 -9999 -9999 -9999 -9999 -9999 -9999 -9999 -9999 -9999 -9999 -9999 -9999 -9999 -9999 -9999 -9999 -9999 -9999
-9999 -9999 -9999 -9999 -9999 -9999 -9999 -9999 -9999 -9999 -9999 -9999 -9999 -9999 -9999 -9999 -9999 -9999 -9999 -9999 -9999 -9999 -9999 -9999 -9999 -9999 -9999 -9999 -9999 -9999 -9999 -9999 -9999 -9999 -9999 -9999 -9999 -9999 -9999 -9999 -9999 -9999 -9999 -9999 -9999 -9999 -9999 -9999 -9999 -9999 -9999 -9999 -9999 -9999 -9999 -9999 -9999 -9999 -9999 -9999 -9999 -9999 -9999 -9999 -9999 -9999 -9999 -9999 -9999 -9999 -9999 -9999 -9999 -9999 -9999 -9999 -9999 -9999 -9999 -9999 -9999 -9999 -9999 -9999 -9999 -9999 -9999 -9999 -9999 -9999 -9999 -9999 -9999 -9999 -9999 -9999 -9999 -9999 -9999 -9999 -9999 -9999 -9999 -9999 -9999 -9999 -9999 -9999 -9999 -9999 -9999 -9999 -9999 -9999 -9999 -9999 -9999 -9999 -9999 -9999 -9999 -9999 -9999 -9999 -9999 -9999 -9999 -9999 -9999 -9999 -9999 -9999 -9999 -9999 -9999 -9999 -9999 -9999 -9999 -9999 -9999 -9999 -9999 -9999 -9999 -9999 -9999 -9999 -9999 -9999 -9999 -9999 -9999 -9999 -9999 -9999 -9999 -9999 -9999 -9999 -9999 -9999 -9999 -9999 -9999 -9999 -9999 -9999 -9999 -9999 -9999 -9999 -9999 -9999 -9999 -9999 -9999 -9999 -9999 -9999 -9999 -9999 -9999 -9999 -9999 -9999 -9999 -9999 -9999 -9999 -9999 -9999 -9999 -9999 -9999 -9999 -9999 -9999 -9999 -9999 -9999 -9999 -9999 -9999 -9999 -9999 -9999 -9999 -9999 -9999 -9999 -9999 -9999 -9999 -9999 -9999 -9999 -9999 -9999 -9999 -9999 -9999 -9999 -9999 -9999 -9999 -9999 -9999 -9999 -9999 -9999 -9999 -9999 -9999 -9999 -9999 -9999 -9999 -9999 -9999 -9999 -9999 -9999 -9999 -9999 -9999 -9999 -9999 -9999 -9999 -9999 -9999 -9999 -9999 -9999 -9999 -9999 -9999 -9999 -9999 -9999 -9999 -9999 -9999 -9999 -9999 -9999 -9999 -9999 -9999 -9999 -9999 -9999 -9999 -9999 -9999 -9999 -9999 -9999 -9999 6.11620795107034 6.11620795107034 9.84251968503937 9.84251968503937 8.66336633663366 2.77777777777778 2.77777777777778 10.5162523900574 10.5162523900574 10.5162523900574 10.5162523900574 13.38199513382 13.38199513382 27.1844660194175 33.4872979214781 27.3809523809524 27.3809523809524 26.1506276150628 14.9892933618844 10.6132075471698 10.6132075471698 19.1204588910134 19.1204588910134 19.1204588910134 10.9051254089422 20.6611570247934 20.6611570247934 16.7253521126761 16.7253521126761 16.7253521126761 1.60462130937099 1.60462130937099 1.60462130937099 1.60462130937099 1.60462130937099 1.60462130937099 1.60462130937099 1.60462130937099 1.60462130937099 1.60462130937099 1.60462130937099 1.60462130937099 1.60462130937099 1.60462130937099 1.60462130937099 1.60462130937099 10.1237345331834 10.1237345331834 10.1237345331834 10.1237345331834 10.1237345331834 10.1237345331834 10.1237345331834 10.1237345331834 10.1237345331834 10.1237345331834 10.1237345331834 10.1237345331834 10.1237345331834 10.1237345331834 10.1237345331834 10.1237345331834 10.1237345331834 10.1237345331834 10.1237345331834 10.6007067137809 10.6007067137809 10.2459016393443 10.2459016393443 4.53367875647668 4.53367875647668 22.5140712945591 13.719512195122 13.719512195122 13.719512195122 13.9826422372228 13.9826422372228 13.9826422372228 6.02409638554217 6.02409638554217 0 0 0 0 6.87929956222639 6.87929956222639 6.87929956222639 6.87929956222639 6.87929956222639 6.87929956222639 6.87929956222639 6.87929956222639 6.87929956222639 2.1505376344086 2.1505376344086 2.9126213592233 2.9126213592233 7.04225352112676 7.04225352112676 3.24675324675325 3.24675324675325 0 0 7.70925110132159 7.70925110132159 0 0 0 0 0 -9999 -9999 -9999 -9999 -9999 -9999 -9999 -9999 -9999 -9999 -9999 -9999 -9999 -9999 -9999 -9999 -9999 -9999 -9999 -9999 -9999 -9999 -9999 -9999 -9999
-9999 -9999 -9999 -9999 -9999 -9999 -9999 -9999 -9999 -9999 -9999 -9999 -9999 -9999 -9999 -9999 -9999 -9999 -9999 -9999 -9999 -9999 -9999 -9999 -9999 -9999 -9999 -9999 -9999 -9999 -9999 -9999 -9999 -9999 -9999 -9999 -9999 -9999 -9999 -9999 -9999 -9999 -9999 -9999 -9999 -9999 -9999 -9999 -9999 -9999 -9999 -9999 -9999 -9999 -9999 -9999 -9999 -9999 -9999 -9999 -9999 -9999 -9999 -9999 -9999 -9999 -9999 -9999 -9999 -9999 -9999 -9999 -9999 -9999 -9999 -9999 -9999 -9999 -9999 -9999 -9999 -9999 -9999 -9999 -9999 -9999 -9999 -9999 -9999 -9999 -9999 -9999 -9999 -9999 -9999 -9999 -9999 -9999 -9999 -9999 -9999 -9999 -9999 -9999 -9999 -9999 -9999 -9999 -9999 -9999 -9999 -9999 -9999 -9999 -9999 -9999 -9999 -9999 -9999 -9999 -9999 -9999 -9999 -9999 -9999 -9999 -9999 -9999 -9999 -9999 -9999 -9999 -9999 -9999 -9999 -9999 -9999 -9999 -9999 -9999 -9999 -9999 -9999 -9999 -9999 -9999 -9999 -9999 -9999 -9999 -9999 -9999 -9999 -9999 -9999 -9999 -9999 -9999 -9999 -9999 -9999 -9999 -9999 -9999 -9999 -9999 -9999 -9999 -9999 -9999 -9999 -9999 -9999 -9999 -9999 -9999 -9999 -9999 -9999 -9999 -9999 -9999 -9999 -9999 -9999 -9999 -9999 -9999 -9999 -9999 -9999 -9999 -9999 -9999 -9999 -9999 -9999 -9999 -9999 -9999 -9999 -9999 -9999 -9999 -9999 -9999 -9999 -9999 -9999 -9999 -9999 -9999 -9999 -9999 -9999 -9999 -9999 -9999 -9999 -9999 -9999 -9999 -9999 -9999 -9999 -9999 -9999 -9999 -9999 -9999 -9999 -9999 -9999 -9999 -9999 -9999 -9999 -9999 -9999 -9999 -9999 -9999 -9999 -9999 -9999 -9999 -9999 -9999 -9999 -9999 -9999 -9999 -9999 -9999 -9999 -9999 -9999 -9999 -9999 -9999 -9999 -9999 -9999 -9999 -9999 -9999 -9999 -9999 -9999 -9999 -9999 -9999 -9999 -9999 -9999 -9999 -9999 -9999 -9999 -9999 6.11620795107034 6.11620795107034 6.11620795107034 9.84251968503937 9.84251968503937 2.77777777777778 10.5162523900574 10.5162523900574 10.5162523900574 10.5162523900574 14.3884892086331 14.3884892086331 13.38199513382 27.1844660194175 27.1844660194175 27.3809523809524 6.65188470066519 26.1506276150628 26.1506276150628 26.1506276150628 16.7253521126761 16.7253521126761 10.9051254089422 10.9051254089422 16.7253521126761 16.7253521126761 14.7058823529412 14.7058823529412 16.7253521126761 14.7058823529412 14.7058823529412 1.60462130937099 1.60462130937099 1.60462130937099 1.60462130937099 1.60462130937099 1.60462130937099 1.60462130937099 1.60462130937099 1.60462130937099 1.60462130937099 1.60462130937099 1.60462130937099 1.60462130937099 1.60462130937099 1.60462130937099 10.1237345331834 10.1237345331834 10.1237345331834 10.1237345331834 10.1237345331834 10.1237345331834 10.1237345331834 10.1237345331834 10.1237345331834 10.1237345331834 10.1237345331834 10.1237345331834 10.1237345331834 10.1237345331834 10.1237345331834 10.1237345331834 10.1237345331834 10.1237345331834 4.62962962962963 4.62962962962963 5.68181818181818 10.2459016393443 10.2459016393443 0 4.53367875647668 4.53367875647668 4.53367875647668 13.719512195122 13.719512195122 13.719512195122 8.25082508250825 13.9826422372228 6.02409638554217 6.02409638554217 0 0 0 0 5.35714285714286 5.35714285714286 6.87929956222639 5.00834724540902 5.00834724540902 5.00834724540902 6.87929956222639 6.87929956222639 6.87929956222639 2.49169435215947 2.49169435215947 7.04225352112676 7.04225352112676 7.04225352112676 3.24675324675325 3.24675324675325 0 0 7.70925110132159 7.70925110132159 1.76056338028169 1.76056338028169 1.76056338028169 0 0 -9999 -9999 -9999 -9999 -9999 -9999 -9999 -9999 -9999 -9999 -9999 -9999 -9999 -9999 -9999 -9999 -9999 -9999 -9999 -9999 -9999 -9999 -9999 -9999 -9999 -9999
-9999 -9999 -9999 -9999 -9999 -9999 -9999 -9999 -9999 -9999 -9999 -9999 -9999 -9999 -9999 -9999 -9999 -9999 -9999 -9999 -9999 -9999 -9999 -9999 -9999 -9999 -9999 -9999 -9999 -9999 -9999 -9999 -9999 -9999 -9999 -9999 -9999 -9999 -9999 -9999 -9999 -9999 -9999 -9999 -9999 -9999 -9999 -9999 -9999 -9999 -9999 -9999 -9999 -9999 -9999 -9999 -9999 -9999 -9999 -9999 -9999 -9999 -9999 -9999 -9999 -9999 -9999 -9999 -9999 -9999 -9999 -9999 -9999 -9999 -9999 -9999 -9999 -9999 -9999 -9999 -9999 -9999 -9999 -9999 -9999 -9999 -9999 -9999 -9999 -9999 -9999 -9999 -9999 -9999 -9999 -9999 -9999 -9999 -9999 -9999 -9999 -9999 -9999 -9999 -9999 -9999 -9999 -9999 -9999 -9999 -9999 -9999 -9999 -9999 -9999 -9999 -9999 -9999 -9999 -9999 -9999 -9999 -9999 -9999 -9999 -9999 -9999 -9999 -9999 -9999 -9999 -9999 -9999 -9999 -9999 -9999 -9999 -9999 -9999 -9999 -9999 -9999 -9999 -9999 -9999 -9999 -9999 -9999 -9999 -9999 -9999 -9999 -9999 -9999 -9999 -9999 -9999 -9999 -9999 -9999 -9999 -9999 -9999 -9999 -9999 -9999 -9999 -9999 -9999 -9999 -9999 -9999 -9999 -9999 -9999 -9999 -9999 -9999 -9999 -9999 -9999 -9999 -9999 -9999 -9999 -9999 -9999 -9999 -9999 -9999 -9999 -9999 -9999 -9999 -9999 -9999 -9999 -9999 -9999 -9999 -9999 -9999 -9999 -9999 -9999 -9999 -9999 -9999 -9999 -9999 -9999 -9999 -9999 -9999 -9999 -9999 -9999 -9999 -9999 -9999 -9999 -9999 -9999 -9999 -9999 -9999 -9999 -9999 -9999 -9999 -9999 -9999 -9999 -9999 -9999 -9999 -9999 -9999 -9999 -9999 -9999 -9999 -9999 -9999 -9999 -9999 -9999 -9999 -9999 -9999 -9999 -9999 -9999 -9999 -9999 -9999 -9999 -9999 -9999 -9999 -9999 -9999 -9999 -9999 -9999 -9999 -9999 -9999 -9999 -9999 -9999 -9999 -9999 -9999 -9999 -9999 -9999 -9999 -9999 6.11620795107034 16.0944206008584 6.11620795107034 21.0084033613445 21.0084033613445 21.0084033613445 21.0084033613445 2.77777777777778 10.5162523900574 10.5162523900574 6.50759219088937 14.3884892086331 6.50759219088937 14.3884892086331 10.148849797023 27.1844660194175 10.148849797023 6.65188470066519 6.65188470066519 24.8 24.8 24.8 16.7253521126761 16.7253521126761 16.7253521126761 16.7253521126761 14.7058823529412 14.7058823529412 14.7058823529412 14.7058823529412 14.7058823529412 14.7058823529412 14.7058823529412 14.7058823529412 14.7058823529412 1.60462130937099 1.60462130937099 1.60462130937099 1.60462130937099 1.60462130937099 1.60462130937099 1.60462130937099 1.60462130937099 1.60462130937099 1.60462130937099 1.60462130937099 1.60462130937099 10.1237345331834 10.1237345331834 10.1237345331834 10.1237345331834 10.1237345331834 10.1237345331834 10.1237345331834 10.1237345331834 10.1237345331834 10.1237345331834 10.1237345331834 10.1237345331834 10.1237345331834 10.1237345331834 10.1237345331834 10.1237345331834 10.1237345331834 4.62962962962963 4.62962962962963 4.62962962962963 5.68181818181818 5.68181818181818 5.68181818181818 0 0 4.53367875647668 5.35331905781585 5.35331905781585 5.35331905781585 8.25082508250825 8.25082508250825 8.25082508250825 8.25082508250825 13.9826422372228 13.9826422372228 7.36648250460405 7.36648250460405 7.36648250460405 7.36648250460405 5.35714285714286 7.36648250460405 5.00834724540902 7.36648250460405 5.00834724540902 9.9403578528827 9.9403578528827 2.49169435215947 2.49169435215947 2.49169435215947 0 6.04838709677419 4.64684014869888 4.64684014869888 3.24675324675325 8.79007238883144 8.79007238883144 7.70925110132159 8.79007238883144 7.69230769230769 7.69230769230769 0 0 0 -9999 -9999 -9999 -9999 -9999 -9999 -9999 -9999 -9999 -9999 -9999 -9999 -9999 -9999 -9999 -9999 -9999 -9999 -9999 -9999 -9999 -9999 -9999 -9999 -9999 -9999
-9999 -9999 -9999 -9999 -9999 -9999 -9999 -9999 -9999 -9999 -9999 -9999 -9999 -9999 -9999 -9999 -9999 -9999 -9999 -9999 -9999 -9999 -9999 -9999 -9999 -9999 -9999 -9999 -9999 -9999 -9999 -9999 -9999 -9999 -9999 -9999 -9999 -9999 -9999 -9999 -9999 -9999 -9999 -9999 -9999 -9999 -9999 -9999 -9999 -9999 -9999 -9999 -9999 -9999 -9999 -9999 -9999 -9999 -9999 -9999 -9999 -9999 -9999 -9999 -9999 -9999 -9999 -9999 -9999 -9999 -9999 -9999 -9999 -9999 -9999 -9999 -9999 -9999 -9999 -9999 -9999 -9999 -9999 -9999 -9999 -9999 -9999 -9999 -9999 -9999 -9999 -9999 -9999 -9999 -9999 -9999 -9999 -9999 -9999 -9999 -9999 -9999 -9999 -9999 -9999 -9999 -9999 -9999 -9999 -9999 -9999 -9999 -9999 -9999 -9999 -9999 -9999 -9999 -9999 -9999 -9999 -9999 -9999 -9999 -9999 -9999 -9999 -9999 -9999 -9999 -9999 -9999 -9999 -9999 -9999 -9999 -9999 -9999 -9999 -9999 -9999 -9999 -9999 -9999 -9999 -9999 -9999 -9999 -9999 -9999 -9999 -9999 -9999 -9999 -9999 -9999 -9999 -9999 -9999 -9999 -9999 -9999 -9999 -9999 -9999 -9999 -9999 -9999 -9999 -9999 -9999 -9999 -9999 -9999 -9999 -9999 -9999 -9999 -9999 -9999 -9999 -9999 -9999 -9999 -9999 -9999 -9999 -9999 -9999 -9999 -9999 -9999 -9999 -9999 -9999 -9999 -9999 -9999 -9999 -9999 -9999 -9999 -9999 -9999 -9999 -9999 -9999 -9999 -9999 -9999 -9999 -9999 -9999 -9999 -9999 -9999 -9999 -9999 -9999 -9999 -9999 -9999 -9999 -9999 -9999 -9999 -9999 -9999 -9999 -9999 -9999 -9999 -9999 -9999 -9999 -9999 -9999 -9999 -9999 -9999 -9999 -9999 -9999 -9999 -9999 -9999 -9999 -9999 -9999 -9999 -9999 -9999 -9999 -9999 -9999 -9999 -9999 -9999 -9999 -9999 -9999 -9999 -9999 -9999 -9999 -9999 -9999 -9999 -9999 -9999 -9999 -9999 -9999 -9999 -9999 -9999 -9999 -9999 7.28155339805825 6.11620795107034 16.0944206008584 16.0944206008584 6.11620795107034 21.0084033613445 25.0716332378224 25.0716332378224 25.0716332378224 2.77777777777778 2.77777777777778 2.77777777777778 6.50759219088937 6.50759219088937 12.7551020408163 12.7551020408163 10.148849797023 10.148849797023 10.148849797023 24.8 16.7253521126761 16.7253521126761 16.7253521126761 16.7253521126761 16.7253521126761 16.7253521126761 14.7058823529412 14.7058823529412 14.7058823529412 14.7058823529412 14.7058823529412 14.7058823529412 14.7058823529412 14.7058823529412 14.7058823529412 14.7058823529412 14.7058823529412 14.7058823529412 1.60462130937099 1.60462130937099 1.60462130937099 1.60462130937099 1.60462130937099 1.60462130937099 1.60462130937099 1.60462130937099 1.60462130937099 3.91134289439374 17.8571428571429 17.8571428571429 17.8571428571429 0 0 10.1237345331834 10.1237345331834 10.1237345331834 10.1237345331834 10.1237345331834 10.1237345331834 10.1237345331834 10.1237345331834 10.1237345331834 10.1237345331834 10.1237345331834 4.62962962962963 12.6903553299492 12.6903553299492 4.62962962962963 5.68181818181818 5.68181818181818 5.68181818181818 3.74531835205993 3.74531835205993 8.37520938023451 8.37520938023451 8.37520938023451 5.35331905781585 5.35331905781585 5.35331905781585 5.35331905781585 11.0837438423645 11.0837438423645 13.9826422372228 6.57894736842105 7.36648250460405 7.36648250460405 7.36648250460405 7.36648250460405 7.36648250460405 7.36648250460405 7.36648250460405 8.43060959792477 9.9403578528827 9.07441016333938 9.07441016333938 0 0 6.04838709677419 6.04838709677419 6.04838709677419 6.04838709677419 8.79007238883144 8.79007238883144 8.79007238883144 8.79007238883144 7.69230769230769 7.69230769230769 0 0 0 -9999 -9999 -9999 -9999 -9999 -9999 -9999 -9999 -9999 -9999 -9999 -9999 -9999 -9999 -9999 -9999 -9999 -9999 -9999 -9999 -9999 -9999 -9999 -9999 -9999 -9999 -9999
-9999 -9999 -9999 -9999 -9999 -9999 -9999 -9999 -9999 -9999 -9999 -9999 -9999 -9999 -9999 -9999 -9999 -9999 -9999 -9999 -9999 -9999 -9999 -9999 -9999 -9999 -9999 -9999 -9999 -9999 -9999 -9999 -9999 -9999 -9999 -9999 -9999 -9999 -9999 -9999 -9999 -9999 -9999 -9999 -9999 -9999 -9999 -9999 -9999 -9999 -9999 -9999 -9999 -9999 -9999 -9999 -9999 -9999 -9999 -9999 -9999 -9999 -9999 -9999 -9999 -9999 -9999 -9999 -9999 -9999 -9999 -9999 -9999 -9999 -9999 -9999 -9999 -9999 -9999 -9999 -9999 -9999 -9999 -9999 -9999 -9999 -9999 -9999 -9999 -9999 -9999 -9999 -9999 -9999 -9999 -9999 -9999 -9999 -9999 -9999 -9999 -9999 -9999 -9999 -9999 -9999 -9999 -9999 -9999 -9999 -9999 -9999 -9999 -9999 -9999 -9999 -9999 -9999 -9999 -9999 -9999 -9999 -9999 -9999 -9999 -9999 -9999 -9999 -9999 -9999 -9999 -9999 -9999 -9999 -9999 -9999 -9999 -9999 -9999 -9999 -9999 -9999 -9999 -9999 -9999 -9999 -9999 -9999 -9999 -9999 -9999 -9999 -9999 -9999 -9999 -9999 -9999 -9999 -9999 -9999 -9999 -9999 -9999 -9999 -9999 -9999 -9999 -9999 -9999 -9999 -9999 -9999 -9999 -9999 -9999 -9999 -9999 -9999 -9999 -9999 -9999 -9999 -9999 -9999 -9999 -9999 -9999 -9999 -9999 -9999 -9999 -9999 -9999 -9999 -9999 -9999 -9999 -9999 -9999 -9999 -9999 -9999 -9999 -9999 -9999 -9999 -9999 -9999 -9999 -9999 -9999 -9999 -9999 -9999 -9999 -9999 -9999 -9999 -9999 -9999 -9999 -9999 -9999 -9999 -9999 -9999 -9999 -9999 -9999 -9999 -9999 -9999 -9999 -9999 -9999 -9999 -9999 -9999 -9999 -9999 -9999 -9999 -9999 -9999 -9999 -9999 -9999 -9999 -9999 -9999 -9999 -9999 -9999 -9999 -9999 -9999 -9999 -9999 -9999 -9999 -9999 -9999 -9999 -9999 -9999 -9999 -9999 -9999 -9999 -9999 -9999 -9999 -9999 -9999 -9999 -9999 -9999 -9999 7.28155339805825 7.28155339805825 16.0944206008584 16.0944206008584 16.0944206008584 25.0716332378224 25.0716332378224 25.0716332378224 25.0716332378224 4.45632798573975 2.77777777777778 2.77777777777778 2.77777777777778 2.77777777777778 22.8215767634855 22.8215767634855 22.8215767634855 16.7253521126761 16.7253521126761 16.7253521126761 16.7253521126761 16.7253521126761 16.7253521126761 16.7253521126761 16.7253521126761 14.7058823529412 14.7058823529412 14.7058823529412 14.7058823529412 14.7058823529412 14.7058823529412 14.7058823529412 14.7058823529412 14.7058823529412 14.7058823529412 14.7058823529412 14.7058823529412 14.7058823529412 14.7058823529412 10.5263157894737 1.60462130937099 1.60462130937099 1.60462130937099 1.60462130937099 1.60462130937099 3.91134289439374 3.91134289439374 3.91134289439374 3.91134289439374 3.91134289439374 10.5820105820106 10.5820105820106 0 0 10.1237345331834 10.1237345331834 10.1237345331834 10.1237345331834 11.7820324005891 10.1237345331834 10.1237345331834 10.1237345331834 10.1237345331834 4.62962962962963 4.62962962962963 12.6903553299492 12.6903553299492 12.6903553299492 5.68181818181818 5.68181818181818 3.74531835205993 3.74531835205993 3.74531835205993 8.37520938023451 8.37520938023451 8.37520938023451 8.37520938023451 8.37520938023451 8.37520938023451 2.08768267223382 2.08768267223382 2.08768267223382 7.30519480519481 6.57894736842105 6.57894736842105 6.22775800711744 7.36648250460405 7.36648250460405 7.36648250460405 8.43060959792477 8.43060959792477 8.43060959792477 8.43060959792477 9.07441016333938 9.07441016333938 6.8359375 6.8359375 6.8359375 6.8359375 5.31914893617021 6.04838709677419 8.79007238883144 8.79007238883144 8.79007238883144 8.79007238883144 0 0 0 0 0 -9999 -9999 -9999 -9999 -9999 -9999 -9999 -9999 -9999 -9999 -9999 -9999 -9999 -9999 -9999 -9999 -9999 -9999 -9999 -9999 -9999 -9999 -9999 -9999 -9999 -9999 -9999
-9999 -9999 -9999 -9999 -9999 -9999 -9999 -9999 -9999 -9999 -9999 -9999 -9999 -9999 -9999 -9999 -9999 -9999 -9999 -9999 -9999 -9999 -9999 -9999 -9999 -9999 -9999 -9999 -9999 -9999 -9999 -9999 -9999 -9999 -9999 -9999 -9999 -9999 -9999 -9999 -9999 -9999 -9999 -9999 -9999 -9999 -9999 -9999 -9999 -9999 -9999 -9999 -9999 -9999 -9999 -9999 -9999 -9999 -9999 -9999 -9999 -9999 -9999 -9999 -9999 -9999 -9999 -9999 -9999 -9999 -9999 -9999 -9999 -9999 -9999 -9999 -9999 -9999 -9999 -9999 -9999 -9999 -9999 -9999 -9999 -9999 -9999 -9999 -9999 -9999 -9999 -9999 -9999 -9999 -9999 -9999 -9999 -9999 -9999 -9999 -9999 -9999 -9999 -9999 -9999 -9999 -9999 -9999 -9999 -9999 -9999 -9999 -9999 -9999 -9999 -9999 -9999 -9999 -9999 -9999 -9999 -9999 -9999 -9999 -9999 -9999 -9999 -9999 -9999 -9999 -9999 -9999 -9999 -9999 -9999 -9999 -9999 -9999 -9999 -9999 -9999 -9999 -9999 -9999 -9999 -9999 -9999 -9999 -9999 -9999 -9999 -9999 -9999 -9999 -9999 -9999 -9999 -9999 -9999 -9999 -9999 -9999 -9999 -9999 -9999 -9999 -9999 -9999 -9999 -9999 -9999 -9999 -9999 -9999 -9999 -9999 -9999 -9999 -9999 -9999 -9999 -9999 -9999 -9999 -9999 -9999 -9999 -9999 -9999 -9999 -9999 -9999 -9999 -9999 -9999 -9999 -9999 -9999 -9999 -9999 -9999 -9999 -9999 -9999 -9999 -9999 -9999 -9999 -9999 -9999 -9999 -9999 -9999 -9999 -9999 -9999 -9999 -9999 -9999 -9999 -9999 -9999 -9999 -9999 -9999 -9999 -9999 -9999 -9999 -9999 -9999 -9999 -9999 -9999 -9999 -9999 -9999 -9999 -9999 -9999 -9999 -9999 -9999 -9999 -9999 -9999 -9999 -9999 -9999 -9999 -9999 -9999 -9999 -9999 -9999 -9999 -9999 -9999 -9999 -9999 -9999 -9999 -9999 -9999 -9999 -9999 -9999 -9999 -9999 -9999 -9999 -9999 -9999 -9999 -9999 -9999 -9999 7.28155339805825 7.28155339805825 7.28155339805825 14.4675925925926 16.0944206008584 8.7719298245614 8.7719298245614 25.0716332378224 4.45632798573975 4.45632798573975 4.45632798573975 4.45632798573975 2.77777777777778 2.77777777777778 2.77777777777778 13.4453781512605 13.4453781512605 13.4453781512605 13.4453781512605 13.4453781512605 16.7253521126761 16.7253521126761 16.7253521126761 16.7253521126761 16.7253521126761 14.7058823529412 14.7058823529412 14.7058823529412 14.7058823529412 14.7058823529412 14.7058823529412 14.7058823529412 14.7058823529412 14.7058823529412 14.7058823529412 14.7058823529412 14.7058823529412 10.5263157894737 10.5263157894737 10.5263157894737 10.5263157894737 10.5263157894737 10.5263157894737 1.60462130937099 4.28082191780822 4.28082191780822 4.28082191780822 4.28082191780822 4.28082191780822 3.91134289439374 3.91134289439374 10.5820105820106 10.5820105820106 10.5820105820106 10.1237345331834 10.1237345331834 10.1237345331834 10.1237345331834 11.7820324005891 11.7820324005891 11.7820324005891 10.1237345331834 10.1237345331834 10.1237345331834 4.62962962962963 4.62962962962963 9.9403578528827 22.6293103448276 12.6903553299492 7.5187969924812 7.5187969924812 7.5187969924812 7.5187969924812 3.74531835205993 25.3012048192771 25.3012048192771 25.3012048192771 10.9677419354839 10.9677419354839 10.9677419354839 2.08768267223382 2.08768267223382 9.22818791946309 9.22818791946309 7.30519480519481 7.30519480519481 6.22775800711744 6.22775800711744 6.22775800711744 0 0 0 0 0 0 0 0 0 0 5.31914893617021 5.31914893617021 4.0650406504065 8.79007238883144 8.79007238883144 8.79007238883144 0 0 0 0 0 -9999 -9999 -9999 -9999 -9999 -9999 -9999 -9999 -9999 -9999 -9999 -9999 -9999 -9999 -9999 -9999 -9999 -9999 -9999 -9999 -9999 -9999 -9999 -9999 -9999 -9999 -9999 -9999
-9999 -9999 -9999 -9999 -9999 -9999 -9999 -9999 -9999 -9999 -9999 -9999 -9999 -9999 -9999 -9999 -9999 -9999 -9999 -9999 -9999 -9999 -9999 -9999 -9999 -9999 -9999 -9999 -9999 -9999 -9999 -9999 -9999 -9999 -9999 -9999 -9999 -9999 -9999 -9999 -9999 -9999 -9999 -9999 -9999 -9999 -9999 -9999 -9999 -9999 -9999 -9999 -9999 -9999 -9999 -9999 -9999 -9999 -9999 -9999 -9999 -9999 -9999 -9999 -9999 -9999 -9999 -9999 -9999 -9999 -9999 -9999 -9999 -9999 -9999 -9999 -9999 -9999 -9999 -9999 -9999 -9999 -9999 -9999 -9999 -9999 -9999 -9999 -9999 -9999 -9999 -9999 -9999 -9999 -9999 -9999 -9999 -9999 -9999 -9999 -9999 -9999 -9999 -9999 -9999 -9999 -9999 -9999 -9999 -9999 -9999 -9999 -9999 -9999 -9999 -9999 -9999 -9999 -9999 -9999 -9999 -9999 -9999 -9999 -9999 -9999 -9999 -9999 -9999 -9999 -9999 -9999 -9999 -9999 -9999 -9999 -9999 -9999 -9999 -9999 -9999 -9999 -9999 -9999 -9999 -9999 -9999 -9999 -9999 -9999 -9999 -9999 -9999 -9999 -9999 -9999 -9999 -9999 -9999 -9999 -9999 -9999 -9999 -9999 -9999 -9999 -9999 -9999 -9999 -9999 -9999 -9999 -9999 -9999 -9999 -9999 -9999 -9999 -9999 -9999 -9999 -9999 -9999 -9999 -9999 -9999 -9999 -9999 -9999 -9999 -9999 -9999 -9999 -9999 -9999 -9999 -9999 -9999 -9999 -9999 -9999 -9999 -9999 -9999 -9999 -9999 -9999 -9999 -9999 -9999 -9999 -9999 -9999 -9999 -9999 -9999 -9999 -9999 -9999 -9999 -9999 -9999 -9999 -9999 -9999 -9999 -9999 -9999 -9999 -9999 -9999 -9999 -9999 -9999 -9999 -9999 -9999 -9999 -9999 -9999 -9999 -9999 -9999 -9999 -9999 -9999 -9999 -9999 -9999 -9999 -9999 -9999 -9999 -9999 -9999 -9999 -9999 -9999 -9999 -9999 -9999 -9999 -9999 -9999 -9999 -9999 -9999 -9999 -9999 -9999 -9999 -9999 -9999 -9999 -9999 -9999 -9999 13.7362637362637 13.7362637362637 14.4675925925926 14.4675925925926 14.4675925925926 8.7719298245614 8.7719298245614 8.7719298245614 4.45632798573975 4.45632798573975 4.45632798573975 4.45632798573975 11.070110701107 19.4805194805195 19.4805194805195 7.53424657534247 7.53424657534247 27.0833333333333 27.0833333333333 27.0833333333333 13.4453781512605 17.0212765957447 16.7253521126761 16.7253521126761 16.7253521126761 14.7058823529412 14.7058823529412 14.7058823529412 14.7058823529412 14.7058823529412 14.7058823529412 14.7058823529412 14.7058823529412 14.7058823529412 14.7058823529412 14.7058823529412 10.5263157894737 10.5263157894737 10.5263157894737 10.5263157894737 10.5263157894737 10.5263157894737 10.5263157894737 10.5263157894737 10.5263157894737 10.5263157894737 4.28082191780822 4.28082191780822 4.28082191780822 4.28082191780822 7.7120822622108 7.7120822622108 7.7120822622108 5.94227504244482 5.94227504244482 10.1237345331834 10.1237345331834 -9999 11.7820324005891 11.7820324005891 11.7820324005891 11.7820324005891 11.7820324005891 2.68817204301075 2.68817204301075 4.62962962962963 4.62962962962963 22.6293103448276 22.6293103448276 14.2255005268704 0 0 0 0 0 25.3012048192771 10.9677419354839 10.9677419354839 3.51288056206089 4.04040404040404 4.04040404040404 2.08768267223382 4.04040404040404 4.04040404040404 9.22818791946309 9.22818791946309 7.30519480519481 6.22775800711744 6.22775800711744 3.0241935483871 0 3.0241935483871 0 4.51467268623025 4.51467268623025 4.51467268623025 0 0 0 5.31914893617021 5.31914893617021 4.0650406504065 4.0650406504065 0 8.79007238883144 0 0 0 0 0 -9999 -9999 -9999 -9999 -9999 -9999 -9999 -9999 -9999 -9999 -9999 -9999 -9999 -9999 -9999 -9999 -9999 -9999 -9999 -9999 -9999 -9999 -9999 -9999 -9999 -9999 -9999 -9999
-9999 -9999 -9999 -9999 -9999 -9999 -9999 -9999 -9999 -9999 -9999 -9999 -9999 -9999 -9999 -9999 -9999 -9999 -9999 -9999 -9999 -9999 -9999 -9999 -9999 -9999 -9999 -9999 -9999 -9999 -9999 -9999 -9999 -9999 -9999 -9999 -9999 -9999 -9999 -9999 -9999 -9999 -9999 -9999 -9999 -9999 -9999 -9999 -9999 -9999 -9999 -9999 -9999 -9999 -9999 -9999 -9999 -9999 -9999 -9999 -9999 -9999 -9999 -9999 -9999 -9999 -9999 -9999 -9999 -9999 -9999 -9999 -9999 -9999 -9999 -9999 -9999 -9999 -9999 -9999 -9999 -9999 -9999 -9999 -9999 -9999 -9999 -9999 -9999 -9999 -9999 -9999 -9999 -9999 -9999 -9999 -9999 -9999 -9999 -9999 -9999 -9999 -9999 -9999 -9999 -9999 -9999 -9999 -9999 -9999 -9999 -9999 -9999 -9999 -9999 -9999 -9999 -9999 -9999 -9999 -9999 -9999 -9999 -9999 -9999 -9999 -9999 -9999 -9999 -9999 -9999 -9999 -9999 -9999 -9999 -9999 -9999 -9999 -9999 -9999 -9999 -9999 -9999 -9999 -9999 -9999 -9999 -9999 -9999 -9999 -9999 -9999 -9999 -9999 -9999 -9999 -9999 -9999 -9999 -9999 -9999 -9999 -9999 -9999 -9999 -9999 -9999 -9999 -9999 -9999 -9999 -9999 -9999 -9999 -9999 -9999 -9999 -9999 -9999 -9999 -9999 -9999 -9999 -9999 -9999 -9999 -9999 -9999 -9999 -9999 -9999 -9999 -9999 -9999 -9999 -9999 -9999 -9999 -9999 -9999 -9999 -9999 -9999 -9999 -9999 -9999 -9999 -9999 -9999 -9999 -9999 -9999 -9999 -9999 -9999 -9999 -9999 -9999 -9999 -9999 -9999 -9999 -9999 -9999 -9999 -9999 -9999 -9999 -9999 -9999 -9999 -9999 -9999 -9999 -9999 -9999 -9999 -9999 -9999 -9999 -9999 -9999 -9999 -9999 -9999 -9999 -9999 -9999 -9999 -9999 -9999 -9999 -9999 -9999 -9999 -9999 -9999 -9999 -9999 -9999 -9999 -9999 -9999 -9999 -9999 -9999 -9999 -9999 -9999 -9999 -9999 -9999 -9999 -9999 -9999 -9999 7.28155339805825 13.7362637362637 13.7362637362637 14.4675925925926 14.4675925925926 19.538188277087 19.538188277087 8.7719298245614 8.7719298245614 8.7719298245614 27.9850746268657 16.8067226890756 11.070110701107 11.070110701107 11.070110701107 7.53424657534247 7.53424657534247 7.53424657534247 7.53424657534247 27.0833333333333 21.8181818181818 21.8181818181818 21.8181818181818 17.0212765957447 16.7253521126761 14.7058823529412 14.7058823529412 14.7058823529412 14.7058823529412 14.7058823529412 14.7058823529412 14.7058823529412 14.7058823529412 14.7058823529412 14.7058823529412 14.760147601476 10.5263157894737 10.5263157894737 10.5263157894737 10.5263157894737 10.5263157894737 10.5263157894737 10.5263157894737 10.5263157894737 10.5263157894737 10.5263157894737 10.5263157894737 10.5263157894737 15.818431911967 4.28082191780822 0 0 0 7.7120822622108 5.94227504244482 5.94227504244482 5.94227504244482 -9999 -9999 -9999 11.7820324005891 11.7820324005891 11.7820324005891 2.68817204301075 2.68817204301075 2.68817204301075 2.68817204301075 2.68817204301075 4.62962962962963 4.62962962962963 0 0 0 14.2255005268704 0 0 0 3.51288056206089 3.51288056206089 3.51288056206089 4.04040404040404 4.04040404040404 4.04040404040404 7.67263427109974 7.67263427109974 7.67263427109974 7.67263427109974 7.30519480519481 0 3.0241935483871 3.0241935483871 3.0241935483871 3.0241935483871 9.32835820895522 9.32835820895522 5.61797752808989 4.51467268623025 5.61797752808989 0 0 0 4.0650406504065 4.0650406504065 0 0 0 0 0 0 0 0 -9999 -9999 -9999 -9999 -9999 -9999 -9999 -9999 -9999 -9999 -9999 -9999 -9999 -9999 -9999 -9999 -9999 -9999 -9999 -9999 -9999 -9999 -9999 -9999 -9999 -9999 -9999 -9999
-9999 -9999 -9999 -9999 -9999 -9999 -9999 -9999 -9999 -9999 -9999 -9999 -9999 -9999 -9999 -9999 -9999 -9999 -9999 -9999 -9999 -9999 -9999 -9999 -9999 -9999 -9999 -9999 -9999 -9999 -9999 -9999 -9999 -9999 -9999 -9999 -9999 -9999 -9999 -9999 -9999 -9999 -9999 -9999 -9999 -9999 -9999 -9999 -9999 -9999 -9999 -9999 -9999 -9999 -9999 -9999 -9999 -9999 -9999 -9999 -9999 -9999 -9999 -9999 -9999 -9999 -9999 -9999 -9999 -9999 -9999 -9999 -9999 -9999 -9999 -9999 -9999 -9999 -9999 -9999 -9999 -9999 -9999 -9999 -9999 -9999 -9999 -9999 -9999 -9999 -9999 -9999 -9999 -9999 -9999 -9999 -9999 -9999 -9999 -9999 -9999 -9999 -9999 -9999 -9999 -9999 -9999 -9999 -9999 -9999 -9999 -9999 -9999 -9999 -9999 -9999 -9999 -9999 -9999 -9999 -9999 -9999 -9999 -9999 -9999 -9999 -9999 -9999 -9999 -9999 -9999 -9999 -9999 -9999 -9999 -9999 -9999 -9999 -9999 -9999 -9999 -9999 -9999 -9999 -9999 -9999 -9999 -9999 -9999 -9999 -9999 -9999 -9999 -9999 -9999 -9999 -9999 -9999 -9999 -9999 -9999 -9999 -9999 -9999 -9999 -9999 -9999 -9999 -9999 -9999 -9999 -9999 -9999 -9999 -9999 -9999 -9999 -9999 -9999 -9999 -9999 -9999 -9999 -9999 -9999 -9999 -9999 -9999 -9999 -9999 -9999 -9999 -9999 -9999 -9999 -9999 -9999 -9999 -9999 -9999 -9999 -9999 -9999 -9999 -9999 -9999 -9999 -9999 -9999 -9999 -9999 -9999 -9999 -9999 -9999 -9999 -9999 -9999 -9999 -9999 -9999 -9999 -9999 -9999 -9999 -9999 -9999 -9999 -9999 -9999 -9999 -9999 -9999 -9999 -9999 -9999 -9999 -9999 -9999 -9999 -9999 -9999 -9999 -9999 -9999 -9999 -9999 -9999 -9999 -9999 -9999 -9999 -9999 -9999 -9999 -9999 -9999 -9999 -9999 -9999 -9999 -9999 -9999 -9999 -9999 -9999 -9999 -9999 -9999 -9999 -9999 -9999 -9999 -9999 -9999 -9999 7.28155339805825 7.28155339805825 9.00900900900901 14.4675925925926 14.4675925925926 19.538188277087 19.538188277087 16.7910447761194 27.9850746268657 27.9850746268657 10.6609808102345 16.8067226890756 16.8067226890756 11.070110701107 18.5185185185185 18.5185185185185 7.53424657534247 7.53424657534247 7.7683615819209 7.7683615819209 21.8181818181818 21.8181818181818 21.8181818181818 21.8181818181818 14.7058823529412 14.7058823529412 14.7058823529412 14.7058823529412 14.7058823529412 14.7058823529412 14.7058823529412 14.7058823529412 14.7058823529412 14.7058823529412 14.7058823529412 14.760147601476 14.760147601476 14.760147601476 10.5263157894737 10.5263157894737 10.5263157894737 10.5263157894737 10.5263157894737 10.5263157894737 10.5263157894737 10.5263157894737 10.5263157894737 15.818431911967 15.818431911967 15.818431911967 15.818431911967 0 0 21.0016155088853 21.0016155088853 21.0016155088853 11.1989459815547 -9999 -9999 11.7820324005891 11.7820324005891 11.7820324005891 2.68817204301075 2.68817204301075 2.68817204301075 2.68817204301075 2.68817204301075 2.68817204301075 2.68817204301075 2.68817204301075 0 0 0 0 0 0 0 0 3.51288056206089 3.51288056206089 4.04040404040404 4.04040404040404 7.67263427109974 4.04040404040404 4.04040404040404 4.04040404040404 7.67263427109974 0 9.76138828633406 9.76138828633406 9.76138828633406 9.76138828633406 9.32835820895522 9.32835820895522 9.32835820895522 9.32835820895522 9.32835820895522 5.61797752808989 5.61797752808989 2.30061349693252 0 0 0 6.2015503875969 0 0 0 0 0 0 1.68918918918919 -9999 -9999 -9999 -9999 -9999 -9999 -9999 -9999 -9999 -9999 -9999 -9999 -9999 -9999 -9999 -9999 -9999 -9999 -9999 -9999 -9999 -9999 -9999 -9999 -9999 -9999 -9999 -9999
-9999 -9999 -9999 -9999 -9999 -9999 -9999 -9999 -9999 -9999 -9999 -9999 -9999 -9999 -9999 -9999 -9999 -9999 -9999 -9999 -9999 -9999 -9999 -9999 -9999 -9999 -9999 -9999 -9999 -9999 -9999 -9999 -9999 -9999 -9999 -9999 -9999 -9999 -9999 -9999 -9999 -9999 -9999 -9999 -9999 -9999 -9999 -9999 -9999 -9999 -9999 -9999 -9999 -9999 -9999 -9999 -9999 -9999 -9999 -9999 -9999 -9999 -9999 -9999 -9999 -9999 -9999 -9999 -9999 -9999 -9999 -9999 -9999 -9999 -9999 -9999 -9999 -9999 -9999 -9999 -9999 -9999 -9999 -9999 -9999 -9999 -9999 -9999 -9999 -9999 -9999 -9999 -9999 -9999 -9999 -9999 -9999 -9999 -9999 -9999 -9999 -9999 -9999 -9999 -9999 -9999 -9999 -9999 -9999 -9999 -9999 -9999 -9999 -9999 -9999 -9999 -9999 -9999 -9999 -9999 -9999 -9999 -9999 -9999 -9999 -9999 -9999 -9999 -9999 -9999 -9999 -9999 -9999 -9999 -9999 -9999 -9999 -9999 -9999 -9999 -9999 -9999 -9999 -9999 -9999 -9999 -9999 -9999 -9999 -9999 -9999 -9999 -9999 -9999 -9999 -9999 -9999 -9999 -9999 -9999 -9999 -9999 -9999 -9999 -9999 -9999 -9999 -9999 -9999 -9999 -9999 -9999 -9999 -9999 -9999 -9999 -9999 -9999 -9999 -9999 -9999 -9999 -9999 -9999 -9999 -9999 -9999 -9999 -9999 -9999 -9999 -9999 -9999 -9999 -9999 -9999 -9999 -9999 -9999 -9999 -9999 -9999 -9999 -9999 -9999 -9999 -9999 -9999 -9999 -9999 -9999 -9999 -9999 -9999 -9999 -9999 -9999 -9999 -9999 -9999 -9999 -9999 -9999 -9999 -9999 -9999 -9999 -9999 -9999 -9999 -9999 -9999 -9999 -9999 -9999 -9999 -9999 -9999 -9999 -9999 -9999 -9999 -9999 -9999 -9999 -9999 -9999 -9999 -9999 -9999 -9999 -9999 -9999 -9999 -9999 -9999 -9999 -9999 -9999 -9999 -9999 -9999 -9999 -9999 -9999 -9999 -9999 -9999 -9999 -9999 -9999 -9999 -9999 -9999 -9999 -9999 7.28155339805825 9.00900900900901 9.00900900900901 9.00900900900901 14.4675925925926 16.7910447761194 16.7910447761194 16.7910447761194 29 10.6609808102345 10.6609808102345 10.6609808102345 11.0732538330494 11.0732538330494 18.5185185185185 18.5185185185185 7.7683615819209 7.7683615819209 21.8181818181818 21.8181818181818 21.8181818181818 21.8181818181818 21.8181818181818 4.35729847494553 4.35729847494553 14.7058823529412 14.7058823529412 14.8725212464589 14.8725212464589 14.8725212464589 14.7058823529412 14.7058823529412 14.4694533762058 10.4761904761905 14.7058823529412 14.7058823529412 5.27704485488127 0 0 0 10.5263157894737 10.5263157894737 22.0588235294118 22.0588235294118 22.0588235294118 22.0588235294118 15.818431911967 15.818431911967 15.818431911967 15.818431911967 15.818431911967 15.818431911967 15.818431911967 15.818431911967 21.0016155088853 18.716577540107 11.1989459815547 11.1989459815547 11.1989459815547 -9999 -9999 2.68817204301075 2.68817204301075 2.68817204301075 2.68817204301075 2.68817204301075 2.68817204301075 2.68817204301075 2.68817204301075 2.68817204301075 2.68817204301075 2.68817204301075 0 0 0 0 0 0 0 0 4.04040404040404 4.04040404040404 7.67263427109974 7.67263427109974 7.67263427109974 7.67263427109974 0 0 0 0 0 0 0 0 4.75285171102662 4.75285171102662 5.61797752808989 5.61797752808989 2.30061349693252 2.30061349693252 2.30061349693252 2.30061349693252 6.2015503875969 6.2015503875969 0 0 0 0 0 0 1.68918918918919 -9999 -9999 -9999 -9999 -9999 -9999 -9999 -9999 -9999 -9999 -9999 -9999 -9999 -9999 -9999 -9999 -9999 -9999 -9999 -9999 -9999 -9999 -9999 -9999 -9999 -9999 -9999 -9999
-9999 -9999 -9999 -9999 -9999 -9999 -9999 -9999 -9999 -9999 -9999 -9999 -9999 -9999 -9999 -9999 -9999 -9999 -9999 -9999 -9999 -9999 -9999 -9999 -9999 -9999 -9999 -9999 -9999 -9999 -9999 -9999 -9999 -9999 -9999 -9999 -9999 -9999 -9999 -9999 -9999 -9999 -9999 -9999 -9999 -9999 -9999 -9999 -9999 -9999 -9999 -9999 -9999 -9999 -9999 -9999 -9999 -9999 -9999 -9999 -9999 -9999 -9999 -9999 -9999 -9999 -9999 -9999 -9999 -9999 -9999 -9999 -9999 -9999 -9999 -9999 -9999 -9999 -9999 -9999 -9999 -9999 -9999 -9999 -9999 -9999 -9999 -9999 -9999 -9999 -9999 -9999 -9999 -9999 -9999 -9999 -9999 -9999 -9999 -9999 -9999 -9999 -9999 -9999 -9999 -9999 -9999 -9999 -9999 -9999 -9999 -9999 -9999 -9999 -9999 -9999 -9999 -9999 -9999 -9999 -9999 -9999 -9999 -9999 -9999 -9999 -9999 -9999 -9999 -9999 -9999 -9999 -9999 -9999 -9999 -9999 -9999 -9999 -9999 -9999 -9999 -9999 -9999 -9999 -9999 -9999 -9999 -9999 -9999 -9999 -9999 -9999 -9999 -9999 -9999 -9999 -9999 -9999 -9999 -9999 -9999 -9999 -9999 -9999 -9999 -9999 -9999 -9999 -9999 -9999 -9999 -9999 -9999 -9999 -9999 -9999 -9999 -9999 -9999 -9999 -9999 -9999 -9999 -9999 -9999 -9999 -9999 -9999 -9999 -9999 -9999 -9999 -9999 -9999 -9999 -9999 -9999 -9999 -9999 -9999 -9999 -9999 -9999 -9999 -9999 -9999 -9999 -9999 -9999 -9999 -9999 -9999 -9999 -9999 -9999 -9999 -9999 -9999 -9999 -9999 -9999 -9999 -9999 -9999 -9999 -9999 -9999 -9999 -9999 -9999 -9999 -9999 -9999 -9999 -9999 -9999 -9999 -9999 -9999 -9999 -9999 -9999 -9999 -9999 -9999 -9999 -9999 -9999 -9999 -9999 -9999 -9999 -9999 -9999 -9999 -9999 -9999 -9999 -9999 -9999 -9999 -9999 -9999 -9999 -9999 -9999 -9999 -9999 -9999 -9999 -9999 -9999 -9999 -9999 -9999 7.28155339805825 18.6274509803922 18.6274509803922 9.00900900900901 9.29839391377853 9.29839391377853 16.7910447761194 16.7910447761194 29 29 29 11.0732538330494 11.0732538330494 11.0732538330494 11.0732538330494 10.1892285298399 7.7683615819209 7.7683615819209 7.7683615819209 21.8181818181818 21.8181818181818 21.8181818181818 21.8181818181818 4.35729847494553 4.35729847494553 4.35729847494553 4.35729847494553 14.8725212464589 14.8725212464589 14.8725212464589 14.8725212464589 14.4694533762058 10.4761904761905 0 0 0 0 5.27704485488127 13.7362637362637 13.7362637362637 0 0 22.0588235294118 22.0588235294118 22.0588235294118 22.0588235294118 15.818431911967 15.818431911967 15.818431911967 15.818431911967 15.818431911967 15.818431911967 15.818431911967 15.818431911967 15.818431911967 15.818431911967 15.818431911967 18.716577540107 18.716577540107 11.1989459815547 11.1989459815547 2.68817204301075 2.68817204301075 2.68817204301075 2.68817204301075 2.68817204301075 2.68817204301075 2.68817204301075 2.68817204301075 2.68817204301075 2.68817204301075 2.68817204301075 2.68817204301075 2.68817204301075 2.68817204301075 0 0 0 0 0 0 0 0 7.67263427109974 7.67263427109974 7.67263427109974 7.67263427109974 0 0 0 0 0 8.08314087759815 0 0 4.75285171102662 4.75285171102662 4.75285171102662 4.75285171102662 4.75285171102662 2.30061349693252 2.30061349693252 6.2015503875969 6.2015503875969 6.2015503875969 0 0 0 0 0 1.68918918918919 1.68918918918919 -9999 -9999 -9999 -9999 -9999 -9999 -9999 -9999 -9999 -9999 -9999 -9999 -9999 -9999 -9999 -9999 -9999 -9999 -9999 -9999 -9999 -9999 -9999 -9999 -9999 -9999 -9999 -9999
-9999 -9999 -9999 -9999 -9999 -9999 -9999 -9999 -9999 -9999 -9999 -9999 -9999 -9999 -9999 -9999 -9999 -9999 -9999 -9999 -9999 -9999 -9999 -9999 -9999 -9999 -9999 -9999 -9999 -9999 -9999 -9999 -9999 -9999 -9999 -9999 -9999 -9999 -9999 -9999 -9999 -9999 -9999 -9999 -9999 -9999 -9999 -9999 -9999 -9999 -9999 -9999 -9999 -9999 -9999 -9999 -9999 -9999 -9999 -9999 -9999 -9999 -9999 -9999 -9999 -9999 -9999 -9999 -9999 -9999 -9999 -9999 -9999 -9999 -9999 -9999 -9999 -9999 -9999 -9999 -9999 -9999 -9999 -9999 -9999 -9999 -9999 -9999 -9999 -9999 -9999 -9999 -9999 -9999 -9999 -9999 -9999 -9999 -9999 -9999 -9999 -9999 -9999 -9999 -9999 -9999 -9999 -9999 -9999 -9999 -9999 -9999 -9999 -9999 -9999 -9999 -9999 -9999 -9999 -9999 -9999 -9999 -9999 -9999 -9999 -9999 -9999 -9999 -9999 -9999 -9999 -9999 -9999 -9999 -9999 -9999 -9999 -9999 -9999 -9999 -9999 -9999 -9999 -9999 -9999 -9999 -9999 -9999 -9999 -9999 -9999 -9999 -9999 -9999 -9999 -9999 -9999 -9999 -9999 -9999 -9999 -9999 -9999 -9999 -9999 -9999 -9999 -9999 -9999 -9999 -9999 -9999 -9999 -9999 -9999 -9999 -9999 -9999 -9999 -9999 -9999 -9999 -9999 -9999 -9999 -9999 -9999 -9999 -9999 -9999 -9999 -9999 -9999 -9999 -9999 -9999 -9999 -9999 -9999 -9999 -9999 -9999 -9999 -9999 -9999 -9999 -9999 -9999 -9999 -9999 -9999 -9999 -9999 -9999 -9999 -9999 -9999 -9999 -9999 -9999 -9999 -9999 -9999 -9999 -9999 -9999 -9999 -9999 -9999 -9999 -9999 -9999 -9999 -9999 -9999 -9999 -9999 -9999 -9999 -9999 -9999 -9999 -9999 -9999 -9999 -9999 -9999 -9999 -9999 -9999 -9999 -9999 -9999 -9999 -9999 -9999 -9999 -9999 -9999 -9999 -9999 -9999 -9999 -9999 -9999 -9999 -9999 -9999 -9999 -9999 -9999 -9999 -9999 -9999 7.28155339805825 18.6274509803922 18.6274509803922 18.6274509803922 42.6356589147287 9.29839391377853 9.29839391377853 9.29839391377853 16.7910447761194 16.7910447761194 24.7349823321555 24.7349823321555 24.7349823321555 11.0732538330494 10.1892285298399 10.1892285298399 10.1892285298399 10.1892285298399 20.5479452054795 21.8181818181818 21.8181818181818 21.8181818181818 21.8181818181818 4.35729847494553 4.35729847494553 4.35729847494553 4.35729847494553 4.35729847494553 4.35729847494553 14.8725212464589 14.8725212464589 14.8725212464589 4.75285171102662 4.75285171102662 14.4694533762058 10.4761904761905 10.4761904761905 0 13.7362637362637 10.2564102564103 10.2564102564103 10.2564102564103 16.7037861915368 22.0588235294118 22.0588235294118 22.0588235294118 15.818431911967 15.818431911967 15.818431911967 15.818431911967 15.818431911967 15.818431911967 15.818431911967 15.818431911967 15.818431911967 15.818431911967 15.818431911967 15.818431911967 15.818431911967 15.818431911967 11.1989459815547 2.68817204301075 2.68817204301075 2.68817204301075 2.68817204301075 2.68817204301075 2.68817204301075 2.68817204301075 2.68817204301075 2.68817204301075 2.68817204301075 2.68817204301075 1.64744645799012 1.64744645799012 2.68817204301075 2.68817204301075 2.68817204301075 2.68817204301075 0 0 0 0 0 0 7.67263427109974 7.67263427109974 7.67263427109974 0 0 0 0 0 0 6.16197183098592 8.08314087759815 8.08314087759815 8.08314087759815 0 0 0 0 7.40131578947368 7.40131578947368 7.40131578947368 6.2015503875969 0 0 0 1.68918918918919 0 0 1.68918918918919 1.68918918918919 -9999 -9999 -9999 -9999 -9999 -9999 -9999 -9999 -9999 -9999 -9999 -9999 -9999 -9999 -9999 -9999 -9999 -9999 -9999 -9999 -9999 -9999 -9999 -9999 -9999 -9999 -9999 -9999
-9999 -9999 -9999 -9999 -9999 -9999 -9999 -9999 -9999 -9999 -9999 -9999 -9999 -9999 -9999 -9999 -9999 -9999 -9999 -9999 -9999 -9999 -9999 -9999 -9999 -9999 -9999 -9999 -9999 -9999 -9999 -9999 -9999 -9999 -9999 -9999 -9999 -9999 -9999 -9999 -9999 -9999 -9999 -9999 -9999 -9999 -9999 -9999 -9999 -9999 -9999 -9999 -9999 -9999 -9999 -9999 -9999 -9999 -9999 -9999 -9999 -9999 -9999 -9999 -9999 -9999 -9999 -9999 -9999 -9999 -9999 -9999 -9999 -9999 -9999 -9999 -9999 -9999 -9999 -9999 -9999 -9999 -9999 -9999 -9999 -9999 -9999 -9999 -9999 -9999 -9999 -9999 -9999 -9999 -9999 -9999 -9999 -9999 -9999 -9999 -9999 -9999 -9999 -9999 -9999 -9999 -9999 -9999 -9999 -9999 -9999 -9999 -9999 -9999 -9999 -9999 -9999 -9999 -9999 -9999 -9999 -9999 -9999 -9999 -9999 -9999 -9999 -9999 -9999 -9999 -9999 -9999 -9999 -9999 -9999 -9999 -9999 -9999 -9999 -9999 -9999 -9999 -9999 -9999 -9999 -9999 -9999 -9999 -9999 -9999 -9999 -9999 -9999 -9999 -9999 -9999 -9999 -9999 -9999 -9999 -9999 -9999 -9999 -9999 -9999 -9999 -9999 -9999 -9999 -9999 -9999 -9999 -9999 -9999 -9999 -9999 -9999 -9999 -9999 -9999 -9999 -9999 -9999 -9999 -9999 -9999 -9999 -9999 -9999 -9999 -9999 -9999 -9999 -9999 -9999 -9999 -9999 -9999 -9999 -9999 -9999 -9999 -9999 -9999 -9999 -9999 -9999 -9999 -9999 -9999 -9999 -9999 -9999 -9999 -9999 -9999 -9999 -9999 -9999 -9999 -9999 -9999 -9999 -9999 -9999 -9999 -9999 -9999 -9999 -9999 -9999 -9999 -9999 -9999 -9999 -9999 -9999 -9999 -9999 -9999 -9999 -9999 -9999 -9999 -9999 -9999 -9999 -9999 -9999 -9999 -9999 -9999 -9999 -9999 -9999 -9999 -9999 -9999 -9999 -9999 -9999 -9999 -9999 -9999 -9999 -9999 -9999 -9999 -9999 -9999 -9999 -9999 -9999 -9999 -9999 37.6344086021505 18.6274509803922 18.8172043010753 18.8172043010753 42.6356589147287 9.29839391377853 9.29839391377853 9.29839391377853 9.29839391377853 24.7349823321555 24.7349823321555 20.0764818355641 20.0764818355641 10.1892285298399 10.1892285298399 10.1892285298399 20.5479452054795 20.5479452054795 20.5479452054795 21.8181818181818 21.8181818181818 21.8181818181818 -9999 4.35729847494553 4.35729847494553 4.35729847494553 4.35729847494553 4.35729847494553 4.35729847494553 14.8725212464589 14.8725212464589 4.75285171102662 4.75285171102662 14.4694533762058 0 0 0 0 0 10.2564102564103 16.7037861915368 22.0588235294118 7.50341064120055 7.50341064120055 7.50341064120055 8.13609467455621 8.13609467455621 15.818431911967 15.818431911967 15.818431911967 15.818431911967 15.818431911967 15.818431911967 15.818431911967 15.818431911967 15.818431911967 15.818431911967 15.818431911967 15.818431911967 0 0 0 4.5045045045045 2.68817204301075 2.68817204301075 2.68817204301075 2.68817204301075 2.38473767885533 2.68817204301075 2.68817204301075 2.68817204301075 1.64744645799012 1.64744645799012 1.64744645799012 19.0023752969121 2.68817204301075 2.68817204301075 2.68817204301075 2.68817204301075 5.37634408602151 0 0 0 7.67263427109974 7.67263427109974 0 0 0 0 0 0 6.16197183098592 8.08314087759815 8.08314087759815 8.08314087759815 0 0 0 0 0 0 16.1707632600259 7.40131578947368 16.1707632600259 0 0 0 0 0 1.68918918918919 1.68918918918919 1.68918918918919 1.68918918918919 -9999 -9999 -9999 -9999 -9999 -9999 -9999 -9999 -9999 -9999 -9999 -9999 -9999 -9999 -9999 -9999 -9999 -9999 -9999 -9999 -9999 -9999 -9999 -9999 -9999 -9999 -9999
-9999 -9999 -9999 -9999 -9999 -9999 -9999 -9999 -9999 -9999 -9999 -9999 -9999 -9999 -9999 -9999 -9999 -9999 -9999 -9999 -9999 -9999 -9999 -9999 -9999 -9999 -9999 -9999 -9999 -9999 -9999 -9999 -9999 -9999 -9999 -9999 -9999 -9999 -9999 -9999 -9999 -9999 -9999 -9999 -9999 -9999 -9999 -9999 -9999 -9999 -9999 -9999 -9999 -9999 -9999 -9999 -9999 -9999 -9999 -9999 -9999 -9999 -9999 -9999 -9999 -9999 -9999 -9999 -9999 -9999 -9999 -9999 -9999 -9999 -9999 -9999 -9999 -9999 -9999 -9999 -9999 -9999 -9999 -9999 -9999 -9999 -9999 -9999 -9999 -9999 -9999 -9999 -9999 -9999 -9999 -9999 -9999 -9999 -9999 -9999 -9999 -9999 -9999 -9999 -9999 -9999 -9999 -9999 -9999 -9999 -9999 -9999 -9999 -9999 -9999 -9999 -9999 -9999 -9999 -9999 -9999 -9999 -9999 -9999 -9999 -9999 -9999 -9999 -9999 -9999 -9999 -9999 -9999 -9999 -9999 -9999 -9999 -9999 -9999 -9999 -9999 -9999 -9999 -9999 -9999 -9999 -9999 -9999 -9999 -9999 -9999 -9999 -9999 -9999 -9999 -9999 -9999 -9999 -9999 -9999 -9999 -9999 -9999 -9999 -9999 -9999 -9999 -9999 -9999 -9999 -9999 -9999 -9999 -9999 -9999 -9999 -9999 -9999 -9999 -9999 -9999 -9999 -9999 -9999 -9999 -9999 -9999 -9999 -9999 -9999 -9999 -9999 -9999 -9999 -9999 -9999 -9999 -9999 -9999 -9999 -9999 -9999 -9999 -9999 -9999 -9999 -9999 -9999 -9999 -9999 -9999 -9999 -9999 -9999 -9999 -9999 -9999 -9999 -9999 -9999 -9999 -9999 -9999 -9999 -9999 -9999 -9999 -9999 -9999 -9999 -9999 -9999 -9999 -9999 -9999 -9999 -9999 -9999 -9999 -9999 -9999 -9999 -9999 -9999 -9999 -9999 -9999 -9999 -9999 -9999 -9999 -9999 -9999 -9999 -9999 -9999 -9999 -9999 -9999 -9999 -9999 -9999 -9999 -9999 -9999 -9999 -9999 -9999 -9999 -9999 -9999 -9999 -9999 -9999 37.6344086021505 37.6344086021505 37.6344086021505 18.8172043010753 18.8172043010753 18.8172043010753 21.0016155088853 9.29839391377853 9.29839391377853 9.29839391377853 9.29839391377853 4.75285171102662 20.0764818355641 20.0764818355641 20.0764818355641 22.7272727272727 22.7272727272727 20.5479452054795 20.5479452054795 20.5479452054795 20.5479452054795 21.8181818181818 -9999 -9999 -9999 -9999 17.6470588235294 4.35729847494553 4.35729847494553 4.35729847494553 4.35729847494553 0 14.8725212464589 14.8725212464589 0 0 0 0 0 0 0 0 7.29166666666667 7.29166666666667 7.50341064120055 8.13609467455621 8.13609467455621 15.5763239875389 15.5763239875389 15.5763239875389 15.818431911967 15.818431911967 15.818431911967 15.818431911967 15.818431911967 15.818431911967 15.818431911967 15.818431911967 15.818431911967 0 0 0 0 4.5045045045045 0 0 4.5045045045045 2.68817204301075 2.38473767885533 2.38473767885533 2.38473767885533 0 0 1.64744645799012 1.64744645799012 19.0023752969121 9.87091875474563 9.87091875474563 2.68817204301075 7.90067720090294 7.90067720090294 5.37634408602151 5.37634408602151 7.67263427109974 7.67263427109974 7.67263427109974 0 0 0 0 0 6.16197183098592 6.16197183098592 6.16197183098592 6.16197183098592 6.16197183098592 0 0 0 0 0 0 11.727078891258 16.1707632600259 0 0 0 0 0 0 0 1.68918918918919 1.68918918918919 1.68918918918919 -9999 -9999 -9999 -9999 -9999 -9999 -9999 -9999 -9999 -9999 -9999 -9999 -9999 -9999 -9999 -9999 -9999 -9999 -9999 -9999 -9999 -9999 -9999 -9999 -9999 -9999 -9999
-9999 -9999 -9999 -9999 -9999 -9999 -9999 -9999 -9999 -9999 -9999 -9999 -9999 -9999 -9999 -9999 -9999 -9999 -9999 -9999 -9999 -9999 -9999 -9999 -9999 -9999 -9999 -9999 -9999 -9999 -9999 -9999 -9999 -9999 -9999 -9999 -9999 -9999 -9999 -9999 -9999 -9999 -9999 -9999 -9999 -9999 -9999 -9999 -9999 -9999 -9999 -9999 -9999 -9999 -9999 -9999 -9999 -9999 -9999 -9999 -9999 -9999 -9999 -9999 -9999 -9999 -9999 -9999 -9999 -9999 -9999 -9999 -9999 -9999 -9999 -9999 -9999 -9999 -9999 -9999 -9999 -9999 -9999 -9999 -9999 -9999 -9999 -9999 -9999 -9999 -9999 -9999 -9999 -9999 -9999 -9999 -9999 -9999 -9999 -9999 -9999 -9999 -9999 -9999 -9999 -9999 -9999 -9999 -9999 -9999 -9999 -9999 -9999 -9999 -9999 -9999 -9999 -9999 -9999 -9999 -9999 -9999 -9999 -9999 -9999 -9999 -9999 -9999 -9999 -9999 -9999 -9999 -9999 -9999 -9999 -9999 -9999 -9999 -9999 -9999 -9999 -9999 -9999 -9999 -9999 -9999 -9999 -9999 -9999 -9999 -9999 -9999 -9999 -9999 -9999 -9999 -9999 -9999 -9999 -9999 -9999 -9999 -9999 -9999 -9999 -9999 -9999 -9999 -9999 -9999 -9999 -9999 -9999 -9999 -9999 -9999 -9999 -9999 -9999 -9999 -9999 -9999 -9999 -9999 -9999 -9999 -9999 -9999 -9999 -9999 -9999 -9999 -9999 -9999 -9999 -9999 -9999 -9999 -9999 -9999 -9999 -9999 -9999 -9999 -9999 -9999 -9999 -9999 -9999 -9999 -9999 -9999 -9999 -9999 -9999 -9999 -9999 -9999 -9999 -9999 -9999 -9999 -9999 -9999 -9999 -9999 -9999 -9999 -9999 -9999 -9999 -9999 -9999 -9999 -9999 -9999 -9999 -9999 -9999 -9999 -9999 -9999 -9999 -9999 -9999 -9999 -9999 -9999 -9999 -9999 -9999 -9999 -9999 -9999 -9999 -9999 -9999 -9999 -9999 -9999 -9999 -9999 -9999 -9999 -9999 -9999 -9999 -9999 -9999 -9999 -9999 -9999 22.1729490022173 22.1729490022173 37.6344086021505 37.6344086021505 17.7304964539007 17.7304964539007 21.0016155088853 21.0016155088853 21.0016155088853 21.0016155088853 4.75285171102662 4.75285171102662 4.75285171102662 4.75285171102662 4.75285171102662 27.823240589198 27.823240589198 27.823240589198 22.7272727272727 20.5479452054795 20.5479452054795 20.5479452054795 20.5479452054795 -9999 -9999 -9999 -9999 -9999 17.6470588235294 17.6470588235294 17.6470588235294 4.35729847494553 4.35729847494553 0 0 0 0 0 0 0 0 0 0 0 0 7.29166666666667 6.31313131313131 6.31313131313131 7.47384155455904 7.47384155455904 15.5763239875389 15.818431911967 15.818431911967 4.53514739229025 9.55414012738854 9.55414012738854 15.818431911967 15.818431911967 15.818431911967 0 0 0 0 0 0 0 4.5045045045045 0 4.5045045045045 6.76982591876209 6.76982591876209 6.76982591876209 2.38473767885533 2.38473767885533 0 0 7.54310344827586 7.54310344827586 9.87091875474563 9.87091875474563 9.87091875474563 9.87091875474563 5.37634408602151 3.46260387811634 3.46260387811634 3.46260387811634 0 0 0 0 0 0 0 6.16197183098592 6.16197183098592 6.16197183098592 10 10 10 0 0 0 0 11.727078891258 16.1707632600259 16.1707632600259 0 0 0 0 0 0 8.44594594594595 8.44594594594595 0 0 -9999 -9999 -9999 -9999 -9999 -9999 -9999 -9999 -9999 -9999 -9999 -9999 -9999 -9999 -9999 -9999 -9999 -9999 -9999 -9999 -9999 -9999 -9999 -9999 -9999 -9999 -9999
-9999 -9999 -9999 -9999 -9999 -9999 -9999 -9999 -9999 -9999 -9999 -9999 -9999 -9999 -9999 -9999 -9999 -9999 -9999 -9999 -9999 -9999 -9999 -9999 -9999 -9999 -9999 -9999 -9999 -9999 -9999 -9999 -9999 -9999 -9999 -9999 -9999 -9999 -9999 -9999 -9999 -9999 -9999 -9999 -9999 -9999 -9999 -9999 -9999 -9999 -9999 -9999 -9999 -9999 -9999 -9999 -9999 -9999 -9999 -9999 -9999 -9999 -9999 -9999 -9999 -9999 -9999 -9999 -9999 -9999 -9999 -9999 -9999 -9999 -9999 -9999 -9999 -9999 -9999 -9999 -9999 -9999 -9999 -9999 -9999 -9999 -9999 -9999 -9999 -9999 -9999 -9999 -9999 -9999 -9999 -9999 -9999 -9999 -9999 -9999 -9999 -9999 -9999 -9999 -9999 -9999 -9999 -9999 -9999 -9999 -9999 -9999 -9999 -9999 -9999 -9999 -9999 -9999 -9999 -9999 -9999 -9999 -9999 -9999 -9999 -9999 -9999 -9999 -9999 -9999 -9999 -9999 -9999 -9999 -9999 -9999 -9999 -9999 -9999 -9999 -9999 -9999 -9999 -9999 -9999 -9999 -9999 -9999 -9999 -9999 -9999 -9999 -9999 -9999 -9999 -9999 -9999 -9999 -9999 -9999 -9999 -9999 -9999 -9999 -9999 -9999 -9999 -9999 -9999 -9999 -9999 -9999 -9999 -9999 -9999 -9999 -9999 -9999 -9999 -9999 -9999 -9999 -9999 -9999 -9999 -9999 -9999 -9999 -9999 -9999 -9999 -9999 -9999 -9999 -9999 -9999 -9999 -9999 -9999 -9999 -9999 -9999 -9999 -9999 -9999 -9999 -9999 -9999 -9999 -9999 -9999 -9999 -9999 -9999 -9999 -9999 -9999 -9999 -9999 -9999 -9999 -9999 -9999 -9999 -9999 -9999 -9999 -9999 -9999 -9999 -9999 -9999 -9999 -9999 -9999 -9999 -9999 -9999 -9999 -9999 -9999 -9999 -9999 -9999 -9999 -9999 -9999 -9999 -9999 -9999 -9999 -9999 -9999 -9999 -9999 -9999 -9999 -9999 -9999 -9999 -9999 -9999 -9999 -9999 -9999 -9999 -9999 -9999 -9999 -9999 -9999 -9999 4.91400491400491 22.1729490022173 22.1729490022173 26.8256333830104 17.7304964539007 17.7304964539007 17.7304964539007 21.0016155088853 24.6815286624204 24.6815286624204 24.6815286624204 4.75285171102662 4.75285171102662 23.489932885906 23.489932885906 29.7131147540984 27.823240589198 30.2245250431779 30.2245250431779 20.5479452054795 20.5479452054795 20.5479452054795 -9999 -9999 -9999 -9999 -9999 20.4626334519573 20.4626334519573 17.6470588235294 17.6470588235294 0 0 0 0 0 0 0 0 0 0 0 0 0 0 0 6.31313131313131 7.47384155455904 7.47384155455904 7.47384155455904 7.47384155455904 4.53514739229025 4.53514739229025 9.55414012738854 9.55414012738854 9.55414012738854 9.55414012738854 9.55414012738854 0 0 0 0 0 0 0 0 4.5045045045045 4.5045045045045 4.11522633744856 4.11522633744856 14.8514851485149 14.8514851485149 5.98802395209581 5.98802395209581 5.98802395209581 7.54310344827586 7.54310344827586 7.54310344827586 7.54310344827586 9.06735751295337 10.6382978723404 5.37634408602151 5.37634408602151 5.37634408602151 0 0 0 0 0 0 0 0 10 6.16197183098592 6.16197183098592 6.16197183098592 10 10 10 10 0 0 0 16.1707632600259 16.1707632600259 0 0 0 0 0 0 8.44594594594595 8.44594594594595 8.44594594594595 0 0 0 -9999 -9999 -9999 -9999 -9999 -9999 -9999 -9999 -9999 -9999 -9999 -9999 -9999 -9999 -9999 -9999 -9999 -9999 -9999 -9999 -9999 -9999 -9999 -9999 -9999 -9999
-9999 -9999 -9999 -9999 -9999 -9999 -9999 -9999 -9999 -9999 -9999 -9999 -9999 -9999 -9999 -9999 -9999 -9999 -9999 -9999 -9999 -9999 -9999 -9999 -9999 -9999 -9999 -9999 -9999 -9999 -9999 -9999 -9999 -9999 -9999 -9999 -9999 -9999 -9999 -9999 -9999 -9999 -9999 -9999 -9999 -9999 -9999 -9999 -9999 -9999 -9999 -9999 -9999 -9999 -9999 -9999 -9999 -9999 -9999 -9999 -9999 -9999 -9999 -9999 -9999 -9999 -9999 -9999 -9999 -9999 -9999 -9999 -9999 -9999 -9999 -9999 -9999 -9999 -9999 -9999 -9999 -9999 -9999 -9999 -9999 -9999 -9999 -9999 -9999 -9999 -9999 -9999 -9999 -9999 -9999 -9999 -9999 -9999 -9999 -9999 -9999 -9999 -9999 -9999 -9999 -9999 -9999 -9999 -9999 -9999 -9999 -9999 -9999 -9999 -9999 -9999 -9999 -9999 -9999 -9999 -9999 -9999 -9999 -9999 -9999 -9999 -9999 -9999 -9999 -9999 -9999 -9999 -9999 -9999 -9999 -9999 -9999 -9999 -9999 -9999 -9999 -9999 -9999 -9999 -9999 -9999 -9999 -9999 -9999 -9999 -9999 -9999 -9999 -9999 -9999 -9999 -9999 -9999 -9999 -9999 -9999 -9999 -9999 -9999 -9999 -9999 -9999 -9999 -9999 -9999 -9999 -9999 -9999 -9999 -9999 -9999 -9999 -9999 -9999 -9999 -9999 -9999 -9999 -9999 -9999 -9999 -9999 -9999 -9999 -9999 -9999 -9999 -9999 -9999 -9999 -9999 -9999 -9999 -9999 -9999 -9999 -9999 -9999 -9999 -9999 -9999 -9999 -9999 -9999 -9999 -9999 -9999 -9999 -9999 -9999 -9999 -9999 -9999 -9999 -9999 -9999 -9999 -9999 -9999 -9999 -9999 -9999 -9999 -9999 -9999 -9999 -9999 -9999 -9999 -9999 -9999 -9999 -9999 -9999 -9999 -9999 -9999 -9999 -9999 -9999 -9999 -9999 -9999 -9999 -9999 -9999 -9999 -9999 -9999 -9999 -9999 -9999 -9999 -9999 -9999 -9999 -9999 -9999 -9999 -9999 -9999 -9999 -9999 -9999 -9999 -9999 4.91400491400491 4.91400491400491 4.91400491400491 23.7373737373737 26.8256333830104 26.8256333830104 17.7304964539007 27.3722627737226 27.3722627737226 24.6815286624204 24.6815286624204 24.6815286624204 24.7603833865815 23.489932885906 23.489932885906 23.489932885906 30.2245250431779 30.2245250431779 30.2245250431779 30.2245250431779 30.2245250431779 20.5479452054795 4.95049504950495 -9999 -9999 -9999 -9999 -9999 -9999 20.4626334519573 20.4626334519573 6.10583446404342 0 0 0 0 0 0 7.44416873449131 0 0 0 0 0 0 0 0 7.47384155455904 7.47384155455904 7.47384155455904 7.47384155455904 7.47384155455904 7.47384155455904 9.55414012738854 9.55414012738854 9.55414012738854 9.55414012738854 9.55414012738854 0 0 0 0 0 0 0 0 0 4.5045045045045 4.5045045045045 17 4.11522633744856 4.11522633744856 5.98802395209581 5.98802395209581 17 17 0 0 7.54310344827586 7.54310344827586 9.06735751295337 7.54310344827586 10.6382978723404 10.6382978723404 0 0 0 0 0 0 0 0 0 -9999 -9999 -9999 -9999 -9999 10 10 10 10 10 0 0 0 5.98802395209581 5.98802395209581 0 0 0 0 0 0 0 0 0 0 -9999 -9999 -9999 -9999 -9999 -9999 -9999 -9999 -9999 -9999 -9999 -9999 -9999 -9999 -9999 -9999 -9999 -9999 -9999 -9999 -9999 -9999 -9999 -9999 -9999 -9999
-9999 -9999 -9999 -9999 -9999 -9999 -9999 -9999 -9999 -9999 -9999 -9999 -9999 -9999 -9999 -9999 -9999 -9999 -9999 -9999 -9999 -9999 -9999 -9999 -9999 -9999 -9999 -9999 -9999 -9999 -9999 -9999 -9999 -9999 -9999 -9999 -9999 -9999 -9999 -9999 -9999 -9999 -9999 -9999 -9999 -9999 -9999 -9999 -9999 -9999 -9999 -9999 -9999 -9999 -9999 -9999 -9999 -9999 -9999 -9999 -9999 -9999 -9999 -9999 -9999 -9999 -9999 -9999 -9999 -9999 -9999 -9999 -9999 -9999 -9999 -9999 -9999 -9999 -9999 -9999 -9999 -9999 -9999 -9999 -9999 -9999 -9999 -9999 -9999 -9999 -9999 -9999 -9999 -9999 -9999 -9999 -9999 -9999 -9999 -9999 -9999 -9999 -9999 -9999 -9999 -9999 -9999 -9999 -9999 -9999 -9999 -9999 -9999 -9999 -9999 -9999 -9999 -9999 -9999 -9999 -9999 -9999 -9999 -9999 -9999 -9999 -9999 -9999 -9999 -9999 -9999 -9999 -9999 -9999 -9999 -9999 -9999 -9999 -9999 -9999 -9999 -9999 -9999 -9999 -9999 -9999 -9999 -9999 -9999 -9999 -9999 -9999 -9999 -9999 -9999 -9999 -9999 -9999 -9999 -9999 -9999 -9999 -9999 -9999 -9999 -9999 -9999 -9999 -9999 -9999 -9999 -9999 -9999 -9999 -9999 -9999 -9999 -9999 -9999 -9999 -9999 -9999 -9999 -9999 -9999 -9999 -9999 -9999 -9999 -9999 -9999 -9999 -9999 -9999 -9999 -9999 -9999 -9999 -9999 -9999 -9999 -9999 -9999 -9999 -9999 -9999 -9999 -9999 -9999 -9999 -9999 -9999 -9999 -9999 -9999 -9999 -9999 -9999 -9999 -9999 -9999 -9999 -9999 -9999 -9999 -9999 -9999 -9999 -9999 -9999 -9999 -9999 -9999 -9999 -9999 -9999 -9999 -9999 -9999 -9999 -9999 -9999 -9999 -9999 -9999 -9999 -9999 -9999 -9999 -9999 -9999 -9999 -9999 -9999 -9999 -9999 -9999 -9999 -9999 -9999 -9999 -9999 -9999 -9999 -9999 -9999 -9999 -9999 -9999 -9999 0 0 4.91400491400491 23.7373737373737 23.7373737373737 23.7373737373737 26.8256333830104 26.8256333830104 27.3722627737226 27.3722627737226 27.3722627737226 24.7603833865815 24.7603833865815 24.7603833865815 24.7603833865815 3.45622119815668 3.45622119815668 30.2245250431779 30.2245250431779 30.2245250431779 30.2245250431779 30.2245250431779 4.95049504950495 4.95049504950495 4.95049504950495 4.95049504950495 -9999 -9999 -9999 -9999 -9999 -9999 6.10583446404342 6.10583446404342 6.10583446404342 0 0 23.3576642335766 23.3576642335766 7.44416873449131 7.44416873449131 0 0 0 0 0 0 1.97628458498024 1.97628458498024 7.47384155455904 7.47384155455904 7.47384155455904 7.47384155455904 7.47384155455904 9.55414012738854 9.55414012738854 9.55414012738854 0 0 0 13.64522417154 13.64522417154 6.81431005110733 6.81431005110733 6.81431005110733 2.38095238095238 0 0 0 17 17 17 17 17 17 17 0 0 0 0 0 0 7.54310344827586 7.54310344827586 7.54310344827586 0 0 0 0 0 0 0 0 -9999 -9999 -9999 -9999 -9999 -9999 -9999 -9999 -9999 10 10 0 0 5.98802395209581 5.98802395209581 5.98802395209581 0 0 1.75438596491228 1.75438596491228 0 0 0 0 0 0 0 0 -9999 -9999 -9999 -9999 -9999 -9999 -9999 -9999 -9999 -9999 -9999 -9999 -9999 -9999 -9999 -9999 -9999 -9999 -9999 -9999 -9999 -9999 -9999 -9999
-9999 -9999 -9999 -9999 -9999 -9999 -9999 -9999 -9999 -9999 -9999 -9999 -9999 -9999 -9999 -9999 -9999 -9999 -9999 -9999 -9999 -9999 -9999 -9999 -9999 -9999 -9999 -9999 -9999 -9999 -9999 -9999 -9999 -9999 -9999 -9999 -9999 -9999 -9999 -9999 -9999 -9999 -9999 -9999 -9999 -9999 -9999 -9999 -9999 -9999 -9999 -9999 -9999 -9999 -9999 -9999 -9999 -9999 -9999 -9999 -9999 -9999 -9999 -9999 -9999 -9999 -9999 -9999 -9999 -9999 -9999 -9999 -9999 -9999 -9999 -9999 -9999 -9999 -9999 -9999 -9999 -9999 -9999 -9999 -9999 -9999 -9999 -9999 -9999 -9999 -9999 -9999 -9999 -9999 -9999 -9999 -9999 -9999 -9999 -9999 -9999 -9999 -9999 -9999 -9999 -9999 -9999 -9999 -9999 -9999 -9999 -9999 -9999 -9999 -9999 -9999 -9999 -9999 -9999 -9999 -9999 -9999 -9999 -9999 -9999 -9999 -9999 -9999 -9999 -9999 -9999 -9999 -9999 -9999 -9999 -9999 -9999 -9999 -9999 -9999 -9999 -9999 -9999 -9999 -9999 -9999 -9999 -9999 -9999 -9999 -9999 -9999 -9999 -9999 -9999 -9999 -9999 -9999 -9999 -9999 -9999 -9999 -9999 -9999 -9999 -9999 -9999 -9999 -9999 -9999 -9999 -9999 -9999 -9999 -9999 -9999 -9999 -9999 -9999 -9999 -9999 -9999 -9999 -9999 -9999 -9999 -9999 -9999 -9999 -9999 -9999 -9999 -9999 -9999 -9999 -9999 -9999 -9999 -9999 -9999 -9999 -9999 -9999 -9999 -9999 -9999 -9999 -9999 -9999 -9999 -9999 -9999 -9999 -9999 -9999 -9999 -9999 -9999 -9999 -9999 -9999 -9999 -9999 -9999 -9999 -9999 -9999 -9999 -9999 -9999 -9999 -9999 -9999 -9999 -9999 -9999 -9999 -9999 -9999 -9999 -9999 -9999 -9999 -9999 -9999 -9999 -9999 -9999 -9999 -9999 -9999 -9999 -9999 -9999 -9999 -9999 -9999 -9999 -9999 -9999 -9999 -9999 -9999 -9999 -9999 -9999 -9999 -9999 -9999 -9999 0 0 28.5961871750433 28.5961871750433 23.7373737373737 23.7373737373737 10.9289617486339 16.1290322580645 27.3722627737226 27.3722627737226 27.3722627737226 18.2608695652174 35.4691075514874 35.4691075514874 35.4691075514874 3.45622119815668 3.45622119815668 3.45622119815668 30.2245250431779 30.2245250431779 30.2245250431779 30.2245250431779 4.95049504950495 4.95049504950495 4.95049504950495 4.95049504950495 4.95049504950495 4.95049504950495 -9999 -9999 -9999 10.2040816326531 14.0597539543058 8.87573964497041 8.87573964497041 23.3576642335766 23.3576642335766 23.3576642335766 7.44416873449131 7.44416873449131 10.8910891089109 7.44416873449131 7.44416873449131 0 0 0 1.97628458498024 1.97628458498024 1.97628458498024 1.97628458498024 1.97628458498024 6.86274509803922 7.47384155455904 9.55414012738854 9.55414012738854 9.55414012738854 9.55414012738854 0 0 0 13.64522417154 6.81431005110733 4.7438330170778 1.9280205655527 1.9280205655527 2.38095238095238 2.38095238095238 0 0 5.75815738963532 13.6363636363636 17 17 17 17 0 0 0 0 0 0 10.8695652173913 10.8695652173913 10.8695652173913 10.8695652173913 10.8695652173913 10.8695652173913 10.8695652173913 0 0 0 0 0 -9999 -9999 -9999 -9999 -9999 -9999 -9999 -9999 -9999 -9999 7.28597449908925 0 0 5.91715976331361 5.91715976331361 0 0 0 1.75438596491228 1.75438596491228 1.75438596491228 0 0 0 0 0 0 0 -9999 -9999 -9999 -9999 -9999 -9999 -9999 -9999 -9999 -9999 -9999 -9999 -9999 -9999 -9999 -9999 -9999 -9999 -9999 -9999 -9999 -9999 -9999 -9999
-9999 -9999 -9999 -9999 -9999 -9999 -9999 -9999 -9999 -9999 -9999 -9999 -9999 -9999 -9999 -9999 -9999 -9999 -9999 -9999 -9999 -9999 -9999 -9999 -9999 -9999 -9999 -9999 -9999 -9999 -9999 -9999 -9999 -9999 -9999 -9999 -9999 -9999 -9999 -9999 -9999 -9999 -9999 -9999 -9999 -9999 -9999 -9999 -9999 -9999 -9999 -9999 -9999 -9999 -9999 -9999 -9999 -9999 -9999 -9999 -9999 -9999 -9999 -9999 -9999 -9999 -9999 -9999 -9999 -9999 -9999 -9999 -9999 -9999 -9999 -9999 -9999 -9999 -9999 -9999 -9999 -9999 -9999 -9999 -9999 -9999 -9999 -9999 -9999 -9999 -9999 -9999 -9999 -9999 -9999 -9999 -9999 -9999 -9999 -9999 -9999 -9999 -9999 -9999 -9999 -9999 -9999 -9999 -9999 -9999 -9999 -9999 -9999 -9999 -9999 -9999 -9999 -9999 -9999 -9999 -9999 -9999 -9999 -9999 -9999 -9999 -9999 -9999 -9999 -9999 -9999 -9999 -9999 -9999 -9999 -9999 -9999 -9999 -9999 -9999 -9999 -9999 -9999 -9999 -9999 -9999 -9999 -9999 -9999 -9999 -9999 -9999 -9999 -9999 -9999 -9999 -9999 -9999 -9999 -9999 -9999 -9999 -9999 -9999 -9999 -9999 -9999 -9999 -9999 -9999 -9999 -9999 -9999 -9999 -9999 -9999 -9999 -9999 -9999 -9999 -9999 -9999 -9999 -9999 -9999 -9999 -9999 -9999 -9999 -9999 -9999 -9999 -9999 -9999 -9999 -9999 -9999 -9999 -9999 -9999 -9999 -9999 -9999 -9999 -9999 -9999 -9999 -9999 -9999 -9999 -9999 -9999 -9999 -9999 -9999 -9999 -9999 -9999 -9999 -9999 -9999 -9999 -9999 -9999 -9999 -9999 -9999 -9999 -9999 -9999 -9999 -9999 -9999 -9999 -9999 -9999 -9999 -9999 -9999 -9999 -9999 -9999 -9999 -9999 -9999 -9999 -9999 -9999 -9999 -9999 -9999 -9999 -9999 -9999 -9999 -9999 -9999 -9999 -9999 -9999 -9999 -9999 -9999 -9999 -9999 -9999 -9999 -9999 -9999 3.33333333333333 0 0 4.84764542936288 28.5961871750433 28.5961871750433 10.9289617486339 10.9289617486339 10.9289617486339 16.1290322580645 24.2537313432836 18.2608695652174 18.2608695652174 18.2608695652174 35.4691075514874 35.4691075514874 35.4691075514874 53.5307517084282 53.5307517084282 30.2245250431779 30.2245250431779 30.2245250431779 4.95049504950495 4.95049504950495 4.95049504950495 4.95049504950495 4.95049504950495 4.95049504950495 4.95049504950495 4.95049504950495 4.95049504950495 14.0597539543058 14.0597539543058 8.87573964497041 8.87573964497041 23.3576642335766 23.3576642335766 23.3576642335766 10.8910891089109 10.8910891089109 10.8910891089109 10.8910891089109 10.8910891089109 10.8910891089109 13.3630289532294 0 0 10.6732348111658 1.97628458498024 1.97628458498024 1.97628458498024 6.86274509803922 6.86274509803922 3.17124735729387 3.17124735729387 3.17124735729387 3.17124735729387 0 0 0 4.97512437810945 4.7438330170778 4.7438330170778 1.9280205655527 1.9280205655527 1.9280205655527 23.5772357723577 23.5772357723577 0 0 0 5.75815738963532 13.6363636363636 13.6363636363636 13.6363636363636 17.8236397748593 0 0 0 0 0 0 10.8695652173913 10.8695652173913 10.8695652173913 10.8695652173913 10.8695652173913 10.8695652173913 10.8695652173913 10.8695652173913 10.8695652173913 10.8695652173913 10.8695652173913 -9999 -9999 -9999 -9999 -9999 -9999 -9999 -9999 -9999 -9999 -9999 7.28597449908925 7.28597449908925 0 0 5.91715976331361 5.91715976331361 5.91715976331361 5.91715976331361 5.91715976331361 1.75438596491228 1.75438596491228 0 0 0 0 3.36700336700337 3.36700336700337 0 -9999 -9999 -9999 -9999 -9999 -9999 -9999 -9999 -9999 -9999 -9999 -9999 -9999 -9999 -9999 -9999 -9999 -9999 -9999 -9999 -9999 -9999 -9999 -9999
-9999 -9999 -9999 -9999 -9999 -9999 -9999 -9999 -9999 -9999 -9999 -9999 -9999 -9999 -9999 -9999 -9999 -9999 -9999 -9999 -9999 -9999 -9999 -9999 -9999 -9999 -9999 -9999 -9999 -9999 -9999 -9999 -9999 -9999 -9999 -9999 -9999 -9999 -9999 -9999 -9999 -9999 -9999 -9999 -9999 -9999 -9999 -9999 -9999 -9999 -9999 -9999 -9999 -9999 -9999 -9999 -9999 -9999 -9999 -9999 -9999 -9999 -9999 -9999 -9999 -9999 -9999 -9999 -9999 -9999 -9999 -9999 -9999 -9999 -9999 -9999 -9999 -9999 -9999 -9999 -9999 -9999 -9999 -9999 -9999 -9999 -9999 -9999 -9999 -9999 -9999 -9999 -9999 -9999 -9999 -9999 -9999 -9999 -9999 -9999 -9999 -9999 -9999 -9999 -9999 -9999 -9999 -9999 -9999 -9999 -9999 -9999 -9999 -9999 -9999 -9999 -9999 -9999 -9999 -9999 -9999 -9999 -9999 -9999 -9999 -9999 -9999 -9999 -9999 -9999 -9999 -9999 -9999 -9999 -9999 -9999 -9999 -9999 -9999 -9999 -9999 -9999 -9999 -9999 -9999 -9999 -9999 -9999 -9999 -9999 -9999 -9999 -9999 -9999 -9999 -9999 -9999 -9999 -9999 -9999 -9999 -9999 -9999 -9999 -9999 -9999 -9999 -9999 -9999 -9999 -9999 -9999 -9999 -9999 -9999 -9999 -9999 -9999 -9999 -9999 -9999 -9999 -9999 -9999 -9999 -9999 -9999 -9999 -9999 -9999 -9999 -9999 -9999 -9999 -9999 -9999 -9999 -9999 -9999 -9999 -9999 -9999 -9999 -9999 -9999 -9999 -9999 -9999 -9999 -9999 -9999 -9999 -9999 -9999 -9999 -9999 -9999 -9999 -9999 -9999 -9999 -9999 -9999 -9999 -9999 -9999 -9999 -9999 -9999 -9999 -9999 -9999 -9999 -9999 -9999 -9999 -9999 -9999 -9999 -9999 -9999 -9999 -9999 -9999 -9999 -9999 -9999 -9999 -9999 -9999 -9999 -9999 -9999 -9999 -9999 -9999 -9999 -9999 -9999 -9999 -9999 -9999 -9999 -9999 -9999 -9999 -9999 -9999 0 3.33333333333333 3.33333333333333 10.3734439834025 4.84764542936288 4.84764542936288 28.5961871750433 28.5961871750433 10.9289617486339 4.88145048814505 4.88145048814505 4.88145048814505 24.2537313432836 18.2608695652174 30.3292894280763 30.3292894280763 35.4691075514874 35.4691075514874 53.5307517084282 53.5307517084282 30.2245250431779 30.2245250431779 4.95049504950495 4.95049504950495 4.95049504950495 4.95049504950495 4.95049504950495 4.95049504950495 4.95049504950495 4.95049504950495 4.95049504950495 21.0016155088853 15.015015015015 15.015015015015 15.015015015015 23.3576642335766 23.3576642335766 23.3576642335766 23.3576642335766 0 0 0 13.3630289532294 13.3630289532294 13.3630289532294 13.3630289532294 10.0942126514132 10.6732348111658 10.6732348111658 10.6732348111658 10.6732348111658 1.97628458498024 6.86274509803922 6.86274509803922 6.86274509803922 3.17124735729387 3.17124735729387 4.13907284768212 4.13907284768212 0 4.97512437810945 4.97512437810945 6.06060606060606 6.06060606060606 6.06060606060606 6.06060606060606 23.5772357723577 23.5772357723577 23.5772357723577 23.5772357723577 0 0 0 5.75815738963532 17.8236397748593 17.8236397748593 6.02409638554217 6.02409638554217 0 4.89396411092985 4.89396411092985 4.89396411092985 10.8695652173913 10.8695652173913 10.8695652173913 10.8695652173913 10.8695652173913 10.8695652173913 10.8695652173913 10.8695652173913 10.8695652173913 10.8695652173913 10.8695652173913 -9999 -9999 -9999 -9999 -9999 -9999 -9999 -9999 -9999 -9999 -9999 -9999 7.28597449908925 7.28597449908925 0 0 0 0 0 0 0 5.91715976331361 5.91715976331361 5.91715976331361 3.36700336700337 3.36700336700337 0 3.36700336700337 3.36700336700337 3.36700336700337 -9999 -9999 -9999 -9999 -9999 -9999 -9999 -9999 -9999 -9999 -9999 -9999 -9999 -9999 -9999 -9999 -9999 -9999 -9999 -9999 -9999 -9999 -9999 -9999
-9999 -9999 -9999 -9999 -9999 -9999 -9999 -9999 -9999 -9999 -9999 -9999 -9999 -9999 -9999 -9999 -9999 -9999 -9999 -9999 -9999 -9999 -9999 -9999 -9999 -9999 -9999 -9999 -9999 -9999 -9999 -9999 -9999 -9999 -9999 -9999 -9999 -9999 -9999 -9999 -9999 -9999 -9999 -9999 -9999 -9999 -9999 -9999 -9999 -9999 -9999 -9999 -9999 -9999 -9999 -9999 -9999 -9999 -9999 -9999 -9999 -9999 -9999 -9999 -9999 -9999 -9999 -9999 -9999 -9999 -9999 -9999 -9999 -9999 -9999 -9999 -9999 -9999 -9999 -9999 -9999 -9999 -9999 -9999 -9999 -9999 -9999 -9999 -9999 -9999 -9999 -9999 -9999 -9999 -9999 -9999 -9999 -9999 -9999 -9999 -9999 -9999 -9999 -9999 -9999 -9999 -9999 -9999 -9999 -9999 -9999 -9999 -9999 -9999 -9999 -9999 -9999 -9999 -9999 -9999 -9999 -9999 -9999 -9999 -9999 -9999 -9999 -9999 -9999 -9999 -9999 -9999 -9999 -9999 -9999 -9999 -9999 -9999 -9999 -9999 -9999 -9999 -9999 -9999 -9999 -9999 -9999 -9999 -9999 -9999 -9999 -9999 -9999 -9999 -9999 -9999 -9999 -9999 -9999 -9999 -9999 -9999 -9999 -9999 -9999 -9999 -9999 -9999 -9999 -9999 -9999 -9999 -9999 -9999 -9999 -9999 -9999 -9999 -9999 -9999 -9999 -9999 -9999 -9999 -9999 -9999 -9999 -9999 -9999 -9999 -9999 -9999 -9999 -9999 -9999 -9999 -9999 -9999 -9999 -9999 -9999 -9999 -9999 -9999 -9999 -9999 -9999 -9999 -9999 -9999 -9999 -9999 -9999 -9999 -9999 -9999 -9999 -9999 -9999 -9999 -9999 -9999 -9999 -9999 -9999 -9999 -9999 -9999 -9999 -9999 -9999 -9999 -9999 -9999 -9999 -9999 -9999 -9999 -9999 -9999 -9999 -9999 -9999 -9999 -9999 -9999 -9999 -9999 -9999 -9999 -9999 -9999 -9999 -9999 -9999 -9999 -9999 -9999 -9999 -9999 -9999 -9999 -9999 -9999 -9999 -9999 -9999 0 0 16.0550458715596 3.33333333333333 10.3734439834025 10.3734439834025 4.84764542936288 4.84764542936288 20.3883495145631 20.3883495145631 4.88145048814505 4.88145048814505 4.88145048814505 4.90196078431373 4.90196078431373 4.90196078431373 30.3292894280763 30.3292894280763 35.4691075514874 35.4691075514874 30.2245250431779 30.2245250431779 4.95049504950495 4.95049504950495 4.95049504950495 4.95049504950495 4.95049504950495 4.95049504950495 0 4.95049504950495 4.95049504950495 21.0016155088853 21.0016155088853 21.0016155088853 21.0016155088853 15.015015015015 4.16666666666667 4.16666666666667 23.3576642335766 23.3576642335766 0 4.59558823529412 4.59558823529412 4.59558823529412 10.0942126514132 10.0942126514132 10.0942126514132 10.0942126514132 10.0942126514132 10.6732348111658 10.6732348111658 10.6732348111658 10.6732348111658 10.6732348111658 3.17124735729387 3.17124735729387 3.17124735729387 4.13907284768212 4.13907284768212 4.13907284768212 4.13907284768212 29.9352750809061 19.31330472103 19.31330472103 19.31330472103 6.06060606060606 23.5772357723577 23.5772357723577 23.5772357723577 23.5772357723577 3.69276218611521 3.2967032967033 3.2967032967033 3.2967032967033 3.2967032967033 17.8236397748593 17.8236397748593 6.02409638554217 6.02409638554217 6.02409638554217 4.89396411092985 0 4.84261501210654 0 4.84261501210654 7.36648250460405 10.8695652173913 10.8695652173913 10.8695652173913 10.8695652173913 10.8695652173913 10.8695652173913 10.8695652173913 10.8695652173913 -9999 -9999 -9999 -9999 -9999 -9999 -9999 -9999 -9999 -9999 -9999 -9999 7.28597449908925 0 0 0 0 0 0 0 0 0 0 0 5.91715976331361 5.91715976331361 5.91715976331361 3.36700336700337 3.36700336700337 3.36700336700337 -9999 -9999 -9999 -9999 -9999 -9999 -9999 -9999 -9999 -9999 -9999 -9999 -9999 -9999 -9999 -9999 -9999 -9999 -9999 -9999 -9999 -9999 -9999 -9999
-9999 -9999 -9999 -9999 -9999 -9999 -9999 -9999 -9999 -9999 -9999 -9999 -9999 -9999 -9999 -9999 -9999 -9999 -9999 -9999 -9999 -9999 -9999 -9999 -9999 -9999 -9999 -9999 -9999 -9999 -9999 -9999 -9999 -9999 -9999 -9999 -9999 -9999 -9999 -9999 -9999 -9999 -9999 -9999 -9999 -9999 -9999 -9999 -9999 -9999 -9999 -9999 -9999 -9999 -9999 -9999 -9999 -9999 -9999 -9999 -9999 -9999 -9999 -9999 -9999 -9999 -9999 -9999 -9999 -9999 -9999 -9999 -9999 -9999 -9999 -9999 -9999 -9999 -9999 -9999 -9999 -9999 -9999 -9999 -9999 -9999 -9999 -9999 -9999 -9999 -9999 -9999 -9999 -9999 -9999 -9999 -9999 -9999 -9999 -9999 -9999 -9999 -9999 -9999 -9999 -9999 -9999 -9999 -9999 -9999 -9999 -9999 -9999 -9999 -9999 -9999 -9999 -9999 -9999 -9999 -9999 -9999 -9999 -9999 -9999 -9999 -9999 -9999 -9999 -9999 -9999 -9999 -9999 -9999 -9999 -9999 -9999 -9999 -9999 -9999 -9999 -9999 -9999 -9999 -9999 -9999 -9999 -9999 -9999 -9999 -9999 -9999 -9999 -9999 -9999 -9999 -9999 -9999 -9999 -9999 -9999 -9999 -9999 -9999 -9999 -9999 -9999 -9999 -9999 -9999 -9999 -9999 -9999 -9999 -9999 -9999 -9999 -9999 -9999 -9999 -9999 -9999 -9999 -9999 -9999 -9999 -9999 -9999 -9999 -9999 -9999 -9999 -9999 -9999 -9999 -9999 -9999 -9999 -9999 -9999 -9999 -9999 -9999 -9999 -9999 -9999 -9999 -9999 -9999 -9999 -9999 -9999 -9999 -9999 -9999 -9999 -9999 -9999 -9999 -9999 -9999 -9999 -9999 -9999 -9999 -9999 -9999 -9999 -9999 -9999 -9999 -9999 -9999 -9999 -9999 -9999 -9999 -9999 -9999 -9999 -9999 -9999 -9999 -9999 -9999 -9999 -9999 -9999 -9999 -9999 -9999 -9999 -9999 -9999 -9999 -9999 -9999 -9999 -9999 -9999 -9999 -9999 -9999 -9999 -9999 0 -9999 0 0 16.0550458715596 16.0550458715596 10.3734439834025 10.3734439834025 8.69565217391304 8.69565217391304 20.3883495145631 20.3883495145631 20.3883495145631 7.20720720720721 10.1663585951941 10.1663585951941 4.90196078431373 4.90196078431373 11.4942528735632 11.4942528735632 11.4942528735632 35.4691075514874 35.4691075514874 4.95049504950495 45.1482479784367 45.1482479784367 45.1482479784367 4.95049504950495 5.48780487804878 0 0 0 24.4956772334294 9.63597430406852 13.8376383763838 13.8376383763838 13.8376383763838 4.16666666666667 4.16666666666667 4.16666666666667 4.16666666666667 9.93377483443709 4.59558823529412 4.59558823529412 10.0942126514132 10.0942126514132 10.0942126514132 10.0942126514132 10.0942126514132 12.3152709359606 6.50557620817844 6.50557620817844 10.6732348111658 10.6732348111658 10.6732348111658 10.6732348111658 10.6732348111658 10.6732348111658 3.36322869955157 4.13907284768212 8.58034321372855 8.58034321372855 8.58034321372855 19.31330472103 5.55555555555556 5.55555555555556 3.50262697022767 3.50262697022767 3.50262697022767 23.5772357723577 23.5772357723577 22.1169036334913 22.1169036334913 3.69276218611521 3.2967032967033 3.2967032967033 0 0 7.26141078838174 17.6715176715177 17.6715176715177 17.6715176715177 4.89396411092985 0 4.84261501210654 0 7.36648250460405 7.36648250460405 0 10.8695652173913 2.41545893719807 10.8695652173913 10.8695652173913 10.8695652173913 10.8695652173913 -9999 -9999 -9999 -9999 -9999 -9999 -9999 -9999 -9999 -9999 -9999 -9999 7.28597449908925 7.28597449908925 0 0 0 0 0 0 0 0 0 0 0 0 0 0 -9999 -9999 -9999 -9999 -9999 -9999 -9999 -9999 -9999 -9999 -9999 -9999 -9999 -9999 -9999 -9999 -9999 -9999 -9999 -9999 -9999 -9999 -9999 -9999 -9999 -9999 -9999
-9999 -9999 -9999 -9999 -9999 -9999 -9999 -9999 -9999 -9999 -9999 -9999 -9999 -9999 -9999 -9999 -9999 -9999 -9999 -9999 -9999 -9999 -9999 -9999 -9999 -9999 -9999 -9999 -9999 -9999 -9999 -9999 -9999 -9999 -9999 -9999 -9999 -9999 -9999 -9999 -9999 -9999 -9999 -9999 -9999 -9999 -9999 -9999 -9999 -9999 -9999 -9999 -9999 -9999 -9999 -9999 -9999 -9999 -9999 -9999 -9999 -9999 -9999 -9999 -9999 -9999 -9999 -9999 -9999 -9999 -9999 -9999 -9999 -9999 -9999 -9999 -9999 -9999 -9999 -9999 -9999 -9999 -9999 -9999 -9999 -9999 -9999 -9999 -9999 -9999 -9999 -9999 -9999 -9999 -9999 -9999 -9999 -9999 -9999 -9999 -9999 -9999 -9999 -9999 -9999 -9999 -9999 -9999 -9999 -9999 -9999 -9999 -9999 -9999 -9999 -9999 -9999 -9999 -9999 -9999 -9999 -9999 -9999 -9999 -9999 -9999 -9999 -9999 -9999 -9999 -9999 -9999 -9999 -9999 -9999 -9999 -9999 -9999 -9999 -9999 -9999 -9999 -9999 -9999 -9999 -9999 -9999 -9999 -9999 -9999 -9999 -9999 -9999 -9999 -9999 -9999 -9999 -9999 -9999 -9999 -9999 -9999 -9999 -9999 -9999 -9999 -9999 -9999 -9999 -9999 -9999 -9999 -9999 -9999 -9999 -9999 -9999 -9999 -9999 -9999 -9999 -9999 -9999 -9999 -9999 -9999 -9999 -9999 -9999 -9999 -9999 -9999 -9999 -9999 -9999 -9999 -9999 -9999 -9999 -9999 -9999 -9999 -9999 -9999 -9999 -9999 -9999 -9999 -9999 -9999 -9999 -9999 -9999 -9999 -9999 -9999 -9999 -9999 -9999 -9999 -9999 -9999 -9999 -9999 -9999 -9999 -9999 -9999 -9999 -9999 -9999 -9999 -9999 -9999 -9999 -9999 -9999 -9999 -9999 -9999 -9999 -9999 -9999 -9999 -9999 -9999 -9999 -9999 -9999 -9999 -9999 -9999 -9999 -9999 -9999 -9999 -9999 -9999 -9999 -9999 -9999 -9999 -9999 -9999 -9999 -9999 -9999 0 0 7.9646017699115 13.0246020260492 10.3734439834025 8.69565217391304 8.69565217391304 8.69565217391304 8.69565217391304 20.3883495145631 7.20720720720721 7.20720720720721 7.20720720720721 10.1663585951941 7.76699029126214 7.76699029126214 11.4942528735632 11.4942528735632 11.4942528735632 11.4942528735632 4.95049504950495 45.1482479784367 45.1482479784367 45.1482479784367 45.1482479784367 18.370607028754 5.48780487804878 5.48780487804878 0 9.4017094017094 9.4017094017094 9.4017094017094 24.4956772334294 9.63597430406852 13.8376383763838 4.16666666666667 4.16666666666667 4.16666666666667 9.93377483443709 9.93377483443709 35.6529209621993 35.6529209621993 10.0942126514132 10.0942126514132 10.0942126514132 10.0942126514132 4.91400491400491 9.82142857142857 9.82142857142857 12.3152709359606 6.50557620817844 6.50557620817844 10.6732348111658 10.6732348111658 10.6732348111658 3.36322869955157 3.36322869955157 3.36322869955157 3.36322869955157 8.58034321372855 8.58034321372855 19.31330472103 19.31330472103 19.31330472103 5.16795865633075 5.16795865633075 5.16795865633075 5.16795865633075 22.1169036334913 22.1169036334913 3.69276218611521 11.71875 11.71875 11.71875 0 5.72519083969466 7.26141078838174 7.26141078838174 0 0 0 0 0 7.36648250460405 7.36648250460405 0 0 0 2.41545893719807 2.41545893719807 2.41545893719807 10.8695652173913 10.8695652173913 -9999 -9999 -9999 -9999 -9999 -9999 -9999 -9999 -9999 -9999 -9999 7.28597449908925 7.28597449908925 0 0 0 0 0 0 0 0 0 0 0 0 0 0 -9999 -9999 -9999 -9999 -9999 -9999 -9999 -9999 -9999 -9999 -9999 -9999 -9999 -9999 -9999 -9999 -9999 -9999 -9999 -9999 -9999 -9999 -9999 -9999 -9999 -9999 -9999 -9999
-9999 -9999 -9999 -9999 -9999 -9999 -9999 -9999 -9999 -9999 -9999 -9999 -9999 -9999 -9999 -9999 -9999 -9999 -9999 -9999 -9999 -9999 -9999 -9999 -9999 -9999 -9999 -9999 -9999 -9999 -9999 -9999 -9999 -9999 -9999 -9999 -9999 -9999 -9999 -9999 -9999 -9999 -9999 -9999 -9999 -9999 -9999 -9999 -9999 -9999 -9999 -9999 -9999 -9999 -9999 -9999 -9999 -9999 -9999 -9999 -9999 -9999 -9999 -9999 -9999 -9999 -9999 -9999 -9999 -9999 -9999 -9999 -9999 -9999 -9999 -9999 -9999 -9999 -9999 -9999 -9999 -9999 -9999 -9999 -9999 -9999 -9999 -9999 -9999 -9999 -9999 -9999 -9999 -9999 -9999 -9999 -9999 -9999 -9999 -9999 -9999 -9999 -9999 -9999 -9999 -9999 -9999 -9999 -9999 -9999 -9999 -9999 -9999 -9999 -9999 -9999 -9999 -9999 -9999 -9999 -9999 -9999 -9999 -9999 -9999 -9999 -9999 -9999 -9999 -9999 -9999 -9999 -9999 -9999 -9999 -9999 -9999 -9999 -9999 -9999 -9999 -9999 -9999 -9999 -9999 -9999 -9999 -9999 -9999 -9999 -9999 -9999 -9999 -9999 -9999 -9999 -9999 -9999 -9999 -9999 -9999 -9999 -9999 -9999 -9999 -9999 -9999 -9999 -9999 -9999 -9999 -9999 -9999 -9999 -9999 -9999 -9999 -9999 -9999 -9999 -9999 -9999 -9999 -9999 -9999 -9999 -9999 -9999 -9999 -9999 -9999 -9999 -9999 -9999 -9999 -9999 -9999 -9999 -9999 -9999 -9999 -9999 -9999 -9999 -9999 -9999 -9999 -9999 -9999 -9999 -9999 -9999 -9999 -9999 -9999 -9999 -9999 -9999 -9999 -9999 -9999 -9999 -9999 -9999 -9999 -9999 -9999 -9999 -9999 -9999 -9999 -9999 -9999 -9999 -9999 -9999 -9999 -9999 -9999 -9999 -9999 -9999 -9999 -9999 -9999 -9999 -9999 -9999 -9999 -9999 -9999 -9999 -9999 -9999 -9999 -9999 -9999 -9999 -9999 -9999 -9999 -9999 -9999 -9999 -9999 -9999 7.5503355704698 7.5503355704698 15.0375939849624 7.9646017699115 13.0246020260492 13.0246020260492 13.0246020260492 13.0246020260492 8.69565217391304 12.9087779690189 12.9087779690189 12.9087779690189 7.20720720720721 16.1870503597122 16.1870503597122 7.76699029126214 7.76699029126214 7.76699029126214 11.4942528735632 11.4942528735632 11.4942528735632 20.4236006051437 20.4236006051437 45.1482479784367 26.8006700167504 28.0665280665281 28.0665280665281 18.370607028754 18.6721991701245 5.48780487804878 5.48780487804878 5.48780487804878 19.2 9.4017094017094 5.23560209424084 5.23560209424084 4.64037122969838 4.64037122969838 4.64037122969838 9.93377483443709 35.6529209621993 35.6529209621993 35.6529209621993 10.0942126514132 11.6279069767442 11.6279069767442 4.91400491400491 4.91400491400491 9.82142857142857 9.82142857142857 15.5945419103314 15.5945419103314 9.29054054054054 9.29054054054054 9.29054054054054 3.36322869955157 3.36322869955157 3.36322869955157 3.36322869955157 3.36322869955157 4.08997955010225 4.08997955010225 2.14592274678112 2.14592274678112 3.42465753424658 3.42465753424658 3.42465753424658 15.6765676567657 15.6765676567657 8.33333333333333 22.1169036334913 22.1169036334913 11.71875 11.71875 0 0 5.72519083969466 7.26141078838174 7.26141078838174 7.26141078838174 0 0 0 0 0 0 0 0 2.41545893719807 2.41545893719807 2.41545893719807 2.41545893719807 2.41545893719807 3.42465753424658 3.42465753424658 -9999 -9999 -9999 -9999 -9999 -9999 -9999 -9999 -9999 7.28597449908925 7.28597449908925 7.28597449908925 0 0 0 0 0 0 0 0 0 0 0 0 0 -9999 -9999 -9999 -9999 -9999 -9999 -9999 -9999 -9999 -9999 -9999 -9999 -9999 -9999 -9999 -9999 -9999 -9999 -9999 -9999 -9999 -9999 -9999 -9999 -9999 -9999 -9999 -9999 -9999
-9999 -9999 -9999 -9999 -9999 -9999 -9999 -9999 -9999 -9999 -9999 -9999 -9999 -9999 -9999 -9999 -9999 -9999 -9999 -9999 -9999 -9999 -9999 -9999 -9999 -9999 -9999 -9999 -9999 -9999 -9999 -9999 -9999 -9999 -9999 -9999 -9999 -9999 -9999 -9999 -9999 -9999 -9999 -9999 -9999 -9999 -9999 -9999 -9999 -9999 -9999 -9999 -9999 -9999 -9999 -9999 -9999 -9999 -9999 -9999 -9999 -9999 -9999 -9999 -9999 -9999 -9999 -9999 -9999 -9999 -9999 -9999 -9999 -9999 -9999 -9999 -9999 -9999 -9999 -9999 -9999 -9999 -9999 -9999 -9999 -9999 -9999 -9999 -9999 -9999 -9999 -9999 -9999 -9999 -9999 -9999 -9999 -9999 -9999 -9999 -9999 -9999 -9999 -9999 -9999 -9999 -9999 -9999 -9999 -9999 -9999 -9999 -9999 -9999 -9999 -9999 -9999 -9999 -9999 -9999 -9999 -9999 -9999 -9999 -9999 -9999 -9999 -9999 -9999 -9999 -9999 -9999 -9999 -9999 -9999 -9999 -9999 -9999 -9999 -9999 -9999 -9999 -9999 -9999 -9999 -9999 -9999 -9999 -9999 -9999 -9999 -9999 -9999 -9999 -9999 -9999 -9999 -9999 -9999 -9999 -9999 -9999 -9999 -9999 -9999 -9999 -9999 -9999 -9999 -9999 -9999 -9999 -9999 -9999 -9999 -9999 -9999 -9999 -9999 -9999 -9999 -9999 -9999 -9999 -9999 -9999 -9999 -9999 -9999 -9999 -9999 -9999 -9999 -9999 -9999 -9999 -9999 -9999 -9999 -9999 -9999 -9999 -9999 -9999 -9999 -9999 -9999 -9999 -9999 -9999 -9999 -9999 -9999 -9999 -9999 -9999 -9999 -9999 -9999 -9999 -9999 -9999 -9999 -9999 -9999 -9999 -9999 -9999 -9999 -9999 -9999 -9999 -9999 -9999 -9999 -9999 -9999 -9999 -9999 -9999 -9999 -9999 -9999 -9999 -9999 -9999 -9999 -9999 -9999 -9999 -9999 -9999 -9999 -9999 -9999 -9999 -9999 -9999 -9999 -9999 -9999 -9999 -9999 -9999 -9999 7.5503355704698 7.5503355704698 7.5503355704698 7.5503355704698 15.0375939849624 15.0375939849624 13.0246020260492 13.0246020260492 13.0246020260492 34.3203230148048 12.9087779690189 12.9087779690189 12.9087779690189 20.8768267223382 11.968085106383 16.1870503597122 16.1870503597122 11.4942528735632 11.4942528735632 11.4942528735632 11.4942528735632 20.4236006051437 20.4236006051437 20.4236006051437 20.4236006051437 20.4236006051437 28.0665280665281 28.9719626168224 28.9719626168224 17.2744721689059 15.6507413509061 18.6721991701245 18.6721991701245 19.2 19.2 5.23560209424084 8.08314087759815 8.08314087759815 4.64037122969838 4.64037122969838 11.2994350282486 11.2994350282486 13.1004366812227 35.6529209621993 35.6529209621993 4.62962962962963 11.6279069767442 11.6279069767442 9.97782705099778 9.82142857142857 9.82142857142857 15.5945419103314 15.5945419103314 9.29054054054054 9.29054054054054 0 4 0 0 4.08997955010225 4.08997955010225 4.08997955010225 4.08997955010225 2.14592274678112 2.14592274678112 2.14592274678112 2.14592274678112 3.42465753424658 0 0 8.33333333333333 8.33333333333333 1.68634064080944 1.68634064080944 0 0 5.72519083969466 5.72519083969466 5.72519083969466 7.8740157480315 7.8740157480315 7.8740157480315 0 0 0 0 0 14.2857142857143 14.2857142857143 14.2857142857143 9.52380952380952 2.41545893719807 2.41545893719807 3.42465753424658 3.42465753424658 3.42465753424658 3.42465753424658 0 0 -9999 -9999 -9999 -9999 -9999 7.28597449908925 7.28597449908925 7.28597449908925 0 0 0 0 0 0 0 0 0 0 0 0 0 -9999 -9999 -9999 -9999 -9999 -9999 -9999 -9999 -9999 -9999 -9999 -9999 -9999 -9999 -9999 -9999 -9999 -9999 -9999 -9999 -9999 -9999 -9999 -9999 -9999 -9999 -9999 -9999 -9999 -9999
-9999 -9999 -9999 -9999 -9999 -9999 -9999 -9999 -9999 -9999 -9999 -9999 -9999 -9999 -9999 -9999 -9999 -9999 -9999 -9999 -9999 -9999 -9999 -9999 -9999 -9999 -9999 -9999 -9999 -9999 -9999 -9999 -9999 -9999 -9999 -9999 -9999 -9999 -9999 -9999 -9999 -9999 -9999 -9999 -9999 -9999 -9999 -9999 -9999 -9999 -9999 -9999 -9999 -9999 -9999 -9999 -9999 -9999 -9999 -9999 -9999 -9999 -9999 -9999 -9999 -9999 -9999 -9999 -9999 -9999 -9999 -9999 -9999 -9999 -9999 -9999 -9999 -9999 -9999 -9999 -9999 -9999 -9999 -9999 -9999 -9999 -9999 -9999 -9999 -9999 -9999 -9999 -9999 -9999 -9999 -9999 -9999 -9999 -9999 -9999 -9999 -9999 -9999 -9999 -9999 -9999 -9999 -9999 -9999 -9999 -9999 -9999 -9999 -9999 -9999 -9999 -9999 -9999 -9999 -9999 -9999 -9999 -9999 -9999 -9999 -9999 -9999 -9999 -9999 -9999 -9999 -9999 -9999 -9999 -9999 -9999 -9999 -9999 -9999 -9999 -9999 -9999 -9999 -9999 -9999 -9999 -9999 -9999 -9999 -9999 -9999 -9999 -9999 -9999 -9999 -9999 -9999 -9999 -9999 -9999 -9999 -9999 -9999 -9999 -9999 -9999 -9999 -9999 -9999 -9999 -9999 -9999 -9999 -9999 -9999 -9999 -9999 -9999 -9999 -9999 -9999 -9999 -9999 -9999 -9999 -9999 -9999 -9999 -9999 -9999 -9999 -9999 -9999 -9999 -9999 -9999 -9999 -9999 -9999 -9999 -9999 -9999 -9999 -9999 -9999 -9999 -9999 -9999 -9999 -9999 -9999 -9999 -9999 -9999 -9999 -9999 -9999 -9999 -9999 -9999 -9999 -9999 -9999 -9999 -9999 -9999 -9999 -9999 -9999 -9999 -9999 -9999 -9999 -9999 -9999 -9999 -9999 -9999 -9999 -9999 -9999 -9999 -9999 -9999 -9999 -9999 -9999 -9999 -9999 -9999 -9999 -9999 -9999 -9999 -9999 -9999 -9999 -9999 -9999 -9999 -9999 0 -9999 -9999 7.5503355704698 7.5503355704698 6.57894736842105 6.57894736842105 7.5503355704698 15.0375939849624 15.0375939849624 15.0375939849624 3.54609929078014 3.54609929078014 34.3203230148048 34.3203230148048 34.3203230148048 24.3710691823899 20.8768267223382 20.8768267223382 11.968085106383 20.2863961813842 11.4942528735632 11.4942528735632 11.4942528735632 20.4236006051437 20.4236006051437 20.4236006051437 20.4236006051437 20.4236006051437 20.4236006051437 20.4236006051437 25.1288659793814 25.1288659793814 17.2744721689059 15.6507413509061 15.6507413509061 10.2040816326531 10.2040816326531 10.2040816326531 12.0967741935484 8.08314087759815 8.08314087759815 10.8695652173913 10.8695652173913 6.30914826498423 21.8855218855219 13.1004366812227 13.1004366812227 4.62962962962963 4.62962962962963 4.62962962962963 9.97782705099778 9.97782705099778 9.97782705099778 9.97782705099778 15.5945419103314 9.29054054054054 9.29054054054054 0 4 4 4 4.08997955010225 4.08997955010225 4.08997955010225 4.08997955010225 9.55414012738854 9.55414012738854 9.55414012738854 2.14592274678112 3.42465753424658 0 0 0 0 0 9.57446808510638 1.68634064080944 1.68634064080944 1.68634064080944 5.72519083969466 5.72519083969466 5.72519083969466 5.72519083969466 5.72519083969466 0 0 0 8.43373493975904 0 14.2857142857143 14.2857142857143 14.2857142857143 0 9.52380952380952 9.52380952380952 9.52380952380952 3.42465753424658 3.42465753424658 3.42465753424658 3.42465753424658 0 0 0 0 4.59770114942529 -9999 -9999 7.28597449908925 7.28597449908925 7.28597449908925 0 0 0 0 7.74336283185841 7.74336283185841 0 7.74336283185841 0 0 0 0 -9999 -9999 -9999 -9999 -9999 -9999 -9999 -9999 -9999 -9999 -9999 -9999 -9999 -9999 -9999 -9999 -9999 -9999 -9999 -9999 -9999 -9999 -9999 -9999 -9999 -9999 -9999 -9999 -9999 -9999 -9999
-9999 -9999 -9999 -9999 -9999 -9999 -9999 -9999 -9999 -9999 -9999 -9999 -9999 -9999 -9999 -9999 -9999 -9999 -9999 -9999 -9999 -9999 -9999 -9999 -9999 -9999 -9999 -9999 -9999 -9999 -9999 -9999 -9999 -9999 -9999 -9999 -9999 -9999 -9999 -9999 -9999 -9999 -9999 -9999 -9999 -9999 -9999 -9999 -9999 -9999 -9999 -9999 -9999 -9999 -9999 -9999 -9999 -9999 -9999 -9999 -9999 -9999 -9999 -9999 -9999 -9999 -9999 -9999 -9999 -9999 -9999 -9999 -9999 -9999 -9999 -9999 -9999 -9999 -9999 -9999 -9999 -9999 -9999 -9999 -9999 -9999 -9999 -9999 -9999 -9999 -9999 -9999 -9999 -9999 -9999 -9999 -9999 -9999 -9999 -9999 -9999 -9999 -9999 -9999 -9999 -9999 -9999 -9999 -9999 -9999 -9999 -9999 -9999 -9999 -9999 -9999 -9999 -9999 -9999 -9999 -9999 -9999 -9999 -9999 -9999 -9999 -9999 -9999 -9999 -9999 -9999 -9999 -9999 -9999 -9999 -9999 -9999 -9999 -9999 -9999 -9999 -9999 -9999 -9999 -9999 -9999 -9999 -9999 -9999 -9999 -9999 -9999 -9999 -9999 -9999 -9999 -9999 -9999 -9999 -9999 -9999 -9999 -9999 -9999 -9999 -9999 -9999 -9999 -9999 -9999 -9999 -9999 -9999 -9999 -9999 -9999 -9999 -9999 -9999 -9999 -9999 -9999 -9999 -9999 -9999 -9999 -9999 -9999 -9999 -9999 -9999 -9999 -9999 -9999 -9999 -9999 -9999 -9999 -9999 -9999 -9999 -9999 -9999 -9999 -9999 -9999 -9999 -9999 -9999 -9999 -9999 -9999 -9999 -9999 -9999 -9999 -9999 -9999 -9999 -9999 -9999 -9999 -9999 -9999 -9999 -9999 -9999 -9999 -9999 -9999 -9999 -9999 -9999 -9999 -9999 -9999 -9999 -9999 -9999 -9999 -9999 -9999 -9999 -9999 -9999 -9999 -9999 -9999 -9999 -9999 -9999 -9999 -9999 -9999 -9999 -9999 -9999 -9999 -9999 -9999 -9999 0 -9999 7.5503355704698 7.5503355704698 7.5503355704698 6.57894736842105 6.57894736842105 10.5421686746988 10.5421686746988 10.5421686746988 15.0375939849624 3.54609929078014 3.54609929078014 3.54609929078014 0 24.3710691823899 24.3710691823899 24.3710691823899 20.8768267223382 11.968085106383 11.968085106383 20.2863961813842 11.4942528735632 20.4236006051437 20.4236006051437 20.4236006051437 20.4236006051437 20.4236006051437 20.4236006051437 20.4236006051437 25.1288659793814 25.1288659793814 25.1288659793814 25.1288659793814 25.1288659793814 13.8613861386139 31.3152400835073 31.3152400835073 16.9683257918552 16.9683257918552 16.9683257918552 10.8695652173913 4.21940928270042 4.21940928270042 0 0 21.8855218855219 4.62962962962963 4.62962962962963 4.62962962962963 11.0759493670886 11.0759493670886 9.97782705099778 9.97782705099778 4.10958904109589 4.10958904109589 4.10958904109589 9.29054054054054 0 9.97782705099778 0 0 0 0 4.08997955010225 4.08997955010225 3.94944707740916 3.94944707740916 9.55414012738854 3.94944707740916 2.56849315068493 6.38297872340426 6.38297872340426 6.38297872340426 6.38297872340426 9.57446808510638 9.57446808510638 9.57446808510638 9.57446808510638 0 0 0 0 0 6.78733031674208 6.78733031674208 6.78733031674208 6.78733031674208 8.43373493975904 6.78733031674208 8.43373493975904 0 14.2857142857143 0 0 0 -9999 4.74683544303798 4.58715596330275 4.58715596330275 4.99168053244592 4.99168053244592 5.72519083969466 5.72519083969466 11.6640746500778 4.59770114942529 11.6640746500778 7.28597449908925 7.28597449908925 7.28597449908925 7.28597449908925 -9999 -9999 0 0 0 0 0 7.74336283185841 7.74336283185841 7.74336283185841 7.74336283185841 0 -9999 -9999 -9999 -9999 -9999 -9999 -9999 -9999 -9999 -9999 -9999 -9999 -9999 -9999 -9999 -9999 -9999 -9999 -9999 -9999 -9999 -9999 -9999 -9999 -9999 -9999 -9999 -9999 -9999 -9999 -9999
-9999 -9999 -9999 -9999 -9999 -9999 -9999 -9999 -9999 -9999 -9999 -9999 -9999 -9999 -9999 -9999 -9999 -9999 -9999 -9999 -9999 -9999 -9999 -9999 -9999 -9999 -9999 -9999 -9999 -9999 -9999 -9999 -9999 -9999 -9999 -9999 -9999 -9999 -9999 -9999 -9999 -9999 -9999 -9999 -9999 -9999 -9999 -9999 -9999 -9999 -9999 -9999 -9999 -9999 -9999 -9999 -9999 -9999 -9999 -9999 -9999 -9999 -9999 -9999 -9999 -9999 -9999 -9999 -9999 -9999 -9999 -9999 -9999 -9999 -9999 -9999 -9999 -9999 -9999 -9999 -9999 -9999 -9999 -9999 -9999 -9999 -9999 -9999 -9999 -9999 -9999 -9999 -9999 -9999 -9999 -9999 -9999 -9999 -9999 -9999 -9999 -9999 -9999 -9999 -9999 -9999 -9999 -9999 -9999 -9999 -9999 -9999 -9999 -9999 -9999 -9999 -9999 -9999 -9999 -9999 -9999 -9999 -9999 -9999 -9999 -9999 -9999 -9999 -9999 -9999 -9999 -9999 -9999 -9999 -9999 -9999 -9999 -9999 -9999 -9999 -9999 -9999 -9999 -9999 -9999 -9999 -9999 -9999 -9999 -9999 -9999 -9999 -9999 -9999 -9999 -9999 -9999 -9999 -9999 -9999 -9999 -9999 -9999 -9999 -9999 -9999 -9999 -9999 -9999 -9999 -9999 -9999 -9999 -9999 -9999 -9999 -9999 -9999 -9999 -9999 -9999 -9999 -9999 -9999 -9999 -9999 -9999 -9999 -9999 -9999 -9999 -9999 -9999 -9999 -9999 -9999 -9999 -9999 -9999 -9999 -9999 -9999 -9999 -9999 -9999 -9999 -9999 -9999 -9999 -9999 -9999 -9999 -9999 -9999 -9999 -9999 -9999 -9999 -9999 -9999 -9999 -9999 -9999 -9999 -9999 -9999 -9999 -9999 -9999 -9999 -9999 -9999 -9999 -9999 -9999 -9999 -9999 -9999 -9999 -9999 -9999 -9999 -9999 -9999 -9999 -9999 -9999 -9999 -9999 -9999 -9999 -9999 -9999 -9999 -9999 -9999 -9999 -9999 -9999 -9999 0 -9999 0 0 7.5503355704698 7.5503355704698 7.5503355704698 12.0772946859903 12.0772946859903 12.0772946859903 10.5421686746988 10.5421686746988 10.5421686746988 3.54609929078014 4.39367311072056 4.39367311072056 0 0 0 11.968085106383 11.968085106383 11.968085106383 11.968085106383 20.4236006051437 20.4236006051437 20.4236006051437 20.4236006051437 20.4236006051437 20.4236006051437 20.4236006051437 25.1288659793814 25.1288659793814 25.1288659793814 25.1288659793814 25.1288659793814 25.1288659793814 25.1288659793814 25.1288659793814 16.9683257918552 16.9683257918552 16.9683257918552 22.17125382263 22.17125382263 22.17125382263 4.21940928270042 0 0 0 4.62962962962963 4.62962962962963 11.0759493670886 13.355592654424 13.355592654424 11.0759493670886 4.10958904109589 4.10958904109589 4.10958904109589 4.10958904109589 10.9649122807018 10.9649122807018 9.97782705099778 9.97782705099778 9.97782705099778 9.97782705099778 9.97782705099778 9.97782705099778 6.62251655629139 6.62251655629139 6.62251655629139 3.94944707740916 3.94944707740916 2.56849315068493 4.13793103448276 4.13793103448276 4.13793103448276 6.38297872340426 9.57446808510638 9.57446808510638 9.57446808510638 0 0 0 0 0 0 -9999 -9999 6.78733031674208 6.78733031674208 6.78733031674208 6.78733031674208 0 0 10.1102941176471 10.1102941176471 10.1102941176471 0 -9999 -9999 -9999 4.74683544303798 4.74683544303798 2.25733634311512 2.25733634311512 11.6640746500778 11.6640746500778 11.6640746500778 7.28597449908925 7.28597449908925 7.28597449908925 7.28597449908925 -9999 -9999 -9999 -9999 -9999 -9999 0 0 0 0 0 7.74336283185841 -9999 -9999 -9999 -9999 -9999 -9999 -9999 -9999 -9999 -9999 -9999 -9999 -9999 -9999 -9999 -9999 -9999 -9999 -9999 -9999 -9999 -9999 -9999 -9999 -9999 -9999 -9999 -9999 -9999 -9999 -9999 -9999
-9999 -9999 -9999 -9999 -9999 -9999 -9999 -9999 -9999 -9999 -9999 -9999 -9999 -9999 -9999 -9999 -9999 -9999 -9999 -9999 -9999 -9999 -9999 -9999 -9999 -9999 -9999 -9999 -9999 -9999 -9999 -9999 -9999 -9999 -9999 -9999 -9999 -9999 -9999 -9999 -9999 -9999 -9999 -9999 -9999 -9999 -9999 -9999 -9999 -9999 -9999 -9999 -9999 -9999 -9999 -9999 -9999 -9999 -9999 -9999 -9999 -9999 -9999 -9999 -9999 -9999 -9999 -9999 -9999 -9999 -9999 -9999 -9999 -9999 -9999 -9999 -9999 -9999 -9999 -9999 -9999 -9999 -9999 -9999 -9999 -9999 -9999 -9999 -9999 -9999 -9999 -9999 -9999 -9999 -9999 -9999 -9999 -9999 -9999 -9999 -9999 -9999 -9999 -9999 -9999 -9999 -9999 -9999 -9999 -9999 -9999 -9999 -9999 -9999 -9999 -9999 -9999 -9999 -9999 -9999 -9999 -9999 -9999 -9999 -9999 -9999 -9999 -9999 -9999 -9999 -9999 -9999 -9999 -9999 -9999 -9999 -9999 -9999 -9999 -9999 -9999 -9999 -9999 -9999 -9999 -9999 -9999 -9999 -9999 -9999 -9999 -9999 -9999 -9999 -9999 -9999 -9999 -9999 -9999 -9999 -9999 -9999 -9999 -9999 -9999 -9999 -9999 -9999 -9999 -9999 -9999 -9999 -9999 -9999 -9999 -9999 -9999 -9999 -9999 -9999 -9999 -9999 -9999 -9999 -9999 -9999 -9999 -9999 -9999 -9999 -9999 -9999 -9999 -9999 -9999 -9999 -9999 -9999 -9999 -9999 -9999 -9999 -9999 -9999 -9999 -9999 -9999 -9999 -9999 -9999 -9999 -9999 -9999 -9999 -9999 -9999 -9999 -9999 -9999 -9999 -9999 -9999 -9999 -9999 -9999 -9999 -9999 -9999 -9999 -9999 -9999 -9999 -9999 -9999 -9999 -9999 -9999 -9999 -9999 -9999 -9999 -9999 -9999 -9999 -9999 -9999 -9999 -9999 -9999 -9999 -9999 -9999 -9999 -9999 -9999 -9999 -9999 -9999 -9999 0 0 -9999 0 0 19.672131147541 19.672131147541 19.672131147541 12.0772946859903 12.0772946859903 12.0772946859903 6.23885918003565 6.23885918003565 10.5421686746988 4.39367311072056 4.39367311072056 4.39367311072056 4.39367311072056 4.39367311072056 0 0 17.7664974619289 11.968085106383 20.4236006051437 20.4236006051437 20.4236006051437 20.4236006051437 29.7691373025516 29.7691373025516 29.7691373025516 25.1288659793814 25.1288659793814 25.1288659793814 25.1288659793814 25.1288659793814 25.1288659793814 25.1288659793814 25.1288659793814 28.5016286644951 28.5016286644951 28.5016286644951 28.5016286644951 31.8761384335155 31.8761384335155 22.17125382263 9.63391136801541 17.156862745098 17.156862745098 11.9047619047619 11.9047619047619 11.9047619047619 11.9047619047619 13.355592654424 11.0759493670886 4.10958904109589 4.10958904109589 4.10958904109589 4.10958904109589 18.5185185185185 18.5185185185185 18.5185185185185 10.9649122807018 10.9649122807018 10.9649122807018 9.97782705099778 9.97782705099778 9.97782705099778 9.98463901689708 9.98463901689708 6.62251655629139 6.62251655629139 2.56849315068493 2.56849315068493 14.6412884333821 14.6412884333821 4.13793103448276 8.33333333333333 8.33333333333333 8.33333333333333 9.57446808510638 10.8892921960073 10.8892921960073 10.8892921960073 0 0 -9999 -9999 -9999 -9999 6.78733031674208 5.08130081300813 5.08130081300813 0 0 10.1102941176471 10.1102941176471 10.1102941176471 0 0 0 -9999 -9999 -9999 -9999 2.25733634311512 11.6640746500778 11.6640746500778 11.6640746500778 7.28597449908925 7.28597449908925 7.28597449908925 7.28597449908925 -9999 -9999 -9999 -9999 -9999 -9999 -9999 -9999 -9999 0 0 -9999 -9999 -9999 -9999 -9999 -9999 -9999 -9999 -9999 -9999 -9999 -9999 -9999 -9999 -9999 -9999 -9999 -9999 -9999 -9999 -9999 -9999 -9999 -9999 -9999 -9999 -9999 -9999 -9999 -9999 -9999 -9999 -9999
-9999 -9999 -9999 -9999 -9999 -9999 -9999 -9999 -9999 -9999 -9999 -9999 -9999 -9999 -9999 -9999 -9999 -9999 -9999 -9999 -9999 -9999 -9999 -9999 -9999 -9999 -9999 -9999 -9999 -9999 -9999 -9999 -9999 -9999 -9999 -9999 -9999 -9999 -9999 -9999 -9999 -9999 -9999 -9999 -9999 -9999 -9999 -9999 -9999 -9999 -9999 -9999 -9999 -9999 -9999 -9999 -9999 -9999 -9999 -9999 -9999 -9999 -9999 -9999 -9999 -9999 -9999 -9999 -9999 -9999 -9999 -9999 -9999 -9999 -9999 -9999 -9999 -9999 -9999 -9999 -9999 -9999 -9999 -9999 -9999 -9999 -9999 -9999 -9999 -9999 -9999 -9999 -9999 -9999 -9999 -9999 -9999 -9999 -9999 -9999 -9999 -9999 -9999 -9999 -9999 -9999 -9999 -9999 -9999 -9999 -9999 -9999 -9999 -9999 -9999 -9999 -9999 -9999 -9999 -9999 -9999 -9999 -9999 -9999 -9999 -9999 -9999 -9999 -9999 -9999 -9999 -9999 -9999 -9999 -9999 -9999 -9999 -9999 -9999 -9999 -9999 -9999 -9999 -9999 -9999 -9999 -9999 -9999 -9999 -9999 -9999 -9999 -9999 -9999 -9999 -9999 -9999 -9999 -9999 -9999 -9999 -9999 -9999 -9999 -9999 -9999 -9999 -9999 -9999 -9999 -9999 -9999 -9999 -9999 -9999 -9999 -9999 -9999 -9999 -9999 -9999 -9999 -9999 -9999 -9999 -9999 -9999 -9999 -9999 -9999 -9999 -9999 -9999 -9999 -9999 -9999 -9999 -9999 -9999 -9999 -9999 -9999 -9999 -9999 -9999 -9999 -9999 -9999 -9999 -9999 -9999 -9999 -9999 -9999 -9999 -9999 -9999 -9999 -9999 -9999 -9999 -9999 -9999 -9999 -9999 -9999 -9999 -9999 -9999 -9999 -9999 -9999 -9999 -9999 -9999 -9999 -9999 -9999 -9999 -9999 -9999 -9999 -9999 -9999 -9999 -9999 -9999 -9999 -9999 -9999 -9999 -9999 -9999 -9999 -9999 -9999 -9999 -9999 0 0 0 0 0 0 19.672131147541 19.672131147541 10.036496350365 10.036496350365 10.036496350365 0 6.23885918003565 6.23885918003565 0 4.39367311072056 4.39367311072056 4.39367311072056 4.39367311072056 4.39367311072056 4.39367311072056 17.7664974619289 17.7664974619289 17.7664974619289 34.8837209302326 20.4236006051437 20.4236006051437 35.6536502546689 0 0 25.1288659793814 25.1288659793814 25.1288659793814 25.1288659793814 25.1288659793814 25.1288659793814 25.1288659793814 25.1288659793814 28.5016286644951 28.5016286644951 28.5016286644951 28.5016286644951 28.5016286644951 28.5016286644951 28.5016286644951 31.8761384335155 9.63391136801541 9.63391136801541 12.7041742286751 12.7041742286751 18.3356840620592 11.9047619047619 13.355592654424 13.355592654424 4.10958904109589 4.10958904109589 4.10958904109589 4.10958904109589 11.6959064327485 11.6959064327485 11.6959064327485 18.5185185185185 18.5185185185185 18.5185185185185 9.97782705099778 9.97782705099778 9.97782705099778 9.24918389553863 9.24918389553863 9.24918389553863 9.98463901689708 14.6412884333821 14.6412884333821 14.6412884333821 14.6412884333821 14.6412884333821 14.4927536231884 14.4927536231884 14.4927536231884 8.33333333333333 7.34394124847001 7.34394124847001 7.34394124847001 10.8892921960073 10.8892921960073 -9999 -9999 -9999 -9999 -9999 -9999 -9999 5.08130081300813 5.08130081300813 2.51677852348993 2.51677852348993 2.51677852348993 4.60829493087558 0 0 0 0 6.14035087719298 6.14035087719298 -9999 11.6640746500778 11.6640746500778 11.6640746500778 7.28597449908925 7.28597449908925 7.28597449908925 7.28597449908925 -9999 -9999 -9999 -9999 -9999 -9999 -9999 -9999 -9999 -9999 -9999 -9999 -9999 -9999 -9999 -9999 -9999 -9999 -9999 -9999 -9999 -9999 -9999 -9999 -9999 -9999 -9999 -9999 -9999 -9999 -9999 -9999 -9999 -9999 -9999 -9999 -9999 -9999 -9999 -9999 -9999 -9999 -9999 -9999 -9999
-9999 -9999 -9999 -9999 -9999 -9999 -9999 -9999 -9999 -9999 -9999 -9999 -9999 -9999 -9999 -9999 -9999 -9999 -9999 -9999 -9999 -9999 -9999 -9999 -9999 -9999 -9999 -9999 -9999 -9999 -9999 -9999 -9999 -9999 -9999 -9999 -9999 -9999 -9999 -9999 -9999 -9999 -9999 -9999 -9999 -9999 -9999 -9999 -9999 -9999 -9999 -9999 -9999 -9999 -9999 -9999 -9999 -9999 -9999 -9999 -9999 -9999 -9999 -9999 -9999 -9999 -9999 -9999 -9999 -9999 -9999 -9999 -9999 -9999 -9999 -9999 -9999 -9999 -9999 -9999 -9999 -9999 -9999 -9999 -9999 -9999 -9999 -9999 -9999 -9999 -9999 -9999 -9999 -9999 -9999 -9999 -9999 -9999 -9999 -9999 -9999 -9999 -9999 -9999 -9999 -9999 -9999 -9999 -9999 -9999 -9999 -9999 -9999 -9999 -9999 -9999 -9999 -9999 -9999 -9999 -9999 -9999 -9999 -9999 -9999 -9999 -9999 -9999 -9999 -9999 -9999 -9999 -9999 -9999 -9999 -9999 -9999 -9999 -9999 -9999 -9999 -9999 -9999 -9999 -9999 -9999 -9999 -9999 -9999 -9999 -9999 -9999 -9999 -9999 -9999 -9999 -9999 -9999 -9999 -9999 -9999 -9999 -9999 -9999 -9999 -9999 -9999 -9999 -9999 -9999 -9999 -9999 -9999 -9999 -9999 -9999 -9999 -9999 -9999 -9999 -9999 -9999 -9999 -9999 -9999 -9999 -9999 -9999 -9999 -9999 -9999 -9999 -9999 -9999 -9999 -9999 -9999 -9999 -9999 -9999 -9999 -9999 -9999 -9999 -9999 -9999 -9999 -9999 -9999 -9999 -9999 -9999 -9999 -9999 -9999 -9999 -9999 -9999 -9999 -9999 -9999 -9999 -9999 -9999 -9999 -9999 -9999 -9999 -9999 -9999 -9999 -9999 -9999 -9999 -9999 -9999 -9999 -9999 -9999 -9999 -9999 -9999 -9999 -9999 -9999 -9999 -9999 -9999 -9999 -9999 -9999 -9999 -9999 -9999 -9999 -9999 -9999 0 0 0 0 0 12.0274914089347 19.5071868583162 19.5071868583162 2.84090909090909 2.84090909090909 10.036496350365 0 0 0 0 0 0 0 4.39367311072056 4.39367311072056 4.39367311072056 9.76909413854352 9.76909413854352 9.76909413854352 34.8837209302326 34.8837209302326 34.8837209302326 13.1048387096774 20.4236006051437 0 0 20.1342281879195 9.87654320987654 9.87654320987654 25.1288659793814 25.1288659793814 25.1288659793814 25.1288659793814 28.5016286644951 28.5016286644951 28.5016286644951 28.5016286644951 28.5016286644951 28.5016286644951 28.5016286644951 28.5016286644951 28.5016286644951 28.5016286644951 21.0280373831776 21.0280373831776 21.0280373831776 18.3356840620592 18.3356840620592 18.3356840620592 4.10958904109589 4.10958904109589 4.10958904109589 4.10958904109589 11.6959064327485 11.6959064327485 11.6959064327485 11.6959064327485 11.6959064327485 11.6959064327485 3.75 18.5185185185185 18.5185185185185 9.24918389553863 7.53941055517478 9.24918389553863 9.24918389553863 14.6412884333821 14.6412884333821 14.6412884333821 14.6412884333821 14.6412884333821 14.4927536231884 14.4927536231884 14.4927536231884 14.4927536231884 3.04878048780488 3.04878048780488 3.04878048780488 7.34394124847001 0 0 2.08333333333333 -9999 -9999 -9999 -9999 -9999 -9999 -9999 -9999 -9999 2.51677852348993 2.51677852348993 4.60829493087558 4.60829493087558 4.60829493087558 0 0 6.14035087719298 6.14035087719298 5.720823798627 5.720823798627 5.720823798627 11.6640746500778 7.28597449908925 7.28597449908925 7.28597449908925 7.28597449908925 -9999 -9999 -9999 -9999 -9999 -9999 -9999 -9999 -9999 -9999 -9999 -9999 -9999 -9999 -9999 -9999 -9999 -9999 -9999 -9999 -9999 -9999 -9999 -9999 -9999 -9999 -9999 -9999 -9999 -9999 -9999 -9999 -9999 -9999 -9999 -9999 -9999 -9999 -9999 -9999 -9999 -9999 -9999 -9999 -9999
-9999 -9999 -9999 -9999 -9999 -9999 -9999 -9999 -9999 -9999 -9999 -9999 -9999 -9999 -9999 -9999 -9999 -9999 -9999 -9999 -9999 -9999 -9999 -9999 -9999 -9999 -9999 -9999 -9999 -9999 -9999 -9999 -9999 -9999 -9999 -9999 -9999 -9999 -9999 -9999 -9999 -9999 -9999 -9999 -9999 -9999 -9999 -9999 -9999 -9999 -9999 -9999 -9999 -9999 -9999 -9999 -9999 -9999 -9999 -9999 -9999 -9999 -9999 -9999 -9999 -9999 -9999 -9999 -9999 -9999 -9999 -9999 -9999 -9999 -9999 -9999 -9999 -9999 -9999 -9999 -9999 -9999 -9999 -9999 -9999 -9999 -9999 -9999 -9999 -9999 -9999 -9999 -9999 -9999 -9999 -9999 -9999 -9999 -9999 -9999 -9999 -9999 -9999 -9999 -9999 -9999 -9999 -9999 -9999 -9999 -9999 -9999 -9999 -9999 -9999 -9999 -9999 -9999 -9999 -9999 -9999 -9999 -9999 -9999 -9999 -9999 -9999 -9999 -9999 -9999 -9999 -9999 -9999 -9999 -9999 -9999 -9999 -9999 -9999 -9999 -9999 -9999 -9999 -9999 -9999 -9999 -9999 -9999 -9999 -9999 -9999 -9999 -9999 -9999 -9999 -9999 -9999 -9999 -9999 -9999 -9999 -9999 -9999 -9999 -9999 -9999 -9999 -9999 -9999 -9999 -9999 -9999 -9999 -9999 -9999 -9999 -9999 -9999 -9999 -9999 -9999 -9999 -9999 -9999 -9999 -9999 -9999 -9999 -9999 -9999 -9999 -9999 -9999 -9999 -9999 -9999 -9999 -9999 -9999 -9999 -9999 -9999 -9999 -9999 -9999 -9999 -9999 -9999 -9999 -9999 -9999 -9999 -9999 -9999 -9999 -9999 -9999 -9999 -9999 -9999 -9999 -9999 -9999 -9999 -9999 -9999 -9999 -9999 -9999 -9999 -9999 -9999 -9999 -9999 -9999 -9999 -9999 -9999 -9999 -9999 -9999 -9999 -9999 -9999 -9999 -9999 -9999 -9999 -9999 -9999 -9999 -9999 -9999 -9999 -9999 -9999 -9999 -9999 -9999 0 0 0 12.0274914089347 12.0274914089347 19.5071868583162 2.84090909090909 2.84090909090909 2.84090909090909 0 0 0 7.02247191011236 7.02247191011236 7.02247191011236 14.7783251231527 14.7783251231527 4.39367311072056 14.7783251231527 9.76909413854352 9.76909413854352 32.6834862385321 32.6834862385321 34.8837209302326 13.1048387096774 13.1048387096774 13.1048387096774 13.1048387096774 17.0777988614801 17.0777988614801 20.1342281879195 53.2945736434108 25.1288659793814 25.1288659793814 25.1288659793814 28.5016286644951 28.5016286644951 28.5016286644951 28.5016286644951 28.5016286644951 28.5016286644951 28.5016286644951 28.5016286644951 28.5016286644951 28.5016286644951 28.5016286644951 28.5016286644951 28.5016286644951 21.0280373831776 21.0280373831776 21.0280373831776 18.3356840620592 4.10958904109589 4.10958904109589 4.10958904109589 11.6959064327485 11.6959064327485 11.6959064327485 11.6959064327485 11.6959064327485 11.6959064327485 3.75 3.75 11.6959064327485 18.5185185185185 7.53941055517478 7.53941055517478 7.53941055517478 0 0 0 0 14.6412884333821 0 0 0 14.4927536231884 0 0 0 3.04878048780488 0 0 2.08333333333333 2.08333333333333 2.08333333333333 -9999 -9999 -9999 -9999 -9999 -9999 -9999 -9999 -9999 2.55102040816327 2.55102040816327 4.60829493087558 2.55102040816327 0 0 0 0 0 0 5.720823798627 7.28597449908925 7.28597449908925 7.28597449908925 7.28597449908925 -9999 -9999 -9999 -9999 -9999 -9999 -9999 -9999 -9999 -9999 -9999 -9999 -9999 -9999 -9999 -9999 -9999 -9999 -9999 -9999 -9999 -9999 -9999 -9999 -9999 -9999 -9999 -9999 -9999 -9999 -9999 -9999 -9999 -9999 -9999 -9999 -9999 -9999 -9999 -9999 -9999 -9999 -9999 -9999 -9999 -9999
-9999 -9999 -9999 -9999 -9999 -9999 -9999 -9999 -9999 -9999 -9999 -9999 -9999 -9999 -9999 -9999 -9999 -9999 -9999 -9999 -9999 -9999 -9999 -9999 -9999 -9999 -9999 -9999 -9999 -9999 -9999 -9999 -9999 -9999 -9999 -9999 -9999 -9999 -9999 -9999 -9999 -9999 -9999 -9999 -9999 -9999 -9999 -9999 -9999 -9999 -9999 -9999 -9999 -9999 -9999 -9999 -9999 -9999 -9999 -9999 -9999 -9999 -9999 -9999 -9999 -9999 -9999 -9999 -9999 -9999 -9999 -9999 -9999 -9999 -9999 -9999 -9999 -9999 -9999 -9999 -9999 -9999 -9999 -9999 -9999 -9999 -9999 -9999 -9999 -9999 -9999 -9999 -9999 -9999 -9999 -9999 -9999 -9999 -9999 -9999 -9999 -9999 -9999 -9999 -9999 -9999 -9999 -9999 -9999 -9999 -9999 -9999 -9999 -9999 -9999 -9999 -9999 -9999 -9999 -9999 -9999 -9999 -9999 -9999 -9999 -9999 -9999 -9999 -9999 -9999 -9999 -9999 -9999 -9999 -9999 -9999 -9999 -9999 -9999 -9999 -9999 -9999 -9999 -9999 -9999 -9999 -9999 -9999 -9999 -9999 -9999 -9999 -9999 -9999 -9999 -9999 -9999 -9999 -9999 -9999 -9999 -9999 -9999 -9999 -9999 -9999 -9999 -9999 -9999 -9999 -9999 -9999 -9999 -9999 -9999 -9999 -9999 -9999 -9999 -9999 -9999 -9999 -9999 -9999 -9999 -9999 -9999 -9999 -9999 -9999 -9999 -9999 -9999 -9999 -9999 -9999 -9999 -9999 -9999 -9999 -9999 -9999 -9999 -9999 -9999 -9999 -9999 -9999 -9999 -9999 -9999 -9999 -9999 -9999 -9999 -9999 -9999 -9999 -9999 -9999 -9999 -9999 -9999 -9999 -9999 -9999 -9999 -9999 -9999 -9999 -9999 -9999 -9999 -9999 -9999 -9999 -9999 -9999 -9999 -9999 -9999 -9999 -9999 -9999 -9999 -9999 -9999 -9999 -9999 -9999 -9999 -9999 -9999 -9999 -9999 -9999 -9999 -9999 -9999 -9999 -9999 12.0274914089347 12.0274914089347 12.0274914089347 8.67052023121387 8.67052023121387 8.67052023121387 5.34188034188034 5.34188034188034 5.34188034188034 7.95755968169761 7.95755968169761 7.95755968169761 16.5289256198347 7.67085076708508 7.67085076708508 7.67085076708508 14.7783251231527 14.7783251231527 32.6834862385321 32.6834862385321 32.6834862385321 13.1048387096774 13.1048387096774 13.1048387096774 13.1048387096774 32.7342747111682 32.7342747111682 32.7342747111682 17.0777988614801 17.0777988614801 17.0777988614801 53.2945736434108 28.5016286644951 28.5016286644951 28.5016286644951 28.5016286644951 28.5016286644951 28.5016286644951 28.5016286644951 28.5016286644951 28.5016286644951 28.5016286644951 28.5016286644951 28.5016286644951 28.5016286644951 28.5016286644951 28.5016286644951 28.5016286644951 28.5016286644951 12.0087336244541 12.0087336244541 12.0087336244541 11.6959064327485 11.6959064327485 11.6959064327485 8.63930885529158 8.63930885529158 8.63930885529158 11.6959064327485 11.6959064327485 11.6959064327485 11.6959064327485 7.53941055517478 7.53941055517478 7.53941055517478 8.18639798488665 8.18639798488665 8.18639798488665 8.18639798488665 0 14.2095914742451 14.2095914742451 14.2095914742451 0 8.73362445414847 8.73362445414847 8.73362445414847 0 0 0 0 2.08333333333333 2.08333333333333 2.08333333333333 -9999 -9999 2.08333333333333 2.08333333333333 2.08333333333333 -9999 -9999 -9999 2.55102040816327 2.55102040816327 2.55102040816327 2.55102040816327 2.55102040816327 2.55102040816327 2.55102040816327 2.55102040816327 0 0 0 0 0 0 7.28597449908925 3.2258064516129 -9999 -9999 -9999 -9999 -9999 -9999 -9999 -9999 -9999 -9999 -9999 -9999 -9999 -9999 -9999 -9999 -9999 -9999 -9999 -9999 -9999 -9999 -9999 -9999 -9999 -9999 -9999 -9999 -9999 -9999 -9999 -9999 -9999 -9999 -9999 -9999 -9999 -9999 -9999 -9999 -9999 -9999 -9999 -9999 -9999 -9999
-9999 -9999 -9999 -9999 -9999 -9999 -9999 -9999 -9999 -9999 -9999 -9999 -9999 -9999 -9999 -9999 -9999 -9999 -9999 -9999 -9999 -9999 -9999 -9999 -9999 -9999 -9999 -9999 -9999 -9999 -9999 -9999 -9999 -9999 -9999 -9999 -9999 -9999 -9999 -9999 -9999 -9999 -9999 -9999 -9999 -9999 -9999 -9999 -9999 -9999 -9999 -9999 -9999 -9999 -9999 -9999 -9999 -9999 -9999 -9999 -9999 -9999 -9999 -9999 -9999 -9999 -9999 -9999 -9999 -9999 -9999 -9999 -9999 -9999 -9999 -9999 -9999 -9999 -9999 -9999 -9999 -9999 -9999 -9999 -9999 -9999 -9999 -9999 -9999 -9999 -9999 -9999 -9999 -9999 -9999 -9999 -9999 -9999 -9999 -9999 -9999 -9999 -9999 -9999 -9999 -9999 -9999 -9999 -9999 -9999 -9999 -9999 -9999 -9999 -9999 -9999 -9999 -9999 -9999 -9999 -9999 -9999 -9999 -9999 -9999 -9999 -9999 -9999 -9999 -9999 -9999 -9999 -9999 -9999 -9999 -9999 -9999 -9999 -9999 -9999 -9999 -9999 -9999 -9999 -9999 -9999 -9999 -9999 -9999 -9999 -9999 -9999 -9999 -9999 -9999 -9999 -9999 -9999 -9999 -9999 -9999 -9999 -9999 -9999 -9999 -9999 -9999 -9999 -9999 -9999 -9999 -9999 -9999 -9999 -9999 -9999 -9999 -9999 -9999 -9999 -9999 -9999 -9999 -9999 -9999 -9999 -9999 -9999 -9999 -9999 -9999 -9999 -9999 -9999 -9999 -9999 -9999 -9999 -9999 -9999 -9999 -9999 -9999 -9999 -9999 -9999 -9999 -9999 -9999 -9999 -9999 -9999 -9999 -9999 -9999 -9999 -9999 -9999 -9999 -9999 -9999 -9999 -9999 -9999 -9999 -9999 -9999 -9999 -9999 -9999 -9999 -9999 -9999 -9999 -9999 -9999 -9999 -9999 -9999 -9999 -9999 -9999 -9999 -9999 -9999 -9999 -9999 -9999 -9999 -9999 -9999 -9999 -9999 -9999 -9999 -9999 -9999 -9999 -9999 -9999 0 0 14.0117994100295 12.0274914089347 8.67052023121387 8.67052023121387 8.67052023121387 5.34188034188034 5.34188034188034 0 0 7.95755968169761 16.5289256198347 16.5289256198347 16.5289256198347 16.5289256198347 7.67085076708508 7.67085076708508 25.5281690140845 25.5281690140845 25.5281690140845 32.6834862385321 13.1048387096774 13.1048387096774 13.1048387096774 7.59493670886076 7.59493670886076 23.2876712328767 15.9395973154362 23.3160621761658 23.3160621761658 23.3160621761658 24.031007751938 24.031007751938 24.031007751938 12.0240480961924 12.0240480961924 28.5016286644951 28.5016286644951 28.5016286644951 28.5016286644951 28.5016286644951 28.5016286644951 28.5016286644951 28.5016286644951 28.5016286644951 28.5016286644951 28.5016286644951 28.5016286644951 22.2222222222222 12.0087336244541 12.0087336244541 12.0087336244541 12.0087336244541 12.0087336244541 11.6959064327485 3.37837837837838 3.37837837837838 3.37837837837838 3.37837837837838 3.37837837837838 3.37837837837838 4.97512437810945 4.97512437810945 7.53941055517478 8.18639798488665 8.18639798488665 8.18639798488665 8.18639798488665 8.18639798488665 0 0 0 14.2095914742451 0 0 0 8.73362445414847 8.73362445414847 0 0 2.08333333333333 2.08333333333333 2.08333333333333 2.08333333333333 -9999 2.08333333333333 2.08333333333333 2.08333333333333 2.08333333333333 2.08333333333333 2.08333333333333 2.08333333333333 2.55102040816327 2.55102040816327 2.55102040816327 2.55102040816327 2.55102040816327 2.55102040816327 2.55102040816327 0 0 0 0 5.56792873051225 5.56792873051225 5.56792873051225 5.56792873051225 3.2258064516129 5.90551181102362 5.90551181102362 3.2258064516129 -9999 -9999 -9999 -9999 -9999 -9999 -9999 -9999 -9999 -9999 -9999 -9999 -9999 -9999 -9999 -9999 -9999 -9999 -9999 -9999 -9999 -9999 -9999 -9999 -9999 -9999 -9999 -9999 -9999 -9999 -9999 -9999 -9999 -9999 -9999 -9999 -9999 -9999 -9999 -9999 -9999 -9999 -9999
-9999 -9999 -9999 -9999 -9999 -9999 -9999 -9999 -9999 -9999 -9999 -9999 -9999 -9999 -9999 -9999 -9999 -9999 -9999 -9999 -9999 -9999 -9999 -9999 -9999 -9999 -9999 -9999 -9999 -9999 -9999 -9999 -9999 -9999 -9999 -9999 -9999 -9999 -9999 -9999 -9999 -9999 -9999 -9999 -9999 -9999 -9999 -9999 -9999 -9999 -9999 -9999 -9999 -9999 -9999 -9999 -9999 -9999 -9999 -9999 -9999 -9999 -9999 -9999 -9999 -9999 -9999 -9999 -9999 -9999 -9999 -9999 -9999 -9999 -9999 -9999 -9999 -9999 -9999 -9999 -9999 -9999 -9999 -9999 -9999 -9999 -9999 -9999 -9999 -9999 -9999 -9999 -9999 -9999 -9999 -9999 -9999 -9999 -9999 -9999 -9999 -9999 -9999 -9999 -9999 -9999 -9999 -9999 -9999 -9999 -9999 -9999 -9999 -9999 -9999 -9999 -9999 -9999 -9999 -9999 -9999 -9999 -9999 -9999 -9999 -9999 -9999 -9999 -9999 -9999 -9999 -9999 -9999 -9999 -9999 -9999 -9999 -9999 -9999 -9999 -9999 -9999 -9999 -9999 -9999 -9999 -9999 -9999 -9999 -9999 -9999 -9999 -9999 -9999 -9999 -9999 -9999 -9999 -9999 -9999 -9999 -9999 -9999 -9999 -9999 -9999 -9999 -9999 -9999 -9999 -9999 -9999 -9999 -9999 -9999 -9999 -9999 -9999 -9999 -9999 -9999 -9999 -9999 -9999 -9999 -9999 -9999 -9999 -9999 -9999 -9999 -9999 -9999 -9999 -9999 -9999 -9999 -9999 -9999 -9999 -9999 -9999 -9999 -9999 -9999 -9999 -9999 -9999 -9999 -9999 -9999 -9999 -9999 -9999 -9999 -9999 -9999 -9999 -9999 -9999 -9999 -9999 -9999 -9999 -9999 -9999 -9999 -9999 -9999 -9999 -9999 -9999 -9999 -9999 -9999 -9999 -9999 -9999 -9999 -9999 -9999 -9999 -9999 -9999 -9999 -9999 -9999 -9999 -9999 -9999 -9999 -9999 -9999 -9999 -9999 -9999 -9999 -9999 -9999 -9999 0 0 14.0117994100295 15.7232704402516 15.7232704402516 8.67052023121387 5.34188034188034 5.34188034188034 14.018691588785 0 0 11.4235500878735 16.5289256198347 16.5289256198347 16.5289256198347 7.67085076708508 7.67085076708508 25.6673511293634 19.2644483362522 19.2644483362522 25.5281690140845 25.5281690140845 4.46428571428571 4.46428571428571 21.6262975778547 9.1324200913242 25.1046025104602 15.5844155844156 15.9395973154362 15.9395973154362 15.9395973154362 20.9459459459459 20.9459459459459 20.9459459459459 24.364406779661 8.64779874213836 8.64779874213836 27.9661016949153 28.5016286644951 28.5016286644951 28.5016286644951 28.5016286644951 28.5016286644951 28.5016286644951 28.5016286644951 28.5016286644951 28.5016286644951 28.5016286644951 11.4503816793893 22.2222222222222 22.2222222222222 8.72093023255814 8.72093023255814 8.72093023255814 12.0087336244541 13.1348511383538 13.1348511383538 3.37837837837838 3.37837837837838 3.37837837837838 3.37837837837838 4.97512437810945 4.97512437810945 4.97512437810945 4.97512437810945 8.18639798488665 4.34782608695652 8.18639798488665 8.18639798488665 0 0 0 0 0 2.11864406779661 2.11864406779661 0 0 0 0 2.08333333333333 2.08333333333333 2.08333333333333 2.08333333333333 2.08333333333333 2.08333333333333 2.08333333333333 2.08333333333333 2.08333333333333 2.08333333333333 2.08333333333333 2.08333333333333 2.55102040816327 2.55102040816327 2.55102040816327 2.55102040816327 2.55102040816327 2.55102040816327 2.55102040816327 2.55102040816327 0 0 0 5.56792873051225 5.56792873051225 5.56792873051225 5.56792873051225 3.2258064516129 3.2258064516129 3.2258064516129 3.2258064516129 3.2258064516129 3.2258064516129 5.92216582064298 5.92216582064298 5.92216582064298 5.92216582064298 -9999 -9999 -9999 -9999 -9999 -9999 -9999 -9999 -9999 -9999 -9999 -9999 -9999 -9999 -9999 -9999 -9999 -9999 -9999 -9999 -9999 -9999 -9999 -9999 -9999 -9999 -9999 -9999 -9999 -9999 -9999 -9999 -9999 -9999 -9999 -9999 -9999 -9999
-9999 -9999 -9999 -9999 -9999 -9999 -9999 -9999 -9999 -9999 -9999 -9999 -9999 -9999 -9999 -9999 -9999 -9999 -9999 -9999 -9999 -9999 -9999 -9999 -9999 -9999 -9999 -9999 -9999 -9999 -9999 -9999 -9999 -9999 -9999 -9999 -9999 -9999 -9999 -9999 -9999 -9999 -9999 -9999 -9999 -9999 -9999 -9999 -9999 -9999 -9999 -9999 -9999 -9999 -9999 -9999 -9999 -9999 -9999 -9999 -9999 -9999 -9999 -9999 -9999 -9999 -9999 -9999 -9999 -9999 -9999 -9999 -9999 -9999 -9999 -9999 -9999 -9999 -9999 -9999 -9999 -9999 -9999 -9999 -9999 -9999 -9999 -9999 -9999 -9999 -9999 -9999 -9999 -9999 -9999 -9999 -9999 -9999 -9999 -9999 -9999 -9999 -9999 -9999 -9999 -9999 -9999 -9999 -9999 -9999 -9999 -9999 -9999 -9999 -9999 -9999 -9999 -9999 -9999 -9999 -9999 -9999 -9999 -9999 -9999 -9999 -9999 -9999 -9999 -9999 -9999 -9999 -9999 -9999 -9999 -9999 -9999 -9999 -9999 -9999 -9999 -9999 -9999 -9999 -9999 -9999 -9999 -9999 -9999 -9999 -9999 -9999 -9999 -9999 -9999 -9999 -9999 -9999 -9999 -9999 -9999 -9999 -9999 -9999 -9999 -9999 -9999 -9999 -9999 -9999 -9999 -9999 -9999 -9999 -9999 -9999 -9999 -9999 -9999 -9999 -9999 -9999 -9999 -9999 -9999 -9999 -9999 -9999 -9999 -9999 -9999 -9999 -9999 -9999 -9999 -9999 -9999 -9999 -9999 -9999 -9999 -9999 -9999 -9999 -9999 -9999 -9999 -9999 -9999 -9999 -9999 -9999 -9999 -9999 -9999 -9999 -9999 -9999 -9999 -9999 -9999 -9999 -9999 -9999 -9999 -9999 -9999 -9999 -9999 -9999 -9999 -9999 -9999 -9999 -9999 -9999 -9999 -9999 -9999 -9999 -9999 -9999 -9999 -9999 -9999 -9999 -9999 -9999 -9999 -9999 -9999 -9999 -9999 -9999 -9999 -9999 -9999 -9999 -9999 0 0 0 14.0117994100295 15.7232704402516 15.7232704402516 15.7232704402516 15.7232704402516 15.7232704402516 14.018691588785 14.018691588785 14.018691588785 11.4235500878735 11.4235500878735 11.4235500878735 8.56164383561644 8.56164383561644 7.67085076708508 25.6673511293634 25.6673511293634 19.2644483362522 19.2644483362522 4.46428571428571 4.46428571428571 21.6262975778547 21.6262975778547 21.6262975778547 21.6262975778547 21.6262975778547 15.5844155844156 15.5844155844156 34.136546184739 23.1660231660232 23.1660231660232 35.9281437125749 35.9281437125749 35.9281437125749 24.364406779661 24.364406779661 13.9968895800933 28.5016286644951 28.5016286644951 28.5016286644951 28.5016286644951 28.5016286644951 28.5016286644951 28.5016286644951 28.5016286644951 11.4503816793893 11.4503816793893 11.4503816793893 11.4503816793893 8.72093023255814 8.72093023255814 8.72093023255814 8.72093023255814 13.1348511383538 13.1348511383538 19.5035460992908 19.5035460992908 19.5035460992908 4.97512437810945 4.97512437810945 4.97512437810945 4.97512437810945 -9999 -9999 4.34782608695652 4.34782608695652 4.34782608695652 9.52380952380952 0 0 0 2.11864406779661 2.11864406779661 2.11864406779661 2.11864406779661 2.11864406779661 2.11864406779661 -9999 -9999 -9999 -9999 2.08333333333333 2.08333333333333 2.08333333333333 2.08333333333333 2.08333333333333 2.08333333333333 2.08333333333333 2.08333333333333 -9999 2.55102040816327 2.55102040816327 2.55102040816327 2.55102040816327 2.55102040816327 2.55102040816327 2.55102040816327 0 0 0 0 5.56792873051225 5.56792873051225 5.56792873051225 5.56792873051225 3.2258064516129 3.2258064516129 3.2258064516129 3.2258064516129 3.2258064516129 3.2258064516129 3.2258064516129 3.2258064516129 3.2258064516129 -9999 -9999 -9999 -9999 -9999 -9999 -9999 -9999 -9999 -9999 -9999 -9999 -9999 -9999 -9999 -9999 -9999 -9999 -9999 -9999 -9999 -9999 -9999 -9999 -9999 -9999 -9999 -9999 -9999 -9999 -9999 -9999 -9999 -9999 -9999 -9999 -9999 -9999 -9999
-9999 -9999 -9999 -9999 -9999 -9999 -9999 -9999 -9999 -9999 -9999 -9999 -9999 -9999 -9999 -9999 -9999 -9999 -9999 -9999 -9999 -9999 -9999 -9999 -9999 -9999 -9999 -9999 -9999 -9999 -9999 -9999 -9999 -9999 -9999 -9999 -9999 -9999 -9999 -9999 -9999 -9999 -9999 -9999 -9999 -9999 -9999 -9999 -9999 -9999 -9999 -9999 -9999 -9999 -9999 -9999 -9999 -9999 -9999 -9999 -9999 -9999 -9999 -9999 -9999 -9999 -9999 -9999 -9999 -9999 -9999 -9999 -9999 -9999 -9999 -9999 -9999 -9999 -9999 -9999 -9999 -9999 -9999 -9999 -9999 -9999 -9999 -9999 -9999 -9999 -9999 -9999 -9999 -9999 -9999 -9999 -9999 -9999 -9999 -9999 -9999 -9999 -9999 -9999 -9999 -9999 -9999 -9999 -9999 -9999 -9999 -9999 -9999 -9999 -9999 -9999 -9999 -9999 -9999 -9999 -9999 -9999 -9999 -9999 -9999 -9999 -9999 -9999 -9999 -9999 -9999 -9999 -9999 -9999 -9999 -9999 -9999 -9999 -9999 -9999 -9999 -9999 -9999 -9999 -9999 -9999 -9999 -9999 -9999 -9999 -9999 -9999 -9999 -9999 -9999 -9999 -9999 -9999 -9999 -9999 -9999 -9999 -9999 -9999 -9999 -9999 -9999 -9999 -9999 -9999 -9999 -9999 -9999 -9999 -9999 -9999 -9999 -9999 -9999 -9999 -9999 -9999 -9999 -9999 -9999 -9999 -9999 -9999 -9999 -9999 -9999 -9999 -9999 -9999 -9999 -9999 -9999 -9999 -9999 -9999 -9999 -9999 -9999 -9999 -9999 -9999 -9999 -9999 -9999 -9999 -9999 -9999 -9999 -9999 -9999 -9999 -9999 -9999 -9999 -9999 -9999 -9999 -9999 -9999 -9999 -9999 -9999 -9999 -9999 -9999 -9999 -9999 -9999 -9999 -9999 -9999 -9999 -9999 -9999 -9999 -9999 -9999 -9999 -9999 -9999 -9999 -9999 -9999 -9999 -9999 -9999 -9999 -9999 -9999 -9999 -9999 -9999 -9999 -9999 0 0 16.7785234899329 15.7232704402516 14.8514851485149 0 15.7232704402516 15.7232704402516 14.5631067961165 14.5631067961165 14.5631067961165 11.4235500878735 11.4235500878735 11.4235500878735 8.56164383561644 8.56164383561644 8.56164383561644 4.46428571428571 25.6673511293634 4.46428571428571 4.46428571428571 4.46428571428571 4.46428571428571 21.6262975778547 21.6262975778547 21.6262975778547 21.6262975778547 21.6262975778547 21.6262975778547 21.6262975778547 34.136546184739 34.136546184739 34.136546184739 34.136546184739 35.9281437125749 35.9281437125749 35.9281437125749 34.136546184739 34.136546184739 24.364406779661 24.364406779661 13.9968895800933 24.8565965583174 24.8565965583174 28.5016286644951 28.5016286644951 28.5016286644951 3.76506024096386 3.76506024096386 11.4503816793893 11.4503816793893 11.4503816793893 11.4503816793893 11.4503816793893 8.72093023255814 8.72093023255814 8.72093023255814 19.5035460992908 19.5035460992908 19.5035460992908 19.5035460992908 19.5035460992908 19.5035460992908 4.97512437810945 -9999 12.9198966408269 12.9198966408269 10.482180293501 -9999 0 8.08314087759815 8.08314087759815 9.52380952380952 2.11864406779661 2.11864406779661 2.11864406779661 2.11864406779661 2.11864406779661 2.11864406779661 -9999 -9999 -9999 -9999 -9999 -9999 -9999 -9999 2.08333333333333 2.08333333333333 2.08333333333333 2.08333333333333 2.08333333333333 -9999 -9999 -9999 -9999 2.55102040816327 2.55102040816327 2.55102040816327 2.55102040816327 2.55102040816327 2.55102040816327 2.55102040816327 5.56792873051225 5.56792873051225 5.56792873051225 5.56792873051225 3.2258064516129 3.2258064516129 3.2258064516129 3.2258064516129 3.2258064516129 3.2258064516129 3.2258064516129 3.2258064516129 3.2258064516129 3.2258064516129 -9999 -9999 -9999 -9999 -9999 -9999 -9999 -9999 -9999 -9999 -9999 -9999 -9999 -9999 -9999 -9999 -9999 -9999 -9999 -9999 -9999 -9999 -9999 -9999 -9999 -9999 -9999 -9999 -9999 -9999 -9999 -9999 -9999 -9999 -9999 -9999 -9999 -9999 -9999
-9999 -9999 -9999 -9999 -9999 -9999 -9999 -9999 -9999 -9999 -9999 -9999 -9999 -9999 -9999 -9999 -9999 -9999 -9999 -9999 -9999 -9999 -9999 -9999 -9999 -9999 -9999 -9999 -9999 -9999 -9999 -9999 -9999 -9999 -9999 -9999 -9999 -9999 -9999 -9999 -9999 -9999 -9999 -9999 -9999 -9999 -9999 -9999 -9999 -9999 -9999 -9999 -9999 -9999 -9999 -9999 -9999 -9999 -9999 -9999 -9999 -9999 -9999 -9999 -9999 -9999 -9999 -9999 -9999 -9999 -9999 -9999 -9999 -9999 -9999 -9999 -9999 -9999 -9999 -9999 -9999 -9999 -9999 -9999 -9999 -9999 -9999 -9999 -9999 -9999 -9999 -9999 -9999 -9999 -9999 -9999 -9999 -9999 -9999 -9999 -9999 -9999 -9999 -9999 -9999 -9999 -9999 -9999 -9999 -9999 -9999 -9999 -9999 -9999 -9999 -9999 -9999 -9999 -9999 -9999 -9999 -9999 -9999 -9999 -9999 -9999 -9999 -9999 -9999 -9999 -9999 -9999 -9999 -9999 -9999 -9999 -9999 -9999 -9999 -9999 -9999 -9999 -9999 -9999 -9999 -9999 -9999 -9999 -9999 -9999 -9999 -9999 -9999 -9999 -9999 -9999 -9999 -9999 -9999 -9999 -9999 -9999 -9999 -9999 -9999 -9999 -9999 -9999 -9999 -9999 -9999 -9999 -9999 -9999 -9999 -9999 -9999 -9999 -9999 -9999 -9999 -9999 -9999 -9999 -9999 -9999 -9999 -9999 -9999 -9999 -9999 -9999 -9999 -9999 -9999 -9999 -9999 -9999 -9999 -9999 -9999 -9999 -9999 -9999 -9999 -9999 -9999 -9999 -9999 -9999 -9999 -9999 -9999 -9999 -9999 -9999 -9999 -9999 -9999 -9999 -9999 -9999 -9999 -9999 -9999 -9999 -9999 -9999 -9999 -9999 -9999 -9999 -9999 -9999 -9999 -9999 -9999 -9999 -9999 -9999 -9999 -9999 -9999 -9999 -9999 -9999 -9999 -9999 -9999 -9999 -9999 -9999 -9999 -9999 -9999 -9999 -9999 -9999 -9999 0 16.7785234899329 16.7785234899329 14.8514851485149 14.8514851485149 0 0 0 4.31034482758621 14.5631067961165 12.0101137800253 12.0101137800253 12.0101137800253 10.8359133126935 8.56164383561644 8.56164383561644 4.46428571428571 4.46428571428571 4.46428571428571 4.46428571428571 4.46428571428571 4.46428571428571 21.6262975778547 21.6262975778547 21.6262975778547 21.6262975778547 21.6262975778547 21.6262975778547 21.6262975778547 34.136546184739 34.136546184739 34.136546184739 34.136546184739 34.136546184739 34.136546184739 34.136546184739 34.136546184739 34.136546184739 34.136546184739 22.5933202357564 22.5933202357564 22.5933202357564 24.8565965583174 24.8565965583174 24.8565965583174 24.8565965583174 3.76506024096386 3.76506024096386 3.76506024096386 3.76506024096386 16.20029455081 11.4503816793893 11.4503816793893 7.65696784073507 7.65696784073507 7.65696784073507 19.5035460992908 19.5035460992908 19.5035460992908 21.0727969348659 21.0727969348659 21.0727969348659 19.5035460992908 19.5035460992908 4.76947535771065 4.76947535771065 12.9198966408269 12.9198966408269 11.7647058823529 11.7647058823529 11.7647058823529 11.7647058823529 9.71502590673575 9.71502590673575 2.11864406779661 2.11864406779661 9.54478707782673 9.54478707782673 -9999 -9999 -9999 -9999 -9999 -9999 -9999 -9999 -9999 -9999 -9999 -9999 2.08333333333333 -9999 -9999 -9999 -9999 -9999 -9999 -9999 -9999 2.55102040816327 2.55102040816327 2.55102040816327 5.56792873051225 5.56792873051225 5.56792873051225 5.56792873051225 5.56792873051225 3.2258064516129 3.2258064516129 3.2258064516129 3.2258064516129 3.2258064516129 3.2258064516129 3.2258064516129 3.2258064516129 3.2258064516129 3.2258064516129 -9999 -9999 -9999 -9999 -9999 -9999 -9999 -9999 -9999 -9999 -9999 -9999 -9999 -9999 -9999 -9999 -9999 -9999 -9999 -9999 -9999 -9999 -9999 -9999 -9999 -9999 -9999 -9999 -9999 -9999 -9999 -9999 -9999 -9999 -9999 -9999 -9999 -9999 -9999
-9999 -9999 -9999 -9999 -9999 -9999 -9999 -9999 -9999 -9999 -9999 -9999 -9999 -9999 -9999 -9999 -9999 -9999 -9999 -9999 -9999 -9999 -9999 -9999 -9999 -9999 -9999 -9999 -9999 -9999 -9999 -9999 -9999 -9999 -9999 -9999 -9999 -9999 -9999 -9999 -9999 -9999 -9999 -9999 -9999 -9999 -9999 -9999 -9999 -9999 -9999 -9999 -9999 -9999 -9999 -9999 -9999 -9999 -9999 -9999 -9999 -9999 -9999 -9999 -9999 -9999 -9999 -9999 -9999 -9999 -9999 -9999 -9999 -9999 -9999 -9999 -9999 -9999 -9999 -9999 -9999 -9999 -9999 -9999 -9999 -9999 -9999 -9999 -9999 -9999 -9999 -9999 -9999 -9999 -9999 -9999 -9999 -9999 -9999 -9999 -9999 -9999 -9999 -9999 -9999 -9999 -9999 -9999 -9999 -9999 -9999 -9999 -9999 -9999 -9999 -9999 -9999 -9999 -9999 -9999 -9999 -9999 -9999 -9999 -9999 -9999 -9999 -9999 -9999 -9999 -9999 -9999 -9999 -9999 -9999 -9999 -9999 -9999 -9999 -9999 -9999 -9999 -9999 -9999 -9999 -9999 -9999 -9999 -9999 -9999 -9999 -9999 -9999 -9999 -9999 -9999 -9999 -9999 -9999 -9999 -9999 -9999 -9999 -9999 -9999 -9999 -9999 -9999 -9999 -9999 -9999 -9999 -9999 -9999 -9999 -9999 -9999 -9999 -9999 -9999 -9999 -9999 -9999 -9999 -9999 -9999 -9999 -9999 -9999 -9999 -9999 -9999 -9999 -9999 -9999 -9999 -9999 -9999 -9999 -9999 -9999 -9999 -9999 -9999 -9999 -9999 -9999 -9999 -9999 -9999 -9999 -9999 -9999 -9999 -9999 -9999 -9999 -9999 -9999 -9999 -9999 -9999 -9999 -9999 -9999 -9999 -9999 -9999 -9999 -9999 -9999 -9999 -9999 -9999 -9999 -9999 -9999 -9999 -9999 -9999 -9999 -9999 -9999 -9999 -9999 -9999 -9999 -9999 -9999 -9999 -9999 -9999 -9999 -9999 -9999 -9999 -9999 -9999 -9999 16.7785234899329 16.7785234899329 22.3529411764706 22.3529411764706 0 0 0 4.31034482758621 4.31034482758621 4.31034482758621 4.31034482758621 12.0101137800253 12.0101137800253 10.8359133126935 10.8359133126935 0 4.46428571428571 4.46428571428571 4.46428571428571 4.46428571428571 4.46428571428571 4.46428571428571 21.6262975778547 21.6262975778547 21.6262975778547 21.6262975778547 21.6262975778547 21.6262975778547 34.136546184739 34.136546184739 34.136546184739 34.136546184739 34.136546184739 34.136546184739 34.136546184739 34.136546184739 34.136546184739 34.136546184739 34.136546184739 23.8500851788756 23.8500851788756 22.5933202357564 23.3100233100233 23.3100233100233 24.8565965583174 22.9885057471264 22.9885057471264 22.9885057471264 3.76506024096386 3.76506024096386 16.20029455081 16.20029455081 6.28930817610063 7.65696784073507 6.28930817610063 7.65696784073507 9.51557093425606 9.51557093425606 7.65696784073507 21.0727969348659 21.0727969348659 21.0727969348659 21.0727969348659 28.8461538461538 28.8461538461538 4.76947535771065 4.76947535771065 11.5115115115115 11.5115115115115 11.5115115115115 11.5115115115115 0 0 9.71502590673575 9.71502590673575 9.71502590673575 9.71502590673575 -9999 -9999 -9999 -9999 -9999 -9999 -9999 -9999 -9999 -9999 -9999 -9999 -9999 -9999 -9999 -9999 -9999 -9999 -9999 -9999 -9999 -9999 -9999 -9999 -9999 5.56792873051225 5.56792873051225 5.56792873051225 5.56792873051225 3.2258064516129 3.2258064516129 3.2258064516129 3.2258064516129 3.2258064516129 3.2258064516129 3.2258064516129 3.2258064516129 3.2258064516129 3.2258064516129 -9999 -9999 -9999 -9999 -9999 -9999 -9999 -9999 -9999 -9999 -9999 -9999 -9999 -9999 -9999 -9999 -9999 -9999 -9999 -9999 -9999 -9999 -9999 -9999 -9999 -9999 -9999 -9999 -9999 -9999 -9999 -9999 -9999 -9999 -9999 -9999 -9999 -9999 -9999 -9999
-9999 -9999 -9999 -9999 -9999 -9999 -9999 -9999 -9999 -9999 -9999 -9999 -9999 -9999 -9999 -9999 -9999 -9999 -9999 -9999 -9999 -9999 -9999 -9999 -9999 -9999 -9999 -9999 -9999 -9999 -9999 -9999 -9999 -9999 -9999 -9999 -9999 -9999 -9999 -9999 -9999 -9999 -9999 -9999 -9999 -9999 -9999 -9999 -9999 -9999 -9999 -9999 -9999 -9999 -9999 -9999 -9999 -9999 -9999 -9999 -9999 -9999 -9999 -9999 -9999 -9999 -9999 -9999 -9999 -9999 -9999 -9999 -9999 -9999 -9999 -9999 -9999 -9999 -9999 -9999 -9999 -9999 -9999 -9999 -9999 -9999 -9999 -9999 -9999 -9999 -9999 -9999 -9999 -9999 -9999 -9999 -9999 -9999 -9999 -9999 -9999 -9999 -9999 -9999 -9999 -9999 -9999 -9999 -9999 -9999 -9999 -9999 -9999 -9999 -9999 -9999 -9999 -9999 -9999 -9999 -9999 -9999 -9999 -9999 -9999 -9999 -9999 -9999 -9999 -9999 -9999 -9999 -9999 -9999 -9999 -9999 -9999 -9999 -9999 -9999 -9999 -9999 -9999 -9999 -9999 -9999 -9999 -9999 -9999 -9999 -9999 -9999 -9999 -9999 -9999 -9999 -9999 -9999 -9999 -9999 -9999 -9999 -9999 -9999 -9999 -9999 -9999 -9999 -9999 -9999 -9999 -9999 -9999 -9999 -9999 -9999 -9999 -9999 -9999 -9999 -9999 -9999 -9999 -9999 -9999 -9999 -9999 -9999 -9999 -9999 -9999 -9999 -9999 -9999 -9999 -9999 -9999 -9999 -9999 -9999 -9999 -9999 -9999 -9999 -9999 -9999 -9999 -9999 -9999 -9999 -9999 -9999 -9999 -9999 -9999 -9999 -9999 -9999 -9999 -9999 -9999 -9999 -9999 -9999 -9999 -9999 -9999 -9999 -9999 -9999 -9999 -9999 -9999 -9999 -9999 -9999 -9999 -9999 -9999 -9999 -9999 -9999 -9999 -9999 -9999 -9999 -9999 -9999 -9999 -9999 -9999 -9999 -9999 -9999 -9999 -9999 3.690036900369 3.690036900369 3.690036900369 3.690036900369 3.690036900369 22.3529411764706 0 0 0 2.13371266002845 2.13371266002845 2.13371266002845 4.31034482758621 4.31034482758621 4.87012987012987 4.87012987012987 10.8359133126935 10.8359133126935 0 0 0 4.46428571428571 4.46428571428571 4.46428571428571 21.6262975778547 21.6262975778547 21.6262975778547 21.6262975778547 21.6262975778547 21.6262975778547 34.136546184739 34.136546184739 34.136546184739 34.136546184739 34.136546184739 34.136546184739 34.136546184739 34.136546184739 34.136546184739 34.136546184739 34.136546184739 34.136546184739 34.136546184739 23.8500851788756 23.8500851788756 23.8500851788756 23.3100233100233 23.3100233100233 2.56849315068493 22.9885057471264 22.9885057471264 14.34034416826 14.34034416826 3.76506024096386 6.28930817610063 6.28930817610063 6.28930817610063 6.28930817610063 9.58188153310105 9.58188153310105 9.51557093425606 7.65696784073507 7.65696784073507 7.65696784073507 21.0727969348659 9.27835051546392 10.1351351351351 10.1351351351351 10.1351351351351 6.56167979002625 6.56167979002625 11.5115115115115 11.5115115115115 9.72222222222222 9.72222222222222 0 0 4.45632798573975 4.45632798573975 -9999 -9999 -9999 -9999 -9999 -9999 -9999 -9999 -9999 -9999 -9999 -9999 -9999 -9999 -9999 -9999 -9999 -9999 -9999 -9999 -9999 -9999 -9999 -9999 -9999 0 0 0 0 5.56792873051225 3.2258064516129 3.2258064516129 3.2258064516129 3.2258064516129 3.2258064516129 3.2258064516129 3.2258064516129 3.2258064516129 3.2258064516129 3.2258064516129 -9999 -9999 -9999 -9999 -9999 -9999 -9999 -9999 -9999 -9999 -9999 -9999 -9999 -9999 -9999 -9999 -9999 -9999 -9999 -9999 -9999 -9999 -9999 -9999 -9999 -9999 -9999 -9999 -9999 -9999 -9999 -9999 -9999 -9999 -9999 -9999 -9999 -9999 -9999 -9999
-9999 -9999 -9999 -9999 -9999 -9999 -9999 -9999 -9999 -9999 -9999 -9999 -9999 -9999 -9999 -9999 -9999 -9999 -9999 -9999 -9999 -9999 -9999 -9999 -9999 -9999 -9999 -9999 -9999 -9999 -9999 -9999 -9999 -9999 -9999 -9999 -9999 -9999 -9999 -9999 -9999 -9999 -9999 -9999 -9999 -9999 -9999 -9999 -9999 -9999 -9999 -9999 -9999 -9999 -9999 -9999 -9999 -9999 -9999 -9999 -9999 -9999 -9999 -9999 -9999 -9999 -9999 -9999 -9999 -9999 -9999 -9999 -9999 -9999 -9999 -9999 -9999 -9999 -9999 -9999 -9999 -9999 -9999 -9999 -9999 -9999 -9999 -9999 -9999 -9999 -9999 -9999 -9999 -9999 -9999 -9999 -9999 -9999 -9999 -9999 -9999 -9999 -9999 -9999 -9999 -9999 -9999 -9999 -9999 -9999 -9999 -9999 -9999 -9999 -9999 -9999 -9999 -9999 -9999 -9999 -9999 -9999 -9999 -9999 -9999 -9999 -9999 -9999 -9999 -9999 -9999 -9999 -9999 -9999 -9999 -9999 -9999 -9999 -9999 -9999 -9999 -9999 -9999 -9999 -9999 -9999 -9999 -9999 -9999 -9999 -9999 -9999 -9999 -9999 -9999 -9999 -9999 -9999 -9999 -9999 -9999 -9999 -9999 -9999 -9999 -9999 -9999 -9999 -9999 -9999 -9999 -9999 -9999 -9999 -9999 -9999 -9999 -9999 -9999 -9999 -9999 -9999 -9999 -9999 -9999 -9999 -9999 -9999 -9999 -9999 -9999 -9999 -9999 -9999 -9999 -9999 -9999 -9999 -9999 -9999 -9999 -9999 -9999 -9999 -9999 -9999 -9999 -9999 -9999 -9999 -9999 -9999 -9999 -9999 -9999 -9999 -9999 -9999 -9999 -9999 -9999 -9999 -9999 -9999 -9999 -9999 -9999 -9999 -9999 -9999 -9999 -9999 -9999 -9999 -9999 -9999 -9999 -9999 -9999 -9999 -9999 -9999 -9999 -9999 -9999 -9999 -9999 -9999 -9999 -9999 -9999 -9999 -9999 -9999 3.690036900369 3.690036900369 3.690036900369 1.81818181818182 3.0241935483871 3.0241935483871 3.45423143350604 3.45423143350604 3.45423143350604 3.45423143350604 3.45423143350604 2.13371266002845 2.13371266002845 2.13371266002845 2.13371266002845 2.13371266002845 4.87012987012987 4.87012987012987 10.8359133126935 0 0 0 0 0 0 0 21.6262975778547 21.6262975778547 21.6262975778547 21.6262975778547 21.6262975778547 34.136546184739 34.136546184739 34.136546184739 34.136546184739 34.136546184739 34.136546184739 34.136546184739 34.136546184739 34.136546184739 34.136546184739 34.136546184739 34.136546184739 34.136546184739 34.136546184739 23.8500851788756 23.8500851788756 23.8500851788756 23.8500851788756 2.56849315068493 2.56849315068493 2.56849315068493 2.56849315068493 2.56849315068493 14.34034416826 14.34034416826 6.28930817610063 6.28930817610063 6.28930817610063 16.6340508806262 9.58188153310105 9.58188153310105 18.8172043010753 18.8172043010753 7.65696784073507 9.27835051546392 9.27835051546392 9.27835051546392 9.27835051546392 9.27835051546392 2.11267605633803 2.11267605633803 5.8411214953271 5.8411214953271 3.95114942528736 3.95114942528736 3.95114942528736 9.72222222222222 9.72222222222222 4.45632798573975 4.45632798573975 -9999 -9999 -9999 -9999 -9999 -9999 -9999 -9999 -9999 -9999 -9999 -9999 -9999 -9999 -9999 -9999 -9999 -9999 -9999 -9999 -9999 -9999 5.67260940032415 -9999 -9999 0 0 0 0 -9999 -9999 -9999 3.2258064516129 3.2258064516129 3.2258064516129 3.2258064516129 3.2258064516129 3.2258064516129 3.2258064516129 -9999 -9999 -9999 -9999 -9999 -9999 -9999 -9999 -9999 -9999 -9999 -9999 -9999 -9999 -9999 -9999 -9999 -9999 -9999 -9999 -9999 -9999 -9999 -9999 -9999 -9999 -9999 -9999 -9999 -9999 -9999 -9999 -9999 -9999 -9999 -9999 -9999 -9999 -9999 -9999 -9999
-9999 -9999 -9999 -9999 -9999 -9999 -9999 -9999 -9999 -9999 -9999 -9999 -9999 -9999 -9999 -9999 -9999 -9999 -9999 -9999 -9999 -9999 -9999 -9999 -9999 -9999 -9999 -9999 -9999 -9999 -9999 -9999 -9999 -9999 -9999 -9999 -9999 -9999 -9999 -9999 -9999 -9999 -9999 -9999 -9999 -9999 -9999 -9999 -9999 -9999 -9999 -9999 -9999 -9999 -9999 -9999 -9999 -9999 -9999 -9999 -9999 -9999 -9999 -9999 -9999 -9999 -9999 -9999 -9999 -9999 -9999 -9999 -9999 -9999 -9999 -9999 -9999 -9999 -9999 -9999 -9999 -9999 -9999 -9999 -9999 -9999 -9999 -9999 -9999 -9999 -9999 -9999 -9999 -9999 -9999 -9999 -9999 -9999 -9999 -9999 -9999 -9999 -9999 -9999 -9999 -9999 -9999 -9999 -9999 -9999 -9999 -9999 -9999 -9999 -9999 -9999 -9999 -9999 -9999 -9999 -9999 -9999 -9999 -9999 -9999 -9999 -9999 -9999 -9999 -9999 -9999 -9999 -9999 -9999 -9999 -9999 -9999 -9999 -9999 -9999 -9999 -9999 -9999 -9999 -9999 -9999 -9999 -9999 -9999 -9999 -9999 -9999 -9999 -9999 -9999 -9999 -9999 -9999 -9999 -9999 -9999 -9999 -9999 -9999 -9999 -9999 -9999 -9999 -9999 -9999 -9999 -9999 -9999 -9999 -9999 -9999 -9999 -9999 -9999 -9999 -9999 -9999 -9999 -9999 -9999 -9999 -9999 -9999 -9999 -9999 -9999 -9999 -9999 -9999 -9999 -9999 -9999 -9999 -9999 -9999 -9999 -9999 -9999 -9999 -9999 -9999 -9999 -9999 -9999 -9999 -9999 -9999 -9999 -9999 -9999 -9999 -9999 -9999 -9999 -9999 -9999 -9999 -9999 -9999 -9999 -9999 -9999 -9999 -9999 -9999 -9999 -9999 -9999 -9999 -9999 -9999 -9999 -9999 -9999 -9999 -9999 -9999 -9999 -9999 -9999 -9999 -9999 -9999 -9999 -9999 -9999 -9999 -9999 3.690036900369 3.690036900369 3.690036900369 3.690036900369 1.81818181818182 1.81818181818182 1.81818181818182 1.81818181818182 0 0 3.45423143350604 6.42398286937901 6.42398286937901 6.42398286937901 15.2963671128107 2.13371266002845 2.13371266002845 2.13371266002845 2.13371266002845 0 0 0 0 0 0 0 4.51467268623025 4.51467268623025 4.51467268623025 21.6262975778547 21.6262975778547 34.136546184739 34.136546184739 34.136546184739 34.136546184739 34.136546184739 34.136546184739 34.136546184739 34.136546184739 34.136546184739 34.136546184739 34.136546184739 34.136546184739 34.136546184739 34.136546184739 34.136546184739 34.136546184739 34.136546184739 34.136546184739 25.4777070063694 2.56849315068493 2.56849315068493 10.989010989011 9.68992248062016 9.68992248062016 9.68992248062016 9.68992248062016 8.91089108910891 8.91089108910891 5.30035335689046 16.6340508806262 16.6340508806262 18.3946488294314 18.8172043010753 18.8172043010753 16.7832167832168 9.27835051546392 9.27835051546392 9.27835051546392 9.27835051546392 2.11267605633803 2.11267605633803 2.11267605633803 2.11267605633803 2.11267605633803 3.95114942528736 3.95114942528736 3.95114942528736 8.40879689521345 8.40879689521345 8.40879689521345 -9999 -9999 -9999 -9999 -9999 -9999 -9999 -9999 -9999 -9999 -9999 -9999 -9999 -9999 -9999 -9999 -9999 -9999 -9999 -9999 -9999 -9999 4.3640897755611 5.67260940032415 5.67260940032415 0 0 0 0 0 -9999 -9999 -9999 -9999 -9999 -9999 3.2258064516129 3.2258064516129 3.2258064516129 3.2258064516129 -9999 -9999 -9999 -9999 -9999 -9999 -9999 -9999 -9999 -9999 -9999 -9999 -9999 -9999 -9999 -9999 -9999 -9999 -9999 -9999 -9999 -9999 -9999 -9999 -9999 -9999 -9999 -9999 -9999 -9999 -9999 -9999 -9999 -9999 -9999 -9999 -9999 -9999 -9999 -9999 -9999
-9999 -9999 -9999 -9999 -9999 -9999 -9999 -9999 -9999 -9999 -9999 -9999 -9999 -9999 -9999 -9999 -9999 -9999 -9999 -9999 -9999 -9999 -9999 -9999 -9999 -9999 -9999 -9999 -9999 -9999 -9999 -9999 -9999 -9999 -9999 -9999 -9999 -9999 -9999 -9999 -9999 -9999 -9999 -9999 -9999 -9999 -9999 -9999 -9999 -9999 -9999 -9999 -9999 -9999 -9999 -9999 -9999 -9999 -9999 -9999 -9999 -9999 -9999 -9999 -9999 -9999 -9999 -9999 -9999 -9999 -9999 -9999 -9999 -9999 -9999 -9999 -9999 -9999 -9999 -9999 -9999 -9999 -9999 -9999 -9999 -9999 -9999 -9999 -9999 -9999 -9999 -9999 -9999 -9999 -9999 -9999 -9999 -9999 -9999 -9999 -9999 -9999 -9999 -9999 -9999 -9999 -9999 -9999 -9999 -9999 -9999 -9999 -9999 -9999 -9999 -9999 -9999 -9999 -9999 -9999 -9999 -9999 -9999 -9999 -9999 -9999 -9999 -9999 -9999 -9999 -9999 -9999 -9999 -9999 -9999 -9999 -9999 -9999 -9999 -9999 -9999 -9999 -9999 -9999 -9999 -9999 -9999 -9999 -9999 -9999 -9999 -9999 -9999 -9999 -9999 -9999 -9999 -9999 -9999 -9999 -9999 -9999 -9999 -9999 -9999 -9999 -9999 -9999 -9999 -9999 -9999 -9999 -9999 -9999 -9999 -9999 -9999 -9999 -9999 -9999 -9999 -9999 -9999 -9999 -9999 -9999 -9999 -9999 -9999 -9999 -9999 -9999 -9999 -9999 -9999 -9999 -9999 -9999 -9999 -9999 -9999 -9999 -9999 -9999 -9999 -9999 -9999 -9999 -9999 -9999 -9999 -9999 -9999 -9999 -9999 -9999 -9999 -9999 -9999 -9999 -9999 -9999 -9999 -9999 -9999 -9999 -9999 -9999 -9999 -9999 -9999 -9999 -9999 -9999 -9999 -9999 -9999 -9999 -9999 -9999 -9999 -9999 -9999 -9999 -9999 -9999 -9999 -9999 -9999 -9999 -9999 -9999 0 3.690036900369 3.690036900369 3.690036900369 4.22832980972516 0 4.22832980972516 4.22832980972516 1.81818181818182 0 0 0 6.42398286937901 6.42398286937901 6.42398286937901 15.2963671128107 15.2963671128107 15.2963671128107 15.2963671128107 15.2963671128107 0 0 0 0 0 0 0 4.51467268623025 4.51467268623025 0 0 0 34.136546184739 34.136546184739 34.136546184739 34.136546184739 34.136546184739 34.136546184739 34.136546184739 34.136546184739 34.136546184739 34.136546184739 34.136546184739 34.136546184739 34.136546184739 34.136546184739 34.136546184739 34.136546184739 34.136546184739 19.7044334975369 25.4777070063694 25.4777070063694 25.4777070063694 10.989010989011 10.989010989011 10.989010989011 9.68992248062016 9.68992248062016 9.68992248062016 9.68992248062016 8.91089108910891 8.91089108910891 5.30035335689046 5.30035335689046 18.3946488294314 16.7832167832168 16.7832167832168 25.6147540983607 9.27835051546392 9.27835051546392 9.27835051546392 2.11267605633803 2.11267605633803 2.11267605633803 2.11267605633803 3.95114942528736 3.95114942528736 3.95114942528736 3.95114942528736 9.04033379694019 8.40879689521345 5.34351145038168 5.34351145038168 5.34351145038168 3.37837837837838 -9999 -9999 -9999 -9999 -9999 -9999 -9999 -9999 -9999 -9999 -9999 -9999 -9999 -9999 -9999 -9999 -9999 -9999 7.54060324825986 4.3640897755611 4.3640897755611 4.3640897755611 0 0 0 0 -9999 -9999 -9999 -9999 -9999 -9999 -9999 0 0 0 -9999 -9999 -9999 -9999 -9999 -9999 -9999 -9999 -9999 -9999 -9999 -9999 -9999 -9999 -9999 -9999 -9999 -9999 -9999 -9999 -9999 -9999 -9999 -9999 -9999 -9999 -9999 -9999 -9999 -9999 -9999 -9999 -9999 -9999 -9999 -9999 -9999 -9999 -9999 -9999 -9999 -9999
-9999 -9999 -9999 -9999 -9999 -9999 -9999 -9999 -9999 -9999 -9999 -9999 -9999 -9999 -9999 -9999 -9999 -9999 -9999 -9999 -9999 -9999 -9999 -9999 -9999 -9999 -9999 -9999 -9999 -9999 -9999 -9999 -9999 -9999 -9999 -9999 -9999 -9999 -9999 -9999 -9999 -9999 -9999 -9999 -9999 -9999 -9999 -9999 -9999 -9999 -9999 -9999 -9999 -9999 -9999 -9999 -9999 -9999 -9999 -9999 -9999 -9999 -9999 -9999 -9999 -9999 -9999 -9999 -9999 -9999 -9999 -9999 -9999 -9999 -9999 -9999 -9999 -9999 -9999 -9999 -9999 -9999 -9999 -9999 -9999 -9999 -9999 -9999 -9999 -9999 -9999 -9999 -9999 -9999 -9999 -9999 -9999 -9999 -9999 -9999 -9999 -9999 -9999 -9999 -9999 -9999 -9999 -9999 -9999 -9999 -9999 -9999 -9999 -9999 -9999 -9999 -9999 -9999 -9999 -9999 -9999 -9999 -9999 -9999 -9999 -9999 -9999 -9999 -9999 -9999 -9999 -9999 -9999 -9999 -9999 -9999 -9999 -9999 -9999 -9999 -9999 -9999 -9999 -9999 -9999 -9999 -9999 -9999 -9999 -9999 -9999 -9999 -9999 -9999 -9999 -9999 -9999 -9999 -9999 -9999 -9999 -9999 -9999 -9999 -9999 -9999 -9999 -9999 -9999 -9999 -9999 -9999 -9999 -9999 -9999 -9999 -9999 -9999 -9999 -9999 -9999 -9999 -9999 -9999 -9999 -9999 -9999 -9999 -9999 -9999 -9999 -9999 -9999 -9999 -9999 -9999 -9999 -9999 -9999 -9999 -9999 -9999 -9999 -9999 -9999 -9999 -9999 -9999 -9999 -9999 -9999 -9999 -9999 -9999 -9999 -9999 -9999 -9999 -9999 -9999 -9999 -9999 -9999 -9999 -9999 -9999 -9999 -9999 -9999 -9999 -9999 -9999 -9999 -9999 -9999 -9999 -9999 -9999 -9999 -9999 -9999 -9999 -9999 -9999 -9999 -9999 -9999 -9999 -9999 -9999 -9999 0 0 0 0 0 0 0 0 0 3.09597523219814 3.09597523219814 3.09597523219814 5.75815738963532 5.75815738963532 5.75815738963532 15.2963671128107 15.2963671128107 15.2963671128107 4.49775112443778 15.2963671128107 10.9797297297297 0 0 0 0 0 0 0 0 0 0 0 -9999 -9999 -9999 6.23700623700624 34.136546184739 34.136546184739 34.136546184739 34.136546184739 34.136546184739 34.136546184739 34.136546184739 34.136546184739 34.136546184739 34.136546184739 34.136546184739 34.136546184739 34.136546184739 34.136546184739 34.136546184739 19.7044334975369 25.4777070063694 25.4777070063694 25.4777070063694 2.43506493506494 2.43506493506494 14.5299145299145 14.5299145299145 9.68992248062016 9.84682713347921 9.84682713347921 13.8721351025332 20.7006369426752 20.7006369426752 20.7006369426752 20.7006369426752 10.3448275862069 25.6147540983607 25.6147540983607 25.6147540983607 2.92397660818713 2.92397660818713 2.92397660818713 2.92397660818713 3.95114942528736 3.95114942528736 3.95114942528736 3.95114942528736 9.04033379694019 9.04033379694019 15.2505446623094 15.2505446623094 15.2505446623094 6.54205607476635 6.54205607476635 6.54205607476635 11.5546218487395 11.5546218487395 -9999 -9999 -9999 -9999 -9999 -9999 -9999 -9999 -9999 -9999 -9999 -9999 -9999 -9999 -9999 7.54060324825986 7.54060324825986 7.54060324825986 0 0 0 0 0 -9999 -9999 -9999 -9999 -9999 -9999 0 0 5.63204005006258 5.63204005006258 5.63204005006258 5.63204005006258 -9999 5.63204005006258 -9999 -9999 -9999 -9999 -9999 -9999 -9999 -9999 -9999 -9999 -9999 -9999 -9999 -9999 -9999 -9999 -9999 -9999 -9999 -9999 -9999 -9999 -9999 -9999 -9999 -9999 -9999 -9999 -9999 -9999 -9999 -9999 -9999 -9999 -9999 -9999 -9999 -9999
-9999 -9999 -9999 -9999 -9999 -9999 -9999 -9999 -9999 -9999 -9999 -9999 -9999 -9999 -9999 -9999 -9999 -9999 -9999 -9999 -9999 -9999 -9999 -9999 -9999 -9999 -9999 -9999 -9999 -9999 -9999 -9999 -9999 -9999 -9999 -9999 -9999 -9999 -9999 -9999 -9999 -9999 -9999 -9999 -9999 -9999 -9999 -9999 -9999 -9999 -9999 -9999 -9999 -9999 -9999 -9999 -9999 -9999 -9999 -9999 -9999 -9999 -9999 -9999 -9999 -9999 -9999 -9999 -9999 -9999 -9999 -9999 -9999 -9999 -9999 -9999 -9999 -9999 -9999 -9999 -9999 -9999 -9999 -9999 -9999 -9999 -9999 -9999 -9999 -9999 -9999 -9999 -9999 -9999 -9999 -9999 -9999 -9999 -9999 -9999 -9999 -9999 -9999 -9999 -9999 -9999 -9999 -9999 -9999 -9999 -9999 -9999 -9999 -9999 -9999 -9999 -9999 -9999 -9999 -9999 -9999 -9999 -9999 -9999 -9999 -9999 -9999 -9999 -9999 -9999 -9999 -9999 -9999 -9999 -9999 -9999 -9999 -9999 -9999 -9999 -9999 -9999 -9999 -9999 -9999 -9999 -9999 -9999 -9999 -9999 -9999 -9999 -9999 -9999 -9999 -9999 -9999 -9999 -9999 -9999 -9999 -9999 -9999 -9999 -9999 -9999 -9999 -9999 -9999 -9999 -9999 -9999 -9999 -9999 -9999 -9999 -9999 -9999 -9999 -9999 -9999 -9999 -9999 -9999 -9999 -9999 -9999 -9999 -9999 -9999 -9999 -9999 -9999 -9999 -9999 -9999 -9999 -9999 -9999 -9999 -9999 -9999 -9999 -9999 -9999 -9999 -9999 -9999 -9999 -9999 -9999 -9999 -9999 -9999 -9999 -9999 -9999 -9999 -9999 -9999 -9999 -9999 -9999 -9999 -9999 -9999 -9999 -9999 -9999 -9999 -9999 -9999 -9999 -9999 -9999 -9999 -9999 -9999 -9999 -9999 -9999 -9999 -9999 -9999 -9999 -9999 -9999 -9999 -9999 -9999 -9999 0 0 0 0 0 8.7248322147651 8.7248322147651 8.7248322147651 8.7248322147651 3.09597523219814 3.09597523219814 12.1042830540037 12.1042830540037 5.75815738963532 1.89035916824197 1.89035916824197 1.89035916824197 4.49775112443778 4.49775112443778 4.49775112443778 10.9797297297297 10.9797297297297 12.263099219621 12.263099219621 12.263099219621 0 0 0 0 0 0 2.29007633587786 2.29007633587786 -9999 6.23700623700624 6.23700623700624 6.23700623700624 6.23700623700624 34.136546184739 34.136546184739 34.136546184739 34.136546184739 34.136546184739 34.136546184739 34.136546184739 34.136546184739 34.136546184739 34.136546184739 16.4075993091537 12.5 12.5 0 0 19.7044334975369 2.43506493506494 2.43506493506494 0 0 0 9.84682713347921 9.84682713347921 9.84682713347921 13.8721351025332 13.8721351025332 13.8721351025332 13.8721351025332 5.99201065246338 10.3448275862069 10.3448275862069 10.3448275862069 11.8811881188119 2.92397660818713 2.92397660818713 2.92397660818713 3.95114942528736 3.95114942528736 3.95114942528736 3.95114942528736 3.95114942528736 3.95114942528736 0 0 0 18.6335403726708 18.6335403726708 18.6335403726708 9.59488272921109 9.59488272921109 11.5546218487395 7.5187969924812 7.5187969924812 7.5187969924812 -9999 -9999 -9999 -9999 -9999 -9999 -9999 -9999 -9999 -9999 -9999 9.06555090655509 9.06555090655509 9.06555090655509 0 0 0 0 0 -9999 -9999 -9999 -9999 -9999 -9999 0 0 5.63204005006258 5.63204005006258 5.63204005006258 5.63204005006258 -9999 -9999 5.63204005006258 5.63204005006258 -9999 -9999 -9999 -9999 -9999 -9999 -9999 -9999 -9999 -9999 -9999 -9999 -9999 -9999 -9999 -9999 -9999 -9999 -9999 -9999 -9999 -9999 -9999 -9999 -9999 -9999 -9999 -9999 -9999 -9999 -9999 -9999 -9999 -9999 -9999 -9999 -9999
-9999 -9999 -9999 -9999 -9999 -9999 -9999 -9999 -9999 -9999 -9999 -9999 -9999 -9999 -9999 -9999 -9999 -9999 -9999 -9999 -9999 -9999 -9999 -9999 -9999 -9999 -9999 -9999 -9999 -9999 -9999 -9999 -9999 -9999 -9999 -9999 -9999 -9999 -9999 -9999 -9999 -9999 -9999 -9999 -9999 -9999 -9999 -9999 -9999 -9999 -9999 -9999 -9999 -9999 -9999 -9999 -9999 -9999 -9999 -9999 -9999 -9999 -9999 -9999 -9999 -9999 -9999 -9999 -9999 -9999 -9999 -9999 -9999 -9999 -9999 -9999 -9999 -9999 -9999 -9999 -9999 -9999 -9999 -9999 -9999 -9999 -9999 -9999 -9999 -9999 -9999 -9999 -9999 -9999 -9999 -9999 -9999 -9999 -9999 -9999 -9999 -9999 -9999 -9999 -9999 -9999 -9999 -9999 -9999 -9999 -9999 -9999 -9999 -9999 -9999 -9999 -9999 -9999 -9999 -9999 -9999 -9999 -9999 -9999 -9999 -9999 -9999 -9999 -9999 -9999 -9999 -9999 -9999 -9999 -9999 -9999 -9999 -9999 -9999 -9999 -9999 -9999 -9999 -9999 -9999 -9999 -9999 -9999 -9999 -9999 -9999 -9999 -9999 -9999 -9999 -9999 -9999 -9999 -9999 -9999 -9999 -9999 -9999 -9999 -9999 -9999 -9999 -9999 -9999 -9999 -9999 -9999 -9999 -9999 -9999 -9999 -9999 -9999 -9999 -9999 -9999 -9999 -9999 -9999 -9999 -9999 -9999 -9999 -9999 -9999 -9999 -9999 -9999 -9999 -9999 -9999 -9999 -9999 -9999 -9999 -9999 -9999 -9999 -9999 -9999 -9999 -9999 -9999 -9999 -9999 -9999 -9999 -9999 -9999 -9999 -9999 -9999 -9999 -9999 -9999 -9999 -9999 -9999 -9999 -9999 -9999 -9999 -9999 -9999 -9999 -9999 -9999 -9999 -9999 -9999 -9999 -9999 -9999 -9999 -9999 -9999 -9999 -9999 -9999 -9999 -9999 -9999 -9999 -9999 -9999 -9999 0 0 0 0 0 8.7248322147651 8.7248322147651 8.7248322147651 8.7248322147651 8.7248322147651 8.7248322147651 0 12.1042830540037 12.1042830540037 1.89035916824197 1.89035916824197 1.89035916824197 4.49775112443778 4.49775112443778 10.9797297297297 10.9797297297297 10.9797297297297 12.263099219621 12.263099219621 0 0 12.263099219621 10.9797297297297 0 0 2.29007633587786 2.29007633587786 2.29007633587786 2.29007633587786 2.29007633587786 -9999 11.0236220472441 11.0236220472441 11.0236220472441 8.05008944543828 34.136546184739 34.136546184739 34.136546184739 34.136546184739 34.136546184739 34.136546184739 16.4075993091537 18.348623853211 16.4075993091537 16.4075993091537 4.5662100456621 4.5662100456621 0 0 0 2.43506493506494 2.43506493506494 0 6.73400673400673 6.73400673400673 6.73400673400673 13.8721351025332 13.8721351025332 13.8721351025332 13.8721351025332 5.99201065246338 5.99201065246338 5.99201065246338 5.99201065246338 0 0 0 11.8811881188119 11.8811881188119 11.8811881188119 3.95114942528736 3.95114942528736 3.95114942528736 3.95114942528736 0 0 0 0 0 0 14.336917562724 14.336917562724 14.336917562724 8.71632329635499 8.71632329635499 8.71632329635499 9.00277008310249 9.00277008310249 14.4927536231884 14.4927536231884 -9999 -9999 -9999 -9999 -9999 -9999 -9999 9.06555090655509 9.06555090655509 9.06555090655509 9.06555090655509 0 0 0 0 0 0 0 0 -9999 -9999 -9999 0 5.63204005006258 5.63204005006258 5.63204005006258 5.63204005006258 5.63204005006258 5.63204005006258 5.63204005006258 5.63204005006258 -9999 -9999 -9999 -9999 -9999 -9999 -9999 -9999 -9999 -9999 -9999 -9999 -9999 -9999 -9999 -9999 -9999 -9999 -9999 -9999 -9999 -9999 -9999 -9999 -9999 -9999 -9999 -9999 -9999 -9999 -9999 -9999 -9999 -9999 -9999 -9999 -9999 -9999
-9999 -9999 -9999 -9999 -9999 -9999 -9999 -9999 -9999 -9999 -9999 -9999 -9999 -9999 -9999 -9999 -9999 -9999 -9999 -9999 -9999 -9999 -9999 -9999 -9999 -9999 -9999 -9999 -9999 -9999 -9999 -9999 -9999 -9999 -9999 -9999 -9999 -9999 -9999 -9999 -9999 -9999 -9999 -9999 -9999 -9999 -9999 -9999 -9999 -9999 -9999 -9999 -9999 -9999 -9999 -9999 -9999 -9999 -9999 -9999 -9999 -9999 -9999 -9999 -9999 -9999 -9999 -9999 -9999 -9999 -9999 -9999 -9999 -9999 -9999 -9999 -9999 -9999 -9999 -9999 -9999 -9999 -9999 -9999 -9999 -9999 -9999 -9999 -9999 -9999 -9999 -9999 -9999 -9999 -9999 -9999 -9999 -9999 -9999 -9999 -9999 -9999 -9999 -9999 -9999 -9999 -9999 -9999 -9999 -9999 -9999 -9999 -9999 -9999 -9999 -9999 -9999 -9999 -9999 -9999 -9999 -9999 -9999 -9999 -9999 -9999 -9999 -9999 -9999 -9999 -9999 -9999 -9999 -9999 -9999 -9999 -9999 -9999 -9999 -9999 -9999 -9999 -9999 -9999 -9999 -9999 -9999 -9999 -9999 -9999 -9999 -9999 -9999 -9999 -9999 -9999 -9999 -9999 -9999 -9999 -9999 -9999 -9999 -9999 -9999 -9999 -9999 -9999 -9999 -9999 -9999 -9999 -9999 -9999 -9999 -9999 -9999 -9999 -9999 -9999 -9999 -9999 -9999 -9999 -9999 -9999 -9999 -9999 -9999 -9999 -9999 -9999 -9999 -9999 -9999 -9999 -9999 -9999 -9999 -9999 -9999 -9999 -9999 -9999 -9999 -9999 -9999 -9999 -9999 -9999 -9999 -9999 -9999 -9999 -9999 -9999 -9999 -9999 -9999 -9999 -9999 -9999 -9999 -9999 -9999 -9999 -9999 -9999 -9999 -9999 -9999 -9999 -9999 -9999 -9999 -9999 -9999 -9999 -9999 -9999 -9999 -9999 -9999 -9999 -9999 -9999 -9999 -9999 -9999 -9999 0 8.49256900212314 0 0 0 6.9204152249135 6.9204152249135 8.7248322147651 8.7248322147651 8.7248322147651 8.7248322147651 0 0 0 0 0 0 4.49775112443778 4.49775112443778 10.9797297297297 10.9797297297297 10.9797297297297 10.9797297297297 10.9797297297297 0 0 10.9797297297297 12.263099219621 10.9797297297297 10.9797297297297 10.9797297297297 1.28095644748079 1.28095644748079 2.29007633587786 2.29007633587786 2.29007633587786 2.29007633587786 8.63557858376511 11.0236220472441 8.05008944543828 8.05008944543828 8.05008944543828 8.05008944543828 34.136546184739 27.1604938271605 27.1604938271605 27.1604938271605 9.80392156862745 18.348623853211 18.348623853211 12.1703853955375 4.5662100456621 4.5662100456621 4.5662100456621 4.5662100456621 4.5662100456621 2.31481481481481 12.5448028673835 10.0430416068867 10.0430416068867 6.73400673400673 6.16197183098592 6.16197183098592 6.16197183098592 6.16197183098592 5.99201065246338 5.99201065246338 5.99201065246338 5.99201065246338 4.0983606557377 0 0 0 2.1551724137931 2.1551724137931 2.1551724137931 2.1551724137931 0 0 5.6710775047259 5.6710775047259 5.6710775047259 5.6710775047259 0 0 0 4.35540069686411 4.35540069686411 8.84955752212389 8.84955752212389 12.6050420168067 12.6050420168067 9.00277008310249 9.00277008310249 9.00277008310249 2.83553875236295 2.83553875236295 2.83553875236295 2.83553875236295 -9999 -9999 -9999 -9999 12.6262626262626 12.6262626262626 12.6262626262626 0 0 0 0 0 4.69043151969981 4.69043151969981 4.69043151969981 0 0 0 0 6.265664160401 5.63204005006258 5.63204005006258 5.63204005006258 5.63204005006258 5.63204005006258 5.63204005006258 5.63204005006258 -9999 -9999 -9999 -9999 -9999 -9999 -9999 -9999 -9999 -9999 -9999 -9999 -9999 -9999 -9999 -9999 -9999 -9999 -9999 -9999 -9999 -9999 -9999 -9999 -9999 -9999 -9999 -9999 -9999 -9999 -9999 -9999 -9999 -9999 -9999 -9999 -9999 -9999 -9999
-9999 -9999 -9999 -9999 -9999 -9999 -9999 -9999 -9999 -9999 -9999 -9999 -9999 -9999 -9999 -9999 -9999 -9999 -9999 -9999 -9999 -9999 -9999 -9999 -9999 -9999 -9999 -9999 -9999 -9999 -9999 -9999 -9999 -9999 -9999 -9999 -9999 -9999 -9999 -9999 -9999 -9999 -9999 -9999 -9999 -9999 -9999 -9999 -9999 -9999 -9999 -9999 -9999 -9999 -9999 -9999 -9999 -9999 -9999 -9999 -9999 -9999 -9999 -9999 -9999 -9999 -9999 -9999 -9999 -9999 -9999 -9999 -9999 -9999 -9999 -9999 -9999 -9999 -9999 -9999 -9999 -9999 -9999 -9999 -9999 -9999 -9999 -9999 -9999 -9999 -9999 -9999 -9999 -9999 -9999 -9999 -9999 -9999 -9999 -9999 -9999 -9999 -9999 -9999 -9999 -9999 -9999 -9999 -9999 -9999 -9999 -9999 -9999 -9999 -9999 -9999 -9999 -9999 -9999 -9999 -9999 -9999 -9999 -9999 -9999 -9999 -9999 -9999 -9999 -9999 -9999 -9999 -9999 -9999 -9999 -9999 -9999 -9999 -9999 -9999 -9999 -9999 -9999 -9999 -9999 -9999 -9999 -9999 -9999 -9999 -9999 -9999 -9999 -9999 -9999 -9999 -9999 -9999 -9999 -9999 -9999 -9999 -9999 -9999 -9999 -9999 -9999 -9999 -9999 -9999 -9999 -9999 -9999 -9999 -9999 -9999 -9999 -9999 -9999 -9999 -9999 -9999 -9999 -9999 -9999 -9999 -9999 -9999 -9999 -9999 -9999 -9999 -9999 -9999 -9999 -9999 -9999 -9999 -9999 -9999 -9999 -9999 -9999 -9999 -9999 -9999 -9999 -9999 -9999 -9999 -9999 -9999 -9999 -9999 -9999 -9999 -9999 -9999 -9999 -9999 -9999 -9999 -9999 -9999 -9999 -9999 -9999 -9999 -9999 -9999 -9999 -9999 -9999 -9999 -9999 -9999 -9999 -9999 -9999 -9999 -9999 -9999 -9999 -9999 -9999 -9999 -9999 -9999 -9999 0 0 8.49256900212314 8.49256900212314 8.49256900212314 8.49256900212314 6.9204152249135 6.9204152249135 6.9204152249135 8.7248322147651 8.7248322147651 8.7248322147651 12.0481927710843 12.0481927710843 12.0481927710843 12.5984251968504 0 0 7.19424460431655 7.19424460431655 3.15457413249211 10.9797297297297 10.9797297297297 10.9797297297297 10.9797297297297 10.9797297297297 10.9797297297297 10.9797297297297 10.9797297297297 10.9797297297297 10.9797297297297 1.28095644748079 1.28095644748079 1.28095644748079 1.28095644748079 1.28095644748079 2.29007633587786 8.05008944543828 8.63557858376511 8.63557858376511 8.05008944543828 8.05008944543828 8.05008944543828 12.0056497175141 9.00900900900901 12.0056497175141 12.0056497175141 9.80392156862745 9.80392156862745 9.80392156862745 9.80392156862745 12.1703853955375 12.1703853955375 14.6579804560261 4.5662100456621 4.5662100456621 2.31481481481481 2.31481481481481 12.5448028673835 12.5448028673835 12.5448028673835 3.28407224958949 10.0430416068867 10.0430416068867 6.16197183098592 0 0 0 0 4.0983606557377 4.0983606557377 4.0983606557377 4.0983606557377 4.0983606557377 2.1551724137931 2.1551724137931 2.1551724137931 0 0 2.12464589235127 0 0 0 3.45303867403315 5.02008032128514 5.02008032128514 10.6221547799696 10.6221547799696 13.768115942029 13.768115942029 8.84955752212389 8.84955752212389 2.62697022767075 2.62697022767075 10.2040816326531 10.2040816326531 10.2409638554217 10.2409638554217 10.2409638554217 2.83553875236295 2.83553875236295 23.3812949640288 23.3812949640288 5.89390962671906 5.89390962671906 5.89390962671906 4.53720508166969 4.53720508166969 4.53720508166969 4.53720508166969 0 0 4.69043151969981 4.69043151969981 4.69043151969981 0 0 0 0 0 0 0 0 5.63204005006258 5.63204005006258 5.63204005006258 -9999 -9999 -9999 -9999 -9999 -9999 -9999 -9999 -9999 -9999 -9999 -9999 -9999 -9999 -9999 -9999 -9999 -9999 -9999 -9999 -9999 -9999 -9999 -9999 -9999 -9999 -9999 -9999 -9999 -9999 -9999 -9999 -9999 -9999 -9999 -9999 -9999 -9999 -9999 -9999
-9999 -9999 -9999 -9999 -9999 -9999 -9999 -9999 -9999 -9999 -9999 -9999 -9999 -9999 -9999 -9999 -9999 -9999 -9999 -9999 -9999 -9999 -9999 -9999 -9999 -9999 -9999 -9999 -9999 -9999 -9999 -9999 -9999 -9999 -9999 -9999 -9999 -9999 -9999 -9999 -9999 -9999 -9999 -9999 -9999 -9999 -9999 -9999 -9999 -9999 -9999 -9999 -9999 -9999 -9999 -9999 -9999 -9999 -9999 -9999 -9999 -9999 -9999 -9999 -9999 -9999 -9999 -9999 -9999 -9999 -9999 -9999 -9999 -9999 -9999 -9999 -9999 -9999 -9999 -9999 -9999 -9999 -9999 -9999 -9999 -9999 -9999 -9999 -9999 -9999 -9999 -9999 -9999 -9999 -9999 -9999 -9999 -9999 -9999 -9999 -9999 -9999 -9999 -9999 -9999 -9999 -9999 -9999 -9999 -9999 -9999 -9999 -9999 -9999 -9999 -9999 -9999 -9999 -9999 -9999 -9999 -9999 -9999 -9999 -9999 -9999 -9999 -9999 -9999 -9999 -9999 -9999 -9999 -9999 -9999 -9999 -9999 -9999 -9999 -9999 -9999 -9999 -9999 -9999 -9999 -9999 -9999 -9999 -9999 -9999 -9999 -9999 -9999 -9999 -9999 -9999 -9999 -9999 -9999 -9999 -9999 -9999 -9999 -9999 -9999 -9999 -9999 -9999 -9999 -9999 -9999 -9999 -9999 -9999 -9999 -9999 -9999 -9999 -9999 -9999 -9999 -9999 -9999 -9999 -9999 -9999 -9999 -9999 -9999 -9999 -9999 -9999 -9999 -9999 -9999 -9999 -9999 -9999 -9999 -9999 -9999 -9999 -9999 -9999 -9999 -9999 -9999 -9999 -9999 -9999 -9999 -9999 -9999 -9999 -9999 -9999 -9999 -9999 -9999 -9999 -9999 -9999 -9999 -9999 -9999 -9999 -9999 -9999 -9999 -9999 -9999 -9999 -9999 -9999 -9999 -9999 -9999 -9999 -9999 -9999 -9999 -9999 -9999 -9999 -9999 -9999 -9999 -9999 0 0 0 0 0 8.49256900212314 6.9204152249135 6.9204152249135 6.9204152249135 0 0 8.7248322147651 0 12.0481927710843 12.0481927710843 12.5984251968504 12.5984251968504 12.5984251968504 7.19424460431655 7.19424460431655 3.15457413249211 3.15457413249211 7.53768844221105 7.53768844221105 7.53768844221105 10.9797297297297 10.9797297297297 10.9797297297297 10.9797297297297 10.9797297297297 10.9797297297297 1.28095644748079 1.28095644748079 1.28095644748079 1.28095644748079 1.28095644748079 1.28095644748079 1.28095644748079 8.05008944543828 8.05008944543828 8.05008944543828 8.05008944543828 12.0056497175141 12.0056497175141 12.0056497175141 12.0056497175141 12.0056497175141 9.00900900900901 23.1164383561644 23.1164383561644 9.80392156862745 15.180265654649 15.180265654649 11.6696588868941 11.6696588868941 14.6579804560261 8.21596244131455 2.31481481481481 2.31481481481481 2.31481481481481 2.31481481481481 3.41296928327645 3.28407224958949 3.28407224958949 3.28407224958949 3.77643504531722 3.77643504531722 3.77643504531722 0 6.28140703517588 0 0 0 4.0983606557377 4.0983606557377 4.0983606557377 4.0983606557377 0 0 0 2.12464589235127 0 2.12464589235127 2.12464589235127 3.45303867403315 3.45303867403315 3.45303867403315 10.6221547799696 10.6221547799696 13.768115942029 13.768115942029 13.768115942029 11.3304093567251 11.3304093567251 11.3304093567251 11.3304093567251 0 0 15.0631681243926 15.0631681243926 10.2409638554217 0 0 0 3.52112676056338 3.52112676056338 3.52112676056338 11.9760479041916 4.53720508166969 4.53720508166969 4.53720508166969 4.53720508166969 0 0 4.69043151969981 4.69043151969981 0 0 0 0 0 0 0 0 0 0 0 -9999 -9999 -9999 -9999 -9999 -9999 -9999 -9999 -9999 -9999 -9999 -9999 -9999 -9999 -9999 -9999 -9999 -9999 -9999 -9999 -9999 -9999 -9999 -9999 -9999 -9999 -9999 -9999 -9999 -9999 -9999 -9999 -9999 -9999 -9999 -9999 -9999 -9999 -9999 -9999
-9999 -9999 -9999 -9999 -9999 -9999 -9999 -9999 -9999 -9999 -9999 -9999 -9999 -9999 -9999 -9999 -9999 -9999 -9999 -9999 -9999 -9999 -9999 -9999 -9999 -9999 -9999 -9999 -9999 -9999 -9999 -9999 -9999 -9999 -9999 -9999 -9999 -9999 -9999 -9999 -9999 -9999 -9999 -9999 -9999 -9999 -9999 -9999 -9999 -9999 -9999 -9999 -9999 -9999 -9999 -9999 -9999 -9999 -9999 -9999 -9999 -9999 -9999 -9999 -9999 -9999 -9999 -9999 -9999 -9999 -9999 -9999 -9999 -9999 -9999 -9999 -9999 -9999 -9999 -9999 -9999 -9999 -9999 -9999 -9999 -9999 -9999 -9999 -9999 -9999 -9999 -9999 -9999 -9999 -9999 -9999 -9999 -9999 -9999 -9999 -9999 -9999 -9999 -9999 -9999 -9999 -9999 -9999 -9999 -9999 -9999 -9999 -9999 -9999 -9999 -9999 -9999 -9999 -9999 -9999 -9999 -9999 -9999 -9999 -9999 -9999 -9999 -9999 -9999 -9999 -9999 -9999 -9999 -9999 -9999 -9999 -9999 -9999 -9999 -9999 -9999 -9999 -9999 -9999 -9999 -9999 -9999 -9999 -9999 -9999 -9999 -9999 -9999 -9999 -9999 -9999 -9999 -9999 -9999 -9999 -9999 -9999 -9999 -9999 -9999 -9999 -9999 -9999 -9999 -9999 -9999 -9999 -9999 -9999 -9999 -9999 -9999 -9999 -9999 -9999 -9999 -9999 -9999 -9999 -9999 -9999 -9999 -9999 -9999 -9999 -9999 -9999 -9999 -9999 -9999 -9999 -9999 -9999 -9999 -9999 -9999 -9999 -9999 -9999 -9999 -9999 -9999 -9999 -9999 -9999 -9999 -9999 -9999 -9999 -9999 -9999 -9999 -9999 -9999 -9999 -9999 -9999 -9999 -9999 -9999 -9999 -9999 -9999 -9999 -9999 -9999 -9999 -9999 -9999 -9999 -9999 -9999 -9999 -9999 -9999 -9999 -9999 -9999 -9999 -9999 -9999 -9999 0 0 0 8.22368421052632 0 0 0 6.23441396508728 6.23441396508728 6.23441396508728 0 0 0 0 0 0 12.5984251968504 12.5984251968504 12.5984251968504 12.5984251968504 12.5984251968504 3.15457413249211 3.15457413249211 7.53768844221105 7.53768844221105 7.53768844221105 24.6753246753247 24.6753246753247 24.6753246753247 0 10.9797297297297 10.9797297297297 1.28095644748079 1.28095644748079 1.28095644748079 1.28095644748079 1.28095644748079 1.28095644748079 1.28095644748079 1.28095644748079 8.05008944543828 11.9581464872945 11.9581464872945 11.9581464872945 12.0056497175141 12.0056497175141 12.0056497175141 12.0056497175141 19.1256830601093 7.5 7.5 7.5 23.1164383561644 13.2382892057026 13.2382892057026 5.93824228028503 11.6696588868941 9.29614873837981 9.29614873837981 8.21596244131455 8.21596244131455 3.41296928327645 3.41296928327645 3.41296928327645 3.41296928327645 3.28407224958949 0 0 3.77643504531722 3.77643504531722 8.21018062397373 8.21018062397373 6.28140703517588 0 4.49101796407186 4.49101796407186 4.49101796407186 8.70406189555126 0 0 5.89225589225589 5.89225589225589 0 0 2.75229357798165 2.75229357798165 2.75229357798165 11.2866817155756 11.2866817155756 13.768115942029 13.768115942029 13.768115942029 11.3304093567251 11.3304093567251 11.3304093567251 11.3304093567251 0 0 0 15.0631681243926 15.0631681243926 10.4712041884817 0 0 0 0 0 11.9760479041916 11.9760479041916 11.9760479041916 11.9760479041916 0 0 0 0 0 3.66568914956012 3.66568914956012 0 0 0 0 0 0 0 0 0 -9999 -9999 -9999 -9999 -9999 -9999 -9999 -9999 -9999 -9999 -9999 -9999 -9999 -9999 -9999 -9999 -9999 -9999 -9999 -9999 -9999 -9999 -9999 -9999 -9999 -9999 -9999 -9999 -9999 -9999 -9999 -9999 -9999 -9999 -9999 -9999 -9999 -9999 -9999 -9999 -9999
-9999 -9999 -9999 -9999 -9999 -9999 -9999 -9999 -9999 -9999 -9999 -9999 -9999 -9999 -9999 -9999 -9999 -9999 -9999 -9999 -9999 -9999 -9999 -9999 -9999 -9999 -9999 -9999 -9999 -9999 -9999 -9999 -9999 -9999 -9999 -9999 -9999 -9999 -9999 -9999 -9999 -9999 -9999 -9999 -9999 -9999 -9999 -9999 -9999 -9999 -9999 -9999 -9999 -9999 -9999 -9999 -9999 -9999 -9999 -9999 -9999 -9999 -9999 -9999 -9999 -9999 -9999 -9999 -9999 -9999 -9999 -9999 -9999 -9999 -9999 -9999 -9999 -9999 -9999 -9999 -9999 -9999 -9999 -9999 -9999 -9999 -9999 -9999 -9999 -9999 -9999 -9999 -9999 -9999 -9999 -9999 -9999 -9999 -9999 -9999 -9999 -9999 -9999 -9999 -9999 -9999 -9999 -9999 -9999 -9999 -9999 -9999 -9999 -9999 -9999 -9999 -9999 -9999 -9999 -9999 -9999 -9999 -9999 -9999 -9999 -9999 -9999 -9999 -9999 -9999 -9999 -9999 -9999 -9999 -9999 -9999 -9999 -9999 -9999 -9999 -9999 -9999 -9999 -9999 -9999 -9999 -9999 -9999 -9999 -9999 -9999 -9999 -9999 -9999 -9999 -9999 -9999 -9999 -9999 -9999 -9999 -9999 -9999 -9999 -9999 -9999 -9999 -9999 -9999 -9999 -9999 -9999 -9999 -9999 -9999 -9999 -9999 -9999 -9999 -9999 -9999 -9999 -9999 -9999 -9999 -9999 -9999 -9999 -9999 -9999 -9999 -9999 -9999 -9999 -9999 -9999 -9999 -9999 -9999 -9999 -9999 -9999 -9999 -9999 -9999 -9999 -9999 -9999 -9999 -9999 -9999 -9999 -9999 -9999 -9999 -9999 -9999 -9999 -9999 -9999 -9999 -9999 -9999 -9999 -9999 -9999 -9999 -9999 -9999 -9999 -9999 -9999 -9999 -9999 -9999 -9999 -9999 -9999 -9999 -9999 -9999 -9999 -9999 -9999 -9999 -9999 0 0 0 0 0 8.22368421052632 8.22368421052632 9.18635170603675 6.23441396508728 6.23441396508728 0 0 0 4.62962962962963 4.62962962962963 4.62962962962963 4.62962962962963 0 0 12.5984251968504 12.5984251968504 8.70147255689424 8.70147255689424 8.19672131147541 8.19672131147541 7.53768844221105 15.5993431855501 15.5993431855501 15.5993431855501 4.9800796812749 0 0 13.0641330166271 13.0641330166271 13.0641330166271 1.28095644748079 1.28095644748079 1.28095644748079 8.05008944543828 11.9581464872945 11.9581464872945 24.3190661478599 11.9581464872945 11.9581464872945 11.9581464872945 11.9581464872945 11.9581464872945 11.9581464872945 0 19.1256830601093 19.1256830601093 19.1256830601093 7.5 12.3339658444023 12.3339658444023 8.24175824175824 13.2382892057026 13.2382892057026 31.8047337278107 31.8047337278107 9.29614873837981 9.29614873837981 3.01204819277108 3.01204819277108 3.41296928327645 3.41296928327645 0 0 0 0 0 8.21018062397373 8.21018062397373 8.21018062397373 0 0 0 4.49101796407186 8.70406189555126 8.70406189555126 0 0 0 0 0 0 0 2.75229357798165 5.81395348837209 11.2866817155756 13.768115942029 13.768115942029 11.3304093567251 10.0671140939597 11.3304093567251 11.3304093567251 11.3304093567251 0 0 0 15.0631681243926 10.4712041884817 10.4712041884817 0 0 0 0 0 0 0 11.9760479041916 0 0 0 0 0 3.66568914956012 3.66568914956012 8.19672131147541 8.19672131147541 8.19672131147541 0 8.19672131147541 0 0 0 0 -9999 -9999 -9999 -9999 -9999 -9999 -9999 -9999 -9999 -9999 -9999 -9999 -9999 -9999 -9999 -9999 -9999 -9999 -9999 -9999 -9999 -9999 -9999 -9999 -9999 -9999 -9999 -9999 -9999 -9999 -9999 -9999 -9999 -9999 -9999 -9999 -9999 -9999 -9999 -9999 -9999 -9999
-9999 -9999 -9999 -9999 -9999 -9999 -9999 -9999 -9999 -9999 -9999 -9999 -9999 -9999 -9999 -9999 -9999 -9999 -9999 -9999 -9999 -9999 -9999 -9999 -9999 -9999 -9999 -9999 -9999 -9999 -9999 -9999 -9999 -9999 -9999 -9999 -9999 -9999 -9999 -9999 -9999 -9999 -9999 -9999 -9999 -9999 -9999 -9999 -9999 -9999 -9999 -9999 -9999 -9999 -9999 -9999 -9999 -9999 -9999 -9999 -9999 -9999 -9999 -9999 -9999 -9999 -9999 -9999 -9999 -9999 -9999 -9999 -9999 -9999 -9999 -9999 -9999 -9999 -9999 -9999 -9999 -9999 -9999 -9999 -9999 -9999 -9999 -9999 -9999 -9999 -9999 -9999 -9999 -9999 -9999 -9999 -9999 -9999 -9999 -9999 -9999 -9999 -9999 -9999 -9999 -9999 -9999 -9999 -9999 -9999 -9999 -9999 -9999 -9999 -9999 -9999 -9999 -9999 -9999 -9999 -9999 -9999 -9999 -9999 -9999 -9999 -9999 -9999 -9999 -9999 -9999 -9999 -9999 -9999 -9999 -9999 -9999 -9999 -9999 -9999 -9999 -9999 -9999 -9999 -9999 -9999 -9999 -9999 -9999 -9999 -9999 -9999 -9999 -9999 -9999 -9999 -9999 -9999 -9999 -9999 -9999 -9999 -9999 -9999 -9999 -9999 -9999 -9999 -9999 -9999 -9999 -9999 -9999 -9999 -9999 -9999 -9999 -9999 -9999 -9999 -9999 -9999 -9999 -9999 -9999 -9999 -9999 -9999 -9999 -9999 -9999 -9999 -9999 -9999 -9999 -9999 -9999 -9999 -9999 -9999 -9999 -9999 -9999 -9999 -9999 -9999 -9999 -9999 -9999 -9999 -9999 -9999 -9999 -9999 -9999 -9999 -9999 -9999 -9999 -9999 -9999 -9999 -9999 -9999 -9999 -9999 -9999 -9999 -9999 -9999 -9999 -9999 -9999 -9999 -9999 -9999 -9999 -9999 -9999 0 0 0 0 0 0 0 0 3.7037037037037 3.7037037037037 3.7037037037037 3.7037037037037 0 0 0 0 5.8027079303675 5.8027079303675 5.8027079303675 9.82318271119843 9.82318271119843 4.62962962962963 4.62962962962963 4.62962962962963 12.5984251968504 12.5984251968504 12.5984251968504 12.5984251968504 8.70147255689424 8.70147255689424 8.70147255689424 8.19672131147541 8.19672131147541 0 0 15.5993431855501 4.9800796812749 4.9800796812749 4.9800796812749 13.0641330166271 13.0641330166271 13.0641330166271 13.0641330166271 3.04878048780488 3.04878048780488 11.9581464872945 12.5391849529781 12.5391849529781 24.3190661478599 24.3190661478599 9.18635170603675 11.9581464872945 11.9581464872945 0 0 0 0 8.33333333333333 19.1256830601093 8.71080139372822 10.8843537414966 8.63930885529158 8.63930885529158 12.3339658444023 8 8 8.15850815850816 31.8047337278107 6.57894736842105 7.52688172043011 3.01204819277108 3.01204819277108 5.26315789473684 5.26315789473684 0 0 0 0 0 0 0 0 0 0 6.29722921914358 6.29722921914358 2.93542074363992 0 0 0 0 4.19287211740042 0 0 0 0 0 5.81395348837209 5.81395348837209 -9999 -9999 -9999 10.0671140939597 9.45179584120983 0 0 0 6.72645739910314 10.4712041884817 10.4712041884817 6.7911714770798 0 0 0 0 0 0 0 0 0 0 0 0 0 0 6.45756457564576 3.66568914956012 8.19672131147541 8.19672131147541 8.19672131147541 8.19672131147541 8.19672131147541 8.19672131147541 -9999 -9999 -9999 -9999 -9999 -9999 -9999 -9999 -9999 -9999 -9999 -9999 -9999 -9999 -9999 -9999 -9999 -9999 -9999 -9999 -9999 -9999 -9999 -9999 -9999 -9999 -9999 -9999 -9999 -9999 -9999 -9999 -9999 -9999 -9999 -9999 -9999 -9999 -9999 -9999 -9999 -9999 -9999
-9999 -9999 -9999 -9999 -9999 -9999 -9999 -9999 -9999 -9999 -9999 -9999 -9999 -9999 -9999 -9999 -9999 -9999 -9999 -9999 -9999 -9999 -9999 -9999 -9999 -9999 -9999 -9999 -9999 -9999 -9999 -9999 -9999 -9999 -9999 -9999 -9999 -9999 -9999 -9999 -9999 -9999 -9999 -9999 -9999 -9999 -9999 -9999 -9999 -9999 -9999 -9999 -9999 -9999 -9999 -9999 -9999 -9999 -9999 -9999 -9999 -9999 -9999 -9999 -9999 -9999 -9999 -9999 -9999 -9999 -9999 -9999 -9999 -9999 -9999 -9999 -9999 -9999 -9999 -9999 -9999 -9999 -9999 -9999 -9999 -9999 -9999 -9999 -9999 -9999 -9999 -9999 -9999 -9999 -9999 -9999 -9999 -9999 -9999 -9999 -9999 -9999 -9999 -9999 -9999 -9999 -9999 -9999 -9999 -9999 -9999 -9999 -9999 -9999 -9999 -9999 -9999 -9999 -9999 -9999 -9999 -9999 -9999 -9999 -9999 -9999 -9999 -9999 -9999 -9999 -9999 -9999 -9999 -9999 -9999 -9999 -9999 -9999 -9999 -9999 -9999 -9999 -9999 -9999 -9999 -9999 -9999 -9999 -9999 -9999 -9999 -9999 -9999 -9999 -9999 -9999 -9999 -9999 -9999 -9999 -9999 -9999 -9999 -9999 -9999 -9999 -9999 -9999 -9999 -9999 -9999 -9999 -9999 -9999 -9999 -9999 -9999 -9999 -9999 -9999 -9999 -9999 -9999 -9999 -9999 -9999 -9999 -9999 -9999 -9999 -9999 -9999 -9999 -9999 -9999 -9999 -9999 -9999 -9999 -9999 -9999 -9999 -9999 -9999 -9999 -9999 -9999 -9999 -9999 -9999 -9999 -9999 -9999 -9999 -9999 -9999 -9999 -9999 -9999 -9999 -9999 -9999 -9999 -9999 -9999 -9999 -9999 -9999 -9999 -9999 -9999 -9999 -9999 -9999 -9999 -9999 -9999 -9999 0 0 0 0 0 0 0 0 0 0 4.13907284768212 4.13907284768212 3.7037037037037 3.7037037037037 0 0 0 2.9585798816568 5.8027079303675 5.8027079303675 9.33786078098472 9.33786078098472 7.07070707070707 9.82318271119843 9.82318271119843 12.5984251968504 12.5984251968504 12.5984251968504 8.70147255689424 8.70147255689424 8.70147255689424 8.70147255689424 8.70147255689424 8.70147255689424 8.70147255689424 0 15.1057401812689 15.1057401812689 15.1057401812689 9.65018094089264 0 0 0 3.04878048780488 3.04878048780488 3.04878048780488 8.7260034904014 8.7260034904014 0 12.5391849529781 9.18635170603675 9.18635170603675 9.18635170603675 2.32919254658385 2.32919254658385 0 0 0 8.33333333333333 3.03030303030303 4.53514739229025 4.53514739229025 8.71080139372822 10.8843537414966 0 0 6.77506775067751 8 7.00280112044818 6.57894736842105 6.57894736842105 6.57894736842105 10.8974358974359 15.3203342618384 15.3203342618384 5.26315789473684 3.38600451467269 0 0 0 0 0 0 0 0 6.29722921914358 0 2.93542074363992 2.93542074363992 0 0 0 0 4.19287211740042 4.19287211740042 0 0 0 5.81395348837209 -9999 -9999 -9999 -9999 -9999 -9999 -9999 0 0 6.72645739910314 6.72645739910314 6.72645739910314 7.55287009063444 6.7911714770798 6.7911714770798 6.7911714770798 0 0 0 0 0 0 0 0 0 0 6.45756457564576 6.45756457564576 10.1431980906921 10.1431980906921 10.1431980906921 8.19672131147541 8.19672131147541 8.19672131147541 -9999 -9999 -9999 -9999 -9999 -9999 -9999 -9999 -9999 -9999 -9999 -9999 -9999 -9999 -9999 -9999 -9999 -9999 -9999 -9999 -9999 -9999 -9999 -9999 -9999 -9999 -9999 -9999 -9999 -9999 -9999 -9999 -9999 -9999 -9999 -9999 -9999 -9999 -9999 -9999 -9999 -9999 -9999 -9999
-9999 -9999 -9999 -9999 -9999 -9999 -9999 -9999 -9999 -9999 -9999 -9999 -9999 -9999 -9999 -9999 -9999 -9999 -9999 -9999 -9999 -9999 -9999 -9999 -9999 -9999 -9999 -9999 -9999 -9999 -9999 -9999 -9999 -9999 -9999 -9999 -9999 -9999 -9999 -9999 -9999 -9999 -9999 -9999 -9999 -9999 -9999 -9999 -9999 -9999 -9999 -9999 -9999 -9999 -9999 -9999 -9999 -9999 -9999 -9999 -9999 -9999 -9999 -9999 -9999 -9999 -9999 -9999 -9999 -9999 -9999 -9999 -9999 -9999 -9999 -9999 -9999 -9999 -9999 -9999 -9999 -9999 -9999 -9999 -9999 -9999 -9999 -9999 -9999 -9999 -9999 -9999 -9999 -9999 -9999 -9999 -9999 -9999 -9999 -9999 -9999 -9999 -9999 -9999 -9999 -9999 -9999 -9999 -9999 -9999 -9999 -9999 -9999 -9999 -9999 -9999 -9999 -9999 -9999 -9999 -9999 -9999 -9999 -9999 -9999 -9999 -9999 -9999 -9999 -9999 -9999 -9999 -9999 -9999 -9999 -9999 -9999 -9999 -9999 -9999 -9999 -9999 -9999 -9999 -9999 -9999 -9999 -9999 -9999 -9999 -9999 -9999 -9999 -9999 -9999 -9999 -9999 -9999 -9999 -9999 -9999 -9999 -9999 -9999 -9999 -9999 -9999 -9999 -9999 -9999 -9999 -9999 -9999 -9999 -9999 -9999 -9999 -9999 -9999 -9999 -9999 -9999 -9999 -9999 -9999 -9999 -9999 -9999 -9999 -9999 -9999 -9999 -9999 -9999 -9999 -9999 -9999 -9999 -9999 -9999 -9999 -9999 -9999 -9999 -9999 -9999 -9999 -9999 -9999 -9999 -9999 -9999 -9999 -9999 -9999 -9999 -9999 -9999 -9999 -9999 -9999 -9999 -9999 -9999 -9999 -9999 -9999 -9999 -9999 -9999 -9999 -9999 -9999 -9999 -9999 -9999 -9999 0 0 0 0 0 0 0 0 0 0 0 4.13907284768212 4.13907284768212 4.13907284768212 0 0 0 2.9585798816568 2.9585798816568 2.9585798816568 9.33786078098472 9.33786078098472 0 0 7.07070707070707 7.07070707070707 7.07070707070707 12.5984251968504 8.70147255689424 8.70147255689424 8.70147255689424 8.70147255689424 8.70147255689424 8.70147255689424 8.70147255689424 8.70147255689424 8.70147255689424 8.70147255689424 15.1057401812689 15.1057401812689 9.65018094089264 9.65018094089264 9.65018094089264 5.0761421319797 0 0 0 0 8.7260034904014 0 0 8.51581508515815 8.51581508515815 2.32919254658385 2.32919254658385 0 2.32919254658385 2.32919254658385 0 3.91849529780564 9.5389507154213 9.5389507154213 3.03030303030303 4.53514739229025 4.59558823529412 0 0 0 4.12087912087912 19.2307692307692 19.2307692307692 7.00280112044818 10.8974358974359 10.8974358974359 10.8974358974359 10.8974358974359 0 4.47761194029851 3.38600451467269 3.38600451467269 0 0 0 0 0 0 9.3603744149766 0 0 0 0 0 0 0 0 0 0 0 0 0 0 -9999 -9999 -9999 -9999 -9999 -9999 -9999 6.95517774343122 6.95517774343122 6.95517774343122 6.95517774343122 10.7066381156317 7.55287009063444 7.55287009063444 0 0 0 0 0 0 3.95256916996047 0 3.95256916996047 0 0 0 10.1431980906921 10.1431980906921 10.1431980906921 10.1431980906921 10.1431980906921 10.1431980906921 10.1431980906921 -9999 -9999 -9999 -9999 -9999 -9999 -9999 -9999 -9999 -9999 -9999 -9999 -9999 -9999 -9999 -9999 -9999 -9999 -9999 -9999 -9999 -9999 -9999 -9999 -9999 -9999 -9999 -9999 -9999 -9999 -9999 -9999 -9999 -9999 -9999 -9999 -9999 -9999 -9999 -9999 -9999 -9999 -9999 -9999
-9999 -9999 -9999 -9999 -9999 -9999 -9999 -9999 -9999 -9999 -9999 -9999 -9999 -9999 -9999 -9999 -9999 -9999 -9999 -9999 -9999 -9999 -9999 -9999 -9999 -9999 -9999 -9999 -9999 -9999 -9999 -9999 -9999 -9999 -9999 -9999 -9999 -9999 -9999 -9999 -9999 -9999 -9999 -9999 -9999 -9999 -9999 -9999 -9999 -9999 -9999 -9999 -9999 -9999 -9999 -9999 -9999 -9999 -9999 -9999 -9999 -9999 -9999 -9999 -9999 -9999 -9999 -9999 -9999 -9999 -9999 -9999 -9999 -9999 -9999 -9999 -9999 -9999 -9999 -9999 -9999 -9999 -9999 -9999 -9999 -9999 -9999 -9999 -9999 -9999 -9999 -9999 -9999 -9999 -9999 -9999 -9999 -9999 -9999 -9999 -9999 -9999 -9999 -9999 -9999 -9999 -9999 -9999 -9999 -9999 -9999 -9999 -9999 -9999 -9999 -9999 -9999 -9999 -9999 -9999 -9999 -9999 -9999 -9999 -9999 -9999 -9999 -9999 -9999 -9999 -9999 -9999 -9999 -9999 -9999 -9999 -9999 -9999 -9999 -9999 -9999 -9999 -9999 -9999 -9999 -9999 -9999 -9999 -9999 -9999 -9999 -9999 -9999 -9999 -9999 -9999 -9999 -9999 -9999 -9999 -9999 -9999 -9999 -9999 -9999 -9999 -9999 -9999 -9999 -9999 -9999 -9999 -9999 -9999 -9999 -9999 -9999 -9999 -9999 -9999 -9999 -9999 -9999 -9999 -9999 -9999 -9999 -9999 -9999 -9999 -9999 -9999 -9999 -9999 -9999 -9999 -9999 -9999 -9999 -9999 -9999 -9999 -9999 -9999 -9999 -9999 -9999 -9999 -9999 -9999 -9999 -9999 -9999 -9999 -9999 -9999 -9999 -9999 -9999 -9999 -9999 -9999 -9999 -9999 -9999 -9999 -9999 -9999 -9999 -9999 -9999 12.9310344827586 12.9310344827586 5.94353640416047 5.94353640416047 0 0 0 0 0 0 0 0 0 0 0 0 0 0 4.13907284768212 4.13907284768212 0 0 11.8279569892473 2.9585798816568 2.9585798816568 14.3953934740883 14.3953934740883 9.33786078098472 0 0 7.07070707070707 7.07070707070707 7.07070707070707 7.07070707070707 9.78792822185971 9.78792822185971 9.78792822185971 8.70147255689424 8.70147255689424 8.70147255689424 8.70147255689424 8.70147255689424 8.70147255689424 8.70147255689424 8.70147255689424 8.70147255689424 9.65018094089264 9.65018094089264 8.70147255689424 3.67647058823529 5.0761421319797 5.0761421319797 6.89127105666156 0 0 0 0 8.51581508515815 2.10970464135021 2.10970464135021 2.10970464135021 5.79150579150579 0 0 3.37268128161889 3.37268128161889 3.91849529780564 3.91849529780564 9.5389507154213 9.5389507154213 9.5389507154213 4.59558823529412 4.59558823529412 0 0 0 4.12087912087912 2.34466588511137 2.34466588511137 2.34466588511137 10.8974358974359 5.48696844993141 5.48696844993141 0 0 0 2.52525252525253 2.52525252525253 0 8.31600831600832 8.31600831600832 9.3603744149766 9.3603744149766 9.3603744149766 9.3603744149766 0 0 7.33496332518337 7.33496332518337 4.21585160202361 3.01810865191147 15.625 15.625 3.01810865191147 3.01810865191147 0 -9999 -9999 -9999 -9999 -9999 -9999 -9999 6.95517774343122 6.95517774343122 6.95517774343122 6.95517774343122 0 0 0 0 0 0 3.28515111695138 3.28515111695138 3.28515111695138 0 3.95256916996047 3.95256916996047 3.95256916996047 3.95256916996047 0 0 10.1431980906921 10.1431980906921 10.1431980906921 10.1431980906921 -9999 -9999 -9999 -9999 -9999 -9999 -9999 -9999 -9999 -9999 -9999 -9999 -9999 -9999 -9999 -9999 -9999 -9999 -9999 -9999 -9999 -9999 -9999 -9999 -9999 -9999 -9999 -9999 -9999 -9999 -9999 -9999 -9999 -9999 -9999 -9999 -9999 -9999 -9999 -9999 -9999 -9999 -9999 -9999 -9999 -9999 -9999
-9999 -9999 -9999 -9999 -9999 -9999 -9999 -9999 -9999 -9999 -9999 -9999 -9999 -9999 -9999 -9999 -9999 -9999 -9999 -9999 -9999 -9999 -9999 -9999 -9999 -9999 -9999 -9999 -9999 -9999 -9999 -9999 -9999 -9999 -9999 -9999 -9999 -9999 -9999 -9999 -9999 -9999 -9999 -9999 -9999 -9999 -9999 -9999 -9999 -9999 -9999 -9999 -9999 -9999 -9999 -9999 -9999 -9999 -9999 -9999 -9999 -9999 -9999 -9999 -9999 -9999 -9999 -9999 -9999 -9999 -9999 -9999 -9999 -9999 -9999 -9999 -9999 -9999 -9999 -9999 -9999 -9999 -9999 -9999 -9999 -9999 -9999 -9999 -9999 -9999 -9999 -9999 -9999 -9999 -9999 -9999 -9999 -9999 -9999 -9999 -9999 -9999 -9999 -9999 -9999 -9999 -9999 -9999 -9999 -9999 -9999 -9999 -9999 -9999 -9999 -9999 -9999 -9999 -9999 -9999 -9999 -9999 -9999 -9999 -9999 -9999 -9999 -9999 -9999 -9999 -9999 -9999 -9999 -9999 -9999 -9999 -9999 -9999 -9999 -9999 -9999 -9999 -9999 -9999 -9999 -9999 -9999 -9999 -9999 -9999 -9999 -9999 -9999 -9999 -9999 -9999 -9999 -9999 -9999 -9999 -9999 -9999 -9999 -9999 -9999 -9999 -9999 -9999 -9999 -9999 -9999 -9999 -9999 -9999 -9999 -9999 -9999 -9999 -9999 -9999 -9999 -9999 -9999 -9999 -9999 -9999 -9999 -9999 -9999 -9999 -9999 -9999 -9999 -9999 -9999 -9999 -9999 -9999 -9999 -9999 -9999 -9999 -9999 -9999 -9999 -9999 -9999 -9999 -9999 -9999 -9999 -9999 -9999 -9999 -9999 -9999 -9999 -9999 -9999 -9999 -9999 -9999 -9999 -9999 6.39204545454545 6.39204545454545 -9999 2.02020202020202 2.02020202020202 -9999 -9999 12.9310344827586 12.9310344827586 12.9310344827586 0 5.94353640416047 5.94353640416047 5.94353640416047 0 0 0 0 0 0 0 0 0 0 0 0 0 0 0 11.8279569892473 11.8279569892473 11.8279569892473 0 14.3953934740883 14.3953934740883 14.3953934740883 14.3953934740883 7.07070707070707 7.07070707070707 7.07070707070707 9.78792822185971 9.78792822185971 9.78792822185971 9.78792822185971 9.78792822185971 21.8181818181818 21.8181818181818 8.70147255689424 8.70147255689424 8.70147255689424 8.70147255689424 8.70147255689424 8.70147255689424 8.70147255689424 8.70147255689424 0 3.67647058823529 3.67647058823529 3.15457413249211 3.15457413249211 6.89127105666156 4.59418070444104 4.59418070444104 4.59418070444104 0 0 0 0 5.79150579150579 5.79150579150579 6.74157303370786 5.79150579150579 5.79150579150579 3.37268128161889 3.37268128161889 9.67117988394584 9.67117988394584 4.59558823529412 4.59558823529412 0 0 0 0 0 0 0 2.34466588511137 21.7755443886097 21.7755443886097 21.7755443886097 5.48696844993141 0 13.6612021857924 13.6612021857924 0 2.52525252525253 2.52525252525253 9.3603744149766 9.3603744149766 9.3603744149766 9.3603744149766 4.88599348534202 4.88599348534202 4.88599348534202 4.88599348534202 4.21585160202361 4.21585160202361 3.01810865191147 3.01810865191147 3.01810865191147 3.01810865191147 -9999 -9999 -9999 -9999 -9999 -9999 -9999 -9999 -9999 5.09683995922528 5.09683995922528 5.09683995922528 5.09683995922528 0 0 0 0 0 0 7.85340314136126 7.85340314136126 3.28515111695138 2.02839756592292 2.02839756592292 0 3.95256916996047 0 0 10.1431980906921 10.1431980906921 10.1431980906921 10.1431980906921 10.1431980906921 10.1431980906921 -9999 -9999 -9999 -9999 -9999 -9999 -9999 -9999 -9999 -9999 -9999 -9999 -9999 -9999 -9999 -9999 -9999 -9999 -9999 -9999 -9999 -9999 -9999 -9999 -9999 -9999 -9999 -9999 -9999 -9999 -9999 -9999 -9999 -9999 -9999 -9999 -9999 -9999 -9999 -9999 -9999 -9999 -9999 -9999 -9999 -9999
-9999 -9999 -9999 -9999 -9999 -9999 -9999 -9999 -9999 -9999 -9999 -9999 -9999 -9999 -9999 -9999 -9999 -9999 -9999 -9999 -9999 -9999 -9999 -9999 -9999 -9999 -9999 -9999 -9999 -9999 -9999 -9999 -9999 -9999 -9999 -9999 -9999 -9999 -9999 -9999 -9999 -9999 -9999 -9999 -9999 -9999 -9999 -9999 -9999 -9999 -9999 -9999 -9999 -9999 -9999 -9999 -9999 -9999 -9999 -9999 -9999 -9999 -9999 -9999 -9999 -9999 -9999 -9999 -9999 -9999 -9999 -9999 -9999 -9999 -9999 -9999 -9999 -9999 -9999 -9999 -9999 -9999 -9999 -9999 -9999 -9999 -9999 -9999 -9999 -9999 -9999 -9999 -9999 -9999 -9999 -9999 -9999 -9999 -9999 -9999 -9999 -9999 -9999 -9999 -9999 -9999 -9999 -9999 -9999 -9999 -9999 -9999 -9999 -9999 -9999 -9999 -9999 -9999 -9999 -9999 -9999 -9999 -9999 -9999 -9999 -9999 -9999 -9999 -9999 -9999 -9999 -9999 -9999 -9999 -9999 -9999 -9999 -9999 -9999 -9999 -9999 -9999 -9999 -9999 -9999 -9999 -9999 -9999 -9999 -9999 -9999 -9999 -9999 -9999 -9999 -9999 -9999 -9999 -9999 -9999 -9999 -9999 -9999 -9999 -9999 -9999 -9999 -9999 -9999 -9999 -9999 -9999 -9999 -9999 -9999 -9999 -9999 -9999 -9999 -9999 -9999 -9999 -9999 -9999 -9999 -9999 -9999 -9999 -9999 -9999 -9999 -9999 -9999 -9999 -9999 -9999 -9999 -9999 -9999 -9999 -9999 -9999 -9999 -9999 -9999 -9999 -9999 -9999 -9999 -9999 -9999 -9999 -9999 -9999 -9999 -9999 -9999 -9999 -9999 -9999 -9999 -9999 -9999 6.39204545454545 6.39204545454545 6.39204545454545 6.39204545454545 6.39204545454545 2.02020202020202 2.02020202020202 2.02020202020202 12.9310344827586 12.9310344827586 12.9310344827586 9.6964586846543 0 0 0 0 0 0 0 0 0 0 0 0 0 0 15.2477763659466 15.2477763659466 0 0 0 0 6.28140703517588 0 0 0 0 7.07070707070707 7.07070707070707 7.07070707070707 7.07070707070707 9.78792822185971 9.78792822185971 9.78792822185971 9.78792822185971 9.78792822185971 21.8181818181818 21.8181818181818 21.8181818181818 6.45161290322581 6.45161290322581 6.45161290322581 8.70147255689424 8.70147255689424 8.70147255689424 16.5837479270315 16.5837479270315 16.5837479270315 0 7.36648250460405 3.15457413249211 3.15457413249211 0 0 4.59418070444104 8.98203592814371 8.98203592814371 8.98203592814371 0 0 0 6.74157303370786 6.74157303370786 6.74157303370786 5.69259962049336 5.69259962049336 5.69259962049336 9.67117988394584 9.67117988394584 5.69476082004556 5.69476082004556 0 0 4.52488687782805 0 0 0 0 7.98403193612774 7.98403193612774 21.7755443886097 20.1949860724234 20.1949860724234 11.0565110565111 0 0 0 0 7.99086757990868 7.99086757990868 9.3603744149766 4.88599348534202 4.88599348534202 4.88599348534202 4.88599348534202 4.88599348534202 4.88599348534202 4.88599348534202 3.01810865191147 3.01810865191147 3.01810865191147 3.01810865191147 -9999 -9999 -9999 -9999 -9999 -9999 -9999 -9999 -9999 5.09683995922528 5.09683995922528 5.09683995922528 7.35294117647059 7.35294117647059 0 0 0 0 0 0 0 2.02839756592292 2.02839756592292 0 0 0 0 0 4.10509031198686 10.1431980906921 10.1431980906921 10.1431980906921 -9999 -9999 -9999 -9999 -9999 -9999 -9999 -9999 -9999 -9999 -9999 -9999 -9999 -9999 -9999 -9999 -9999 -9999 -9999 -9999 -9999 -9999 -9999 -9999 -9999 -9999 -9999 -9999 -9999 -9999 -9999 -9999 -9999 -9999 -9999 -9999 -9999 -9999 -9999 -9999 -9999 -9999 -9999 -9999 -9999 -9999 -9999 -9999
-9999 -9999 -9999 -9999 -9999 -9999 -9999 -9999 -9999 -9999 -9999 -9999 -9999 -9999 -9999 -9999 -9999 -9999 -9999 -9999 -9999 -9999 -9999 -9999 -9999 -9999 -9999 -9999 -9999 -9999 -9999 -9999 -9999 -9999 -9999 -9999 -9999 -9999 -9999 -9999 -9999 -9999 -9999 -9999 -9999 -9999 -9999 -9999 -9999 -9999 -9999 -9999 -9999 -9999 -9999 -9999 -9999 -9999 -9999 -9999 -9999 -9999 -9999 -9999 -9999 -9999 -9999 -9999 -9999 -9999 -9999 -9999 -9999 -9999 -9999 -9999 -9999 -9999 -9999 -9999 -9999 -9999 -9999 -9999 -9999 -9999 -9999 -9999 -9999 -9999 -9999 -9999 -9999 -9999 -9999 -9999 -9999 -9999 -9999 -9999 -9999 -9999 -9999 -9999 -9999 -9999 -9999 -9999 -9999 -9999 -9999 -9999 -9999 -9999 -9999 -9999 -9999 -9999 -9999 -9999 -9999 -9999 -9999 -9999 -9999 -9999 -9999 -9999 -9999 -9999 -9999 -9999 -9999 -9999 -9999 -9999 -9999 -9999 -9999 -9999 -9999 -9999 -9999 -9999 -9999 -9999 -9999 -9999 -9999 -9999 -9999 -9999 -9999 -9999 -9999 -9999 -9999 -9999 -9999 -9999 -9999 -9999 -9999 -9999 -9999 -9999 -9999 -9999 -9999 -9999 -9999 -9999 -9999 -9999 -9999 -9999 -9999 -9999 -9999 -9999 -9999 -9999 -9999 -9999 -9999 -9999 -9999 -9999 -9999 -9999 -9999 -9999 -9999 -9999 -9999 -9999 -9999 -9999 -9999 -9999 -9999 -9999 -9999 -9999 -9999 -9999 -9999 -9999 -9999 -9999 -9999 -9999 -9999 -9999 -9999 -9999 -9999 -9999 -9999 -9999 -9999 -9999 6.39204545454545 0 6.39204545454545 6.39204545454545 5.68181818181818 6.39204545454545 6.39204545454545 6.39204545454545 5.46021840873635 2.02020202020202 2.02020202020202 4.70588235294118 4.70588235294118 9.6964586846543 9.6964586846543 9.6964586846543 9.6964586846543 0 0 0 0 0 0 0 0 0 0 15.2477763659466 15.2477763659466 0 0 0 0 6.28140703517588 6.28140703517588 6.28140703517588 6.28140703517588 7.07070707070707 7.07070707070707 7.07070707070707 7.07070707070707 9.78792822185971 9.78792822185971 9.78792822185971 9.78792822185971 9.78792822185971 11.8881118881119 11.8881118881119 11.8881118881119 6.45161290322581 6.45161290322581 6.45161290322581 9.01803607214429 9.01803607214429 9.01803607214429 13.9500734214391 13.9500734214391 16.5837479270315 16.5837479270315 0 0 7.36648250460405 9.44881889763779 9.44881889763779 9.44881889763779 3.97456279809221 3.97456279809221 3.97456279809221 0 7.04225352112676 7.04225352112676 0 0 0 16.7785234899329 16.7785234899329 11.8343195266272 19.4954128440367 5.69259962049336 0 0 0 5.69476082004556 0 13.986013986014 13.986013986014 4.52488687782805 0 0 0 0 7.98403193612774 7.98403193612774 6.98324022346369 6.98324022346369 20.1949860724234 11.0565110565111 0 0 0 0 0 4.88599348534202 4.88599348534202 4.88599348534202 4.88599348534202 4.88599348534202 0 0 0 0 3.01810865191147 -9999 -9999 -9999 -9999 -9999 -9999 -9999 -9999 -9999 -9999 5.09683995922528 5.09683995922528 7.35294117647059 7.35294117647059 7.35294117647059 0 0 0 3.00751879699248 3.00751879699248 4.22832980972516 4.22832980972516 0 2.02839756592292 2.02839756592292 2.02839756592292 0 0 4.10509031198686 4.10509031198686 4.10509031198686 4.10509031198686 4.10509031198686 -9999 -9999 -9999 -9999 -9999 -9999 -9999 -9999 -9999 -9999 -9999 -9999 -9999 -9999 -9999 -9999 -9999 -9999 -9999 -9999 -9999 -9999 -9999 -9999 -9999 -9999 -9999 -9999 -9999 -9999 -9999 -9999 -9999 -9999 -9999 -9999 -9999 -9999 -9999 -9999 -9999 -9999 -9999 -9999 -9999 -9999 -9999 -9999
-9999 -9999 -9999 -9999 -9999 -9999 -9999 -9999 -9999 -9999 -9999 -9999 -9999 -9999 -9999 -9999 -9999 -9999 -9999 -9999 -9999 -9999 -9999 -9999 -9999 -9999 -9999 -9999 -9999 -9999 -9999 -9999 -9999 -9999 -9999 -9999 -9999 -9999 -9999 -9999 -9999 -9999 -9999 -9999 -9999 -9999 -9999 -9999 -9999 -9999 -9999 -9999 -9999 -9999 -9999 -9999 -9999 -9999 -9999 -9999 -9999 -9999 -9999 -9999 -9999 -9999 -9999 -9999 -9999 -9999 -9999 -9999 -9999 -9999 -9999 -9999 -9999 -9999 -9999 -9999 -9999 -9999 -9999 -9999 -9999 -9999 -9999 -9999 -9999 -9999 -9999 -9999 -9999 -9999 -9999 -9999 -9999 -9999 -9999 -9999 -9999 -9999 -9999 -9999 -9999 -9999 -9999 -9999 -9999 -9999 -9999 -9999 -9999 -9999 -9999 -9999 -9999 -9999 -9999 -9999 -9999 -9999 -9999 -9999 -9999 -9999 -9999 -9999 -9999 -9999 -9999 -9999 -9999 -9999 -9999 -9999 -9999 -9999 -9999 -9999 -9999 -9999 -9999 -9999 -9999 -9999 -9999 -9999 -9999 -9999 -9999 -9999 -9999 -9999 -9999 -9999 -9999 -9999 -9999 -9999 -9999 -9999 -9999 -9999 -9999 -9999 -9999 -9999 -9999 -9999 -9999 -9999 -9999 -9999 -9999 -9999 -9999 -9999 -9999 -9999 -9999 -9999 -9999 -9999 -9999 -9999 -9999 -9999 -9999 -9999 -9999 -9999 -9999 -9999 -9999 -9999 -9999 -9999 -9999 -9999 -9999 -9999 -9999 -9999 -9999 -9999 -9999 -9999 -9999 -9999 -9999 -9999 -9999 -9999 -9999 -9999 -9999 -9999 -9999 -9999 -9999 6.39204545454545 0 0 0 0 5.68181818181818 5.68181818181818 5.68181818181818 5.46021840873635 5.46021840873635 5.46021840873635 9.1324200913242 9.1324200913242 4.70588235294118 4.70588235294118 9.6964586846543 9.6964586846543 9.6964586846543 9.6964586846543 5.93667546174142 5.93667546174142 0 0 0 0 0 0 15.2477763659466 15.2477763659466 15.2477763659466 15.2477763659466 15.2477763659466 0 6.28140703517588 35.2941176470588 35.2941176470588 35.2941176470588 6.28140703517588 7.07070707070707 7.07070707070707 7.07070707070707 7.07070707070707 9.78792822185971 9.78792822185971 9.78792822185971 9.78792822185971 9.78792822185971 13.5593220338983 11.8881118881119 11.8881118881119 0 0 0 6.14250614250614 9.01803607214429 9.01803607214429 13.9500734214391 13.9500734214391 13.9500734214391 13.9500734214391 13.9500734214391 0 0 9.70873786407767 9.70873786407767 9.44881889763779 0 0 0 0 0 0 0 5.55555555555556 0 0 9.45017182130584 9.45017182130584 19.4954128440367 19.4954128440367 7.67543859649123 0 0 4.12654745529574 4.12654745529574 0 0 8.04597701149425 8.04597701149425 0 0 0 4.58715596330275 6.98324022346369 6.98324022346369 20.1949860724234 20.1949860724234 20.1949860724234 20.1949860724234 0 0 0 0 0 0 0 0 0 0 0 0 0 0 0 0 5.93119810201661 5.93119810201661 5.93119810201661 5.93119810201661 5.93119810201661 5.93119810201661 5.93119810201661 5.93119810201661 5.09683995922528 5.09683995922528 7.35294117647059 7.35294117647059 7.35294117647059 0 0 0 3.00751879699248 3.00751879699248 3.00751879699248 0 0 0 0 0 0 -9999 4.10509031198686 4.10509031198686 4.10509031198686 -9999 -9999 -9999 -9999 -9999 -9999 -9999 -9999 -9999 -9999 -9999 -9999 -9999 -9999 -9999 -9999 -9999 -9999 -9999 -9999 -9999 -9999 -9999 -9999 -9999 -9999 -9999 -9999 -9999 -9999 -9999 -9999 -9999 -9999 -9999 -9999 -9999 -9999 -9999 -9999 -9999 -9999 -9999 -9999 -9999 -9999 -9999 -9999 -9999 -9999
-9999 -9999 -9999 -9999 -9999 -9999 -9999 -9999 -9999 -9999 -9999 -9999 -9999 -9999 -9999 -9999 -9999 -9999 -9999 -9999 -9999 -9999 -9999 -9999 -9999 -9999 -9999 -9999 -9999 -9999 -9999 -9999 -9999 -9999 -9999 -9999 -9999 -9999 -9999 -9999 -9999 -9999 -9999 -9999 -9999 -9999 -9999 -9999 -9999 -9999 -9999 -9999 -9999 -9999 -9999 -9999 -9999 -9999 -9999 -9999 -9999 -9999 -9999 -9999 -9999 -9999 -9999 -9999 -9999 -9999 -9999 -9999 -9999 -9999 -9999 -9999 -9999 -9999 -9999 -9999 -9999 -9999 -9999 -9999 -9999 -9999 -9999 -9999 -9999 -9999 -9999 -9999 -9999 -9999 -9999 -9999 -9999 -9999 -9999 -9999 -9999 -9999 -9999 -9999 -9999 -9999 -9999 -9999 -9999 -9999 -9999 -9999 -9999 -9999 -9999 -9999 -9999 -9999 -9999 -9999 -9999 -9999 -9999 -9999 -9999 -9999 -9999 -9999 -9999 -9999 -9999 -9999 -9999 -9999 -9999 -9999 -9999 -9999 -9999 -9999 -9999 -9999 -9999 -9999 -9999 -9999 -9999 -9999 -9999 -9999 -9999 -9999 -9999 -9999 -9999 -9999 -9999 -9999 -9999 -9999 -9999 -9999 -9999 -9999 -9999 -9999 -9999 -9999 -9999 -9999 -9999 -9999 -9999 -9999 -9999 -9999 -9999 -9999 -9999 -9999 -9999 -9999 -9999 -9999 -9999 -9999 -9999 -9999 -9999 -9999 -9999 -9999 -9999 -9999 -9999 -9999 -9999 -9999 -9999 -9999 -9999 -9999 -9999 -9999 -9999 -9999 -9999 -9999 -9999 -9999 -9999 -9999 -9999 -9999 -9999 -9999 -9999 -9999 -9999 -9999 0 6.07287449392713 0 0 6.07287449392713 6.07287449392713 6.07287449392713 0 2.26244343891403 2.26244343891403 2.26244343891403 9.1324200913242 9.1324200913242 9.1324200913242 9.1324200913242 0 9.6964586846543 9.6964586846543 9.6964586846543 5.93667546174142 5.93667546174142 5.93667546174142 5.93667546174142 5.93667546174142 5.93667546174142 5.93667546174142 0 0 0 0 0 9.10931174089069 0 0 35.2941176470588 35.2941176470588 35.2941176470588 35.2941176470588 7.07070707070707 7.07070707070707 7.07070707070707 7.07070707070707 9.78792822185971 9.78792822185971 9.78792822185971 9.78792822185971 9.78792822185971 9.78792822185971 9.78792822185971 13.5593220338983 0 0 0 0 6.14250614250614 6.14250614250614 13.9500734214391 13.9500734214391 13.9500734214391 13.9500734214391 3.50631136044881 3.50631136044881 3.50631136044881 3.50631136044881 3.50631136044881 3.50631136044881 0 0 0 17.6579925650558 4.03225806451613 4.03225806451613 3.66300366300366 3.66300366300366 0 0 0 0 0 0 9.33609958506224 9.33609958506224 7.67543859649123 7.67543859649123 4.12654745529574 4.12654745529574 4.12654745529574 4.12654745529574 4.28571428571429 4.28571428571429 8.04597701149425 8.04597701149425 3.73134328358209 3.73134328358209 4.58715596330275 20.1949860724234 20.1949860724234 20.1949860724234 20.1949860724234 20.1949860724234 20.1949860724234 20.1949860724234 0 0 2.67379679144385 0 0 0 0 0 0 0 0 0 0 0 0 0 5.93119810201661 5.93119810201661 5.93119810201661 5.93119810201661 5.93119810201661 5.93119810201661 5.93119810201661 6.73076923076923 6.73076923076923 6.73076923076923 0 0 0 5.53097345132743 5.53097345132743 5.53097345132743 3.00751879699248 0 0 0 -9999 0 -9999 -9999 -9999 -9999 -9999 -9999 -9999 -9999 -9999 -9999 -9999 -9999 -9999 -9999 -9999 -9999 -9999 -9999 -9999 -9999 -9999 -9999 -9999 -9999 -9999 -9999 -9999 -9999 -9999 -9999 -9999 -9999 -9999 -9999 -9999 -9999 -9999 -9999 -9999 -9999 -9999 -9999 -9999 -9999 -9999 -9999 -9999 -9999 -9999 -9999 -9999 -9999 -9999 -9999 -9999
-9999 -9999 -9999 -9999 -9999 -9999 -9999 -9999 -9999 -9999 -9999 -9999 -9999 -9999 -9999 -9999 -9999 -9999 -9999 -9999 -9999 -9999 -9999 -9999 -9999 -9999 -9999 -9999 -9999 -9999 -9999 -9999 -9999 -9999 -9999 -9999 -9999 -9999 -9999 -9999 -9999 -9999 -9999 -9999 -9999 -9999 -9999 -9999 -9999 -9999 -9999 -9999 -9999 -9999 -9999 -9999 -9999 -9999 -9999 -9999 -9999 -9999 -9999 -9999 -9999 -9999 -9999 -9999 -9999 -9999 -9999 -9999 -9999 -9999 -9999 -9999 -9999 -9999 -9999 -9999 -9999 -9999 -9999 -9999 -9999 -9999 -9999 -9999 -9999 -9999 -9999 -9999 -9999 -9999 -9999 -9999 -9999 -9999 -9999 -9999 -9999 -9999 -9999 -9999 -9999 -9999 -9999 -9999 -9999 -9999 -9999 -9999 -9999 -9999 -9999 -9999 -9999 -9999 -9999 -9999 -9999 -9999 -9999 -9999 -9999 -9999 -9999 -9999 -9999 -9999 -9999 -9999 -9999 -9999 -9999 -9999 -9999 -9999 -9999 -9999 -9999 -9999 -9999 -9999 -9999 -9999 -9999 -9999 -9999 -9999 -9999 -9999 -9999 -9999 -9999 -9999 -9999 -9999 -9999 -9999 -9999 -9999 -9999 -9999 -9999 -9999 -9999 -9999 -9999 -9999 -9999 -9999 -9999 -9999 -9999 -9999 -9999 -9999 -9999 -9999 -9999 -9999 -9999 -9999 -9999 -9999 -9999 -9999 -9999 -9999 -9999 -9999 -9999 -9999 -9999 -9999 -9999 -9999 -9999 -9999 -9999 -9999 -9999 -9999 -9999 -9999 -9999 -9999 -9999 -9999 -9999 -9999 -9999 -9999 -9999 -9999 -9999 -9999 0 0 0 0 0 6.07287449392713 6.07287449392713 6.07287449392713 6.07287449392713 6.07287449392713 6.07287449392713 7.11743772241993 7.11743772241993 5.1150895140665 5.1150895140665 9.1324200913242 0 0 0 0 5.93667546174142 5.93667546174142 5.93667546174142 5.93667546174142 5.93667546174142 0 0 0 0 0 0 0 0 0 0 9.10931174089069 9.10931174089069 9.10931174089069 0 0 -9999 -9999 -9999 9.78792822185971 9.78792822185971 9.78792822185971 9.78792822185971 9.78792822185971 9.78792822185971 9.78792822185971 9.78792822185971 5.53097345132743 5.53097345132743 5.53097345132743 8.19672131147541 8.19672131147541 0 13.9500734214391 13.9500734214391 13.9500734214391 13.9500734214391 13.9500734214391 3.50631136044881 3.50631136044881 3.50631136044881 3.50631136044881 3.50631136044881 -9999 -9999 -9999 -9999 17.6579925650558 17.6579925650558 17.6579925650558 7.12830957230142 3.66300366300366 4.34782608695652 4.34782608695652 4.34782608695652 0 0 0 11.4583333333333 9.33609958506224 9.33609958506224 6.84931506849315 7.67543859649123 7.67543859649123 4.12654745529574 3.16856780735108 3.16856780735108 3.16856780735108 3.16856780735108 4.03225806451613 4.03225806451613 6.265664160401 9 9 20.1949860724234 20.1949860724234 20.1949860724234 20.1949860724234 20.1949860724234 20.1949860724234 20.1949860724234 0 2.67379679144385 2.67379679144385 1.59235668789809 0 0 0 5.66037735849057 0 0 0 0 0 0 4.96031746031746 4.96031746031746 0 5.93119810201661 5.93119810201661 5.93119810201661 5.93119810201661 5.93119810201661 0 0 6.73076923076923 0 0 0 5.53097345132743 5.53097345132743 5.53097345132743 -9999 -9999 0 0 -9999 -9999 -9999 -9999 -9999 -9999 -9999 -9999 -9999 -9999 -9999 -9999 -9999 -9999 -9999 -9999 -9999 -9999 -9999 -9999 -9999 -9999 -9999 -9999 -9999 -9999 -9999 -9999 -9999 -9999 -9999 -9999 -9999 -9999 -9999 -9999 -9999 -9999 -9999 -9999 -9999 -9999 -9999 -9999 -9999 -9999 -9999 -9999 -9999 -9999 -9999 -9999 -9999 -9999 -9999 -9999 -9999
-9999 -9999 -9999 -9999 -9999 -9999 -9999 -9999 -9999 -9999 -9999 -9999 -9999 -9999 -9999 -9999 -9999 -9999 -9999 -9999 -9999 -9999 -9999 -9999 -9999 -9999 -9999 -9999 -9999 -9999 -9999 -9999 -9999 -9999 -9999 -9999 -9999 -9999 -9999 -9999 -9999 -9999 -9999 -9999 -9999 -9999 -9999 -9999 -9999 -9999 -9999 -9999 -9999 -9999 -9999 -9999 -9999 -9999 -9999 -9999 -9999 -9999 -9999 -9999 -9999 -9999 -9999 -9999 -9999 -9999 -9999 -9999 -9999 -9999 -9999 -9999 -9999 -9999 -9999 -9999 -9999 -9999 -9999 -9999 -9999 -9999 -9999 -9999 -9999 -9999 -9999 -9999 -9999 -9999 -9999 -9999 -9999 -9999 -9999 -9999 -9999 -9999 -9999 -9999 -9999 -9999 -9999 -9999 -9999 -9999 -9999 -9999 -9999 -9999 -9999 -9999 -9999 -9999 -9999 -9999 -9999 -9999 -9999 -9999 -9999 -9999 -9999 -9999 -9999 -9999 -9999 -9999 -9999 -9999 -9999 -9999 -9999 -9999 -9999 -9999 -9999 -9999 -9999 -9999 -9999 -9999 -9999 -9999 -9999 -9999 -9999 -9999 -9999 -9999 -9999 -9999 -9999 -9999 -9999 -9999 -9999 -9999 -9999 -9999 -9999 -9999 -9999 -9999 -9999 -9999 -9999 -9999 -9999 -9999 -9999 -9999 -9999 -9999 -9999 -9999 -9999 -9999 -9999 -9999 -9999 -9999 -9999 -9999 -9999 -9999 -9999 -9999 -9999 -9999 -9999 -9999 -9999 -9999 -9999 -9999 -9999 -9999 -9999 -9999 -9999 -9999 -9999 -9999 -9999 -9999 -9999 0 0 0 0 -9999 0 0 5.60747663551402 0 0 5.60747663551402 0 5.60747663551402 5.60747663551402 0 0 6.07287449392713 7.11743772241993 7.11743772241993 7.11743772241993 7.11743772241993 5.1150895140665 0 0 0 0 0 0 0 0 5.93667546174142 5.93667546174142 5.93667546174142 5.93667546174142 0 9.52380952380952 0 2.65111346765642 2.66768292682927 2.66768292682927 2.66768292682927 2.66768292682927 2.66768292682927 0 0 0 0 -9999 -9999 -9999 -9999 -9999 -9999 -9999 -9999 -9999 9.78792822185971 9.78792822185971 5.53097345132743 5.53097345132743 5.53097345132743 8.19672131147541 8.19672131147541 8.19672131147541 13.9500734214391 13.9500734214391 13.9500734214391 13.9500734214391 13.9500734214391 13.9500734214391 13.9500734214391 13.9500734214391 3.50631136044881 3.50631136044881 -9999 -9999 -9999 -9999 -9999 -9999 -9999 7.12830957230142 7.12830957230142 6.03528319405757 6.03528319405757 9.41915227629513 9.41915227629513 9.41915227629513 5.61797752808989 5.61797752808989 11.4583333333333 3.3112582781457 3.59712230215827 3.59712230215827 6.84931506849315 1.73310225303293 1.73310225303293 1.73310225303293 3.16856780735108 2.57400257400257 2.57400257400257 2.57400257400257 4.03225806451613 3.74732334047109 7.0281124497992 9 5.81395348837209 5.81395348837209 5.81395348837209 20.1949860724234 20.1949860724234 2.85442435775452 1.82481751824817 1.82481751824817 0 2.67379679144385 2.67379679144385 1.59235668789809 5.66037735849057 0 0 5.49450549450549 5.49450549450549 0 0 0 4.96031746031746 4.96031746031746 0 0 0 0 5.93119810201661 0 0 0 0 0 0 0 0 0 -9999 -9999 -9999 0 -9999 -9999 -9999 -9999 -9999 -9999 -9999 -9999 -9999 -9999 -9999 -9999 -9999 -9999 -9999 -9999 -9999 -9999 -9999 -9999 -9999 -9999 -9999 -9999 -9999 -9999 -9999 -9999 -9999 -9999 -9999 -9999 -9999 -9999 -9999 -9999 -9999 -9999 -9999 -9999 -9999 -9999 -9999 -9999 -9999 -9999 -9999 -9999 -9999 -9999 -9999 -9999 -9999 -9999 -9999 -9999 -9999 -9999
-9999 -9999 -9999 -9999 -9999 -9999 -9999 -9999 -9999 -9999 -9999 -9999 -9999 -9999 -9999 -9999 -9999 -9999 -9999 -9999 -9999 -9999 -9999 -9999 -9999 -9999 -9999 -9999 -9999 -9999 -9999 -9999 -9999 -9999 -9999 -9999 -9999 -9999 -9999 -9999 -9999 -9999 -9999 -9999 -9999 -9999 -9999 -9999 -9999 -9999 -9999 -9999 -9999 -9999 -9999 -9999 -9999 -9999 -9999 -9999 -9999 -9999 -9999 -9999 -9999 -9999 -9999 -9999 -9999 -9999 -9999 -9999 -9999 -9999 -9999 -9999 -9999 -9999 -9999 -9999 -9999 -9999 -9999 -9999 -9999 -9999 -9999 -9999 -9999 -9999 -9999 -9999 -9999 -9999 -9999 -9999 -9999 -9999 -9999 -9999 -9999 -9999 -9999 -9999 -9999 -9999 -9999 -9999 -9999 -9999 -9999 -9999 -9999 -9999 -9999 -9999 -9999 -9999 -9999 -9999 -9999 -9999 -9999 -9999 -9999 -9999 -9999 -9999 -9999 -9999 -9999 -9999 -9999 -9999 -9999 -9999 -9999 -9999 -9999 -9999 -9999 -9999 -9999 -9999 -9999 -9999 -9999 -9999 -9999 -9999 -9999 -9999 -9999 -9999 -9999 -9999 -9999 -9999 -9999 -9999 -9999 -9999 -9999 -9999 -9999 -9999 -9999 -9999 -9999 -9999 -9999 -9999 -9999 -9999 -9999 -9999 -9999 -9999 -9999 -9999 -9999 -9999 -9999 -9999 -9999 -9999 -9999 -9999 -9999 -9999 -9999 -9999 -9999 -9999 -9999 -9999 -9999 -9999 -9999 -9999 -9999 -9999 -9999 -9999 -9999 -9999 -9999 -9999 -9999 0 0 0 0 0 0 -9999 0 5.60747663551402 5.60747663551402 5.60747663551402 5.60747663551402 5.60747663551402 5.60747663551402 5.60747663551402 5.60747663551402 0 0 0 0 7.11743772241993 7.11743772241993 7.11743772241993 0 0 0 0 0 0 0 0 0 0 3.67197062423501 5.93667546174142 5.93667546174142 5.93667546174142 9.52380952380952 9.52380952380952 2.65111346765642 2.65111346765642 2.65111346765642 2.65111346765642 2.65111346765642 2.65111346765642 2.65111346765642 14.1304347826087 14.1304347826087 14.1304347826087 -9999 -9999 -9999 -9999 -9999 -9999 -9999 -9999 -9999 -9999 -9999 -9999 -9999 -9999 5.53097345132743 5.53097345132743 13.9500734214391 13.9500734214391 13.9500734214391 13.9500734214391 13.9500734214391 13.9500734214391 13.9500734214391 13.9500734214391 13.9500734214391 13.9500734214391 -9999 -9999 -9999 -9999 -9999 -9999 -9999 -9999 -9999 6.03528319405757 6.03528319405757 6.03528319405757 6.03528319405757 9.41915227629513 7.57575757575758 5.61797752808989 5.61797752808989 5.61797752808989 3.3112582781457 3.3112582781457 3.3112582781457 3.59712230215827 3.59712230215827 1.73310225303293 1.73310225303293 4.73186119873817 4.73186119873817 2.57400257400257 2.57400257400257 3.74732334047109 3.74732334047109 3.74732334047109 3.74732334047109 5.81395348837209 5.81395348837209 5.81395348837209 3.86313465783664 3.86313465783664 0 2.85442435775452 2.85442435775452 1.82481751824817 9.68992248062016 9.68992248062016 9.68992248062016 5.0251256281407 5.0251256281407 2.62237762237762 0 0 5.49450549450549 0 0 0 3.59066427289048 0 0 0 0 0 6.44567219152855 0 1.88679245283019 1.88679245283019 1.88679245283019 0 0 0 0 -9999 -9999 -9999 -9999 -9999 -9999 -9999 -9999 -9999 -9999 -9999 -9999 -9999 -9999 -9999 -9999 -9999 -9999 -9999 -9999 -9999 -9999 -9999 -9999 -9999 -9999 -9999 -9999 -9999 -9999 -9999 -9999 -9999 -9999 -9999 -9999 -9999 -9999 -9999 -9999 -9999 -9999 -9999 -9999 -9999 -9999 -9999 -9999 -9999 -9999 -9999 -9999 -9999 -9999 -9999 -9999 -9999 -9999 -9999 -9999 -9999 -9999
-9999 -9999 -9999 -9999 -9999 -9999 -9999 -9999 -9999 -9999 -9999 -9999 -9999 -9999 -9999 -9999 -9999 -9999 -9999 -9999 -9999 -9999 -9999 -9999 -9999 -9999 -9999 -9999 -9999 -9999 -9999 -9999 -9999 -9999 -9999 -9999 -9999 -9999 -9999 -9999 -9999 -9999 -9999 -9999 -9999 -9999 -9999 -9999 -9999 -9999 -9999 -9999 -9999 -9999 -9999 -9999 -9999 -9999 -9999 -9999 -9999 -9999 -9999 -9999 -9999 -9999 -9999 -9999 -9999 -9999 -9999 -9999 -9999 -9999 -9999 -9999 -9999 -9999 -9999 -9999 -9999 -9999 -9999 -9999 -9999 -9999 -9999 -9999 -9999 -9999 -9999 -9999 -9999 -9999 -9999 -9999 -9999 -9999 -9999 -9999 -9999 -9999 -9999 -9999 -9999 -9999 -9999 -9999 -9999 -9999 -9999 -9999 -9999 -9999 -9999 -9999 -9999 -9999 -9999 -9999 -9999 -9999 -9999 -9999 -9999 -9999 -9999 -9999 -9999 -9999 -9999 -9999 -9999 -9999 -9999 -9999 -9999 -9999 -9999 -9999 -9999 -9999 -9999 -9999 -9999 -9999 -9999 -9999 -9999 -9999 -9999 -9999 -9999 -9999 -9999 -9999 -9999 -9999 -9999 -9999 -9999 -9999 -9999 -9999 -9999 -9999 -9999 -9999 -9999 -9999 -9999 -9999 -9999 -9999 -9999 -9999 -9999 -9999 -9999 -9999 -9999 -9999 -9999 -9999 -9999 -9999 -9999 -9999 -9999 -9999 -9999 -9999 -9999 -9999 -9999 -9999 -9999 -9999 -9999 -9999 -9999 -9999 -9999 -9999 -9999 -9999 -9999 -9999 0 0 0 0 0 0 0 0 -9999 -9999 -9999 5.60747663551402 5.60747663551402 0 0 5.60747663551402 5.60747663551402 0 0 0 0 0 7.11743772241993 7.11743772241993 0 0 0 0 0 0 0 0 0 0 3.67197062423501 3.67197062423501 3.67197062423501 9.52380952380952 9.52380952380952 9.52380952380952 9.52380952380952 2.65111346765642 2.65111346765642 3.84985563041386 3.84985563041386 3.84985563041386 3.84985563041386 -9999 14.1304347826087 -9999 -9999 -9999 -9999 -9999 -9999 -9999 -9999 -9999 -9999 -9999 -9999 -9999 -9999 -9999 -9999 -9999 10.4529616724739 10.4529616724739 10.4529616724739 10.4529616724739 10.4529616724739 13.9500734214391 13.9500734214391 13.9500734214391 13.9500734214391 13.9500734214391 -9999 -9999 -9999 -9999 -9999 -9999 -9999 -9999 -9999 6.03528319405757 6.03528319405757 6.03528319405757 4.07331975560081 4.07331975560081 7.57575757575758 7.57575757575758 7.57575757575758 0 0 0 5.67260940032415 10.2249488752556 10.2249488752556 3.59712230215827 0 4.73186119873817 4.73186119873817 4.73186119873817 9.67741935483871 0 0 3.74732334047109 5.81395348837209 5.81395348837209 5.81395348837209 3.86313465783664 3.86313465783664 3.86313465783664 3.86313465783664 3.87596899224806 0 2.85442435775452 2.9296875 9.68992248062016 4.43458980044346 4.57875457875458 4.57875457875458 2.62237762237762 2.62237762237762 2.62237762237762 0 10.077519379845 10.077519379845 2.55102040816327 2.55102040816327 2.55102040816327 11.1731843575419 7.69230769230769 0 0 6.44567219152855 7.77604976671851 7.77604976671851 1.88679245283019 0 0 0 0 -9999 -9999 -9999 -9999 -9999 -9999 -9999 -9999 -9999 -9999 -9999 -9999 -9999 -9999 -9999 -9999 -9999 -9999 -9999 -9999 -9999 -9999 -9999 -9999 -9999 -9999 -9999 -9999 -9999 -9999 -9999 -9999 -9999 -9999 -9999 -9999 -9999 -9999 -9999 -9999 -9999 -9999 -9999 -9999 -9999 -9999 -9999 -9999 -9999 -9999 -9999 -9999 -9999 -9999 -9999 -9999 -9999 -9999 -9999 -9999 -9999 -9999 -9999
-9999 -9999 -9999 -9999 -9999 -9999 -9999 -9999 -9999 -9999 -9999 -9999 -9999 -9999 -9999 -9999 -9999 -9999 -9999 -9999 -9999 -9999 -9999 -9999 -9999 -9999 -9999 -9999 -9999 -9999 -9999 -9999 -9999 -9999 -9999 -9999 -9999 -9999 -9999 -9999 -9999 -9999 -9999 -9999 -9999 -9999 -9999 -9999 -9999 -9999 -9999 -9999 -9999 -9999 -9999 -9999 -9999 -9999 -9999 -9999 -9999 -9999 -9999 -9999 -9999 -9999 -9999 -9999 -9999 -9999 -9999 -9999 -9999 -9999 -9999 -9999 -9999 -9999 -9999 -9999 -9999 -9999 -9999 -9999 -9999 -9999 -9999 -9999 -9999 -9999 -9999 -9999 -9999 -9999 -9999 -9999 -9999 -9999 -9999 -9999 -9999 -9999 -9999 -9999 -9999 -9999 -9999 -9999 -9999 -9999 -9999 -9999 -9999 -9999 -9999 -9999 -9999 -9999 -9999 -9999 -9999 -9999 -9999 -9999 -9999 -9999 -9999 -9999 -9999 -9999 -9999 -9999 -9999 -9999 -9999 -9999 -9999 -9999 -9999 -9999 -9999 -9999 -9999 -9999 -9999 -9999 -9999 -9999 -9999 -9999 -9999 -9999 -9999 -9999 -9999 -9999 -9999 -9999 -9999 -9999 -9999 -9999 -9999 -9999 -9999 -9999 -9999 -9999 -9999 -9999 -9999 -9999 -9999 -9999 -9999 -9999 -9999 -9999 -9999 -9999 -9999 -9999 -9999 -9999 -9999 -9999 -9999 -9999 -9999 -9999 -9999 -9999 -9999 -9999 -9999 -9999 -9999 -9999 -9999 -9999 -9999 -9999 -9999 -9999 -9999 -9999 -9999 0 0 0 0 0 0 0 -9999 -9999 -9999 -9999 -9999 -9999 0 0 0 0 7.79220779220779 7.79220779220779 0 0 0 0 0 0 7.11743772241993 3.67197062423501 0 0 0 0 0 0 0 0 0 0 -9999 -9999 -9999 -9999 -9999 -9999 -9999 -9999 3.84985563041386 3.84985563041386 3.84985563041386 -9999 3.84985563041386 -9999 -9999 -9999 -9999 -9999 -9999 -9999 -9999 -9999 -9999 -9999 -9999 -9999 -9999 -9999 -9999 9.57290132547865 18.3150183150183 18.3150183150183 10.4529616724739 8.79765395894428 7.96019900497512 7.96019900497512 10.5105105105105 10.5105105105105 10.5105105105105 -9999 -9999 -9999 -9999 -9999 -9999 -9999 -9999 -9999 6.03528319405757 6.03528319405757 6.03528319405757 6.03528319405757 3.97727272727273 4.07331975560081 4.07331975560081 17.6470588235294 3.88349514563107 3.88349514563107 3.88349514563107 8.21917808219178 6.51465798045603 6.51465798045603 5.67260940032415 0 0 0 0 3.2626427406199 3.2626427406199 9.67741935483871 9.67741935483871 5.0761421319797 5.0761421319797 5.0761421319797 4.4955044955045 3.86313465783664 3.86313465783664 3.86313465783664 3.86313465783664 3.86313465783664 3.86313465783664 3.87596899224806 2.9296875 4.43458980044346 4.43458980044346 4.43458980044346 0 4.57875457875458 4.57875457875458 0 0 0 0 10.077519379845 10.077519379845 4.69924812030075 4.69924812030075 4.69924812030075 11.1731843575419 7.67543859649123 7.67543859649123 0 7.77604976671851 0 0 0 0 -9999 -9999 -9999 -9999 -9999 -9999 -9999 -9999 6.22775800711744 -9999 -9999 -9999 -9999 -9999 -9999 -9999 -9999 -9999 -9999 -9999 -9999 -9999 -9999 -9999 -9999 -9999 -9999 -9999 -9999 -9999 -9999 -9999 -9999 -9999 -9999 -9999 -9999 -9999 -9999 -9999 -9999 -9999 -9999 -9999 -9999 -9999 -9999 -9999 -9999 -9999 -9999 -9999 -9999 -9999 -9999 -9999 -9999 -9999 -9999 -9999 -9999 -9999 -9999 -9999
-9999 -9999 -9999 -9999 -9999 -9999 -9999 -9999 -9999 -9999 -9999 -9999 -9999 -9999 -9999 -9999 -9999 -9999 -9999 -9999 -9999 -9999 -9999 -9999 -9999 -9999 -9999 -9999 -9999 -9999 -9999 -9999 -9999 -9999 -9999 -9999 -9999 -9999 -9999 -9999 -9999 -9999 -9999 -9999 -9999 -9999 -9999 -9999 -9999 -9999 -9999 -9999 -9999 -9999 -9999 -9999 -9999 -9999 -9999 -9999 -9999 -9999 -9999 -9999 -9999 -9999 -9999 -9999 -9999 -9999 -9999 -9999 -9999 -9999 -9999 -9999 -9999 -9999 -9999 -9999 -9999 -9999 -9999 -9999 -9999 -9999 -9999 -9999 -9999 -9999 -9999 -9999 -9999 -9999 -9999 -9999 -9999 -9999 -9999 -9999 -9999 -9999 -9999 -9999 -9999 -9999 -9999 -9999 -9999 -9999 -9999 -9999 -9999 -9999 -9999 -9999 -9999 -9999 -9999 -9999 -9999 -9999 -9999 -9999 -9999 -9999 -9999 -9999 -9999 -9999 -9999 -9999 -9999 -9999 -9999 -9999 -9999 -9999 -9999 -9999 -9999 -9999 -9999 -9999 -9999 -9999 -9999 -9999 -9999 -9999 -9999 -9999 -9999 -9999 -9999 -9999 -9999 -9999 -9999 -9999 -9999 -9999 -9999 -9999 -9999 -9999 -9999 -9999 -9999 -9999 -9999 -9999 -9999 -9999 -9999 -9999 -9999 -9999 -9999 -9999 -9999 -9999 -9999 -9999 -9999 -9999 -9999 -9999 -9999 -9999 -9999 -9999 -9999 -9999 -9999 -9999 -9999 -9999 -9999 -9999 -9999 -9999 -9999 -9999 -9999 -9999 0 0 8.91632373113855 8.91632373113855 8.91632373113855 8.91632373113855 10.8381502890173 0 -9999 -9999 -9999 -9999 -9999 -9999 -9999 -9999 0 7.79220779220779 7.79220779220779 7.79220779220779 7.79220779220779 0 0 0 0 0 0 0 3.67197062423501 3.67197062423501 0 0 0 0 0 0 0 3.67197062423501 -9999 -9999 -9999 -9999 -9999 -9999 -9999 -9999 -9999 -9999 -9999 -9999 -9999 -9999 -9999 -9999 -9999 -9999 -9999 -9999 -9999 -9999 -9999 -9999 -9999 -9999 -9999 -9999 7.30411686586985 2.79850746268657 7.30411686586985 7.30411686586985 9.57290132547865 5.78512396694215 5.78512396694215 8.79765395894428 7.59878419452887 7.59878419452887 7.59878419452887 -9999 -9999 -9999 -9999 -9999 -9999 2.69687162891046 -9999 6.03528319405757 6.03528319405757 6.03528319405757 6.03528319405757 3.97727272727273 3.97727272727273 3.97727272727273 3.97727272727273 17.6470588235294 17.6470588235294 17.6470588235294 6.0459492140266 6.0459492140266 6.0459492140266 8.21917808219178 5.5205047318612 5.5205047318612 5.5205047318612 0 7.37704918032787 7.37704918032787 3.2626427406199 3.2626427406199 9.67741935483871 9.67741935483871 9.67741935483871 4.4955044955045 4.4955044955045 4.4955044955045 4.4955044955045 4.4955044955045 3.86313465783664 3.86313465783664 0 0 4.33839479392625 4.33839479392625 4.43458980044346 0 0 0 0 0 8.62068965517241 0 0 0 0 0 0 4.4543429844098 4.4543429844098 10.6534090909091 9.73654066437572 9.73654066437572 9.73654066437572 0 0 0 -9999 -9999 -9999 4.18410041841004 4.18410041841004 -9999 -9999 -9999 -9999 6.22775800711744 6.22775800711744 -9999 -9999 -9999 -9999 -9999 -9999 -9999 -9999 -9999 -9999 -9999 -9999 -9999 -9999 -9999 -9999 -9999 -9999 -9999 -9999 -9999 -9999 -9999 -9999 -9999 -9999 -9999 -9999 -9999 -9999 -9999 -9999 -9999 -9999 -9999 -9999 -9999 -9999 -9999 -9999 -9999 -9999 -9999 -9999 -9999 -9999 -9999 -9999 -9999 -9999 -9999 -9999 -9999 -9999
-9999 -9999 -9999 -9999 -9999 -9999 -9999 -9999 -9999 -9999 -9999 -9999 -9999 -9999 -9999 -9999 -9999 -9999 -9999 -9999 -9999 -9999 -9999 -9999 -9999 -9999 -9999 -9999 -9999 -9999 -9999 -9999 -9999 -9999 -9999 -9999 -9999 -9999 -9999 -9999 -9999 -9999 -9999 -9999 -9999 -9999 -9999 -9999 -9999 -9999 -9999 -9999 -9999 -9999 -9999 -9999 -9999 -9999 -9999 -9999 -9999 -9999 -9999 -9999 -9999 -9999 -9999 -9999 -9999 -9999 -9999 -9999 -9999 -9999 -9999 -9999 -9999 -9999 -9999 -9999 -9999 -9999 -9999 -9999 -9999 -9999 -9999 -9999 -9999 -9999 -9999 -9999 -9999 -9999 -9999 -9999 -9999 -9999 -9999 -9999 -9999 -9999 -9999 -9999 -9999 -9999 -9999 -9999 -9999 -9999 -9999 -9999 -9999 -9999 -9999 -9999 -9999 -9999 -9999 -9999 -9999 -9999 -9999 -9999 -9999 -9999 -9999 -9999 -9999 -9999 -9999 -9999 -9999 -9999 -9999 -9999 -9999 -9999 -9999 -9999 -9999 -9999 -9999 -9999 -9999 -9999 -9999 -9999 -9999 -9999 -9999 -9999 -9999 -9999 -9999 -9999 -9999 -9999 -9999 -9999 -9999 -9999 -9999 -9999 -9999 -9999 -9999 -9999 -9999 -9999 -9999 -9999 -9999 -9999 -9999 -9999 -9999 -9999 -9999 -9999 -9999 -9999 -9999 -9999 -9999 -9999 -9999 -9999 -9999 -9999 -9999 -9999 -9999 -9999 -9999 -9999 -9999 -9999 -9999 -9999 -9999 -9999 -9999 -9999 -9999 0 0 0 0 8.91632373113855 8.91632373113855 0 10.8381502890173 10.8381502890173 0 -9999 -9999 -9999 -9999 -9999 -9999 0 0 0 0 7.79220779220779 0 0 0 0 0 0 0 0 0 0 3.67197062423501 3.67197062423501 3.67197062423501 0 3.67197062423501 3.67197062423501 3.67197062423501 -9999 -9999 -9999 -9999 -9999 0 0 0 0 0 0 -9999 -9999 -9999 -9999 3.44036697247706 -9999 -9999 -9999 -9999 -9999 -9999 -9999 -9999 -9999 -9999 -9999 -9999 -9999 7.30411686586985 13.6579572446556 4.60122699386503 4.60122699386503 18.9982728842832 5.78512396694215 5.78512396694215 5.78512396694215 5.78512396694215 5.78512396694215 12.3287671232877 17.3076923076923 17.3076923076923 4.98753117206983 4.98753117206983 10.6382978723404 6.62739322533137 2.69687162891046 2.69687162891046 2.69687162891046 2.69687162891046 2.69687162891046 6.73076923076923 6.73076923076923 0 3.97727272727273 3.97727272727273 3.97727272727273 9.93377483443709 9.93377483443709 9.93377483443709 9.93377483443709 6.0459492140266 7.37704918032787 7.37704918032787 8.40336134453782 8.40336134453782 7.37704918032787 7.37704918032787 7.37704918032787 7.37704918032787 7.37704918032787 9.67741935483871 9.67741935483871 7.8031212484994 7.8031212484994 7.8031212484994 4.4955044955045 4.4955044955045 4.73484848484848 4.4955044955045 4.4955044955045 0 4.33839479392625 4.33839479392625 3.32594235033259 0 0 0 1.73611111111111 1.73611111111111 1.73611111111111 8.62068965517241 8.62068965517241 8.62068965517241 0 0 0 6.19195046439629 0 0 10.6534090909091 10.6534090909091 9.73654066437572 9.73654066437572 9.73654066437572 9.73654066437572 -9999 -9999 -9999 4.18410041841004 4.18410041841004 4.18410041841004 4.18410041841004 6.22775800711744 6.22775800711744 -9999 6.22775800711744 -9999 -9999 -9999 -9999 -9999 -9999 -9999 -9999 -9999 -9999 -9999 -9999 -9999 -9999 -9999 -9999 -9999 -9999 -9999 -9999 -9999 -9999 -9999 -9999 -9999 -9999 -9999 -9999 -9999 -9999 -9999 -9999 -9999 -9999 -9999 -9999 -9999 -9999 -9999 -9999 -9999 -9999 -9999 -9999 -9999 -9999 -9999 -9999 -9999 -9999 -9999 -9999 -9999 -9999 -9999
-9999 -9999 -9999 -9999 -9999 -9999 -9999 -9999 -9999 -9999 -9999 -9999 -9999 -9999 -9999 -9999 -9999 -9999 -9999 -9999 -9999 -9999 -9999 -9999 -9999 -9999 -9999 -9999 -9999 -9999 -9999 -9999 -9999 -9999 -9999 -9999 -9999 -9999 -9999 -9999 -9999 -9999 -9999 -9999 -9999 -9999 -9999 -9999 -9999 -9999 -9999 -9999 -9999 -9999 -9999 -9999 -9999 -9999 -9999 -9999 -9999 -9999 -9999 -9999 -9999 -9999 -9999 -9999 -9999 -9999 -9999 -9999 -9999 -9999 -9999 -9999 -9999 -9999 -9999 -9999 -9999 -9999 -9999 -9999 -9999 -9999 -9999 -9999 -9999 -9999 -9999 -9999 -9999 -9999 -9999 -9999 -9999 -9999 -9999 -9999 -9999 -9999 -9999 -9999 -9999 -9999 -9999 -9999 -9999 -9999 -9999 -9999 -9999 -9999 -9999 -9999 -9999 -9999 -9999 -9999 -9999 -9999 -9999 -9999 -9999 -9999 -9999 -9999 -9999 -9999 -9999 -9999 -9999 -9999 -9999 -9999 -9999 -9999 -9999 -9999 -9999 -9999 -9999 -9999 -9999 -9999 -9999 -9999 -9999 -9999 -9999 -9999 -9999 -9999 -9999 -9999 -9999 -9999 -9999 -9999 -9999 -9999 -9999 -9999 -9999 -9999 -9999 -9999 -9999 -9999 -9999 -9999 -9999 -9999 -9999 -9999 -9999 -9999 -9999 -9999 -9999 -9999 -9999 -9999 -9999 -9999 -9999 -9999 -9999 -9999 -9999 -9999 -9999 -9999 -9999 -9999 -9999 -9999 -9999 -9999 -9999 -9999 0 0 0 0 0 0 0 2.30414746543779 0 5.09337860780985 0 0 0 0 -9999 -9999 -9999 -9999 0 0 13.915547024952 13.915547024952 0 12.218045112782 0 0 0 0 0 0 0 0 0 0 0 0 0 0 0 -9999 -9999 -9999 -9999 -9999 0 0 1.70940170940171 1.70940170940171 4.90998363338789 4.90998363338789 0 0 14.2231947483589 -9999 -9999 3.44036697247706 3.44036697247706 3.44036697247706 3.44036697247706 3.44036697247706 -9999 -9999 -9999 -9999 -9999 -9999 -9999 -9999 -9999 7.21153846153846 7.21153846153846 7.21153846153846 7.21153846153846 7.21153846153846 17.5757575757576 17.5757575757576 2.77777777777778 14.6750524109015 14.6750524109015 8.47457627118644 8.47457627118644 8.47457627118644 8.47457627118644 12.4069478908189 0 0 9.04605263157895 9.04605263157895 6.62739322533137 27.5862068965517 27.5862068965517 6.73076923076923 6.73076923076923 6.73076923076923 6.73076923076923 6.73076923076923 0 0 0 0 0 9.93377483443709 9.93377483443709 9.93377483443709 9.93377483443709 7.37704918032787 7.37704918032787 7.37704918032787 7.37704918032787 7.37704918032787 7.37704918032787 7.37704918032787 0 0 7.8031212484994 7.8031212484994 7.8031212484994 7.8031212484994 6.94444444444444 4.73484848484848 0 0 0 0 4.43458980044346 4.31965442764579 4.31965442764579 3.32594235033259 0 0 0 0 0 0 -9999 -9999 -9999 6.35424940428912 6.35424940428912 5.47945205479452 5.65428109854604 5.65428109854604 5.65428109854604 9.73654066437572 9.73654066437572 9.73654066437572 -9999 -9999 -9999 2.57289879931389 2.57289879931389 3.49162011173184 3.49162011173184 0 6.22775800711744 6.22775800711744 6.22775800711744 6.22775800711744 -9999 -9999 -9999 -9999 -9999 -9999 -9999 -9999 -9999 -9999 -9999 -9999 -9999 -9999 -9999 -9999 -9999 -9999 -9999 -9999 -9999 -9999 -9999 -9999 -9999 -9999 -9999 -9999 -9999 -9999 -9999 -9999 -9999 -9999 -9999 -9999 -9999 -9999 -9999 -9999 -9999 -9999 -9999 -9999 -9999 -9999 -9999 -9999 -9999 -9999 -9999 -9999 -9999 -9999 -9999
-9999 -9999 -9999 -9999 -9999 -9999 -9999 -9999 -9999 -9999 -9999 -9999 -9999 -9999 -9999 -9999 -9999 -9999 -9999 -9999 -9999 -9999 -9999 -9999 -9999 -9999 -9999 -9999 -9999 -9999 -9999 -9999 -9999 -9999 -9999 -9999 -9999 -9999 -9999 -9999 -9999 -9999 -9999 -9999 -9999 -9999 -9999 -9999 -9999 -9999 -9999 -9999 -9999 -9999 -9999 -9999 -9999 -9999 -9999 -9999 -9999 -9999 -9999 -9999 -9999 -9999 -9999 -9999 -9999 -9999 -9999 -9999 -9999 -9999 -9999 -9999 -9999 -9999 -9999 -9999 -9999 -9999 -9999 -9999 -9999 -9999 -9999 -9999 -9999 -9999 -9999 -9999 -9999 -9999 -9999 -9999 -9999 -9999 -9999 -9999 -9999 -9999 -9999 -9999 -9999 -9999 -9999 -9999 -9999 -9999 -9999 -9999 -9999 -9999 -9999 -9999 -9999 -9999 -9999 -9999 -9999 -9999 -9999 -9999 -9999 -9999 -9999 -9999 -9999 -9999 -9999 -9999 -9999 -9999 -9999 -9999 -9999 -9999 -9999 -9999 -9999 -9999 -9999 -9999 -9999 -9999 -9999 -9999 -9999 -9999 -9999 -9999 -9999 -9999 -9999 -9999 -9999 -9999 -9999 -9999 -9999 -9999 -9999 -9999 -9999 -9999 -9999 -9999 -9999 -9999 -9999 -9999 -9999 -9999 -9999 -9999 -9999 -9999 -9999 -9999 -9999 -9999 -9999 -9999 -9999 -9999 -9999 -9999 -9999 -9999 -9999 -9999 -9999 -9999 -9999 -9999 -9999 -9999 -9999 -9999 -9999 0 0 0 0 0 0 4.79846449136276 4.79846449136276 4.79846449136276 2.30414746543779 2.30414746543779 5.09337860780985 5.09337860780985 3.33778371161549 -9999 -9999 -9999 -9999 13.915547024952 13.915547024952 13.915547024952 13.915547024952 13.915547024952 3.98936170212766 12.218045112782 12.218045112782 12.218045112782 16.1596958174905 0 0 0 0 6.87285223367698 6.87285223367698 7.86924939467312 7.86924939467312 7.86924939467312 7.86924939467312 7.86924939467312 7.86924939467312 7.86924939467312 -9999 -9999 -9999 -9999 1.70940170940171 1.70940170940171 1.70940170940171 4.90998363338789 4.90998363338789 4.90998363338789 4.90998363338789 14.2231947483589 14.2231947483589 2.04678362573099 2.04678362573099 3.44036697247706 3.44036697247706 3.44036697247706 3.44036697247706 3.44036697247706 3.44036697247706 3.44036697247706 3.44036697247706 -9999 -9999 -9999 -9999 -9999 7.21153846153846 7.21153846153846 7.21153846153846 7.21153846153846 7.21153846153846 7.21153846153846 7.21153846153846 0 0 10.4651162790698 10.4651162790698 12.0192307692308 12.0192307692308 8.47457627118644 8.27205882352941 8.27205882352941 8.27205882352941 0 8.63723608445297 8.63723608445297 20.8791208791209 0 9.88142292490119 9.88142292490119 4.5766590389016 6.73076923076923 6.73076923076923 6.73076923076923 0 0 0 0 0 0 0 0 3.6231884057971 3.6231884057971 3.6231884057971 0 0 0 0 0 0 0 4.44839857651246 4.44839857651246 7.8031212484994 6.94444444444444 6.94444444444444 6.94444444444444 5.21739130434783 5.21739130434783 3.52941176470588 0 0 4.43458980044346 4.43458980044346 4.83558994197292 4.83558994197292 4.83558994197292 9.98003992015968 9.98003992015968 9.98003992015968 -9999 -9999 -9999 -9999 -9999 -9999 6.35424940428912 2.87686996547756 2.87686996547756 0 0 0 -9999 -9999 -9999 2.57289879931389 2.57289879931389 2.57289879931389 3.49162011173184 0 0 2.41254523522316 2.41254523522316 6.22775800711744 6.22775800711744 -9999 -9999 -9999 -9999 -9999 -9999 -9999 -9999 -9999 -9999 -9999 -9999 -9999 -9999 -9999 -9999 -9999 -9999 -9999 -9999 -9999 -9999 -9999 -9999 -9999 -9999 -9999 -9999 -9999 -9999 -9999 -9999 -9999 -9999 -9999 -9999 -9999 -9999 -9999 -9999 -9999 -9999 -9999 -9999 -9999 -9999 -9999 -9999 -9999 -9999 -9999 -9999 -9999 -9999 -9999
-9999 -9999 -9999 -9999 -9999 -9999 -9999 -9999 -9999 -9999 -9999 -9999 -9999 -9999 -9999 -9999 -9999 -9999 -9999 -9999 -9999 -9999 -9999 -9999 -9999 -9999 -9999 -9999 -9999 -9999 -9999 -9999 -9999 -9999 -9999 -9999 -9999 -9999 -9999 -9999 -9999 -9999 -9999 -9999 -9999 -9999 -9999 -9999 -9999 -9999 -9999 -9999 -9999 -9999 -9999 -9999 -9999 -9999 -9999 -9999 -9999 -9999 -9999 -9999 -9999 -9999 -9999 -9999 -9999 -9999 -9999 -9999 -9999 -9999 -9999 -9999 -9999 -9999 -9999 -9999 -9999 -9999 -9999 -9999 -9999 -9999 -9999 -9999 -9999 -9999 -9999 -9999 -9999 -9999 -9999 -9999 -9999 -9999 -9999 -9999 -9999 -9999 -9999 -9999 -9999 -9999 -9999 -9999 -9999 -9999 -9999 -9999 -9999 -9999 -9999 -9999 -9999 -9999 -9999 -9999 -9999 -9999 -9999 -9999 -9999 -9999 -9999 -9999 -9999 -9999 -9999 -9999 -9999 -9999 -9999 -9999 -9999 -9999 -9999 -9999 -9999 -9999 -9999 -9999 -9999 -9999 -9999 -9999 -9999 -9999 -9999 -9999 -9999 -9999 -9999 -9999 -9999 -9999 -9999 -9999 -9999 -9999 -9999 -9999 -9999 -9999 -9999 -9999 -9999 -9999 -9999 -9999 -9999 -9999 -9999 -9999 -9999 -9999 -9999 -9999 -9999 -9999 -9999 -9999 -9999 -9999 -9999 -9999 -9999 -9999 -9999 -9999 -9999 -9999 -9999 -9999 -9999 -9999 -9999 -9999 0 0 0 0 4.79846449136276 4.79846449136276 4.79846449136276 4.79846449136276 4.79846449136276 4.79846449136276 4.79846449136276 2.30414746543779 2.30414746543779 2.30414746543779 3.33778371161549 3.33778371161549 3.33778371161549 -9999 -9999 11.0410094637224 11.0410094637224 13.915547024952 3.98936170212766 3.98936170212766 3.98936170212766 3.98936170212766 12.218045112782 22.6700251889169 22.6700251889169 16.1596958174905 6.87285223367698 6.87285223367698 6.87285223367698 6.71785028790787 6.71785028790787 6.71785028790787 4.40917107583774 7.86924939467312 7.86924939467312 7.86924939467312 7.86924939467312 4.05844155844156 0 4.05844155844156 7.86924939467312 0 7.27934485896269 7.27934485896269 7.27934485896269 7.27934485896269 14.9253731343284 14.9253731343284 4.12796697626419 4.12796697626419 2.04678362573099 2.04678362573099 3.44036697247706 3.44036697247706 3.44036697247706 3.44036697247706 3.44036697247706 3.44036697247706 3.44036697247706 3.44036697247706 3.44036697247706 3.44036697247706 3.44036697247706 8.91861761426979 8.91861761426979 8.91861761426979 7.21153846153846 7.21153846153846 7.21153846153846 7.21153846153846 7.21153846153846 7.21153846153846 7.21153846153846 0 0 0 0 0 7.21153846153846 6.11620795107034 7.72200772200772 7.72200772200772 10.3926096997691 10.3926096997691 4.69924812030075 4.69924812030075 8.96414342629482 8.96414342629482 0 14.7058823529412 14.7058823529412 6.73076923076923 6.73076923076923 7.94701986754967 7.94701986754967 0 0 0 0 0 3.6231884057971 7.51252086811352 3.6231884057971 3.6231884057971 3.6231884057971 3.6231884057971 0 0 0 0 0 0 0 3.84615384615385 8.26446280991736 8.26446280991736 8.26446280991736 5.21739130434783 5.21739130434783 5.90219224283305 6.34057971014493 6.34057971014493 3.52941176470588 0 0 0 0 7.1664829106946 7.1664829106946 7.1664829106946 -9999 -9999 -9999 -9999 -9999 -9999 -9999 -9999 2.99850074962519 2.99850074962519 2.87686996547756 2.87686996547756 4.88145048814505 4.88145048814505 4.88145048814505 2.57289879931389 2.57289879931389 2.57289879931389 2.57289879931389 2.41254523522316 2.41254523522316 2.41254523522316 2.41254523522316 2.41254523522316 6.22775800711744 -9999 -9999 -9999 -9999 -9999 -9999 -9999 -9999 -9999 -9999 -9999 -9999 -9999 -9999 -9999 -9999 -9999 -9999 -9999 -9999 -9999 -9999 -9999 -9999 -9999 -9999 -9999 -9999 -9999 -9999 -9999 -9999 -9999 -9999 -9999 -9999 -9999 -9999 -9999 -9999 -9999 -9999 -9999 -9999 -9999 -9999 -9999 -9999 -9999 -9999 -9999 -9999 -9999 -9999 -9999 -9999
-9999 -9999 -9999 -9999 -9999 -9999 -9999 -9999 -9999 -9999 -9999 -9999 -9999 -9999 -9999 -9999 -9999 -9999 -9999 -9999 -9999 -9999 -9999 -9999 -9999 -9999 -9999 -9999 -9999 -9999 -9999 -9999 -9999 -9999 -9999 -9999 -9999 -9999 -9999 -9999 -9999 -9999 -9999 -9999 -9999 -9999 -9999 -9999 -9999 -9999 -9999 -9999 -9999 -9999 -9999 -9999 -9999 -9999 -9999 -9999 -9999 -9999 -9999 -9999 -9999 -9999 -9999 -9999 -9999 -9999 -9999 -9999 -9999 -9999 -9999 -9999 -9999 -9999 -9999 -9999 -9999 -9999 -9999 -9999 -9999 -9999 -9999 -9999 -9999 -9999 -9999 -9999 -9999 -9999 -9999 -9999 -9999 -9999 -9999 -9999 -9999 -9999 -9999 -9999 -9999 -9999 -9999 -9999 -9999 -9999 -9999 -9999 -9999 -9999 -9999 -9999 -9999 -9999 -9999 -9999 -9999 -9999 -9999 -9999 -9999 -9999 -9999 -9999 -9999 -9999 -9999 -9999 -9999 -9999 -9999 -9999 -9999 -9999 -9999 -9999 -9999 -9999 -9999 -9999 -9999 -9999 -9999 -9999 -9999 -9999 -9999 -9999 -9999 -9999 -9999 -9999 -9999 -9999 -9999 -9999 -9999 -9999 -9999 -9999 -9999 -9999 -9999 -9999 -9999 -9999 -9999 -9999 -9999 -9999 -9999 -9999 -9999 -9999 -9999 -9999 -9999 -9999 -9999 -9999 -9999 -9999 -9999 -9999 -9999 -9999 -9999 -9999 -9999 -9999 -9999 -9999 -9999 0 0 3.44827586206897 0 0 0 3.44827586206897 3.44827586206897 0 0 0 4.59770114942529 4.79846449136276 0 0 0 2.30414746543779 2.30414746543779 2.30414746543779 2.30414746543779 -9999 -9999 -9999 -9999 13.302034428795 13.302034428795 3.98936170212766 3.98936170212766 3.98936170212766 13.6116152450091 -9999 -9999 -9999 -9999 10.498687664042 10.498687664042 6.87285223367698 6.87285223367698 4.40917107583774 4.40917107583774 4.40917107583774 7.86924939467312 7.86924939467312 4.05844155844156 4.05844155844156 0 0 0 0 0 0 0 7.27934485896269 7.27934485896269 7.27934485896269 7.27934485896269 2.04678362573099 2.04678362573099 2.04678362573099 3.44036697247706 3.44036697247706 3.44036697247706 3.44036697247706 3.44036697247706 3.44036697247706 3.44036697247706 3.44036697247706 3.44036697247706 3.44036697247706 3.44036697247706 3.44036697247706 8.91861761426979 -9999 0 0 0 0 7.21153846153846 7.21153846153846 0 0 0 0 0 0 0 0 4.94071146245059 4.94071146245059 3.83771929824561 3.83771929824561 3.83771929824561 9.75609756097561 9.75609756097561 7.41525423728813 7.41525423728813 16.4948453608247 16.4948453608247 0 7.57575757575758 7.94701986754967 7.94701986754967 7.94701986754967 7.94701986754967 7.94701986754967 6.4034151547492 6.48414985590778 6.48414985590778 0 0 7.51252086811352 3.6231884057971 0 4.60829493087558 4.60829493087558 0 5.27240773286468 5.27240773286468 5.27240773286468 0 0 3.84615384615385 3.84615384615385 5.37634408602151 5.37634408602151 5.94059405940594 5.90219224283305 5.90219224283305 0 0 0 0 0 0 0 0 -9999 -9999 -9999 -9999 -9999 -9999 -9999 -9999 2.99850074962519 2.99850074962519 2.99850074962519 2.99850074962519 2.99850074962519 4.88145048814505 4.88145048814505 4.88145048814505 4.88145048814505 4.88145048814505 2.57289879931389 2.41254523522316 2.41254523522316 2.41254523522316 2.41254523522316 2.41254523522316 6.22775800711744 6.22775800711744 -9999 -9999 -9999 -9999 -9999 -9999 -9999 -9999 -9999 -9999 -9999 -9999 -9999 -9999 -9999 -9999 -9999 -9999 -9999 -9999 -9999 -9999 -9999 -9999 -9999 -9999 -9999 -9999 -9999 -9999 -9999 -9999 -9999 -9999 -9999 -9999 -9999 -9999 -9999 -9999 -9999 -9999 -9999 -9999 -9999 -9999 -9999 -9999 -9999 -9999 -9999 -9999 -9999 -9999 -9999 -9999
-9999 -9999 -9999 -9999 -9999 -9999 -9999 -9999 -9999 -9999 -9999 -9999 -9999 -9999 -9999 -9999 -9999 -9999 -9999 -9999 -9999 -9999 -9999 -9999 -9999 -9999 -9999 -9999 -9999 -9999 -9999 -9999 -9999 -9999 -9999 -9999 -9999 -9999 -9999 -9999 -9999 -9999 -9999 -9999 -9999 -9999 -9999 -9999 -9999 -9999 -9999 -9999 -9999 -9999 -9999 -9999 -9999 -9999 -9999 -9999 -9999 -9999 -9999 -9999 -9999 -9999 -9999 -9999 -9999 -9999 -9999 -9999 -9999 -9999 -9999 -9999 -9999 -9999 -9999 -9999 -9999 -9999 -9999 -9999 -9999 -9999 -9999 -9999 -9999 -9999 -9999 -9999 -9999 -9999 -9999 -9999 -9999 -9999 -9999 -9999 -9999 -9999 -9999 -9999 -9999 -9999 -9999 -9999 -9999 -9999 -9999 -9999 -9999 -9999 -9999 -9999 -9999 -9999 -9999 -9999 -9999 -9999 -9999 -9999 -9999 -9999 -9999 -9999 -9999 -9999 -9999 -9999 -9999 -9999 -9999 -9999 -9999 -9999 -9999 -9999 -9999 -9999 -9999 -9999 -9999 -9999 -9999 -9999 -9999 -9999 -9999 -9999 -9999 -9999 -9999 -9999 -9999 -9999 -9999 -9999 -9999 -9999 -9999 -9999 -9999 -9999 -9999 -9999 -9999 -9999 -9999 -9999 -9999 -9999 -9999 -9999 -9999 -9999 -9999 -9999 -9999 -9999 -9999 -9999 -9999 -9999 -9999 -9999 -9999 -9999 -9999 -9999 -9999 -9999 -9999 -9999 0 0 3.44827586206897 3.44827586206897 3.44827586206897 3.44827586206897 3.44827586206897 3.44827586206897 3.44827586206897 0 0 4.59770114942529 4.59770114942529 3.41685649202733 3.41685649202733 3.41685649202733 0 0 0 0 2.30414746543779 2.30414746543779 0 5.86854460093897 20.7182320441989 20.0364298724954 13.6116152450091 13.6116152450091 13.6116152450091 -9999 -9999 -9999 -9999 -9999 -9999 -9999 -9999 10.498687664042 4.40917107583774 4.40917107583774 4.40917107583774 4.40917107583774 0 0 4.05844155844156 4.05844155844156 0 0 0 0 0 0 0 0 0 0 7.27934485896269 2.04678362573099 2.04678362573099 3.44036697247706 3.44036697247706 3.44036697247706 3.44036697247706 3.44036697247706 3.44036697247706 3.44036697247706 3.44036697247706 3.44036697247706 3.44036697247706 3.44036697247706 3.44036697247706 3.44036697247706 8.91861761426979 -9999 0 0 0 0 0 0 0 0 0 0 0 0 0 0 0 4.94071146245059 4.94071146245059 4.94071146245059 9.74025974025974 9.74025974025974 9.75609756097561 0 0 4.8661800486618 0 0 7.57575757575758 7.57575757575758 7.57575757575758 7.94701986754967 7.94701986754967 7.94701986754967 7.94701986754967 9.52380952380952 6.4034151547492 6.4034151547492 6.48414985590778 6.48414985590778 0 5.68181818181818 5.68181818181818 0 4.30292598967298 4.30292598967298 0 0 0 3.84615384615385 3.84615384615385 5.37634408602151 5.37634408602151 10.351966873706 5.94059405940594 3.91849529780564 3.91849529780564 0 0 4.67289719626168 0 0 0 0 6.18238021638331 0 0 -9999 -9999 -9999 -9999 -9999 -9999 1.53374233128834 1.53374233128834 2.99850074962519 2.99850074962519 12.1268656716418 12.1268656716418 12.1268656716418 4.88145048814505 4.88145048814505 7.57575757575758 7.57575757575758 7.57575757575758 4.20757363253857 2.41254523522316 2.41254523522316 2.41254523522316 6.22775800711744 6.22775800711744 -9999 -9999 -9999 -9999 -9999 -9999 -9999 -9999 -9999 -9999 -9999 -9999 -9999 -9999 -9999 -9999 -9999 -9999 -9999 -9999 -9999 -9999 -9999 -9999 -9999 -9999 -9999 -9999 -9999 -9999 -9999 -9999 -9999 -9999 -9999 -9999 -9999 -9999 -9999 -9999 -9999 -9999 -9999 -9999 -9999 -9999 -9999 -9999 -9999 -9999 -9999 -9999 -9999 -9999 -9999 -9999
-9999 -9999 -9999 -9999 -9999 -9999 -9999 -9999 -9999 -9999 -9999 -9999 -9999 -9999 -9999 -9999 -9999 -9999 -9999 -9999 -9999 -9999 -9999 -9999 -9999 -9999 -9999 -9999 -9999 -9999 -9999 -9999 -9999 -9999 -9999 -9999 -9999 -9999 -9999 -9999 -9999 -9999 -9999 -9999 -9999 -9999 -9999 -9999 -9999 -9999 -9999 -9999 -9999 -9999 -9999 -9999 -9999 -9999 -9999 -9999 -9999 -9999 -9999 -9999 -9999 -9999 -9999 -9999 -9999 -9999 -9999 -9999 -9999 -9999 -9999 -9999 -9999 -9999 -9999 -9999 -9999 -9999 -9999 -9999 -9999 -9999 -9999 -9999 -9999 -9999 -9999 -9999 -9999 -9999 -9999 -9999 -9999 -9999 -9999 -9999 -9999 -9999 -9999 -9999 -9999 -9999 -9999 -9999 -9999 -9999 -9999 -9999 -9999 -9999 -9999 -9999 -9999 -9999 -9999 -9999 -9999 -9999 -9999 -9999 -9999 -9999 -9999 -9999 -9999 -9999 -9999 -9999 -9999 -9999 -9999 -9999 -9999 -9999 -9999 -9999 -9999 -9999 -9999 -9999 -9999 -9999 -9999 -9999 -9999 -9999 -9999 -9999 -9999 -9999 -9999 -9999 -9999 -9999 -9999 -9999 -9999 -9999 -9999 -9999 -9999 -9999 -9999 -9999 -9999 -9999 -9999 -9999 -9999 -9999 -9999 -9999 -9999 -9999 -9999 -9999 -9999 -9999 -9999 -9999 -9999 -9999 -9999 -9999 -9999 -9999 -9999 -9999 -9999 -9999 -9999 0 0 0 0 0 3.44827586206897 3.44827586206897 0 7.97872340425532 3.44827586206897 7.97872340425532 7.97872340425532 7.97872340425532 5.27704485488127 3.41685649202733 4.17536534446764 0 0 0 0 0 0 0 5.86854460093897 5.86854460093897 5.86854460093897 20.7182320441989 -9999 -9999 -9999 -9999 -9999 -9999 -9999 -9999 -9999 -9999 -9999 -9999 4.40917107583774 4.40917107583774 4.40917107583774 0 0 0 0 13.6570561456753 13.6570561456753 0 0 0 3.19148936170213 0 0 0 0 0 2.74122807017544 -9999 -9999 3.44036697247706 3.44036697247706 3.44036697247706 3.44036697247706 3.44036697247706 3.44036697247706 3.44036697247706 3.44036697247706 3.44036697247706 3.44036697247706 3.44036697247706 3.44036697247706 3.44036697247706 -9999 0 0 0 0 0 0 0 0 0 0 0 0 0 0 0 0 0 4.94071146245059 9.74025974025974 9.74025974025974 9.74025974025974 9.74025974025974 9.74025974025974 9.74025974025974 9.74025974025974 9.74025974025974 3.87596899224806 3.87596899224806 7.57575757575758 7.57575757575758 7.57575757575758 7.57575757575758 7.94701986754967 7.94701986754967 8.81834215167548 9.52380952380952 0 6.4034151547492 0 0 0 0 8.23529411764706 8.23529411764706 4.07331975560081 4.30292598967298 4.30292598967298 3.47222222222222 0 0 0 9.01639344262295 9.01639344262295 15.4142581888247 3.91849529780564 3.91849529780564 3.91849529780564 9.27643784786642 4.67289719626168 0 0 0 12.0068610634648 6.18238021638331 6.18238021638331 0 0 5.21920668058455 -9999 -9999 -9999 -9999 6.05143721633888 1.53374233128834 1.53374233128834 5.68828213879408 5.68828213879408 5.68828213879408 3.34448160535117 3.34448160535117 11.4345114345114 5.42299349240781 5.42299349240781 4.20757363253857 4.20757363253857 4.20757363253857 4.20757363253857 2.41254523522316 6.22775800711744 -9999 -9999 -9999 -9999 -9999 -9999 -9999 -9999 -9999 -9999 -9999 -9999 -9999 -9999 -9999 -9999 -9999 -9999 -9999 -9999 -9999 -9999 -9999 -9999 -9999 -9999 -9999 -9999 -9999 -9999 -9999 -9999 -9999 -9999 -9999 -9999 -9999 -9999 -9999 -9999 -9999 -9999 -9999 -9999 -9999 -9999 -9999 -9999 -9999 -9999 -9999 -9999 -9999 -9999 -9999 -9999 -9999
-9999 -9999 -9999 -9999 -9999 -9999 -9999 -9999 -9999 -9999 -9999 -9999 -9999 -9999 -9999 -9999 -9999 -9999 -9999 -9999 -9999 -9999 -9999 -9999 -9999 -9999 -9999 -9999 -9999 -9999 -9999 -9999 -9999 -9999 -9999 -9999 -9999 -9999 -9999 -9999 -9999 -9999 -9999 -9999 -9999 -9999 -9999 -9999 -9999 -9999 -9999 -9999 -9999 -9999 -9999 -9999 -9999 -9999 -9999 -9999 -9999 -9999 -9999 -9999 -9999 -9999 -9999 -9999 -9999 -9999 -9999 -9999 -9999 -9999 -9999 -9999 -9999 -9999 -9999 -9999 -9999 -9999 -9999 -9999 -9999 -9999 -9999 -9999 -9999 -9999 -9999 -9999 -9999 -9999 -9999 -9999 -9999 -9999 -9999 -9999 -9999 -9999 -9999 -9999 -9999 -9999 -9999 -9999 -9999 -9999 -9999 -9999 -9999 -9999 -9999 -9999 -9999 -9999 -9999 -9999 -9999 -9999 -9999 -9999 -9999 -9999 -9999 -9999 -9999 -9999 -9999 -9999 -9999 -9999 -9999 -9999 -9999 -9999 -9999 -9999 -9999 -9999 -9999 -9999 -9999 -9999 -9999 -9999 -9999 -9999 -9999 -9999 -9999 -9999 -9999 -9999 -9999 -9999 -9999 -9999 -9999 -9999 -9999 -9999 -9999 -9999 -9999 -9999 -9999 -9999 -9999 -9999 -9999 -9999 -9999 -9999 -9999 -9999 -9999 -9999 -9999 -9999 -9999 -9999 -9999 -9999 -9999 -9999 -9999 -9999 -9999 -9999 -9999 -9999 0 0 0 0 0 0 0 0 0 0 4.07331975560081 7.97872340425532 7.97872340425532 4.02576489533011 5.27704485488127 5.27704485488127 4.17536534446764 0 0 4.17536534446764 0 0 5.86854460093897 5.86854460093897 5.86854460093897 5.86854460093897 5.86854460093897 5.86854460093897 5.86854460093897 -9999 -9999 -9999 -9999 -9999 -9999 -9999 -9999 -9999 -9999 -9999 -9999 -9999 0 0 0 0 0 0 0 13.6570561456753 13.6570561456753 3.19148936170213 3.19148936170213 3.19148936170213 0 0 0 2.74122807017544 2.74122807017544 -9999 -9999 3.44036697247706 3.44036697247706 3.44036697247706 3.44036697247706 3.44036697247706 3.44036697247706 3.44036697247706 3.44036697247706 3.44036697247706 3.44036697247706 3.44036697247706 3.44036697247706 -9999 -9999 -9999 -9999 0 0 0 0 0 0 0 0 0 0 0 0 0 0 4.94071146245059 4.94071146245059 9.74025974025974 9.74025974025974 9.74025974025974 9.74025974025974 9.74025974025974 9.74025974025974 9.74025974025974 3.87596899224806 3.87596899224806 3.87596899224806 3.87596899224806 0 7.57575757575758 5.90219224283305 5.90219224283305 0 0 6.2015503875969 6.2015503875969 10.1214574898785 11.9305856832972 0 0 0 0 0 0 8.23529411764706 0 0 3.47222222222222 3.47222222222222 0 9.01639344262295 3.84615384615385 15.4142581888247 15.4142581888247 3.91849529780564 5.4719562243502 5.4719562243502 9.27643784786642 9.27643784786642 0 12.0068610634648 12.0068610634648 12.0068610634648 -9999 8.19672131147541 8.19672131147541 5.21920668058455 0 0 -9999 -9999 6.05143721633888 6.05143721633888 6.05143721633888 5.68828213879408 5.68828213879408 5.68828213879408 3.34448160535117 2.46710526315789 11.4345114345114 11.4345114345114 7.06214689265537 5.42299349240781 4.20757363253857 4.20757363253857 4.20757363253857 4.20757363253857 4.20757363253857 -9999 -9999 -9999 -9999 -9999 -9999 -9999 -9999 -9999 -9999 -9999 -9999 -9999 -9999 -9999 -9999 -9999 -9999 -9999 -9999 -9999 -9999 -9999 -9999 -9999 -9999 -9999 -9999 -9999 -9999 -9999 -9999 -9999 -9999 -9999 -9999 -9999 -9999 -9999 -9999 -9999 -9999 -9999 -9999 -9999 -9999 -9999 -9999 -9999 -9999 -9999 -9999 -9999 -9999 -9999 -9999 -9999
-9999 -9999 -9999 -9999 -9999 -9999 -9999 -9999 -9999 -9999 -9999 -9999 -9999 -9999 -9999 -9999 -9999 -9999 -9999 -9999 -9999 -9999 -9999 -9999 -9999 -9999 -9999 -9999 -9999 -9999 -9999 -9999 -9999 -9999 -9999 -9999 -9999 -9999 -9999 -9999 -9999 -9999 -9999 -9999 -9999 -9999 -9999 -9999 -9999 -9999 -9999 -9999 -9999 -9999 -9999 -9999 -9999 -9999 -9999 -9999 -9999 -9999 -9999 -9999 -9999 -9999 -9999 -9999 -9999 -9999 -9999 -9999 -9999 -9999 -9999 -9999 -9999 -9999 -9999 -9999 -9999 -9999 -9999 -9999 -9999 -9999 -9999 -9999 -9999 -9999 -9999 -9999 -9999 -9999 -9999 -9999 -9999 -9999 -9999 -9999 -9999 -9999 -9999 -9999 -9999 -9999 -9999 -9999 -9999 -9999 -9999 -9999 -9999 -9999 -9999 -9999 -9999 -9999 -9999 -9999 -9999 -9999 -9999 -9999 -9999 -9999 -9999 -9999 -9999 -9999 -9999 -9999 -9999 -9999 -9999 -9999 -9999 -9999 -9999 -9999 -9999 -9999 -9999 -9999 -9999 -9999 -9999 -9999 -9999 -9999 -9999 -9999 -9999 -9999 -9999 -9999 -9999 -9999 -9999 -9999 -9999 -9999 -9999 -9999 -9999 -9999 -9999 -9999 -9999 -9999 -9999 -9999 -9999 -9999 -9999 -9999 -9999 -9999 -9999 -9999 -9999 -9999 -9999 -9999 -9999 -9999 -9999 -9999 -9999 -9999 -9999 -9999 -9999 -9999 0 0 0 0 0 0 0 0 0 0 0 4.07331975560081 4.07331975560081 4.07331975560081 4.02576489533011 4.02576489533011 4.02576489533011 4.02576489533011 4.17536534446764 5.86854460093897 5.86854460093897 5.86854460093897 5.86854460093897 5.86854460093897 5.86854460093897 5.86854460093897 5.86854460093897 -9999 -9999 -9999 -9999 -9999 -9999 -9999 -9999 -9999 -9999 -9999 -9999 14.8114901256732 14.8114901256732 6.63716814159292 6.63716814159292 0 -9999 -9999 -9999 0 0 0 0 3.19148936170213 3.19148936170213 0 0 0 0 2.74122807017544 2.74122807017544 -9999 -9999 3.44036697247706 3.44036697247706 3.44036697247706 3.44036697247706 3.44036697247706 3.44036697247706 3.44036697247706 3.44036697247706 3.44036697247706 3.44036697247706 3.44036697247706 3.44036697247706 -9999 0 0 0 0 0 0 0 0 0 0 0 0 0 0 0 0 4.94071146245059 4.94071146245059 0 0 9.74025974025974 9.74025974025974 9.74025974025974 9.74025974025974 9.74025974025974 3.87596899224806 3.87596899224806 3.87596899224806 3.87596899224806 3.87596899224806 0 0 0 0 0 6.20567375886525 6.20567375886525 0 0 10.1214574898785 10.1214574898785 0 0 10.2739726027397 10.2739726027397 0 10.0334448160535 10.0334448160535 10.0334448160535 0 8.41121495327103 0 0 0 3.84615384615385 3.91849529780564 3.48189415041783 5.4719562243502 5.4719562243502 0 0 4.08496732026144 4.08496732026144 4.08496732026144 -9999 -9999 -9999 -9999 7.11743772241993 7.11743772241993 7.11743772241993 5.94353640416047 4.20168067226891 1.48148148148148 1.48148148148148 0 0 0 5.68828213879408 2.46710526315789 0 11.4345114345114 7.06214689265537 7.06214689265537 7.06214689265537 -9999 4.20757363253857 4.20757363253857 4.20757363253857 4.20757363253857 -9999 -9999 -9999 -9999 -9999 -9999 -9999 -9999 -9999 -9999 -9999 -9999 -9999 -9999 -9999 -9999 -9999 -9999 -9999 -9999 -9999 -9999 -9999 -9999 -9999 -9999 -9999 -9999 -9999 -9999 -9999 -9999 -9999 -9999 -9999 -9999 -9999 -9999 -9999 -9999 -9999 -9999 -9999 -9999 -9999 -9999 -9999 -9999 -9999 -9999 -9999 -9999 -9999 -9999 -9999 -9999 -9999
-9999 -9999 -9999 -9999 -9999 -9999 -9999 -9999 -9999 -9999 -9999 -9999 -9999 -9999 -9999 -9999 -9999 -9999 -9999 -9999 -9999 -9999 -9999 -9999 -9999 -9999 -9999 -9999 -9999 -9999 -9999 -9999 -9999 -9999 -9999 -9999 -9999 -9999 -9999 -9999 -9999 -9999 -9999 -9999 -9999 -9999 -9999 -9999 -9999 -9999 -9999 -9999 -9999 -9999 -9999 -9999 -9999 -9999 -9999 -9999 -9999 -9999 -9999 -9999 -9999 -9999 -9999 -9999 -9999 -9999 -9999 -9999 -9999 -9999 0 0 0 0 0 0 0 0 0 0 -9999 -9999 -9999 -9999 -9999 -9999 -9999 -9999 -9999 -9999 -9999 -9999 -9999 -9999 -9999 -9999 -9999 -9999 -9999 -9999 -9999 -9999 -9999 -9999 -9999 -9999 -9999 -9999 -9999 -9999 -9999 -9999 -9999 -9999 -9999 -9999 -9999 -9999 -9999 -9999 -9999 -9999 -9999 -9999 -9999 -9999 -9999 -9999 -9999 -9999 -9999 -9999 -9999 -9999 -9999 -9999 -9999 -9999 -9999 -9999 -9999 -9999 -9999 -9999 -9999 -9999 -9999 -9999 -9999 -9999 -9999 -9999 -9999 -9999 -9999 -9999 -9999 -9999 -9999 -9999 -9999 -9999 -9999 -9999 -9999 -9999 -9999 -9999 -9999 -9999 -9999 -9999 -9999 -9999 -9999 -9999 -9999 -9999 -9999 -9999 -9999 -9999 -9999 -9999 -9999 -9999 -9999 -9999 -9999 0 0 0 0 0 0 0 0 0 0 0 0 0 4.07331975560081 4.07331975560081 4.07331975560081 4.02576489533011 5.86854460093897 5.86854460093897 5.86854460093897 5.86854460093897 5.86854460093897 5.86854460093897 5.86854460093897 5.86854460093897 5.86854460093897 -9999 -9999 -9999 -9999 -9999 -9999 -9999 -9999 -9999 -9999 -9999 -9999 -9999 9.28074245939675 9.28074245939675 9.28074245939675 14.8114901256732 6.63716814159292 4.43037974683544 6.63716814159292 -9999 -9999 -9999 0 1.91570881226054 0 0 0 0 0 -9999 -9999 -9999 -9999 -9999 -9999 3.44036697247706 3.44036697247706 3.44036697247706 3.44036697247706 3.44036697247706 3.44036697247706 3.44036697247706 3.44036697247706 3.44036697247706 3.44036697247706 3.44036697247706 8.57632933104631 -9999 0 0 0 0 0 0 0 0 0 0 0 0 0 0 0 0 0 4.94071146245059 0 0 1.61117078410312 1.61117078410312 1.61117078410312 9.74025974025974 3.87596899224806 3.87596899224806 3.87596899224806 3.87596899224806 3.87596899224806 0 0 0 0 0 6.88976377952756 0 5.75815738963532 5.75815738963532 5.75815738963532 0 0 0 9.50871632329635 0 0 10.2739726027397 10.2739726027397 10.0334448160535 10.0334448160535 8.41121495327103 8.41121495327103 3.18471337579618 3.18471337579618 0 0 9.00900900900901 3.48189415041783 3.48189415041783 8.91632373113855 8.91632373113855 0 7.62527233115468 4.08496732026144 5.85284280936455 0 0 -9999 -9999 -9999 -9999 7.11743772241993 7.11743772241993 3.31564986737401 4.20168067226891 4.20168067226891 9.25925925925926 4.57875457875458 4.42477876106195 0 0 0 9.15750915750916 9.15750915750916 9.15750915750916 -9999 -9999 -9999 -9999 4.20757363253857 4.20757363253857 -9999 -9999 -9999 -9999 -9999 -9999 -9999 -9999 -9999 -9999 -9999 -9999 -9999 -9999 -9999 -9999 -9999 -9999 -9999 -9999 -9999 -9999 -9999 -9999 -9999 -9999 -9999 -9999 -9999 -9999 -9999 -9999 -9999 -9999 -9999 -9999 -9999 -9999 -9999 -9999 -9999 -9999 -9999 -9999 -9999 -9999 -9999 -9999 -9999 -9999 -9999 -9999 -9999 -9999 -9999 -9999 -9999
-9999 -9999 -9999 -9999 -9999 -9999 -9999 -9999 -9999 -9999 -9999 -9999 -9999 -9999 -9999 -9999 -9999 -9999 -9999 -9999 -9999 -9999 -9999 -9999 -9999 -9999 -9999 -9999 -9999 -9999 -9999 -9999 -9999 -9999 -9999 -9999 -9999 -9999 -9999 -9999 -9999 -9999 -9999 -9999 -9999 -9999 -9999 -9999 -9999 -9999 -9999 -9999 -9999 -9999 -9999 -9999 -9999 -9999 -9999 -9999 -9999 -9999 -9999 -9999 -9999 -9999 -9999 -9999 -9999 -9999 0 0 -9999 -9999 0 0 0 5.02706883217324 5.02706883217324 5.02706883217324 5.02706883217324 5.02706883217324 0 0 0 0 5.02706883217324 5.02706883217324 0 0 0 0 0 -9999 -9999 -9999 -9999 -9999 -9999 -9999 -9999 -9999 -9999 -9999 -9999 -9999 -9999 -9999 -9999 -9999 -9999 -9999 -9999 -9999 -9999 -9999 -9999 -9999 -9999 -9999 -9999 -9999 -9999 -9999 -9999 -9999 -9999 -9999 -9999 -9999 -9999 -9999 -9999 -9999 -9999 -9999 -9999 -9999 -9999 -9999 -9999 -9999 -9999 -9999 -9999 -9999 -9999 -9999 -9999 -9999 -9999 -9999 -9999 -9999 -9999 -9999 -9999 -9999 -9999 -9999 -9999 -9999 -9999 -9999 -9999 -9999 -9999 -9999 -9999 -9999 -9999 -9999 -9999 -9999 -9999 -9999 -9999 -9999 -9999 -9999 -9999 -9999 -9999 -9999 -9999 -9999 -9999 -9999 -9999 -9999 -9999 -9999 0 0 0 0 0 0 0 0 0 0 0 0 0 0 4.07331975560081 5.86854460093897 5.86854460093897 5.86854460093897 5.86854460093897 5.86854460093897 5.86854460093897 5.86854460093897 5.86854460093897 5.86854460093897 5.86854460093897 -9999 -9999 -9999 -9999 -9999 -9999 -9999 -9999 -9999 -9999 -9999 -9999 -9999 20.6013363028953 20.6013363028953 20.6013363028953 3.15955766192733 9.28074245939675 14.8114901256732 14.8114901256732 14.8114901256732 4.43037974683544 6.63716814159292 -9999 -9999 -9999 1.91570881226054 1.91570881226054 1.91570881226054 1.91570881226054 1.91570881226054 0 0 -9999 -9999 -9999 -9999 -9999 3.44036697247706 3.44036697247706 3.44036697247706 3.44036697247706 3.44036697247706 3.44036697247706 3.44036697247706 3.44036697247706 3.44036697247706 3.44036697247706 8.91861761426979 8.57632933104631 8.57632933104631 8.57632933104631 8.57632933104631 0 0 0 0 0 0 0 0 0 0 0 0 0 0 0 1.61117078410312 0 0 1.61117078410312 1.61117078410312 1.61117078410312 2.0979020979021 2.0979020979021 2.0979020979021 3.87596899224806 3.87596899224806 8.23045267489712 8.23045267489712 6.5252854812398 6.5252854812398 6.5252854812398 6.88976377952756 6.88976377952756 6.88976377952756 5.74712643678161 5.75815738963532 5.75815738963532 0 0 0 9.50871632329635 9.50871632329635 9.50871632329635 0 0 10.2739726027397 0 0 9.58188153310105 9.58188153310105 0 3.18471337579618 8.7719298245614 9.00900900900901 9.00900900900901 9.00900900900901 8.91632373113855 8.91632373113855 7.06214689265537 7.06214689265537 0 0 5.85284280936455 5.85284280936455 0 0 -9999 -9999 -9999 -9999 3.31564986737401 3.31564986737401 0 9.25925925925926 6.6334991708126 6.6334991708126 4.57875457875458 4.42477876106195 -9999 -9999 9.15750915750916 -9999 -9999 -9999 -9999 -9999 -9999 -9999 -9999 -9999 -9999 -9999 -9999 -9999 -9999 -9999 -9999 -9999 -9999 -9999 -9999 -9999 -9999 -9999 -9999 -9999 -9999 -9999 -9999 -9999 -9999 -9999 -9999 -9999 -9999 -9999 -9999 -9999 -9999 -9999 -9999 -9999 -9999 -9999 -9999 -9999 -9999 -9999 -9999 -9999 -9999 -9999 -9999 -9999 -9999 -9999 -9999 -9999 -9999 -9999 -9999 -9999 -9999 -9999 -9999
-9999 -9999 -9999 -9999 -9999 -9999 -9999 -9999 -9999 -9999 -9999 -9999 -9999 -9999 -9999 -9999 -9999 -9999 -9999 -9999 -9999 -9999 -9999 -9999 -9999 -9999 -9999 -9999 -9999 -9999 -9999 -9999 -9999 -9999 -9999 -9999 -9999 -9999 -9999 -9999 -9999 -9999 -9999 -9999 -9999 -9999 -9999 -9999 -9999 -9999 -9999 -9999 -9999 -9999 -9999 -9999 -9999 -9999 -9999 -9999 -9999 -9999 2.9940119760479 -9999 -9999 -9999 2.9940119760479 2.9940119760479 2.9940119760479 2.9940119760479 2.9940119760479 0 0 0 0 5.02706883217324 5.02706883217324 5.02706883217324 5.02706883217324 5.02706883217324 5.02706883217324 5.02706883217324 5.02706883217324 0 0 0 5.02706883217324 5.02706883217324 5.02706883217324 0 5.02706883217324 0 0 0 -9999 -9999 -9999 -9999 -9999 -9999 -9999 -9999 -9999 -9999 -9999 -9999 -9999 -9999 -9999 -9999 -9999 -9999 -9999 -9999 -9999 -9999 -9999 -9999 -9999 -9999 -9999 -9999 -9999 -9999 -9999 -9999 -9999 -9999 -9999 -9999 -9999 -9999 -9999 -9999 -9999 -9999 -9999 -9999 -9999 -9999 -9999 -9999 -9999 -9999 -9999 -9999 -9999 -9999 -9999 -9999 -9999 -9999 -9999 -9999 -9999 -9999 -9999 -9999 -9999 -9999 -9999 -9999 -9999 -9999 -9999 -9999 -9999 -9999 -9999 -9999 -9999 -9999 -9999 -9999 -9999 -9999 -9999 -9999 -9999 -9999 -9999 -9999 -9999 -9999 0 0 -9999 -9999 -9999 0 0 0 0 0 0 0 0 0 0 0 0 0 0 0 0 0 0 0 5.86854460093897 5.86854460093897 5.86854460093897 0 5.86854460093897 5.86854460093897 5.86854460093897 5.86854460093897 -9999 -9999 -9999 -9999 -9999 -9999 -9999 -9999 -9999 -9999 -9999 -9999 -9999 20.6013363028953 20.6013363028953 20.6013363028953 20.6013363028953 20.6013363028953 3.15955766192733 21.7391304347826 14.8114901256732 14.8114901256732 14.8114901256732 1.36425648021828 1.36425648021828 25.7009345794392 -9999 -9999 1.91570881226054 1.91570881226054 1.91570881226054 0 0 0 -9999 -9999 -9999 -9999 -9999 3.44036697247706 3.44036697247706 3.44036697247706 3.44036697247706 3.44036697247706 8.91861761426979 8.91861761426979 8.91861761426979 3.44036697247706 3.44036697247706 0 0 8.57632933104631 8.57632933104631 8.57632933104631 0 0 0 5.88235294117647 0 0 0 0 0 8.88529886914378 8.88529886914378 8.88529886914378 0 0 1.61117078410312 1.61117078410312 1.61117078410312 1.61117078410312 1.61117078410312 1.61117078410312 2.0979020979021 2.0979020979021 2.0979020979021 0 0 0 8.23045267489712 6.5252854812398 6.5252854812398 6.5252854812398 6.5252854812398 9.35550935550936 9.35550935550936 5.74712643678161 5.74712643678161 5.74712643678161 5.74712643678161 0 0 0 0 9.50871632329635 0 0 0 2.84738041002278 2.84738041002278 0 8.06451612903226 8.06451612903226 9.58188153310105 8.7719298245614 8.7719298245614 8.7719298245614 4.76947535771065 4.76947535771065 4.76947535771065 0 7.06214689265537 0 0 0 7.78210116731517 7.78210116731517 7.5187969924812 0 0 7.5187969924812 -9999 3.31564986737401 3.31564986737401 3.31564986737401 3.31564986737401 6.6334991708126 0 6.6334991708126 6.6334991708126 6.63716814159292 -9999 -9999 -9999 -9999 -9999 -9999 -9999 -9999 -9999 -9999 -9999 -9999 -9999 -9999 -9999 -9999 -9999 -9999 -9999 -9999 -9999 -9999 -9999 -9999 -9999 -9999 -9999 -9999 -9999 -9999 -9999 -9999 -9999 -9999 -9999 -9999 -9999 -9999 -9999 -9999 -9999 -9999 -9999 -9999 -9999 -9999 -9999 -9999 -9999 -9999 -9999 -9999 -9999 -9999 -9999 -9999 -9999 -9999 -9999 -9999 -9999 -9999 -9999 -9999 -9999 -9999 -9999
-9999 -9999 -9999 -9999 -9999 -9999 -9999 -9999 -9999 -9999 -9999 -9999 -9999 -9999 -9999 -9999 -9999 -9999 -9999 -9999 -9999 -9999 -9999 -9999 -9999 -9999 -9999 -9999 -9999 -9999 -9999 -9999 -9999 -9999 -9999 -9999 -9999 -9999 -9999 -9999 -9999 -9999 -9999 -9999 -9999 -9999 -9999 -9999 -9999 -9999 -9999 -9999 -9999 -9999 -9999 -9999 -9999 -9999 -9999 -9999 -9999 -9999 2.9940119760479 2.9940119760479 2.9940119760479 2.9940119760479 2.9940119760479 2.9940119760479 2.9940119760479 2.9940119760479 2.9940119760479 2.9940119760479 2.9940119760479 5.02706883217324 5.02706883217324 5.02706883217324 5.02706883217324 5.02706883217324 5.02706883217324 5.02706883217324 5.02706883217324 5.02706883217324 5.02706883217324 5.02706883217324 5.02706883217324 5.02706883217324 5.02706883217324 5.02706883217324 5.02706883217324 5.02706883217324 5.02706883217324 5.02706883217324 0 0 0 -9999 -9999 -9999 -9999 -9999 -9999 -9999 -9999 -9999 -9999 -9999 -9999 3.13807531380753 3.13807531380753 3.13807531380753 4.60564191134139 4.60564191134139 4.60564191134139 4.60564191134139 4.60564191134139 4.60564191134139 4.60564191134139 4.60564191134139 4.60564191134139 4.60564191134139 4.60564191134139 4.60564191134139 4.60564191134139 4.60564191134139 -9999 -9999 -9999 -9999 -9999 -9999 -9999 -9999 -9999 -9999 -9999 -9999 -9999 2.79642058165548 2.79642058165548 -9999 -9999 -9999 -9999 -9999 -9999 -9999 -9999 -9999 -9999 -9999 -9999 -9999 -9999 -9999 -9999 -9999 -9999 -9999 -9999 -9999 -9999 -9999 -9999 -9999 -9999 -9999 -9999 -9999 -9999 -9999 -9999 -9999 -9999 -9999 -9999 -9999 -9999 -9999 -9999 -9999 -9999 -9999 0 0 0 0 -9999 -9999 0 0 0 0 0 0 0 0 0 0 0 0 0 0 0 0 0 5.60081466395112 5.60081466395112 5.60081466395112 5.60081466395112 5.86854460093897 0 0 0 5.86854460093897 -9999 -9999 -9999 -9999 -9999 -9999 -9999 -9999 -9999 -9999 -9999 -9999 -9999 -9999 -9999 -9999 -9999 20.6013363028953 20.6013363028953 20.6013363028953 16.5217391304348 16.5217391304348 21.7391304347826 14.8114901256732 -9999 -9999 -9999 1.36425648021828 5.41125541125541 5.41125541125541 -9999 -9999 0 0 0 0 -9999 -9999 -9999 -9999 -9999 3.44036697247706 3.44036697247706 3.44036697247706 3.44036697247706 8.91861761426979 8.91861761426979 8.91861761426979 8.91861761426979 8.91861761426979 9.07258064516129 0 0 0 0 0 0 0 0 5.88235294117647 5.88235294117647 7.79896013864818 7.79896013864818 8.88529886914378 8.88529886914378 8.88529886914378 8.88529886914378 8.88529886914378 0 0 1.61117078410312 1.61117078410312 1.61117078410312 1.61117078410312 1.61117078410312 15.2565880721221 15.2565880721221 2.0979020979021 0 0 0 0 0 0 0 6.5252854812398 9.35550935550936 9.35550935550936 3.59712230215827 3.59712230215827 3.59712230215827 3.59712230215827 3.59712230215827 0 0 0 0 0 0 0 3.17965023847377 3.80228136882129 3.80228136882129 2.84738041002278 2.84738041002278 12.0087336244541 -9999 -9999 8.7719298245614 8.7719298245614 8.7719298245614 8.7719298245614 8.7719298245614 8.7719298245614 7.86163522012579 7.86163522012579 7.86163522012579 0 0 -9999 -9999 -9999 -9999 7.5187969924812 7.5187969924812 4.42477876106195 3.31564986737401 3.31564986737401 3.31564986737401 3.31564986737401 3.31564986737401 6.6334991708126 6.6334991708126 6.63716814159292 6.63716814159292 0 -9999 -9999 -9999 6.3323201621074 -9999 -9999 -9999 -9999 -9999 -9999 -9999 -9999 -9999 -9999 -9999 -9999 -9999 -9999 -9999 -9999 -9999 -9999 -9999 -9999 -9999 -9999 -9999 -9999 -9999 -9999 -9999 -9999 -9999 -9999 -9999 -9999 -9999 -9999 -9999 -9999 -9999 -9999 -9999 -9999 -9999 -9999 -9999 -9999 -9999 -9999 -9999 -9999 -9999 -9999 -9999 -9999 -9999 -9999 -9999 -9999 -9999 -9999 -9999 -9999 -9999
-9999 -9999 -9999 -9999 -9999 -9999 -9999 -9999 -9999 -9999 -9999 -9999 -9999 -9999 -9999 -9999 -9999 -9999 -9999 -9999 -9999 -9999 -9999 -9999 -9999 -9999 -9999 -9999 -9999 -9999 -9999 -9999 -9999 -9999 -9999 -9999 -9999 -9999 -9999 -9999 -9999 -9999 -9999 -9999 -9999 -9999 -9999 -9999 -9999 -9999 -9999 -9999 -9999 -9999 -9999 -9999 -9999 -9999 -9999 -9999 -9999 2.9940119760479 2.9940119760479 2.9940119760479 2.9940119760479 2.9940119760479 2.9940119760479 2.9940119760479 2.9940119760479 2.9940119760479 2.9940119760479 2.9940119760479 2.9940119760479 5.02706883217324 5.02706883217324 5.02706883217324 5.02706883217324 5.02706883217324 5.02706883217324 5.02706883217324 5.02706883217324 5.02706883217324 5.02706883217324 5.02706883217324 5.02706883217324 5.02706883217324 5.02706883217324 5.02706883217324 5.02706883217324 5.02706883217324 5.02706883217324 5.02706883217324 5.02706883217324 0 0 0 0 0 -9999 -9999 -9999 -9999 -9999 -9999 -9999 -9999 -9999 3.13807531380753 3.13807531380753 4.60564191134139 4.60564191134139 4.60564191134139 4.60564191134139 4.60564191134139 4.60564191134139 4.60564191134139 4.60564191134139 4.60564191134139 4.60564191134139 4.60564191134139 4.60564191134139 4.60564191134139 4.60564191134139 4.60564191134139 4.60564191134139 4.60564191134139 -9999 -9999 -9999 -9999 -9999 -9999 3.93700787401575 0 0 3.93700787401575 3.93700787401575 2.79642058165548 2.79642058165548 2.79642058165548 2.79642058165548 -9999 -9999 2.79642058165548 2.79642058165548 2.79642058165548 -9999 -9999 -9999 -9999 -9999 -9999 -9999 -9999 -9999 -9999 -9999 -9999 -9999 -9999 -9999 -9999 -9999 -9999 -9999 -9999 -9999 -9999 -9999 -9999 -9999 -9999 -9999 -9999 -9999 -9999 -9999 -9999 -9999 -9999 -9999 -9999 0 0 0 -9999 -9999 0 0 0 0 0 0 0 0 0 0 0 0 0 0 0 0 5.60081466395112 5.60081466395112 5.60081466395112 5.60081466395112 5.60081466395112 2.67094017094017 2.67094017094017 2.67094017094017 0 0 -9999 -9999 -9999 -9999 -9999 -9999 -9999 -9999 -9999 -9999 -9999 -9999 -9999 -9999 -9999 -9999 -9999 -9999 -9999 -9999 20.6013363028953 20.6013363028953 16.5217391304348 17.3501577287066 21.7391304347826 21.7391304347826 -9999 5.41125541125541 5.41125541125541 5.41125541125541 5.41125541125541 0 3.92927308447937 3.92927308447937 0 0 -9999 -9999 -9999 -9999 -9999 -9999 3.44036697247706 3.44036697247706 3.44036697247706 3.44036697247706 0 0 8.91861761426979 8.91861761426979 8.91861761426979 0 0 0 0 0 0 0 0 0 5.88235294117647 5.88235294117647 7.79896013864818 0 0 0 0 0 8.88529886914378 0 5.35905680600214 5.35905680600214 1.61117078410312 1.61117078410312 1.61117078410312 1.61117078410312 15.2565880721221 15.2565880721221 14.4736842105263 6.63129973474801 0 0 0 0 0 0 0 0 3.59712230215827 3.59712230215827 3.59712230215827 3.59712230215827 3.6563071297989 3.6563071297989 3.6563071297989 3.6563071297989 3.6563071297989 3.6563071297989 3.17965023847377 3.17965023847377 3.17965023847377 3.17965023847377 3.17965023847377 3.17965023847377 3.17965023847377 3.17965023847377 -9999 -9999 -9999 -9999 -9999 8.7719298245614 8.7719298245614 8.7719298245614 0 0 0 0 0 0 -9999 -9999 -9999 -9999 -9999 4.42477876106195 4.42477876106195 4.42477876106195 4.42477876106195 4.42477876106195 3.31564986737401 3.31564986737401 3.31564986737401 8.99280575539568 8.99280575539568 0 0 0 0 6.3323201621074 6.3323201621074 6.3323201621074 -9999 -9999 -9999 -9999 -9999 -9999 -9999 -9999 -9999 -9999 -9999 -9999 -9999 -9999 -9999 -9999 -9999 -9999 -9999 -9999 -9999 -9999 -9999 -9999 -9999 -9999 -9999 -9999 -9999 -9999 -9999 -9999 -9999 -9999 -9999 -9999 -9999 -9999 -9999 -9999 -9999 -9999 -9999 -9999 -9999 -9999 -9999 -9999 -9999 -9999 -9999 -9999 -9999 -9999 -9999 -9999 -9999 -9999 -9999 -9999
-9999 -9999 -9999 -9999 -9999 -9999 -9999 -9999 -9999 -9999 -9999 -9999 -9999 -9999 -9999 -9999 -9999 -9999 -9999 -9999 -9999 -9999 -9999 -9999 -9999 -9999 -9999 -9999 -9999 -9999 -9999 -9999 -9999 -9999 -9999 -9999 -9999 -9999 -9999 -9999 -9999 -9999 -9999 -9999 -9999 -9999 -9999 -9999 -9999 -9999 -9999 -9999 -9999 -9999 -9999 -9999 -9999 -9999 -9999 -9999 -9999 -9999 2.9940119760479 2.9940119760479 2.9940119760479 2.9940119760479 2.9940119760479 2.9940119760479 2.9940119760479 2.9940119760479 2.9940119760479 2.9940119760479 2.9940119760479 2.9940119760479 5.02706883217324 5.02706883217324 5.02706883217324 5.02706883217324 5.02706883217324 5.02706883217324 5.02706883217324 5.02706883217324 5.02706883217324 5.02706883217324 5.02706883217324 5.02706883217324 5.02706883217324 5.02706883217324 5.02706883217324 5.02706883217324 5.02706883217324 5.02706883217324 5.02706883217324 5.02706883217324 5.02706883217324 0 0 0 0 -9999 -9999 -9999 -9999 -9999 -9999 -9999 3.13807531380753 3.13807531380753 3.13807531380753 19.538188277087 19.538188277087 19.538188277087 19.538188277087 19.538188277087 19.538188277087 19.538188277087 5.12295081967213 4.60564191134139 4.60564191134139 4.60564191134139 4.60564191134139 4.60564191134139 4.60564191134139 4.60564191134139 4.60564191134139 4.60564191134139 4.60564191134139 4.60564191134139 -9999 -9999 -9999 -9999 3.15126050420168 3.93700787401575 3.93700787401575 0 0 0 3.93700787401575 2.79642058165548 2.79642058165548 2.79642058165548 2.79642058165548 2.79642058165548 2.79642058165548 2.79642058165548 -9999 -9999 -9999 -9999 -9999 -9999 -9999 -9999 -9999 -9999 -9999 -9999 -9999 -9999 -9999 -9999 -9999 -9999 -9999 -9999 -9999 -9999 -9999 -9999 -9999 -9999 -9999 -9999 -9999 -9999 -9999 -9999 -9999 -9999 -9999 -9999 -9999 -9999 -9999 -9999 -9999 0 0 0 0 0 0 0 0 0 0 0 0 0 -9999 -9999 5.60081466395112 5.60081466395112 5.60081466395112 2.67094017094017 2.67094017094017 2.67094017094017 2.67094017094017 2.67094017094017 2.67094017094017 2.67094017094017 -9999 -9999 -9999 -9999 -9999 -9999 -9999 -9999 -9999 -9999 -9999 -9999 -9999 -9999 -9999 -9999 -9999 -9999 -9999 -9999 -9999 -9999 20.6013363028953 20.6013363028953 17.3501577287066 17.3501577287066 17.3501577287066 6.51769087523278 5.41125541125541 5.41125541125541 5.41125541125541 5.41125541125541 0 0 0 3.92927308447937 3.92927308447937 -9999 -9999 -9999 -9999 -9999 -9999 3.44036697247706 3.44036697247706 3.44036697247706 0 0 0 0 8.91861761426979 9.07258064516129 0 0 0 0 0 0 0 0 0 7.79896013864818 7.79896013864818 7.79896013864818 0 0 0 0 0 5.35905680600214 5.35905680600214 5.35905680600214 5.35905680600214 5.35905680600214 15.2565880721221 15.2565880721221 12.0481927710843 12.0481927710843 14.4736842105263 6.63129973474801 10.8433734939759 10.8433734939759 10.8433734939759 0 0 0 0 0 0 0 5.72519083969466 5.72519083969466 5.72519083969466 5.72519083969466 3.6563071297989 3.6563071297989 3.6563071297989 3.6563071297989 3.17965023847377 3.17965023847377 3.17965023847377 -9999 -9999 -9999 -9999 -9999 -9999 -9999 -9999 -9999 -9999 -9999 -9999 -9999 8.7719298245614 0 0 0 0 0 11.8343195266272 11.8343195266272 11.8343195266272 -9999 -9999 -9999 7.55667506297229 7.55667506297229 16.8170631665299 16.8170631665299 4.42477876106195 4.42477876106195 4.42477876106195 8.99280575539568 8.99280575539568 3.27225130890052 3.27225130890052 3.27225130890052 3.27225130890052 6.3323201621074 6.3323201621074 6.3323201621074 -9999 -9999 -9999 -9999 -9999 -9999 -9999 -9999 -9999 -9999 -9999 -9999 -9999 -9999 -9999 -9999 -9999 -9999 -9999 -9999 -9999 -9999 -9999 -9999 -9999 -9999 -9999 -9999 -9999 -9999 -9999 -9999 -9999 -9999 -9999 -9999 -9999 -9999 -9999 -9999 -9999 -9999 -9999 -9999 -9999 -9999 -9999 -9999 -9999 -9999 -9999 -9999 -9999 -9999 -9999 -9999 -9999 -9999 -9999 -9999 -9999
-9999 -9999 -9999 -9999 -9999 -9999 -9999 -9999 -9999 -9999 -9999 -9999 -9999 -9999 -9999 -9999 -9999 -9999 -9999 -9999 -9999 -9999 -9999 -9999 -9999 -9999 -9999 -9999 -9999 -9999 -9999 -9999 -9999 -9999 -9999 -9999 -9999 -9999 -9999 -9999 -9999 -9999 -9999 -9999 -9999 -9999 -9999 -9999 -9999 -9999 -9999 -9999 -9999 -9999 -9999 -9999 -9999 -9999 -9999 -9999 -9999 2.9940119760479 2.9940119760479 2.9940119760479 2.9940119760479 2.9940119760479 2.9940119760479 2.9940119760479 2.9940119760479 2.9940119760479 2.9940119760479 2.9940119760479 2.9940119760479 2.9940119760479 2.9940119760479 5.02706883217324 5.02706883217324 5.02706883217324 5.02706883217324 5.02706883217324 5.02706883217324 5.02706883217324 5.02706883217324 5.02706883217324 5.02706883217324 5.02706883217324 5.02706883217324 5.02706883217324 5.02706883217324 5.02706883217324 5.02706883217324 5.02706883217324 5.02706883217324 5.02706883217324 5.02706883217324 5.02706883217324 0 0 0 0 -9999 -9999 -9999 -9999 -9999 -9999 3.13807531380753 3.13807531380753 9.68703427719821 9.68703427719821 9.68703427719821 9.68703427719821 19.538188277087 19.538188277087 19.538188277087 19.538188277087 4.35729847494553 5.12295081967213 5.12295081967213 5.12295081967213 5.12295081967213 5.12295081967213 5.12295081967213 5.12295081967213 5.12295081967213 5.12295081967213 4.60564191134139 4.60564191134139 4.60564191134139 6.86106346483705 6.86106346483705 3.15126050420168 3.15126050420168 3.15126050420168 3.15126050420168 3.93700787401575 0 0 0 3.93700787401575 2.79642058165548 2.79642058165548 2.79642058165548 2.79642058165548 2.79642058165548 2.79642058165548 2.79642058165548 -9999 -9999 -9999 -9999 -9999 -9999 -9999 -9999 -9999 -9999 -9999 -9999 -9999 -9999 -9999 -9999 -9999 -9999 -9999 -9999 -9999 -9999 -9999 -9999 -9999 -9999 -9999 -9999 -9999 -9999 -9999 -9999 -9999 -9999 0 0 -9999 -9999 0 0 0 0 0 0 0 0 0 0 0 0 -9999 -9999 -9999 -9999 -9999 -9999 5.60081466395112 5.60081466395112 5.60081466395112 2.67094017094017 2.67094017094017 2.67094017094017 2.67094017094017 2.67094017094017 -9999 -9999 -9999 -9999 -9999 -9999 -9999 -9999 -9999 -9999 -9999 -9999 -9999 -9999 -9999 -9999 -9999 -9999 -9999 -9999 -9999 -9999 -9999 -9999 -9999 17.3501577287066 17.3501577287066 6.51769087523278 6.51769087523278 6.51769087523278 6.51769087523278 8.92857142857143 8.92857142857143 0 0 0 0 13.5338345864662 13.5338345864662 13.5338345864662 -9999 -9999 -9999 3.44036697247706 3.44036697247706 3.44036697247706 3.44036697247706 0 0 0 8.91861761426979 9.07258064516129 0 0 3.08641975308642 3.08641975308642 3.08641975308642 0 0 0 0 0 7.79896013864818 7.79896013864818 0 0 0 0 0 0 5.35905680600214 5.35905680600214 5.35905680600214 5.35905680600214 9.01525658807212 9.01525658807212 9.01525658807212 9.89010989010989 14.4736842105263 -9999 -9999 -9999 10.8433734939759 3.48918353105373 3.48918353105373 3.48918353105373 0 0 0 5.72519083969466 5.72519083969466 5.72519083969466 5.72519083969466 5.72519083969466 5.72519083969466 5.72519083969466 0 0 0 0 3.17965023847377 0 0 0 -9999 -9999 -9999 -9999 -9999 -9999 -9999 -9999 -9999 -9999 -9999 -9999 -9999 0 0 0 6.42857142857143 11.2570356472795 11.2570356472795 7.98403193612774 7.98403193612774 7.98403193612774 7.55667506297229 7.55667506297229 7.55667506297229 16.8170631665299 16.8170631665299 8.21596244131455 4.42477876106195 0 0 7.7720207253886 3.27225130890052 3.27225130890052 3.27225130890052 6.3323201621074 6.3323201621074 6.3323201621074 6.3323201621074 -9999 -9999 -9999 -9999 -9999 -9999 -9999 -9999 -9999 -9999 -9999 -9999 -9999 -9999 -9999 -9999 -9999 -9999 -9999 -9999 -9999 -9999 -9999 -9999 -9999 -9999 -9999 -9999 -9999 -9999 -9999 -9999 -9999 -9999 -9999 -9999 -9999 -9999 -9999 -9999 -9999 -9999 -9999 -9999 -9999 -9999 -9999 -9999 -9999 -9999 -9999 -9999 -9999 -9999 -9999 -9999 -9999 -9999 -9999 -9999 -9999
-9999 -9999 -9999 -9999 -9999 -9999 -9999 -9999 -9999 -9999 -9999 -9999 -9999 -9999 -9999 -9999 -9999 -9999 -9999 -9999 -9999 -9999 -9999 -9999 -9999 -9999 -9999 -9999 -9999 -9999 -9999 -9999 -9999 -9999 -9999 -9999 -9999 -9999 -9999 -9999 -9999 -9999 -9999 -9999 -9999 -9999 -9999 -9999 -9999 -9999 -9999 -9999 -9999 -9999 -9999 -9999 -9999 -9999 -9999 -9999 -9999 2.9940119760479 2.9940119760479 2.9940119760479 2.9940119760479 2.9940119760479 2.9940119760479 2.9940119760479 2.9940119760479 2.9940119760479 2.9940119760479 2.9940119760479 2.9940119760479 2.9940119760479 2.9940119760479 2.9940119760479 5.02706883217324 5.02706883217324 5.02706883217324 5.02706883217324 5.02706883217324 5.02706883217324 5.02706883217324 5.02706883217324 5.02706883217324 5.02706883217324 5.02706883217324 5.02706883217324 5.02706883217324 5.02706883217324 5.02706883217324 5.02706883217324 5.02706883217324 5.02706883217324 5.02706883217324 5.02706883217324 0 0 0 0 0 -9999 -9999 -9999 3.13807531380753 3.13807531380753 3.13807531380753 3.13807531380753 9.68703427719821 9.68703427719821 9.68703427719821 9.68703427719821 9.68703427719821 2.84629981024668 2.84629981024668 2.84629981024668 2.84629981024668 4.35729847494553 4.35729847494553 4.35729847494553 5.12295081967213 5.12295081967213 4.35729847494553 15.0602409638554 15.0602409638554 15.0602409638554 19.4585448392555 19.4585448392555 18.8235294117647 18.8235294117647 6.86106346483705 6.86106346483705 6.86106346483705 3.15126050420168 3.15126050420168 3.15126050420168 3.93700787401575 3.93700787401575 0 0 0 2.79642058165548 9.53984287317621 9.53984287317621 2.79642058165548 2.79642058165548 2.79642058165548 -9999 -9999 -9999 -9999 -9999 -9999 -9999 -9999 -9999 -9999 -9999 -9999 -9999 -9999 -9999 -9999 -9999 -9999 -9999 -9999 -9999 -9999 -9999 -9999 -9999 -9999 -9999 -9999 -9999 -9999 -9999 -9999 -9999 0 0 0 0 0 0 0 0 0 0 0 0 0 0 -9999 -9999 -9999 -9999 -9999 -9999 -9999 -9999 -9999 -9999 -9999 -9999 -9999 -9999 -9999 -9999 -9999 -9999 -9999 -9999 -9999 -9999 -9999 -9999 -9999 -9999 -9999 -9999 -9999 -9999 -9999 -9999 -9999 -9999 -9999 -9999 -9999 -9999 -9999 -9999 -9999 5.67375886524823 5.67375886524823 6.51769087523278 6.51769087523278 6.51769087523278 6.51769087523278 6.51769087523278 8.92857142857143 8.92857142857143 0 0 0 6.8259385665529 6.8259385665529 6.8259385665529 13.5338345864662 13.5338345864662 -9999 -9999 3.44036697247706 3.44036697247706 3.44036697247706 8.91861761426979 0 0 8.91861761426979 8.91861761426979 9.07258064516129 9.07258064516129 9.07258064516129 3.08641975308642 3.08641975308642 3.08641975308642 3.08641975308642 3.08641975308642 0 0 0 0 0 0 0 0 0 0 0 5.35905680600214 5.35905680600214 5.35905680600214 9.01525658807212 9.01525658807212 9.01525658807212 9.89010989010989 11.4259597806216 -9999 11.5354017501989 11.5354017501989 11.5354017501989 3.48918353105373 3.48918353105373 3.48918353105373 0 0 0 3.78787878787879 5.72519083969466 5.72519083969466 5.72519083969466 5.72519083969466 5.72519083969466 0 0 0 0 0 0 0 0 0 0 -9999 -9999 -9999 -9999 -9999 -9999 -9999 -9999 -9999 -9999 -9999 -9999 -9999 -9999 -9999 7.02028081123245 6.42857142857143 6.42857142857143 6.42857142857143 3.1055900621118 8.86075949367089 8.86075949367089 9.88467874794069 9.88467874794069 7.55667506297229 7.55667506297229 8.21596244131455 7.55667506297229 0 0 0 7.7720207253886 7.7720207253886 7.7720207253886 3.27225130890052 6.3323201621074 6.3323201621074 6.3323201621074 6.3323201621074 -9999 -9999 -9999 -9999 -9999 -9999 -9999 -9999 -9999 -9999 -9999 -9999 -9999 -9999 -9999 -9999 -9999 -9999 -9999 -9999 -9999 -9999 -9999 -9999 -9999 -9999 -9999 -9999 -9999 -9999 -9999 -9999 -9999 -9999 -9999 -9999 -9999 -9999 -9999 -9999 -9999 -9999 -9999 -9999 -9999 -9999 -9999 -9999 -9999 -9999 -9999 -9999 -9999 -9999 -9999 -9999 -9999 -9999 -9999 -9999 -9999
-9999 -9999 -9999 -9999 -9999 -9999 -9999 -9999 -9999 -9999 -9999 -9999 -9999 -9999 -9999 -9999 -9999 -9999 -9999 -9999 -9999 -9999 -9999 -9999 -9999 -9999 -9999 -9999 -9999 -9999 -9999 -9999 -9999 -9999 -9999 -9999 -9999 -9999 -9999 -9999 -9999 -9999 -9999 -9999 -9999 -9999 -9999 -9999 -9999 -9999 -9999 -9999 -9999 -9999 -9999 -9999 -9999 -9999 -9999 -9999 6.01503759398496 6.01503759398496 2.9940119760479 2.9940119760479 2.9940119760479 2.9940119760479 2.9940119760479 2.9940119760479 2.9940119760479 2.9940119760479 2.9940119760479 2.9940119760479 2.9940119760479 2.9940119760479 2.9940119760479 2.9940119760479 2.9940119760479 5.02706883217324 5.02706883217324 5.02706883217324 5.02706883217324 5.02706883217324 5.02706883217324 5.02706883217324 5.02706883217324 5.02706883217324 5.02706883217324 5.02706883217324 5.02706883217324 5.02706883217324 0 5.02706883217324 5.02706883217324 5.02706883217324 5.02706883217324 0 0 0 0 -9999 -9999 -9999 -9999 0 0 0 0 3.13807531380753 9.68703427719821 9.68703427719821 9.68703427719821 9.68703427719821 9.68703427719821 5.31914893617021 2.84629981024668 2.84629981024668 2.84629981024668 2.84629981024668 2.84629981024668 4.35729847494553 4.35729847494553 4.35729847494553 4.35729847494553 15.0602409638554 15.0602409638554 15.0602409638554 15.0602409638554 19.4585448392555 19.4585448392555 18.8235294117647 18.8235294117647 6.86106346483705 6.86106346483705 10.8527131782946 10.8527131782946 3.15126050420168 3.15126050420168 10.8527131782946 5.47445255474453 5.47445255474453 5.47445255474453 5.47445255474453 5.47445255474453 9.53984287317621 9.53984287317621 9.53984287317621 9.53984287317621 2.79642058165548 -9999 -9999 -9999 -9999 -9999 -9999 -9999 -9999 -9999 -9999 -9999 -9999 -9999 -9999 -9999 -9999 -9999 -9999 -9999 -9999 -9999 -9999 -9999 -9999 -9999 -9999 -9999 -9999 -9999 5.50964187327824 0 0 0 0 0 0 0 0 0 0 0 0 0 -9999 -9999 -9999 -9999 -9999 -9999 -9999 -9999 -9999 -9999 -9999 -9999 -9999 -9999 -9999 -9999 -9999 -9999 -9999 -9999 -9999 -9999 -9999 -9999 -9999 -9999 -9999 -9999 -9999 -9999 -9999 -9999 -9999 -9999 -9999 -9999 -9999 -9999 -9999 -9999 -9999 -9999 -9999 5.67375886524823 5.67375886524823 5.67375886524823 5.67375886524823 5.67375886524823 6.51769087523278 6.51769087523278 6.51769087523278 0 0 0 0 0 6.8259385665529 6.8259385665529 6.8259385665529 6.8259385665529 13.5338345864662 13.5338345864662 4.21348314606742 3.44036697247706 3.44036697247706 3.44036697247706 8.91861761426979 8.91861761426979 8.91861761426979 8.91861761426979 9.07258064516129 0 0 9.07258064516129 9.07258064516129 3.08641975308642 3.08641975308642 3.08641975308642 3.08641975308642 3.08641975308642 0 0 0 0 0 0 0 0 0 0 0 5.35905680600214 7.35294117647059 7.35294117647059 7.35294117647059 9.89010989010989 11.4259597806216 -9999 16.4126611957796 0 14.1921397379913 3.48918353105373 0 0 0 0 0 0 0 0 6.18556701030928 0 0 0 0 0 0 0 0 0 0 0 0 0 0 0 -9999 -9999 -9999 -9999 -9999 -9999 -9999 -9999 -9999 -9999 -9999 -9999 11.1492281303602 6.35208711433757 7.02028081123245 -9999 0 12.7314814814815 12.7314814814815 9.88467874794069 9.88467874794069 9.88467874794069 9.88467874794069 9.88467874794069 9.88467874794069 0 0 0 0 7.7720207253886 7.7720207253886 7.7720207253886 3.16856780735108 3.16856780735108 3.16856780735108 6.3323201621074 -9999 -9999 -9999 -9999 -9999 -9999 -9999 -9999 -9999 -9999 -9999 -9999 -9999 -9999 -9999 -9999 -9999 -9999 -9999 -9999 -9999 -9999 -9999 -9999 -9999 -9999 -9999 -9999 -9999 -9999 -9999 -9999 -9999 -9999 -9999 -9999 -9999 -9999 -9999 -9999 -9999 -9999 -9999 -9999 -9999 -9999 -9999 -9999 -9999 -9999 -9999 -9999 -9999 -9999 -9999 -9999 -9999 -9999 -9999 -9999 -9999 -9999
-9999 -9999 -9999 -9999 -9999 -9999 -9999 -9999 -9999 -9999 -9999 -9999 -9999 -9999 -9999 -9999 -9999 -9999 -9999 -9999 -9999 -9999 -9999 -9999 -9999 -9999 -9999 -9999 -9999 -9999 -9999 -9999 -9999 -9999 -9999 -9999 -9999 -9999 -9999 -9999 -9999 -9999 -9999 -9999 -9999 -9999 -9999 -9999 -9999 -9999 -9999 -9999 -9999 -9999 -9999 -9999 -9999 -9999 -9999 6.01503759398496 6.01503759398496 6.01503759398496 6.01503759398496 2.9940119760479 2.9940119760479 2.9940119760479 2.9940119760479 2.9940119760479 2.9940119760479 2.9940119760479 2.9940119760479 2.9940119760479 2.9940119760479 2.9940119760479 2.9940119760479 2.9940119760479 2.9940119760479 2.9940119760479 5.02706883217324 5.02706883217324 5.02706883217324 5.02706883217324 5.02706883217324 5.02706883217324 5.02706883217324 5.02706883217324 5.02706883217324 5.02706883217324 0 0 0 0 5.02706883217324 5.02706883217324 0 0 0 0 -9999 -9999 -9999 -9999 3.13807531380753 3.13807531380753 0 0 0 3.13807531380753 17.636684303351 9.68703427719821 9.68703427719821 5.31914893617021 5.31914893617021 5.31914893617021 2.84629981024668 2.84629981024668 7.9136690647482 7.9136690647482 7.9136690647482 7.9136690647482 4.35729847494553 4.35729847494553 4.35729847494553 15.0602409638554 15.0602409638554 15.0602409638554 15.0602409638554 15.0602409638554 19.4585448392555 18.2403433476395 18.2403433476395 2.93255131964809 6.86106346483705 6.86106346483705 10.8527131782946 10.8527131782946 10.8527131782946 10.8527131782946 10.8527131782946 10.8527131782946 10.8527131782946 0 5.47445255474453 5.47445255474453 5.47445255474453 5.47445255474453 9.53984287317621 9.53984287317621 9.53984287317621 9.53984287317621 9.53984287317621 9.53984287317621 3.84615384615385 2.79642058165548 3.84615384615385 4.64037122969838 4.64037122969838 4.64037122969838 4.64037122969838 5.50964187327824 5.50964187327824 5.50964187327824 5.50964187327824 -9999 -9999 -9999 -9999 -9999 -9999 -9999 5.50964187327824 5.50964187327824 5.50964187327824 5.50964187327824 5.50964187327824 5.50964187327824 5.50964187327824 5.50964187327824 5.50964187327824 5.50964187327824 0 0 0 0 0 0 0 0 0 -9999 -9999 -9999 -9999 -9999 -9999 -9999 -9999 -9999 -9999 -9999 -9999 -9999 -9999 -9999 -9999 -9999 -9999 -9999 -9999 -9999 -9999 -9999 -9999 -9999 -9999 -9999 -9999 -9999 -9999 -9999 -9999 -9999 -9999 -9999 -9999 -9999 -9999 -9999 -9999 -9999 -9999 3.58680057388809 -9999 5.67375886524823 5.67375886524823 3.6144578313253 3.6144578313253 5.67375886524823 6.27352572145546 6.27352572145546 6.27352572145546 6.51769087523278 0 0 15.3203342618384 0 0 6.8259385665529 6.8259385665529 10.1781170483461 10.1781170483461 4.21348314606742 4.21348314606742 4.21348314606742 4.21348314606742 4.21348314606742 4.21348314606742 8.91861761426979 8.91861761426979 8.91861761426979 9.07258064516129 9.07258064516129 0 0 0 0 3.03643724696356 3.08641975308642 3.08641975308642 3.03643724696356 3.03643724696356 0 0 0 0 0 0 0 0 0 0 5.35905680600214 7.35294117647059 7.35294117647059 7.35294117647059 16.6666666666667 26.6798418972332 0 16.4126611957796 0 14.1921397379913 14.1921397379913 13.677811550152 13.677811550152 3.690036900369 0 0 0 0 0 6.18556701030928 6.18556701030928 6.18556701030928 6.18556701030928 0 0 0 0 0 0 0 0 0 0 0 0 0 0 -9999 -9999 -9999 -9999 -9999 -9999 -9999 -9999 -9999 -9999 -9999 5.51876379690949 11.1492281303602 0 6.35208711433757 0 0 12.7314814814815 9.88467874794069 9.88467874794069 9.88467874794069 9.88467874794069 9.88467874794069 0 0 0 0 0 0 0 0 3.16856780735108 3.16856780735108 3.16856780735108 -9999 -9999 -9999 -9999 -9999 -9999 -9999 -9999 -9999 -9999 -9999 -9999 -9999 -9999 -9999 -9999 -9999 -9999 -9999 -9999 -9999 -9999 -9999 -9999 -9999 -9999 -9999 -9999 -9999 -9999 -9999 -9999 -9999 -9999 -9999 -9999 -9999 -9999 -9999 -9999 -9999 -9999 -9999 -9999 -9999 -9999 -9999 -9999 -9999 -9999 -9999 -9999 -9999 -9999 -9999 -9999 -9999 -9999 -9999 -9999 -9999 -9999 -9999
-9999 -9999 -9999 -9999 -9999 -9999 -9999 -9999 -9999 -9999 -9999 -9999 -9999 -9999 -9999 -9999 -9999 -9999 -9999 -9999 -9999 -9999 -9999 -9999 -9999 -9999 -9999 -9999 -9999 -9999 -9999 -9999 -9999 -9999 -9999 -9999 -9999 -9999 -9999 -9999 -9999 -9999 -9999 -9999 -9999 -9999 -9999 -9999 -9999 -9999 -9999 -9999 -9999 -9999 -9999 6.01503759398496 6.01503759398496 6.01503759398496 6.01503759398496 6.01503759398496 6.01503759398496 2.9940119760479 2.9940119760479 2.9940119760479 2.9940119760479 2.9940119760479 2.9940119760479 2.9940119760479 2.9940119760479 2.9940119760479 2.9940119760479 2.9940119760479 2.9940119760479 2.9940119760479 2.9940119760479 2.9940119760479 2.9940119760479 2.9940119760479 2.9940119760479 5.02706883217324 5.02706883217324 5.02706883217324 5.02706883217324 5.02706883217324 5.02706883217324 5.02706883217324 0 0 0 0 0 0 0 0 0 0 0 -9999 -9999 4.37062937062937 4.37062937062937 3.13807531380753 0 0 0 0 0 0 17.636684303351 17.636684303351 17.636684303351 9.68703427719821 5.31914893617021 5.31914893617021 5.31914893617021 5.31914893617021 7.9136690647482 7.9136690647482 7.9136690647482 7.9136690647482 7.9136690647482 15.0602409638554 15.0602409638554 15.0602409638554 15.0602409638554 15.0602409638554 18.2403433476395 18.2403433476395 18.2403433476395 18.2403433476395 18.2403433476395 9.71599402092676 9.71599402092676 6.86106346483705 6.86106346483705 6.86106346483705 10.8527131782946 10.8527131782946 0 0 0 0 0 0 0 0 0 0 9.53984287317621 9.53984287317621 9.53984287317621 9.53984287317621 9.53984287317621 3.84615384615385 3.84615384615385 3.84615384615385 3.84615384615385 4.64037122969838 4.64037122969838 4.64037122969838 5.50964187327824 5.50964187327824 5.50964187327824 5.50964187327824 5.50964187327824 5.50964187327824 5.50964187327824 5.50964187327824 5.50964187327824 5.50964187327824 5.50964187327824 5.50964187327824 5.50964187327824 5.50964187327824 5.50964187327824 5.50964187327824 5.50964187327824 5.50964187327824 8.28729281767956 8.28729281767956 8.28729281767956 8.28729281767956 0 0 0 0 -9999 -9999 -9999 -9999 -9999 -9999 -9999 -9999 -9999 -9999 -9999 -9999 -9999 -9999 -9999 -9999 -9999 -9999 -9999 -9999 -9999 -9999 -9999 -9999 -9999 -9999 -9999 -9999 -9999 -9999 -9999 -9999 -9999 -9999 -9999 -9999 -9999 -9999 -9999 -9999 -9999 -9999 -9999 1.04058272632674 1.04058272632674 3.58680057388809 1.99203187250996 1.99203187250996 3.6144578313253 3.6144578313253 3.6144578313253 6.27352572145546 6.27352572145546 6.27352572145546 6.47058823529412 6.47058823529412 6.51769087523278 15.3203342618384 15.3203342618384 15.3203342618384 0 0 10.1781170483461 10.1781170483461 10.1781170483461 10.1781170483461 4.21348314606742 4.21348314606742 4.21348314606742 4.21348314606742 4.21348314606742 4.21348314606742 4.21348314606742 4.21348314606742 9.07258064516129 9.07258064516129 0 0 0 0 3.03643724696356 3.03643724696356 3.03643724696356 3.03643724696356 0 0 0 0 0 0 0 0 0 0 0 7.35294117647059 7.35294117647059 7.35294117647059 16.6666666666667 26.6798418972332 0 0 0 0 0 13.677811550152 13.677811550152 3.690036900369 3.690036900369 3.690036900369 0 0 8.03858520900322 4.34782608695652 6.18556701030928 6.18556701030928 6.18556701030928 6.18556701030928 6.18556701030928 6.18556701030928 0 0 0 0 0 0 0 0 0 0 0 0 0 -9999 -9999 -9999 -9999 -9999 -9999 -9999 -9999 -9999 -9999 5.51876379690949 6.88468158347676 11.1492281303602 2.80898876404494 2.80898876404494 10.6649937264743 4.95294700346706 4.95294700346706 9.88467874794069 9.88467874794069 9.88467874794069 0 0 0 0 0 0 0 0 3.16856780735108 3.16856780735108 3.16856780735108 3.16856780735108 -9999 -9999 -9999 -9999 -9999 -9999 -9999 -9999 -9999 -9999 -9999 -9999 -9999 -9999 -9999 -9999 -9999 -9999 -9999 -9999 -9999 -9999 -9999 -9999 -9999 -9999 -9999 -9999 -9999 -9999 -9999 -9999 -9999 -9999 -9999 -9999 -9999 -9999 -9999 -9999 -9999 -9999 -9999 -9999 -9999 -9999 -9999 -9999 -9999 -9999 -9999 -9999 -9999 -9999 -9999 -9999 -9999 -9999 -9999 -9999 -9999 -9999 -9999
-9999 -9999 -9999 -9999 -9999 -9999 -9999 -9999 -9999 -9999 -9999 -9999 -9999 -9999 -9999 -9999 -9999 -9999 -9999 -9999 -9999 -9999 -9999 -9999 -9999 -9999 -9999 -9999 -9999 -9999 -9999 -9999 -9999 -9999 -9999 -9999 -9999 -9999 -9999 -9999 -9999 -9999 -9999 -9999 -9999 -9999 -9999 -9999 -9999 -9999 -9999 -9999 -9999 6.01503759398496 6.01503759398496 6.01503759398496 6.01503759398496 6.01503759398496 6.01503759398496 6.01503759398496 6.01503759398496 2.9940119760479 2.9940119760479 2.9940119760479 2.9940119760479 2.9940119760479 2.9940119760479 2.9940119760479 2.9940119760479 2.9940119760479 2.9940119760479 2.9940119760479 2.9940119760479 2.9940119760479 2.9940119760479 2.9940119760479 2.9940119760479 2.9940119760479 2.9940119760479 2.9940119760479 5.02706883217324 5.02706883217324 5.02706883217324 5.02706883217324 5.02706883217324 5.02706883217324 5.02706883217324 0 0 0 0 0 0 0 0 0 0 -9999 4.37062937062937 4.37062937062937 0 0 0 0 0 7.02247191011236 7.02247191011236 16.1290322580645 16.1290322580645 17.636684303351 17.636684303351 17.636684303351 17.636684303351 17.636684303351 17.636684303351 5.31914893617021 7.9136690647482 7.9136690647482 7.9136690647482 7.9136690647482 7.9136690647482 7.9136690647482 18.2403433476395 18.2403433476395 18.2403433476395 18.2403433476395 18.2403433476395 18.2403433476395 18.2403433476395 13.6585365853659 9.71599402092676 9.71599402092676 9.71599402092676 9.71599402092676 6.86106346483705 6.86106346483705 6.86106346483705 6.86106346483705 6.86106346483705 0 0 0 0 0 0 0 0 0 0 0 0 10.7197549770291 9.53984287317621 9.53984287317621 9.53984287317621 3.84615384615385 3.84615384615385 3.84615384615385 4.64037122969838 4.64037122969838 4.64037122969838 4.64037122969838 5.50964187327824 5.50964187327824 5.50964187327824 5.50964187327824 5.50964187327824 5.50964187327824 -9999 8.28729281767956 8.28729281767956 8.28729281767956 8.28729281767956 8.28729281767956 8.28729281767956 8.28729281767956 8.28729281767956 8.28729281767956 8.28729281767956 8.28729281767956 8.28729281767956 8.28729281767956 8.28729281767956 -9999 -9999 -9999 -9999 -9999 -9999 -9999 -9999 -9999 -9999 -9999 -9999 -9999 -9999 -9999 -9999 -9999 -9999 -9999 -9999 -9999 -9999 -9999 -9999 -9999 -9999 -9999 -9999 -9999 -9999 -9999 -9999 -9999 -9999 -9999 -9999 -9999 -9999 -9999 -9999 -9999 -9999 -9999 -9999 -9999 1.04058272632674 1.04058272632674 3.58680057388809 0 1.99203187250996 1.99203187250996 11.8858954041204 8.53889943074004 8.53889943074004 8.53889943074004 8.53889943074004 6.47058823529412 6.47058823529412 6.47058823529412 6.47058823529412 6.47058823529412 15.3203342618384 15.3203342618384 15.3203342618384 8.82825040128411 10.1781170483461 10.1781170483461 7.67263427109974 7.67263427109974 7.67263427109974 7.67263427109974 4.21348314606742 4.21348314606742 4.21348314606742 4.21348314606742 4.21348314606742 4.62962962962963 4.62962962962963 4.62962962962963 4.62962962962963 3.8109756097561 0 3.03643724696356 3.03643724696356 3.03643724696356 3.03643724696356 3.03643724696356 0 0 0 0 0 0 0 0 0 0 7.35294117647059 7.35294117647059 7.35294117647059 5.94530321046373 14.0845070422535 13.347022587269 13.347022587269 0 0 4.90730643402399 4.90730643402399 4.90730643402399 0 3.690036900369 3.690036900369 0 0 8.03858520900322 6.18556701030928 6.18556701030928 6.18556701030928 6.18556701030928 6.18556701030928 6.18556701030928 6.18556701030928 -9999 -9999 -9999 -9999 0 0 0 0 0 0 0 0 0 -9999 -9999 -9999 -9999 -9999 -9999 -9999 -9999 -9999 -9999 -9999 -9999 -9999 6.88468158347676 0 0 2.80898876404494 4.95294700346706 4.95294700346706 4.95294700346706 4.95294700346706 9.88467874794069 0 0 3.88349514563107 3.88349514563107 0 0 0 6.98689956331878 3.16856780735108 3.16856780735108 3.16856780735108 -9999 -9999 -9999 -9999 -9999 -9999 -9999 -9999 -9999 -9999 -9999 -9999 -9999 -9999 -9999 -9999 -9999 -9999 -9999 -9999 -9999 -9999 -9999 -9999 -9999 -9999 -9999 -9999 -9999 -9999 -9999 -9999 -9999 -9999 -9999 -9999 -9999 -9999 -9999 -9999 -9999 -9999 -9999 -9999 -9999 -9999 -9999 -9999 -9999 -9999 -9999 -9999 -9999 -9999 -9999 -9999 -9999 -9999 -9999 -9999 -9999 -9999 -9999 -9999
-9999 -9999 -9999 -9999 -9999 -9999 -9999 -9999 -9999 -9999 -9999 -9999 -9999 -9999 -9999 -9999 -9999 -9999 -9999 -9999 -9999 -9999 -9999 -9999 -9999 -9999 -9999 -9999 -9999 -9999 -9999 -9999 -9999 -9999 -9999 -9999 -9999 -9999 -9999 -9999 -9999 -9999 -9999 -9999 -9999 -9999 -9999 -9999 -9999 -9999 -9999 -9999 -9999 6.01503759398496 6.01503759398496 6.01503759398496 6.01503759398496 6.01503759398496 6.01503759398496 6.01503759398496 6.01503759398496 6.01503759398496 2.9940119760479 2.9940119760479 2.9940119760479 2.9940119760479 2.9940119760479 2.9940119760479 2.9940119760479 2.9940119760479 2.9940119760479 2.9940119760479 2.9940119760479 2.9940119760479 2.9940119760479 2.9940119760479 2.9940119760479 2.9940119760479 2.9940119760479 2.9940119760479 5.02706883217324 5.02706883217324 5.02706883217324 5.02706883217324 5.02706883217324 5.02706883217324 5.02706883217324 5.02706883217324 5.02706883217324 0 0 0 0 0 0 0 0 -9999 -9999 4.37062937062937 0 0 0 0 0 7.02247191011236 7.02247191011236 16.1290322580645 16.1290322580645 17.636684303351 17.636684303351 11.6459627329193 11.6459627329193 11.6459627329193 11.6459627329193 5.31914893617021 7.9136690647482 5.16647531572905 5.16647531572905 5.16647531572905 5.16647531572905 5.16647531572905 5.16647531572905 18.2403433476395 13.6585365853659 18.2403433476395 18.2403433476395 13.6585365853659 13.6585365853659 0 0 9.71599402092676 9.71599402092676 2.93255131964809 2.93255131964809 6.86106346483705 6.86106346483705 0 6.86106346483705 0 0 5.58035714285714 5.58035714285714 5.58035714285714 0 0 0 0 0 0 0 0 10.7197549770291 10.7197549770291 10.7197549770291 10.7197549770291 3.84615384615385 3.84615384615385 3.84615384615385 4.64037122969838 4.64037122969838 4.64037122969838 4.64037122969838 5.50964187327824 5.50964187327824 -9999 0 0 0 -9999 -9999 8.28729281767956 8.28729281767956 8.28729281767956 8.28729281767956 8.28729281767956 8.28729281767956 8.28729281767956 8.28729281767956 8.28729281767956 8.28729281767956 8.28729281767956 8.28729281767956 8.28729281767956 -9999 -9999 -9999 -9999 -9999 -9999 -9999 -9999 -9999 -9999 -9999 -9999 -9999 -9999 -9999 -9999 -9999 -9999 -9999 -9999 -9999 -9999 -9999 -9999 -9999 -9999 -9999 -9999 -9999 -9999 -9999 -9999 -9999 -9999 -9999 -9999 -9999 -9999 -9999 -9999 -9999 -9999 -9999 3.95480225988701 1.04058272632674 11.8858954041204 11.8858954041204 0 0 11.8858954041204 0 0 0 8.53889943074004 8.53889943074004 8.53889943074004 8.53889943074004 6.47058823529412 6.47058823529412 6.47058823529412 6.47058823529412 8.82825040128411 8.82825040128411 0 0 7.67263427109974 7.67263427109974 7.67263427109974 7.67263427109974 7.67263427109974 7.67263427109974 7.67263427109974 4.21348314606742 4.21348314606742 4.21348314606742 4.62962962962963 4.62962962962963 4.62962962962963 3.8109756097561 3.8109756097561 3.8109756097561 3.8109756097561 3.8109756097561 3.03643724696356 3.03643724696356 0 0 0 0 0 0 0 0 0 0 7.35294117647059 7.35294117647059 7.35294117647059 5.94530321046373 8.30078125 13.347022587269 13.347022587269 13.347022587269 10.7991360691145 15.7185628742515 4.90730643402399 4.90730643402399 0 0 0 0 0 8.03858520900322 0 6.18556701030928 6.18556701030928 6.18556701030928 6.18556701030928 6.18556701030928 6.18556701030928 -9999 -9999 -9999 -9999 -9999 -9999 -9999 -9999 -9999 0 0 0 0 -9999 -9999 -9999 -9999 -9999 -9999 -9999 -9999 -9999 -9999 -9999 -9999 -9999 -9999 -9999 -9999 0 4.95294700346706 4.95294700346706 4.95294700346706 4.95294700346706 4.95294700346706 4.95294700346706 4.95294700346706 0 0 3.88349514563107 0 0 6.98689956331878 6.98689956331878 6.98689956331878 3.16856780735108 3.16856780735108 -9999 -9999 -9999 -9999 -9999 -9999 -9999 -9999 -9999 -9999 -9999 -9999 -9999 -9999 -9999 -9999 -9999 -9999 -9999 -9999 -9999 -9999 -9999 -9999 -9999 -9999 -9999 -9999 -9999 -9999 -9999 -9999 -9999 -9999 -9999 -9999 -9999 -9999 -9999 -9999 -9999 -9999 -9999 -9999 -9999 -9999 -9999 -9999 -9999 -9999 -9999 -9999 -9999 -9999 -9999 -9999 -9999 -9999 -9999 -9999 -9999 -9999 -9999 -9999
-9999 -9999 -9999 -9999 -9999 -9999 -9999 -9999 -9999 -9999 -9999 -9999 -9999 -9999 -9999 -9999 -9999 -9999 -9999 -9999 -9999 -9999 -9999 -9999 -9999 -9999 -9999 -9999 -9999 -9999 -9999 -9999 -9999 -9999 -9999 -9999 -9999 -9999 -9999 -9999 -9999 -9999 -9999 -9999 -9999 -9999 -9999 -9999 -9999 -9999 -9999 -9999 -9999 6.01503759398496 6.01503759398496 6.01503759398496 6.01503759398496 6.01503759398496 6.01503759398496 6.01503759398496 6.01503759398496 6.01503759398496 6.01503759398496 2.9940119760479 2.9940119760479 2.9940119760479 2.9940119760479 2.9940119760479 2.9940119760479 2.9940119760479 2.9940119760479 2.9940119760479 2.9940119760479 2.9940119760479 2.9940119760479 2.9940119760479 2.9940119760479 2.9940119760479 2.9940119760479 2.9940119760479 2.9940119760479 5.02706883217324 5.02706883217324 5.02706883217324 5.02706883217324 5.02706883217324 5.02706883217324 0 0 0 0 0 0 0 0 0 -9999 -9999 -9999 4.37062937062937 0 0 0 0 7.02247191011236 7.02247191011236 7.02247191011236 16.1290322580645 16.1290322580645 16.1290322580645 11.6459627329193 11.6459627329193 11.6459627329193 11.6459627329193 11.6459627329193 0 5.16647531572905 5.16647531572905 5.16647531572905 5.16647531572905 5.16647531572905 5.16647531572905 5.16647531572905 13.6585365853659 13.6585365853659 13.6585365853659 13.6585365853659 13.4099616858238 0 0 0 0 2.93255131964809 2.93255131964809 2.93255131964809 0 0 0 0 5.58035714285714 5.58035714285714 5.58035714285714 5.58035714285714 5.58035714285714 5.58035714285714 0 0 0 0 0 0 0 0 -9999 -9999 8.28729281767956 -9999 25.089605734767 25.089605734767 25.089605734767 25.089605734767 4.64037122969838 25.089605734767 25.089605734767 15.4639175257732 15.4639175257732 -9999 -9999 0 0 0 -9999 8.28729281767956 8.28729281767956 8.28729281767956 8.28729281767956 8.28729281767956 8.28729281767956 8.28729281767956 8.28729281767956 8.28729281767956 8.28729281767956 8.28729281767956 8.28729281767956 8.28729281767956 8.28729281767956 -9999 -9999 -9999 -9999 -9999 -9999 -9999 -9999 -9999 -9999 -9999 -9999 -9999 -9999 -9999 -9999 -9999 -9999 -9999 -9999 -9999 -9999 -9999 -9999 -9999 -9999 -9999 -9999 -9999 -9999 -9999 -9999 -9999 -9999 -9999 -9999 -9999 -9999 -9999 -9999 3.95480225988701 7.07070707070707 6.65188470066519 7.07070707070707 11.8858954041204 11.8858954041204 11.8858954041204 0 0 0 0 0 8.53889943074004 8.53889943074004 14.6198830409357 14.6198830409357 6.47058823529412 6.47058823529412 0 8.82825040128411 8.82825040128411 8.82825040128411 7.67263427109974 7.67263427109974 7.67263427109974 7.67263427109974 7.67263427109974 7.67263427109974 7.67263427109974 7.67263427109974 7.67263427109974 4.62962962962963 4.62962962962963 4.62962962962963 4.62962962962963 4.62962962962963 24.5283018867925 24.5283018867925 3.8109756097561 3.8109756097561 3.8109756097561 24.5283018867925 24.5283018867925 -9999 3.8109756097561 0 0 0 0 0 5.89390962671906 5.89390962671906 5.89390962671906 7.35294117647059 7.35294117647059 5.94530321046373 8.30078125 0 13.347022587269 13.347022587269 13.347022587269 10.7991360691145 15.7185628742515 6.36942675159236 0 0 0 11.3835376532399 0 0 0 6.18556701030928 6.18556701030928 6.18556701030928 6.18556701030928 6.18556701030928 6.18556701030928 -9999 -9999 -9999 -9999 -9999 -9999 -9999 -9999 -9999 -9999 -9999 -9999 0 -9999 -9999 -9999 -9999 -9999 -9999 -9999 -9999 -9999 -9999 -9999 3.66300366300366 -9999 -9999 -9999 -9999 -9999 4.95294700346706 4.95294700346706 4.95294700346706 4.95294700346706 4.95294700346706 4.95294700346706 4.95294700346706 4.95294700346706 4.95294700346706 4.95294700346706 0 0 6.98689956331878 6.98689956331878 6.98689956331878 6.98689956331878 6.98689956331878 -9999 -9999 -9999 -9999 -9999 -9999 -9999 -9999 -9999 -9999 -9999 -9999 -9999 -9999 -9999 -9999 -9999 -9999 -9999 -9999 -9999 -9999 -9999 -9999 -9999 -9999 -9999 -9999 -9999 -9999 -9999 -9999 -9999 -9999 -9999 -9999 -9999 -9999 -9999 -9999 -9999 -9999 -9999 -9999 -9999 -9999 -9999 -9999 -9999 -9999 -9999 -9999 -9999 -9999 -9999 -9999 -9999 -9999 -9999 -9999 -9999 -9999 -9999 -9999 -9999
-9999 -9999 -9999 -9999 -9999 -9999 -9999 -9999 -9999 -9999 -9999 -9999 -9999 -9999 -9999 -9999 -9999 -9999 -9999 -9999 -9999 -9999 -9999 -9999 -9999 -9999 -9999 -9999 -9999 -9999 -9999 -9999 -9999 -9999 -9999 -9999 -9999 -9999 -9999 -9999 -9999 -9999 -9999 -9999 -9999 -9999 -9999 -9999 -9999 -9999 -9999 -9999 -9999 0 6.01503759398496 6.01503759398496 6.01503759398496 6.01503759398496 6.01503759398496 6.01503759398496 6.01503759398496 6.01503759398496 13.1386861313869 13.1386861313869 2.9940119760479 2.9940119760479 2.9940119760479 2.9940119760479 2.9940119760479 2.9940119760479 2.9940119760479 2.9940119760479 2.9940119760479 2.9940119760479 2.9940119760479 2.9940119760479 2.9940119760479 2.9940119760479 2.9940119760479 2.9940119760479 2.9940119760479 2.9940119760479 5.02706883217324 5.02706883217324 5.02706883217324 5.62851782363977 5.62851782363977 5.62851782363977 5.62851782363977 0 0 0 0 0 -9999 -9999 -9999 -9999 4.37062937062937 4.37062937062937 0 0 0 0 0 7.02247191011236 7.02247191011236 16.1290322580645 16.1290322580645 16.1290322580645 11.6459627329193 11.6459627329193 11.6459627329193 0 0 0 0 5.16647531572905 5.16647531572905 5.16647531572905 0 0 0 0 13.4099616858238 13.4099616858238 13.4099616858238 13.4099616858238 0 0 0 0 0 6.86106346483705 0 0 0 0 0 5.58659217877095 5.58035714285714 5.58035714285714 5.58035714285714 5.58035714285714 10.5633802816901 10.5633802816901 0 0 0 0 0 -9999 -9999 -9999 8.28729281767956 8.28729281767956 8.28729281767956 15.2091254752852 15.2091254752852 15.2091254752852 15.2091254752852 25.089605734767 25.089605734767 25.089605734767 25.089605734767 25.089605734767 -9999 -9999 -9999 -9999 -9999 -9999 -9999 8.28729281767956 8.28729281767956 8.28729281767956 8.28729281767956 8.28729281767956 8.28729281767956 8.28729281767956 8.28729281767956 8.28729281767956 8.28729281767956 8.28729281767956 -9999 -9999 -9999 -9999 -9999 -9999 -9999 -9999 -9999 -9999 -9999 -9999 -9999 -9999 -9999 -9999 -9999 -9999 -9999 -9999 -9999 -9999 -9999 -9999 -9999 -9999 -9999 -9999 -9999 -9999 -9999 -9999 -9999 -9999 -9999 -9999 -9999 -9999 -9999 -9999 -9999 -9999 -9999 6.65188470066519 16.7173252279635 6.65188470066519 7.07070707070707 11.8858954041204 0 0 0 0 0 0 0 0 14.6198830409357 14.6198830409357 14.6198830409357 0 0 0 7.67263427109974 7.67263427109974 7.67263427109974 7.67263427109974 7.67263427109974 7.67263427109974 7.67263427109974 7.67263427109974 7.67263427109974 7.67263427109974 4.62962962962963 4.62962962962963 4.62962962962963 4.62962962962963 4.62962962962963 4.62962962962963 24.5283018867925 24.5283018867925 24.5283018867925 24.5283018867925 24.5283018867925 24.5283018867925 24.5283018867925 24.5283018867925 -9999 -9999 3.8109756097561 3.8109756097561 0 5.89390962671906 5.89390962671906 5.89390962671906 7.90229885057471 7.90229885057471 7.90229885057471 7.90229885057471 8.30078125 0 13.347022587269 13.347022587269 14.4230769230769 15.7185628742515 6.36942675159236 6.36942675159236 0 0 11.3835376532399 11.3835376532399 11.3835376532399 11.3835376532399 3.84024577572965 6.18556701030928 6.18556701030928 6.18556701030928 6.18556701030928 6.18556701030928 -9999 -9999 -9999 -9999 -9999 -9999 -9999 -9999 -9999 -9999 -9999 -9999 -9999 -9999 -9999 -9999 -9999 -9999 -9999 -9999 -9999 -9999 -9999 -9999 3.66300366300366 3.66300366300366 -9999 -9999 -9999 -9999 4.95294700346706 4.95294700346706 4.95294700346706 4.95294700346706 4.95294700346706 4.95294700346706 4.95294700346706 4.95294700346706 4.95294700346706 4.95294700346706 4.95294700346706 4.95294700346706 4.95294700346706 6.98689956331878 6.98689956331878 6.98689956331878 6.98689956331878 6.98689956331878 -9999 -9999 -9999 -9999 -9999 -9999 -9999 -9999 -9999 -9999 -9999 -9999 -9999 -9999 -9999 -9999 -9999 -9999 -9999 -9999 -9999 -9999 -9999 -9999 -9999 -9999 -9999 -9999 -9999 -9999 -9999 -9999 -9999 -9999 -9999 -9999 -9999 -9999 -9999 -9999 -9999 -9999 -9999 -9999 -9999 -9999 -9999 -9999 -9999 -9999 -9999 -9999 -9999 -9999 -9999 -9999 -9999 -9999 -9999 -9999 -9999 -9999 -9999 -9999 -9999
-9999 -9999 -9999 -9999 -9999 -9999 -9999 -9999 -9999 -9999 -9999 -9999 -9999 -9999 -9999 -9999 -9999 -9999 -9999 -9999 -9999 -9999 -9999 -9999 -9999 -9999 -9999 -9999 -9999 -9999 -9999 -9999 -9999 -9999 -9999 -9999 -9999 -9999 -9999 -9999 -9999 -9999 -9999 -9999 -9999 -9999 -9999 -9999 -9999 -9999 -9999 -9999 0 0 13.1386861313869 6.01503759398496 6.01503759398496 6.01503759398496 6.01503759398496 6.01503759398496 13.1386861313869 13.1386861313869 13.1386861313869 13.1386861313869 13.1386861313869 13.1386861313869 2.9940119760479 2.9940119760479 2.9940119760479 2.9940119760479 2.9940119760479 2.9940119760479 2.9940119760479 2.9940119760479 2.9940119760479 2.9940119760479 2.9940119760479 2.9940119760479 2.9940119760479 2.9940119760479 2.9940119760479 2.9940119760479 2.9940119760479 5.02706883217324 5.02706883217324 5.02706883217324 5.62851782363977 5.62851782363977 5.62851782363977 5.62851782363977 2.49169435215947 2.49169435215947 2.49169435215947 0 -9999 -9999 -9999 -9999 4.37062937062937 4.37062937062937 0 0 0 0 0 0 7.02247191011236 7.02247191011236 16.1290322580645 15.9574468085106 15.9574468085106 15.9574468085106 0 0 0 0 8.31600831600832 8.31600831600832 8.31600831600832 8.31600831600832 8.31600831600832 8.31600831600832 0 13.4099616858238 13.4099616858238 13.4099616858238 13.4099616858238 13.4099616858238 13.4099616858238 0 0 0 6.64451827242525 6.64451827242525 6.64451827242525 0 5.58659217877095 5.58659217877095 5.58659217877095 5.58659217877095 5.58035714285714 5.58035714285714 10.5633802816901 10.5633802816901 10.5633802816901 10.5633802816901 0 0 0 -9999 -9999 2.98804780876494 2.98804780876494 -9999 -9999 8.28729281767956 8.28729281767956 15.2091254752852 15.2091254752852 3.88726919339164 3.88726919339164 3.88726919339164 25.089605734767 25.089605734767 12.012012012012 12.012012012012 25.089605734767 -9999 -9999 0 -9999 -9999 -9999 -9999 -9999 -9999 -9999 -9999 8.28729281767956 8.28729281767956 -9999 8.28729281767956 -9999 -9999 -9999 -9999 -9999 -9999 -9999 -9999 -9999 -9999 -9999 -9999 -9999 -9999 -9999 -9999 -9999 -9999 -9999 -9999 -9999 -9999 -9999 -9999 -9999 -9999 -9999 -9999 -9999 -9999 -9999 -9999 -9999 -9999 -9999 -9999 -9999 -9999 -9999 -9999 -9999 -9999 2.97619047619048 2.97619047619048 -9999 -9999 16.7173252279635 0 0 0 -9999 -9999 0 0 0 0 0 0 0 0 0 0 0 9.6830985915493 9.6830985915493 9.6830985915493 7.67263427109974 7.67263427109974 7.67263427109974 7.67263427109974 7.67263427109974 7.67263427109974 7.67263427109974 4.62962962962963 4.62962962962963 4.62962962962963 4.62962962962963 4.62962962962963 24.5283018867925 24.5283018867925 24.5283018867925 24.5283018867925 24.5283018867925 24.5283018867925 24.5283018867925 24.5283018867925 24.5283018867925 24.5283018867925 -9999 -9999 -9999 -9999 5.89390962671906 5.89390962671906 5.89390962671906 4.77099236641221 7.90229885057471 7.90229885057471 7.90229885057471 7.90229885057471 13.2275132275132 3.77358490566038 13.347022587269 14.4230769230769 19.1532258064516 19.1740412979351 10.2040816326531 0 0 0 11.3835376532399 11.3835376532399 11.3835376532399 3.84024577572965 1.93050193050193 6.18556701030928 6.18556701030928 6.18556701030928 6.18556701030928 -9999 -9999 -9999 -9999 -9999 -9999 -9999 -9999 -9999 -9999 -9999 -9999 -9999 -9999 -9999 -9999 -9999 -9999 -9999 -9999 -9999 -9999 -9999 -9999 3.66300366300366 3.66300366300366 -9999 -9999 -9999 -9999 4.14540816326531 4.95294700346706 4.95294700346706 4.95294700346706 4.95294700346706 4.95294700346706 4.95294700346706 4.95294700346706 4.95294700346706 4.95294700346706 4.95294700346706 4.95294700346706 4.95294700346706 6.98689956331878 6.98689956331878 6.98689956331878 6.98689956331878 5.61797752808989 5.61797752808989 -9999 -9999 -9999 -9999 -9999 -9999 -9999 -9999 -9999 -9999 -9999 -9999 -9999 -9999 -9999 -9999 -9999 -9999 -9999 -9999 -9999 -9999 -9999 -9999 -9999 -9999 -9999 -9999 -9999 -9999 -9999 -9999 -9999 -9999 -9999 -9999 -9999 -9999 -9999 -9999 -9999 -9999 -9999 -9999 -9999 -9999 -9999 -9999 -9999 -9999 -9999 -9999 -9999 -9999 -9999 -9999 -9999 -9999 -9999 -9999 -9999 -9999 -9999 -9999 -9999
-9999 -9999 -9999 -9999 -9999 -9999 -9999 -9999 -9999 -9999 -9999 -9999 -9999 -9999 -9999 -9999 -9999 -9999 -9999 -9999 -9999 -9999 -9999 -9999 -9999 -9999 -9999 -9999 -9999 -9999 -9999 -9999 -9999 -9999 -9999 -9999 -9999 -9999 -9999 -9999 -9999 -9999 -9999 -9999 -9999 -9999 0 0 0 0 0 0 0 13.1386861313869 6.01503759398496 6.01503759398496 6.01503759398496 6.01503759398496 13.1386861313869 13.1386861313869 13.1386861313869 13.1386861313869 13.1386861313869 13.1386861313869 13.1386861313869 13.1386861313869 13.1386861313869 2.9940119760479 2.9940119760479 2.9940119760479 2.9940119760479 2.9940119760479 2.9940119760479 2.9940119760479 2.9940119760479 2.9940119760479 2.9940119760479 2.9940119760479 2.9940119760479 2.9940119760479 2.9940119760479 2.9940119760479 5.02706883217324 5.02706883217324 5.02706883217324 5.02706883217324 5.02706883217324 5.62851782363977 5.62851782363977 2.49169435215947 2.49169435215947 2.49169435215947 2.49169435215947 0 -9999 -9999 -9999 4.37062937062937 4.37062937062937 4.37062937062937 4.37062937062937 0 4.5045045045045 0 0 4.5045045045045 0 15.9574468085106 15.9574468085106 15.9574468085106 15.9574468085106 15.9574468085106 15.9574468085106 15.9574468085106 8.31600831600832 8.31600831600832 8.31600831600832 0 8.31600831600832 0 0 0 0 5.48446069469835 5.48446069469835 13.4099616858238 13.4099616858238 13.4099616858238 5.84795321637427 5.84795321637427 6.64451827242525 6.64451827242525 6.64451827242525 6.64451827242525 6.64451827242525 0 5.58659217877095 5.58659217877095 5.58659217877095 5.58659217877095 10.5633802816901 10.5633802816901 10.5633802816901 10.5633802816901 0 0 0 -9999 2.98804780876494 2.98804780876494 5.73394495412844 5.73394495412844 5.73394495412844 -9999 6.49350649350649 6.49350649350649 10.3986135181976 6.62251655629139 15.2091254752852 3.88726919339164 3.88726919339164 3.88726919339164 3.88726919339164 3.88726919339164 18.5185185185185 12.012012012012 12.012012012012 0 0 0 -9999 -9999 -9999 -9999 -9999 -9999 -9999 -9999 -9999 -9999 -9999 -9999 -9999 -9999 -9999 -9999 -9999 -9999 -9999 -9999 -9999 -9999 -9999 -9999 -9999 -9999 -9999 -9999 -9999 -9999 -9999 -9999 -9999 -9999 -9999 -9999 -9999 -9999 -9999 -9999 -9999 -9999 -9999 -9999 -9999 -9999 -9999 -9999 -9999 -9999 -9999 -9999 -9999 -9999 -9999 -9999 2.97619047619048 2.97619047619048 2.97619047619048 0 0 0 0 -9999 0 0 0 0 0 0 0 0 0 0 9.6830985915493 9.6830985915493 9.6830985915493 7.67263427109974 7.67263427109974 7.67263427109974 7.67263427109974 7.67263427109974 7.67263427109974 7.67263427109974 4.62962962962963 4.62962962962963 4.62962962962963 4.62962962962963 4.62962962962963 4.62962962962963 4.62962962962963 24.5283018867925 24.5283018867925 24.5283018867925 24.5283018867925 24.5283018867925 24.5283018867925 24.5283018867925 24.5283018867925 6.14489003880983 6.14489003880983 -9999 -9999 5.89390962671906 5.89390962671906 5.89390962671906 4.77099236641221 4.77099236641221 4.77099236641221 4.77099236641221 7.90229885057471 13.2275132275132 3.77358490566038 3.77358490566038 5.51470588235294 5.51470588235294 19.1740412979351 19.1740412979351 3.91389432485323 3.91389432485323 9.29752066115702 11.3835376532399 11.3835376532399 11.3835376532399 3.84024577572965 1.93050193050193 1.93050193050193 6.18556701030928 6.18556701030928 6.18556701030928 -9999 -9999 -9999 -9999 -9999 -9999 -9999 -9999 -9999 -9999 -9999 -9999 -9999 -9999 -9999 -9999 -9999 -9999 -9999 -9999 -9999 -9999 -9999 -9999 3.66300366300366 3.66300366300366 -9999 -9999 -9999 -9999 4.14540816326531 4.14540816326531 4.14540816326531 4.14540816326531 4.95294700346706 4.95294700346706 4.95294700346706 4.95294700346706 4.95294700346706 4.95294700346706 4.95294700346706 4.95294700346706 4.95294700346706 4.48430493273543 4.48430493273543 -9999 -9999 6.98689956331878 5.61797752808989 5.61797752808989 5.61797752808989 -9999 -9999 -9999 -9999 -9999 -9999 -9999 -9999 -9999 -9999 -9999 -9999 -9999 -9999 -9999 -9999 -9999 -9999 -9999 -9999 -9999 -9999 -9999 -9999 -9999 -9999 -9999 -9999 -9999 -9999 -9999 -9999 -9999 -9999 -9999 -9999 -9999 -9999 -9999 -9999 -9999 -9999 -9999 -9999 -9999 -9999 -9999 -9999 -9999 -9999 -9999 -9999 -9999 -9999 -9999 -9999 -9999 -9999 -9999 -9999 -9999 -9999 -9999 -9999
-9999 -9999 -9999 -9999 -9999 -9999 -9999 -9999 -9999 -9999 -9999 -9999 -9999 -9999 -9999 -9999 -9999 -9999 -9999 -9999 -9999 -9999 -9999 -9999 -9999 -9999 -9999 -9999 -9999 -9999 -9999 -9999 -9999 -9999 -9999 -9999 -9999 -9999 -9999 -9999 -9999 -9999 -9999 -9999 0 0 0 0 13.1386861313869 0 0 13.1386861313869 13.1386861313869 6.01503759398496 6.01503759398496 6.01503759398496 13.1386861313869 13.1386861313869 13.1386861313869 13.1386861313869 13.1386861313869 13.1386861313869 13.1386861313869 13.1386861313869 13.1386861313869 13.1386861313869 13.1386861313869 13.1386861313869 2.9940119760479 2.9940119760479 2.9940119760479 2.9940119760479 2.9940119760479 2.9940119760479 2.9940119760479 2.9940119760479 2.9940119760479 2.9940119760479 2.9940119760479 2.9940119760479 2.9940119760479 2.9940119760479 5.02706883217324 5.02706883217324 5.02706883217324 5.02706883217324 5.62851782363977 5.62851782363977 5.62851782363977 2.49169435215947 2.49169435215947 2.49169435215947 2.49169435215947 2.49169435215947 -9999 -9999 -9999 -9999 -9999 -9999 -9999 4.37062937062937 4.5045045045045 4.5045045045045 4.5045045045045 4.5045045045045 6.38297872340426 6.38297872340426 15.9574468085106 15.9574468085106 15.9574468085106 15.9574468085106 0 0 0 0 0 0 3.2258064516129 0 0 5.48446069469835 5.48446069469835 5.48446069469835 5.48446069469835 5.48446069469835 5.84795321637427 5.84795321637427 5.84795321637427 5.84795321637427 5.84795321637427 6.64451827242525 6.64451827242525 6.64451827242525 6.64451827242525 0 5.58659217877095 5.58659217877095 0 10.5633802816901 10.5633802816901 10.5633802816901 0 2.98804780876494 2.98804780876494 2.98804780876494 2.98804780876494 2.98804780876494 2.98804780876494 5.73394495412844 5.73394495412844 5.73394495412844 5.73394495412844 5.73394495412844 6.49350649350649 10.3986135181976 10.3986135181976 6.62251655629139 6.62251655629139 15.2091254752852 15.2091254752852 18.5185185185185 18.5185185185185 18.5185185185185 18.5185185185185 18.5185185185185 13.6138613861386 13.6138613861386 0 13.6138613861386 -9999 -9999 -9999 -9999 -9999 -9999 -9999 -9999 -9999 -9999 -9999 -9999 -9999 -9999 -9999 -9999 -9999 -9999 -9999 -9999 -9999 -9999 -9999 -9999 -9999 -9999 -9999 -9999 -9999 -9999 -9999 -9999 -9999 -9999 -9999 -9999 -9999 -9999 -9999 -9999 -9999 -9999 -9999 -9999 -9999 -9999 -9999 -9999 -9999 -9999 -9999 -9999 -9999 -9999 -9999 -9999 -9999 -9999 0 0 0 0 0 0 0 0 0 0 0 0 0 0 0 -9999 -9999 9.6830985915493 -9999 -9999 7.67263427109974 7.67263427109974 7.67263427109974 7.67263427109974 7.67263427109974 4.62962962962963 4.62962962962963 4.62962962962963 4.62962962962963 4.62962962962963 4.62962962962963 4.62962962962963 13.355592654424 13.355592654424 24.5283018867925 13.355592654424 13.355592654424 6.14489003880983 6.14489003880983 6.14489003880983 6.14489003880983 -9999 -9999 -9999 5.89390962671906 5.89390962671906 5.89390962671906 5.89390962671906 -9999 4.77099236641221 4.77099236641221 1.63934426229508 9.58466453674121 12.1065375302663 3.77358490566038 5.51470588235294 5.51470588235294 5.51470588235294 6.19834710743802 0 9.29752066115702 9.29752066115702 10.9561752988048 10.9561752988048 10.9561752988048 3.84024577572965 1.93050193050193 1.93050193050193 6.18556701030928 6.18556701030928 6.18556701030928 -9999 -9999 -9999 -9999 -9999 -9999 -9999 -9999 -9999 -9999 -9999 -9999 -9999 -9999 -9999 -9999 -9999 -9999 -9999 -9999 -9999 -9999 -9999 -9999 -9999 3.66300366300366 6.44468313641246 6.44468313641246 6.44468313641246 -9999 4.14540816326531 4.14540816326531 4.14540816326531 4.14540816326531 4.14540816326531 5.03778337531486 5.03778337531486 4.95294700346706 4.95294700346706 4.95294700346706 4.95294700346706 4.95294700346706 4.95294700346706 4.48430493273543 4.48430493273543 -9999 -9999 -9999 -9999 -9999 -9999 5.61797752808989 -9999 -9999 -9999 -9999 -9999 -9999 -9999 -9999 -9999 -9999 -9999 -9999 -9999 -9999 -9999 -9999 -9999 -9999 -9999 -9999 -9999 -9999 -9999 -9999 -9999 -9999 -9999 -9999 -9999 -9999 -9999 -9999 -9999 -9999 -9999 -9999 -9999 -9999 -9999 -9999 -9999 -9999 -9999 -9999 -9999 -9999 -9999 -9999 -9999 -9999 -9999 -9999 -9999 -9999 -9999 -9999 -9999 -9999 -9999 -9999 -9999 -9999 -9999 -9999
-9999 -9999 -9999 -9999 -9999 -9999 -9999 -9999 -9999 -9999 -9999 -9999 -9999 -9999 -9999 -9999 -9999 -9999 -9999 -9999 -9999 -9999 -9999 -9999 -9999 -9999 -9999 -9999 -9999 -9999 -9999 -9999 -9999 -9999 -9999 -9999 -9999 -9999 -9999 -9999 -9999 -9999 -9999 -9999 0 0 0 13.1386861313869 13.1386861313869 13.1386861313869 13.1386861313869 13.1386861313869 13.1386861313869 13.1386861313869 13.1386861313869 13.1386861313869 13.1386861313869 13.1386861313869 13.1386861313869 13.1386861313869 13.1386861313869 13.1386861313869 13.1386861313869 13.1386861313869 13.1386861313869 13.1386861313869 13.1386861313869 13.1386861313869 13.1386861313869 13.1386861313869 2.9940119760479 2.9940119760479 2.9940119760479 2.9940119760479 2.9940119760479 2.9940119760479 2.9940119760479 7.75193798449612 7.75193798449612 7.75193798449612 7.75193798449612 2.9940119760479 3.36134453781513 3.36134453781513 3.36134453781513 5.02706883217324 5.62851782363977 5.62851782363977 5.62851782363977 8.52878464818763 2.49169435215947 2.49169435215947 2.49169435215947 2.49169435215947 0 -9999 -9999 -9999 -9999 -9999 -9999 4.37062937062937 4.5045045045045 4.5045045045045 4.5045045045045 4.5045045045045 6.38297872340426 6.38297872340426 6.38297872340426 0 0 0 0 0 0 3.2258064516129 3.2258064516129 3.2258064516129 0 0 0 5.48446069469835 5.48446069469835 5.48446069469835 5.48446069469835 0 5.84795321637427 5.84795321637427 5.84795321637427 5.84795321637427 6.64451827242525 6.64451827242525 6.64451827242525 0 0 0 0 0 0 0 0 2.98804780876494 2.98804780876494 2.98804780876494 2.98804780876494 2.98804780876494 2.98804780876494 2.75938189845475 2.75938189845475 5.73394495412844 13.2978723404255 5.73394495412844 13.2978723404255 13.2978723404255 6.49350649350649 10.3986135181976 7.79036827195467 7.79036827195467 6.62251655629139 18.5185185185185 18.5185185185185 18.5185185185185 18.5185185185185 18.5185185185185 18.5185185185185 18.5185185185185 18.5185185185185 18.5185185185185 13.6138613861386 -9999 -9999 -9999 -9999 -9999 -9999 -9999 -9999 -9999 -9999 -9999 -9999 -9999 -9999 -9999 -9999 -9999 -9999 -9999 -9999 -9999 -9999 -9999 -9999 -9999 -9999 -9999 -9999 -9999 -9999 -9999 -9999 -9999 -9999 -9999 -9999 -9999 -9999 -9999 -9999 -9999 -9999 -9999 -9999 -9999 -9999 -9999 -9999 -9999 -9999 -9999 -9999 -9999 -9999 -9999 -9999 -9999 -9999 -9999 -9999 0 0 0 -9999 0 0 0 0 -9999 -9999 0 0 0 0 0 -9999 -9999 -9999 -9999 -9999 7.67263427109974 7.67263427109974 7.67263427109974 4.62962962962963 4.62962962962963 4.62962962962963 4.62962962962963 4.62962962962963 4.62962962962963 4.62962962962963 4.62962962962963 4.62962962962963 13.355592654424 13.355592654424 13.355592654424 13.355592654424 13.355592654424 6.14489003880983 6.14489003880983 -9999 -9999 -9999 -9999 8.79249706916764 8.79249706916764 5.89390962671906 -9999 -9999 0 6.93069306930693 9.58466453674121 12.1065375302663 3.77358490566038 0 0 5.51470588235294 6.19834710743802 0 0 0 10.6516290726817 4.27350427350427 4.27350427350427 22.3300970873786 0 15.5875299760192 1.93050193050193 6.18556701030928 6.18556701030928 -9999 -9999 -9999 -9999 -9999 -9999 -9999 -9999 -9999 -9999 -9999 -9999 -9999 -9999 -9999 -9999 -9999 -9999 -9999 -9999 -9999 -9999 -9999 -9999 -9999 6.9060773480663 -9999 -9999 6.44468313641246 6.44468313641246 4.14540816326531 4.14540816326531 4.14540816326531 4.14540816326531 4.14540816326531 5.03778337531486 5.03778337531486 5.03778337531486 5.03778337531486 5.03778337531486 4.95294700346706 4.95294700346706 4.95294700346706 4.48430493273543 4.48430493273543 4.48430493273543 -9999 -9999 -9999 -9999 -9999 -9999 -9999 -9999 -9999 -9999 -9999 -9999 -9999 -9999 -9999 -9999 -9999 -9999 -9999 -9999 -9999 -9999 -9999 -9999 -9999 -9999 -9999 -9999 -9999 -9999 -9999 -9999 -9999 -9999 -9999 -9999 -9999 -9999 -9999 -9999 -9999 -9999 -9999 -9999 -9999 -9999 -9999 -9999 -9999 -9999 -9999 -9999 -9999 -9999 -9999 -9999 -9999 -9999 -9999 -9999 -9999 -9999 -9999 -9999 -9999 -9999 -9999 -9999 -9999 -9999 -9999
-9999 -9999 -9999 -9999 -9999 -9999 -9999 -9999 -9999 -9999 -9999 -9999 -9999 -9999 -9999 -9999 -9999 -9999 -9999 -9999 -9999 -9999 -9999 -9999 -9999 -9999 -9999 -9999 -9999 -9999 -9999 -9999 -9999 -9999 -9999 -9999 -9999 -9999 -9999 -9999 -9999 -9999 -9999 0 0 0 13.1386861313869 13.1386861313869 13.1386861313869 13.1386861313869 13.1386861313869 13.1386861313869 13.1386861313869 13.1386861313869 13.1386861313869 13.1386861313869 13.1386861313869 13.1386861313869 13.1386861313869 13.1386861313869 13.1386861313869 13.1386861313869 13.1386861313869 13.1386861313869 13.1386861313869 13.1386861313869 13.1386861313869 13.1386861313869 13.1386861313869 13.1386861313869 13.1386861313869 2.9940119760479 2.9940119760479 2.9940119760479 2.9940119760479 2.9940119760479 7.75193798449612 7.75193798449612 7.75193798449612 7.75193798449612 3.36134453781513 3.36134453781513 3.36134453781513 3.36134453781513 3.36134453781513 3.36134453781513 5.62851782363977 0 0 8.52878464818763 8.52878464818763 8.52878464818763 8.52878464818763 8.52878464818763 0 0 -9999 -9999 -9999 -9999 -9999 -9999 4.37062937062937 4.5045045045045 4.5045045045045 11.2179487179487 11.2179487179487 6.38297872340426 6.38297872340426 4.14593698175788 0 0 0 0 0 3.2258064516129 3.2258064516129 3.2258064516129 3.2258064516129 0 0 5.48446069469835 5.48446069469835 0 0 0 0 0 5.84795321637427 6.64451827242525 6.64451827242525 6.64451827242525 2.69299820466786 0 0 0 0 0 2.98804780876494 2.98804780876494 2.98804780876494 2.98804780876494 2.98804780876494 2.98804780876494 2.98804780876494 2.98804780876494 2.98804780876494 2.75938189845475 2.75938189845475 2.75938189845475 13.2978723404255 13.2978723404255 13.2978723404255 13.2978723404255 7.79036827195467 7.79036827195467 7.79036827195467 12.7326150832517 12.7326150832517 18.5185185185185 18.5185185185185 18.5185185185185 18.5185185185185 18.5185185185185 18.5185185185185 18.5185185185185 18.5185185185185 18.5185185185185 18.5185185185185 -9999 -9999 -9999 -9999 -9999 -9999 -9999 -9999 -9999 -9999 -9999 -9999 -9999 -9999 -9999 -9999 -9999 -9999 -9999 -9999 -9999 -9999 -9999 -9999 -9999 -9999 -9999 -9999 -9999 -9999 -9999 -9999 -9999 -9999 -9999 -9999 -9999 -9999 -9999 -9999 -9999 -9999 -9999 -9999 -9999 -9999 -9999 -9999 -9999 -9999 -9999 -9999 -9999 -9999 -9999 -9999 -9999 -9999 -9999 -9999 0 0 0 -9999 -9999 -9999 0 -9999 -9999 -9999 -9999 -9999 0 -9999 -9999 -9999 -9999 -9999 -9999 -9999 -9999 4.62962962962963 4.62962962962963 4.62962962962963 4.62962962962963 4.62962962962963 4.62962962962963 4.62962962962963 4.62962962962963 4.62962962962963 4.62962962962963 4.62962962962963 4.62962962962963 13.355592654424 13.355592654424 13.355592654424 13.355592654424 13.355592654424 -9999 -9999 -9999 8.79249706916764 8.79249706916764 8.79249706916764 8.79249706916764 8.79249706916764 7.39644970414201 0 6.93069306930693 7.8740157480315 0 10.9489051094891 0 0 0 3.690036900369 3.90625 0 0 10.6516290726817 6.98080279232112 6.98080279232112 6.98080279232112 3.4965034965035 15.5875299760192 15.5875299760192 15.5875299760192 9.51374207188161 6.18556701030928 -9999 -9999 -9999 -9999 -9999 -9999 -9999 -9999 -9999 -9999 -9999 -9999 -9999 -9999 -9999 -9999 -9999 -9999 -9999 -9999 -9999 -9999 -9999 -9999 6.9060773480663 -9999 -9999 9.29752066115702 9.29752066115702 4.14540816326531 4.14540816326531 4.14540816326531 4.14540816326531 4.14540816326531 5.03778337531486 5.03778337531486 5.03778337531486 5.03778337531486 5.03778337531486 5.03778337531486 5.03778337531486 4.48430493273543 4.48430493273543 4.48430493273543 4.48430493273543 -9999 -9999 -9999 -9999 -9999 -9999 -9999 -9999 -9999 -9999 -9999 -9999 -9999 -9999 -9999 -9999 -9999 -9999 -9999 -9999 -9999 -9999 -9999 -9999 -9999 -9999 -9999 -9999 -9999 -9999 -9999 -9999 -9999 -9999 -9999 -9999 -9999 -9999 -9999 -9999 -9999 -9999 -9999 -9999 -9999 -9999 -9999 -9999 -9999 -9999 -9999 -9999 -9999 -9999 -9999 -9999 -9999 -9999 -9999 -9999 -9999 -9999 -9999 -9999 -9999 -9999 -9999 -9999 -9999 -9999 -9999 -9999
-9999 -9999 -9999 -9999 -9999 -9999 -9999 -9999 -9999 -9999 -9999 -9999 -9999 -9999 -9999 -9999 -9999 -9999 -9999 -9999 -9999 -9999 -9999 -9999 -9999 -9999 -9999 -9999 -9999 -9999 -9999 -9999 -9999 -9999 -9999 -9999 -9999 -9999 -9999 -9999 -9999 -9999 0 0 13.1386861313869 13.1386861313869 13.1386861313869 13.1386861313869 13.1386861313869 13.1386861313869 13.1386861313869 13.1386861313869 13.1386861313869 13.1386861313869 13.1386861313869 13.1386861313869 13.1386861313869 13.1386861313869 13.1386861313869 13.1386861313869 13.1386861313869 13.1386861313869 13.1386861313869 13.1386861313869 13.1386861313869 13.1386861313869 13.1386861313869 13.1386861313869 13.1386861313869 13.1386861313869 13.1386861313869 13.1386861313869 2.9940119760479 2.9940119760479 2.9940119760479 0 7.75193798449612 7.75193798449612 2.31481481481481 2.31481481481481 3.36134453781513 3.36134453781513 3.36134453781513 3.36134453781513 3.36134453781513 0 0 0 0 0 8.52878464818763 8.52878464818763 8.52878464818763 0 0 -9999 -9999 -9999 -9999 -9999 -9999 -9999 4.37062937062937 4.37062937062937 11.2179487179487 11.2179487179487 11.2179487179487 11.2179487179487 4.14593698175788 4.14593698175788 4.14593698175788 4.14593698175788 0 0 0 0 3.2258064516129 3.2258064516129 3.2258064516129 0 0 0 0 0 0 0 0 0 2.79329608938547 5.84795321637427 2.69299820466786 2.69299820466786 2.69299820466786 0 0 0 0 0 0 2.98804780876494 2.98804780876494 2.98804780876494 2.98804780876494 2.98804780876494 2.98804780876494 2.98804780876494 2.75938189845475 2.75938189845475 2.75938189845475 2.75938189845475 2.75938189845475 13.2978723404255 13.2978723404255 13.2978723404255 12.7326150832517 12.7326150832517 12.7326150832517 12.7326150832517 6.39386189258312 6.39386189258312 6.39386189258312 18.5185185185185 18.5185185185185 18.5185185185185 18.5185185185185 18.5185185185185 18.5185185185185 18.5185185185185 18.5185185185185 18.5185185185185 18.5185185185185 -9999 -9999 -9999 -9999 -9999 -9999 -9999 -9999 -9999 -9999 -9999 -9999 -9999 -9999 -9999 -9999 -9999 -9999 -9999 -9999 -9999 -9999 -9999 -9999 -9999 -9999 -9999 -9999 -9999 -9999 -9999 -9999 -9999 -9999 -9999 -9999 -9999 -9999 -9999 -9999 -9999 -9999 -9999 -9999 -9999 -9999 -9999 -9999 -9999 -9999 -9999 -9999 -9999 -9999 -9999 -9999 -9999 -9999 -9999 -9999 -9999 -9999 -9999 -9999 -9999 -9999 -9999 -9999 -9999 -9999 -9999 -9999 -9999 -9999 -9999 -9999 -9999 -9999 4.62962962962963 4.62962962962963 4.62962962962963 4.62962962962963 4.62962962962963 4.62962962962963 4.62962962962963 4.62962962962963 4.62962962962963 4.62962962962963 4.62962962962963 4.62962962962963 4.62962962962963 4.62962962962963 4.62962962962963 13.355592654424 -9999 -9999 -9999 -9999 8.79249706916764 8.79249706916764 8.79249706916764 8.79249706916764 8.17757009345794 7.39644970414201 11.2219451371571 11.2219451371571 7.63358778625954 0 10.9489051094891 10.9489051094891 10.9489051094891 6.56455142231947 14.1592920353982 3.90625 0 0 11.8483412322275 9.00900900900901 6.98080279232112 6.98080279232112 3.4965034965035 3.4965034965035 3.4965034965035 -9999 9.51374207188161 9.51374207188161 0 0 -9999 -9999 -9999 -9999 -9999 -9999 -9999 -9999 -9999 -9999 -9999 -9999 -9999 -9999 -9999 -9999 -9999 -9999 -9999 -9999 -9999 -9999 -9999 -9999 -9999 -9999 -9999 0 -9999 -9999 5 5 5.03778337531486 5.03778337531486 5.03778337531486 5.03778337531486 5.03778337531486 5.03778337531486 5.03778337531486 4.48430493273543 4.48430493273543 4.48430493273543 4.48430493273543 4.48430493273543 -9999 -9999 -9999 -9999 -9999 -9999 -9999 -9999 -9999 -9999 -9999 -9999 -9999 -9999 -9999 -9999 -9999 -9999 -9999 -9999 -9999 -9999 -9999 -9999 -9999 -9999 -9999 -9999 -9999 -9999 -9999 -9999 -9999 -9999 -9999 -9999 -9999 -9999 -9999 -9999 -9999 -9999 -9999 -9999 -9999 -9999 -9999 -9999 -9999 -9999 -9999 -9999 -9999 -9999 -9999 -9999 -9999 -9999 -9999 -9999 -9999 -9999 -9999 -9999 -9999 -9999 -9999 -9999 -9999 -9999 -9999 -9999
-9999 -9999 -9999 -9999 -9999 -9999 -9999 -9999 -9999 -9999 -9999 -9999 -9999 -9999 -9999 -9999 -9999 -9999 -9999 -9999 -9999 -9999 -9999 -9999 -9999 -9999 -9999 -9999 -9999 -9999 -9999 -9999 -9999 -9999 -9999 -9999 -9999 -9999 -9999 -9999 -9999 0 0 13.1386861313869 13.1386861313869 13.1386861313869 13.1386861313869 13.1386861313869 13.1386861313869 13.1386861313869 13.1386861313869 13.1386861313869 13.1386861313869 13.1386861313869 13.1386861313869 13.1386861313869 13.1386861313869 13.1386861313869 13.1386861313869 13.1386861313869 13.1386861313869 13.1386861313869 13.1386861313869 13.1386861313869 13.1386861313869 13.1386861313869 13.1386861313869 13.1386861313869 13.1386861313869 13.1386861313869 13.1386861313869 13.1386861313869 13.1386861313869 2.9940119760479 2.9940119760479 0 0 2.31481481481481 2.31481481481481 2.31481481481481 2.31481481481481 3.36134453781513 3.36134453781513 3.36134453781513 0 0 0 0 0 8.52878464818763 8.52878464818763 8.52878464818763 0 0 -9999 -9999 -9999 -9999 -9999 -9999 -9999 5.21512385919166 4.37062937062937 11.2179487179487 11.2179487179487 11.2179487179487 11.2179487179487 11.2179487179487 4.14593698175788 4.14593698175788 4.14593698175788 0 0 0 0 0 0 3.45781466113416 3.45781466113416 3.45781466113416 0 0 0 0 0 0 0 2.79329608938547 2.79329608938547 2.69299820466786 2.69299820466786 2.69299820466786 2.69299820466786 0 0 0 0 5.86701434159061 5.86701434159061 5.86701434159061 2.98804780876494 2.98804780876494 7.02247191011236 7.02247191011236 2.75938189845475 2.75938189845475 2.98804780876494 2.75938189845475 2.75938189845475 2.75938189845475 2.75938189845475 6.4 6.4 6.4 12.7326150832517 12.7326150832517 6.39386189258312 6.39386189258312 6.39386189258312 6.39386189258312 6.39386189258312 3.29489291598023 3.29489291598023 18.5185185185185 18.5185185185185 18.5185185185185 18.5185185185185 18.5185185185185 18.5185185185185 18.5185185185185 18.5185185185185 18.5185185185185 18.5185185185185 -9999 -9999 -9999 -9999 -9999 -9999 -9999 -9999 -9999 -9999 -9999 -9999 -9999 -9999 -9999 -9999 -9999 -9999 -9999 -9999 -9999 -9999 -9999 -9999 -9999 -9999 -9999 -9999 -9999 -9999 -9999 -9999 -9999 -9999 -9999 -9999 -9999 -9999 -9999 -9999 -9999 -9999 -9999 -9999 -9999 -9999 -9999 -9999 -9999 -9999 -9999 -9999 -9999 -9999 -9999 -9999 -9999 -9999 -9999 -9999 -9999 -9999 -9999 -9999 -9999 -9999 -9999 -9999 -9999 -9999 -9999 -9999 -9999 -9999 -9999 4.62962962962963 4.62962962962963 4.62962962962963 4.62962962962963 4.62962962962963 4.62962962962963 4.62962962962963 4.62962962962963 4.62962962962963 4.62962962962963 4.62962962962963 4.62962962962963 4.62962962962963 4.62962962962963 4.62962962962963 4.62962962962963 4.62962962962963 4.62962962962963 -9999 -9999 8.79249706916764 8.79249706916764 8.79249706916764 8.79249706916764 8.79249706916764 8.17757009345794 11.2219451371571 11.2219451371571 7.63358778625954 0 0 0 0 6.56455142231947 14.1592920353982 1.84956843403206 2.69396551724138 2.69396551724138 11.8483412322275 9.00900900900901 9.00900900900901 4.02576489533011 4.02576489533011 3.4965034965035 3.4965034965035 -9999 -9999 -9999 -9999 -9999 -9999 -9999 -9999 -9999 -9999 -9999 -9999 -9999 4.9800796812749 4.9800796812749 4.9800796812749 4.9800796812749 4.9800796812749 -9999 -9999 -9999 -9999 -9999 -9999 -9999 -9999 -9999 -9999 -9999 -9999 -9999 -9999 -9999 0 0 5.5205047318612 5.5205047318612 0 0 5.03778337531486 5.03778337531486 5.03778337531486 5.03778337531486 5.03778337531486 4.48430493273543 4.48430493273543 4.48430493273543 4.48430493273543 4.48430493273543 -9999 -9999 -9999 -9999 -9999 -9999 -9999 -9999 -9999 -9999 -9999 -9999 -9999 -9999 -9999 -9999 -9999 -9999 -9999 -9999 -9999 -9999 -9999 -9999 -9999 -9999 -9999 -9999 -9999 -9999 -9999 -9999 -9999 -9999 -9999 -9999 -9999 -9999 -9999 -9999 -9999 -9999 -9999 -9999 -9999 -9999 -9999 -9999 -9999 -9999 -9999 -9999 -9999 -9999 -9999 -9999 -9999 -9999 -9999 -9999 -9999 -9999 -9999 -9999 -9999 -9999 -9999 -9999 -9999 -9999 -9999 -9999 -9999
-9999 -9999 -9999 -9999 -9999 -9999 -9999 -9999 -9999 -9999 -9999 -9999 -9999 -9999 -9999 -9999 -9999 -9999 -9999 -9999 -9999 -9999 -9999 -9999 -9999 -9999 -9999 -9999 -9999 -9999 -9999 -9999 -9999 -9999 0 0 0 0 0 0 0 0 13.1386861313869 13.1386861313869 13.1386861313869 13.1386861313869 13.1386861313869 13.1386861313869 13.1386861313869 13.1386861313869 13.1386861313869 13.1386861313869 13.1386861313869 13.1386861313869 13.1386861313869 13.1386861313869 13.1386861313869 13.1386861313869 13.1386861313869 13.1386861313869 13.1386861313869 13.1386861313869 13.1386861313869 13.1386861313869 13.1386861313869 13.1386861313869 13.1386861313869 13.1386861313869 13.1386861313869 13.1386861313869 13.1386861313869 13.1386861313869 13.1386861313869 13.1386861313869 0 0 0 0 2.31481481481481 2.31481481481481 3.36134453781513 3.36134453781513 0 0 0 0 0 0 0 0 0 0 0 -9999 -9999 -9999 -9999 -9999 -9999 -9999 -9999 5.21512385919166 5.21512385919166 11.2179487179487 11.2179487179487 11.2179487179487 11.2179487179487 11.2179487179487 11.2179487179487 4.14593698175788 4.14593698175788 4.14593698175788 0 4.14593698175788 0 3.45781466113416 3.45781466113416 3.45781466113416 3.45781466113416 3.45781466113416 3.45781466113416 0 0 0 0 2.79329608938547 0 2.79329608938547 2.79329608938547 2.79329608938547 2.69299820466786 2.69299820466786 2.69299820466786 0 0 5.86701434159061 5.86701434159061 5.86701434159061 5.86701434159061 1.9546520719312 1.9546520719312 7.02247191011236 7.02247191011236 7.02247191011236 7.02247191011236 2.75938189845475 2.75938189845475 2.75938189845475 2.75938189845475 2.75938189845475 5.0251256281407 5.0251256281407 6.4 6.4 3.29489291598023 3.29489291598023 3.29489291598023 3.29489291598023 3.29489291598023 6.39386189258312 3.29489291598023 3.29489291598023 3.29489291598023 3.29489291598023 18.5185185185185 18.5185185185185 18.5185185185185 18.5185185185185 18.5185185185185 18.5185185185185 4.34027777777778 4.34027777777778 4.34027777777778 4.34027777777778 -9999 -9999 -9999 -9999 -9999 -9999 -9999 -9999 -9999 -9999 -9999 -9999 -9999 -9999 -9999 -9999 -9999 -9999 -9999 -9999 -9999 -9999 -9999 -9999 -9999 -9999 -9999 -9999 -9999 -9999 -9999 -9999 -9999 -9999 -9999 -9999 -9999 -9999 -9999 -9999 -9999 -9999 -9999 -9999 -9999 -9999 -9999 -9999 -9999 -9999 -9999 -9999 -9999 -9999 -9999 -9999 -9999 -9999 -9999 -9999 -9999 -9999 -9999 -9999 -9999 -9999 -9999 -9999 -9999 -9999 -9999 -9999 4.62962962962963 4.62962962962963 4.62962962962963 4.62962962962963 4.62962962962963 4.62962962962963 4.62962962962963 4.62962962962963 4.62962962962963 4.62962962962963 4.62962962962963 4.62962962962963 4.62962962962963 4.62962962962963 4.62962962962963 4.62962962962963 4.62962962962963 4.62962962962963 -9999 -9999 -9999 -9999 -9999 -9999 8.79249706916764 8.79249706916764 8.79249706916764 4.41501103752759 4.41501103752759 11.2219451371571 11.2219451371571 15.5979202772964 15.5979202772964 0 0 0 3.64963503649635 2.69396551724138 2.69396551724138 0 0 4.95049504950495 4.02576489533011 4.02576489533011 3.4965034965035 3.4965034965035 -9999 -9999 -9999 -9999 -9999 -9999 -9999 -9999 -9999 -9999 -9999 -9999 4.9800796812749 4.9800796812749 4.9800796812749 4.9800796812749 4.9800796812749 4.9800796812749 4.9800796812749 24.9609984399376 -9999 -9999 -9999 -9999 -9999 -9999 -9999 -9999 -9999 -9999 -9999 -9999 -9999 0 5.09803921568627 9.93377483443709 5.5205047318612 0 0 0 -9999 -9999 5.03778337531486 5.03778337531486 4.48430493273543 4.48430493273543 5.2790346907994 -9999 -9999 -9999 -9999 -9999 -9999 -9999 -9999 -9999 -9999 -9999 -9999 -9999 -9999 -9999 -9999 -9999 -9999 -9999 -9999 -9999 -9999 -9999 -9999 -9999 -9999 -9999 -9999 -9999 -9999 -9999 -9999 -9999 -9999 -9999 -9999 -9999 -9999 -9999 -9999 -9999 -9999 -9999 -9999 -9999 -9999 -9999 -9999 -9999 -9999 -9999 -9999 -9999 -9999 -9999 -9999 -9999 -9999 -9999 -9999 -9999 -9999 -9999 -9999 -9999 -9999 -9999 -9999 -9999 -9999 -9999 -9999 -9999 -9999 -9999 -9999
-9999 -9999 -9999 -9999 -9999 -9999 -9999 -9999 -9999 -9999 -9999 -9999 -9999 -9999 -9999 -9999 -9999 -9999 -9999 -9999 -9999 -9999 -9999 -9999 -9999 -9999 -9999 -9999 -9999 -9999 -9999 -9999 -9999 -9999 0 0 0 0 0 0 13.1386861313869 13.1386861313869 13.1386861313869 13.1386861313869 13.1386861313869 13.1386861313869 13.1386861313869 13.1386861313869 13.1386861313869 13.1386861313869 13.1386861313869 13.1386861313869 13.1386861313869 13.1386861313869 13.1386861313869 13.1386861313869 13.1386861313869 13.1386861313869 13.1386861313869 13.1386861313869 13.1386861313869 13.1386861313869 13.1386861313869 13.1386861313869 13.1386861313869 13.1386861313869 13.1386861313869 13.1386861313869 13.1386861313869 13.1386861313869 13.1386861313869 13.1386861313869 13.1386861313869 13.1386861313869 13.1386861313869 0 0 0 2.31481481481481 2.31481481481481 0 0 0 0 0 0 0 0 0 0 0 0 0 -9999 -9999 -9999 -9999 -9999 -9999 -9999 5.21512385919166 5.21512385919166 5.21512385919166 11.2179487179487 11.2179487179487 11.2179487179487 11.2179487179487 11.2179487179487 11.2179487179487 11.2179487179487 4.14593698175788 4.14593698175788 4.14593698175788 3.45781466113416 3.45781466113416 3.45781466113416 3.45781466113416 3.45781466113416 3.45781466113416 3.45781466113416 3.45781466113416 0 0 0 0 2.79329608938547 2.79329608938547 2.79329608938547 2.79329608938547 2.79329608938547 0 0 0 5.86701434159061 5.86701434159061 5.86701434159061 5.4249547920434 1.9546520719312 1.9546520719312 1.9546520719312 1.9546520719312 1.9546520719312 7.02247191011236 7.02247191011236 7.02247191011236 2.75938189845475 2.75938189845475 2.75938189845475 9.75609756097561 9.75609756097561 6.4 6.4 5.35168195718654 5.35168195718654 3.29489291598023 3.29489291598023 3.29489291598023 3.29489291598023 3.29489291598023 3.29489291598023 0 3.29489291598023 3.29489291598023 0 0 18.5185185185185 18.5185185185185 18.5185185185185 4.34027777777778 4.34027777777778 4.34027777777778 4.34027777777778 4.34027777777778 4.34027777777778 4.34027777777778 -9999 -9999 -9999 -9999 -9999 -9999 -9999 -9999 -9999 -9999 -9999 -9999 -9999 -9999 -9999 -9999 -9999 -9999 -9999 -9999 -9999 -9999 -9999 -9999 -9999 -9999 -9999 -9999 -9999 -9999 -9999 -9999 -9999 -9999 -9999 -9999 -9999 -9999 -9999 -9999 -9999 -9999 -9999 -9999 -9999 -9999 -9999 -9999 -9999 -9999 -9999 -9999 -9999 -9999 -9999 -9999 -9999 -9999 -9999 -9999 -9999 -9999 -9999 -9999 -9999 -9999 -9999 -9999 -9999 -9999 4.62962962962963 4.62962962962963 4.62962962962963 4.62962962962963 4.62962962962963 4.62962962962963 4.62962962962963 4.62962962962963 4.62962962962963 4.62962962962963 4.62962962962963 4.62962962962963 4.62962962962963 4.62962962962963 4.62962962962963 4.62962962962963 4.62962962962963 4.62962962962963 -9999 -9999 -9999 -9999 -9999 -9999 -9999 -9999 -9999 4.41501103752759 4.41501103752759 4.41501103752759 11.609907120743 11.609907120743 15.5979202772964 15.5979202772964 0 0 3.64963503649635 5.13059701492537 5.13059701492537 0 0 4.95049504950495 8.45864661654135 8.45864661654135 -9999 -9999 -9999 -9999 -9999 -9999 -9999 -9999 -9999 -9999 4.9800796812749 4.9800796812749 4.9800796812749 -9999 4.9800796812749 4.9800796812749 4.9800796812749 4.9800796812749 4.9800796812749 4.9800796812749 4.9800796812749 24.9609984399376 24.9609984399376 24.9609984399376 24.9609984399376 -9999 8.52272727272727 8.52272727272727 -9999 -9999 -9999 -9999 -9999 -9999 -9999 -9999 -9999 -9999 5.23560209424084 5.23560209424084 6.88073394495413 0 -9999 -9999 -9999 8.25825825825826 8.25825825825826 4.48430493273543 5.2790346907994 5.2790346907994 5.2790346907994 -9999 -9999 -9999 -9999 -9999 -9999 -9999 -9999 -9999 -9999 -9999 -9999 -9999 -9999 -9999 -9999 -9999 -9999 -9999 -9999 -9999 -9999 -9999 -9999 -9999 -9999 -9999 -9999 -9999 -9999 -9999 -9999 -9999 -9999 -9999 -9999 -9999 -9999 -9999 -9999 -9999 -9999 -9999 -9999 -9999 -9999 -9999 -9999 -9999 -9999 -9999 -9999 -9999 -9999 -9999 -9999 -9999 -9999 -9999 -9999 -9999 -9999 -9999 -9999 -9999 -9999 -9999 -9999 -9999 -9999 -9999 -9999 -9999 -9999 -9999
-9999 -9999 -9999 -9999 -9999 -9999 -9999 -9999 -9999 -9999 -9999 -9999 -9999 -9999 -9999 -9999 -9999 -9999 -9999 -9999 -9999 -9999 -9999 -9999 -9999 -9999 -9999 -9999 -9999 -9999 -9999 -9999 0 0 0 0 13.1386861313869 13.1386861313869 13.1386861313869 13.1386861313869 13.1386861313869 13.1386861313869 13.1386861313869 13.1386861313869 13.1386861313869 13.1386861313869 13.1386861313869 13.1386861313869 13.1386861313869 13.1386861313869 13.1386861313869 13.1386861313869 13.1386861313869 13.1386861313869 13.1386861313869 13.1386861313869 13.1386861313869 13.1386861313869 13.1386861313869 13.1386861313869 13.1386861313869 13.1386861313869 13.1386861313869 13.1386861313869 13.1386861313869 13.1386861313869 13.1386861313869 13.1386861313869 13.1386861313869 13.1386861313869 13.1386861313869 13.1386861313869 13.1386861313869 13.1386861313869 13.1386861313869 13.1386861313869 0 0 0 0 0 0 0 0 0 0 0 0 0 0 0 0 -9999 -9999 -9999 -9999 -9999 -9999 -9999 5.21512385919166 5.21512385919166 5.21512385919166 5.67260940032415 5.67260940032415 11.2179487179487 11.2179487179487 11.2179487179487 11.2179487179487 11.2179487179487 11.2179487179487 11.2179487179487 1.50602409638554 1.50602409638554 3.45781466113416 3.45781466113416 3.45781466113416 3.45781466113416 3.45781466113416 3.45781466113416 3.45781466113416 3.45781466113416 3.45781466113416 0 2.79329608938547 2.79329608938547 2.79329608938547 2.79329608938547 0 0 0 0 5.86701434159061 5.86701434159061 5.86701434159061 5.4249547920434 5.4249547920434 5.4249547920434 5.4249547920434 1.9546520719312 1.9546520719312 1.9546520719312 1.9546520719312 1.9546520719312 7.02247191011236 7.02247191011236 9.75609756097561 9.75609756097561 9.75609756097561 9.75609756097561 9.75609756097561 10.3911980440098 10.3911980440098 5.35168195718654 5.35168195718654 5.35168195718654 5.35168195718654 3.29489291598023 3.29489291598023 0 0 0 0 0 0 0 0 4.34027777777778 4.34027777777778 4.34027777777778 4.34027777777778 4.34027777777778 4.34027777777778 4.34027777777778 4.34027777777778 4.34027777777778 -9999 -9999 -9999 -9999 -9999 -9999 -9999 -9999 -9999 -9999 -9999 -9999 -9999 -9999 -9999 -9999 -9999 -9999 -9999 -9999 -9999 -9999 -9999 -9999 -9999 -9999 -9999 -9999 -9999 -9999 -9999 -9999 -9999 -9999 -9999 -9999 -9999 -9999 -9999 -9999 -9999 -9999 -9999 -9999 -9999 -9999 -9999 -9999 -9999 -9999 -9999 -9999 -9999 -9999 -9999 -9999 -9999 -9999 -9999 -9999 -9999 -9999 -9999 -9999 -9999 -9999 -9999 -9999 -9999 4.62962962962963 4.62962962962963 4.62962962962963 4.62962962962963 4.62962962962963 4.62962962962963 -9999 4.62962962962963 4.62962962962963 4.62962962962963 4.62962962962963 4.62962962962963 4.62962962962963 4.62962962962963 4.62962962962963 4.62962962962963 4.62962962962963 4.62962962962963 -9999 -9999 -9999 -9999 -9999 -9999 -9999 -9999 -9999 4.65549348230912 7.79896013864818 7.79896013864818 7.79896013864818 11.609907120743 11.609907120743 11.609907120743 0 0 15.9574468085106 0 0 15.2091254752852 15.2091254752852 0 15.2091254752852 2.35849056603774 -9999 -9999 -9999 -9999 -9999 8.3955223880597 -9999 -9999 -9999 -9999 6.83371298405467 6.83371298405467 4.9800796812749 4.9800796812749 4.9800796812749 4.9800796812749 4.9800796812749 4.9800796812749 4.9800796812749 4.9800796812749 4.9800796812749 24.9609984399376 24.9609984399376 24.9609984399376 24.9609984399376 8.52272727272727 8.52272727272727 8.52272727272727 8.52272727272727 8.52272727272727 8.52272727272727 8.52272727272727 -9999 -9999 -9999 -9999 -9999 -9999 5.23952095808383 5.23952095808383 4.3859649122807 6.88073394495413 -9999 -9999 -9999 10.5519480519481 8.25825825825826 10.5519480519481 13.3079847908745 13.3079847908745 5.2790346907994 5.2790346907994 -9999 -9999 -9999 -9999 -9999 -9999 -9999 -9999 -9999 -9999 -9999 -9999 -9999 -9999 -9999 -9999 -9999 -9999 -9999 -9999 -9999 -9999 -9999 -9999 -9999 -9999 -9999 -9999 -9999 -9999 -9999 -9999 -9999 -9999 -9999 -9999 -9999 -9999 -9999 -9999 -9999 -9999 -9999 -9999 -9999 -9999 -9999 -9999 -9999 -9999 -9999 -9999 -9999 -9999 -9999 -9999 -9999 -9999 -9999 -9999 -9999 -9999 -9999 -9999 -9999 -9999 -9999 -9999 -9999 -9999 -9999 -9999 -9999 -9999 -9999
-9999 -9999 -9999 -9999 -9999 -9999 -9999 -9999 -9999 -9999 -9999 -9999 -9999 -9999 -9999 -9999 -9999 -9999 -9999 -9999 -9999 -9999 -9999 -9999 -9999 -9999 -9999 -9999 -9999 -9999 -9999 0 0 0 13.1386861313869 13.1386861313869 13.1386861313869 13.1386861313869 13.1386861313869 13.1386861313869 13.1386861313869 13.1386861313869 13.1386861313869 13.1386861313869 13.1386861313869 13.1386861313869 13.1386861313869 13.1386861313869 13.1386861313869 13.1386861313869 13.1386861313869 13.1386861313869 13.1386861313869 13.1386861313869 13.1386861313869 13.1386861313869 13.1386861313869 13.1386861313869 13.1386861313869 13.1386861313869 13.1386861313869 13.1386861313869 13.1386861313869 13.1386861313869 13.1386861313869 13.1386861313869 13.1386861313869 13.1386861313869 13.1386861313869 13.1386861313869 13.1386861313869 13.1386861313869 13.1386861313869 13.1386861313869 13.1386861313869 13.1386861313869 13.1386861313869 13.1386861313869 0 0 0 0 0 0 0 0 0 0 0 0 -9999 -9999 -9999 -9999 -9999 -9999 -9999 -9999 5.21512385919166 5.21512385919166 5.67260940032415 5.67260940032415 5.67260940032415 5.67260940032415 11.2179487179487 11.2179487179487 11.2179487179487 11.2179487179487 11.2179487179487 1.50602409638554 1.50602409638554 1.50602409638554 1.50602409638554 1.50602409638554 3.45781466113416 3.45781466113416 3.35570469798658 3.35570469798658 3.45781466113416 3.45781466113416 3.45781466113416 3.45781466113416 3.45781466113416 2.79329608938547 2.79329608938547 0 0 0 5.4249547920434 0 0 5.4249547920434 5.4249547920434 5.4249547920434 5.4249547920434 5.4249547920434 5.4249547920434 5.4249547920434 5.4249547920434 1.9546520719312 1.9546520719312 1.9546520719312 1.9546520719312 1.9546520719312 9.75609756097561 9.75609756097561 9.75609756097561 9.75609756097561 10.3911980440098 10.3911980440098 10.3911980440098 10.3911980440098 5.35168195718654 5.35168195718654 -9999 5.35168195718654 3.29489291598023 0 -9999 0 0 0 0 0 4.34027777777778 4.34027777777778 4.34027777777778 4.34027777777778 4.34027777777778 4.34027777777778 4.34027777777778 4.34027777777778 4.34027777777778 4.34027777777778 4.34027777777778 -9999 -9999 -9999 -9999 -9999 -9999 -9999 -9999 -9999 -9999 -9999 -9999 -9999 -9999 -9999 -9999 -9999 -9999 -9999 -9999 -9999 -9999 -9999 -9999 -9999 -9999 -9999 -9999 -9999 -9999 -9999 -9999 -9999 -9999 -9999 -9999 -9999 -9999 -9999 -9999 -9999 -9999 -9999 -9999 -9999 -9999 -9999 -9999 -9999 -9999 -9999 -9999 -9999 -9999 -9999 -9999 -9999 -9999 -9999 -9999 -9999 -9999 -9999 -9999 -9999 -9999 4.62962962962963 4.62962962962963 4.62962962962963 4.62962962962963 4.62962962962963 4.62962962962963 4.62962962962963 4.62962962962963 4.62962962962963 -9999 -9999 4.62962962962963 4.62962962962963 4.62962962962963 4.62962962962963 4.62962962962963 4.62962962962963 4.62962962962963 4.62962962962963 -9999 -9999 -9999 -9999 -9999 -9999 -9999 -9999 -9999 -9999 4.65549348230912 4.65549348230912 4.65549348230912 12.7118644067797 7.79896013864818 7.79896013864818 7.79896013864818 3.59712230215827 3.59712230215827 3.59712230215827 0 7.67543859649123 7.67543859649123 15.2091254752852 15.2091254752852 15.2091254752852 2.35849056603774 2.35849056603774 2.35849056603774 13.3418043202033 -9999 -9999 4.59770114942529 8.3955223880597 4.59770114942529 4.59770114942529 -9999 6.83371298405467 6.83371298405467 6.83371298405467 4.9800796812749 4.9800796812749 4.9800796812749 4.9800796812749 4.9800796812749 4.9800796812749 24.9609984399376 24.9609984399376 24.9609984399376 24.9609984399376 24.9609984399376 24.9609984399376 8.52272727272727 8.52272727272727 8.52272727272727 8.52272727272727 8.52272727272727 3.39366515837104 3.39366515837104 3.39366515837104 5.50964187327824 5.50964187327824 5.50964187327824 -9999 -9999 -9999 -9999 -9999 -9999 -9999 -9999 -9999 -9999 -9999 10.5519480519481 2.69299820466786 2.69299820466786 3.13971742543171 13.3079847908745 3.13971742543171 -9999 -9999 -9999 -9999 -9999 -9999 -9999 3.67647058823529 -9999 -9999 -9999 -9999 -9999 -9999 -9999 -9999 -9999 -9999 -9999 -9999 -9999 -9999 -9999 -9999 -9999 -9999 -9999 -9999 -9999 -9999 -9999 -9999 -9999 -9999 -9999 -9999 -9999 -9999 -9999 -9999 -9999 -9999 -9999 -9999 -9999 -9999 -9999 -9999 -9999 -9999 -9999 -9999 -9999 -9999 -9999 -9999 -9999 -9999 -9999 -9999 -9999 -9999 -9999 -9999 -9999 -9999 -9999 -9999 -9999 -9999 -9999 -9999 -9999 -9999 -9999
-9999 -9999 -9999 -9999 -9999 -9999 -9999 -9999 -9999 -9999 -9999 -9999 -9999 -9999 -9999 -9999 -9999 -9999 -9999 -9999 -9999 -9999 -9999 -9999 -9999 -9999 -9999 -9999 -9999 -9999 0 0 0 0 13.1386861313869 13.1386861313869 13.1386861313869 13.1386861313869 13.1386861313869 13.1386861313869 13.1386861313869 13.1386861313869 13.1386861313869 13.1386861313869 13.1386861313869 13.1386861313869 13.1386861313869 13.1386861313869 13.1386861313869 13.1386861313869 13.1386861313869 13.1386861313869 13.1386861313869 13.1386861313869 13.1386861313869 13.1386861313869 13.1386861313869 13.1386861313869 13.1386861313869 13.1386861313869 13.1386861313869 13.1386861313869 13.1386861313869 13.1386861313869 13.1386861313869 13.1386861313869 13.1386861313869 13.1386861313869 13.1386861313869 13.1386861313869 13.1386861313869 13.1386861313869 13.1386861313869 13.1386861313869 13.1386861313869 13.1386861313869 13.1386861313869 13.1386861313869 13.1386861313869 0 0 0 0 0 0 0 0 0 0 -9999 -9999 -9999 -9999 -9999 -9999 4.69798657718121 4.69798657718121 5.21512385919166 5.21512385919166 5.21512385919166 5.67260940032415 5.67260940032415 5.67260940032415 5.67260940032415 5.67260940032415 11.2179487179487 11.2179487179487 0 1.50602409638554 1.50602409638554 1.50602409638554 1.50602409638554 1.50602409638554 1.50602409638554 3.45781466113416 3.45781466113416 3.35570469798658 3.35570469798658 0 0 0 0 0 0 0 0 0 0 5.4249547920434 5.4249547920434 5.4249547920434 5.4249547920434 5.4249547920434 5.4249547920434 5.4249547920434 5.4249547920434 5.4249547920434 5.4249547920434 5.4249547920434 5.4249547920434 1.9546520719312 1.9546520719312 1.9546520719312 1.9546520719312 1.9546520719312 9.75609756097561 9.75609756097561 0 10.3911980440098 10.3911980440098 5.35168195718654 5.35168195718654 5.35168195718654 -9999 -9999 -9999 -9999 0 0 -9999 -9999 0 4.34027777777778 4.34027777777778 4.34027777777778 4.34027777777778 4.34027777777778 4.34027777777778 4.34027777777778 4.34027777777778 4.34027777777778 4.34027777777778 4.34027777777778 4.34027777777778 -9999 -9999 -9999 -9999 -9999 -9999 -9999 -9999 -9999 -9999 -9999 -9999 -9999 -9999 -9999 -9999 -9999 -9999 -9999 -9999 -9999 -9999 -9999 -9999 -9999 -9999 -9999 -9999 -9999 -9999 -9999 -9999 -9999 -9999 -9999 -9999 -9999 -9999 -9999 -9999 -9999 -9999 -9999 -9999 -9999 -9999 -9999 -9999 -9999 -9999 -9999 -9999 -9999 -9999 -9999 -9999 -9999 -9999 -9999 -9999 -9999 -9999 -9999 -9999 -9999 -9999 -9999 -9999 4.62962962962963 4.62962962962963 4.62962962962963 4.62962962962963 4.62962962962963 4.62962962962963 4.62962962962963 -9999 -9999 -9999 -9999 -9999 4.62962962962963 4.62962962962963 4.62962962962963 4.62962962962963 4.62962962962963 -9999 -9999 -9999 -9999 -9999 -9999 -9999 -9999 -9999 -9999 0 0 4.65549348230912 4.65549348230912 5.62851782363977 12.7118644067797 12.7118644067797 12.3152709359606 12.3152709359606 12.3152709359606 3.59712230215827 16.4092664092664 16.4092664092664 0 0 15.2091254752852 2.9940119760479 0 2.35849056603774 13.3418043202033 13.3418043202033 13.3418043202033 6.23885918003565 9.74512743628186 9.74512743628186 4.59770114942529 4.59770114942529 4.59770114942529 6.83371298405467 6.83371298405467 6.83371298405467 6.83371298405467 4.9800796812749 4.9800796812749 24.9609984399376 24.9609984399376 24.9609984399376 24.9609984399376 0 0 0 0 0 0 5.23560209424084 4.79616306954436 4.79616306954436 4.79616306954436 4.79616306954436 3.39366515837104 5.50964187327824 5.50964187327824 5.50964187327824 3.12891113892365 3.12891113892365 5.6 5.6 5.6 -9999 -9999 -9999 -9999 -9999 -9999 -9999 -9999 2.69299820466786 3.13971742543171 3.13971742543171 3.13971742543171 3.13971742543171 3.13971742543171 3.13971742543171 3.13971742543171 -9999 -9999 3.67647058823529 3.67647058823529 3.67647058823529 -9999 -9999 -9999 -9999 -9999 -9999 -9999 -9999 -9999 -9999 -9999 -9999 -9999 -9999 -9999 -9999 -9999 -9999 -9999 -9999 -9999 -9999 -9999 -9999 -9999 -9999 -9999 -9999 -9999 -9999 -9999 -9999 -9999 -9999 -9999 -9999 -9999 -9999 -9999 -9999 -9999 -9999 -9999 -9999 -9999 -9999 -9999 -9999 -9999 -9999 -9999 -9999 -9999 -9999 -9999 -9999 -9999 -9999 -9999 -9999 -9999 -9999 -9999 -9999 -9999 -9999 -9999
-9999 -9999 -9999 -9999 -9999 -9999 -9999 -9999 -9999 -9999 -9999 -9999 -9999 -9999 -9999 -9999 -9999 -9999 -9999 -9999 -9999 -9999 -9999 -9999 -9999 -9999 -9999 -9999 -9999 -9999 0 0 0 0 0 13.1386861313869 13.1386861313869 13.1386861313869 13.1386861313869 13.1386861313869 13.1386861313869 13.1386861313869 13.1386861313869 13.1386861313869 13.1386861313869 13.1386861313869 13.1386861313869 13.1386861313869 13.1386861313869 13.1386861313869 13.1386861313869 13.1386861313869 13.1386861313869 13.1386861313869 13.1386861313869 13.1386861313869 13.1386861313869 13.1386861313869 13.1386861313869 13.1386861313869 13.1386861313869 13.1386861313869 13.1386861313869 13.1386861313869 13.1386861313869 13.1386861313869 13.1386861313869 13.1386861313869 13.1386861313869 13.1386861313869 13.1386861313869 13.1386861313869 13.1386861313869 13.1386861313869 13.1386861313869 13.1386861313869 13.1386861313869 13.1386861313869 13.1386861313869 13.1386861313869 0 0 0 0 0 0 0 -9999 -9999 -9999 -9999 4.69798657718121 4.69798657718121 4.69798657718121 4.69798657718121 4.69798657718121 4.69798657718121 4.69798657718121 5.21512385919166 5.67260940032415 5.67260940032415 5.67260940032415 5.67260940032415 5.67260940032415 5.67260940032415 8.78477306002928 0 0 0 1.50602409638554 0 3.35570469798658 3.35570469798658 3.35570469798658 3.35570469798658 3.35570469798658 3.35570469798658 3.35570469798658 0 0 3.35570469798658 4.0983606557377 0 0 4.0983606557377 4.0983606557377 0 5.4249547920434 5.4249547920434 5.4249547920434 5.4249547920434 5.4249547920434 5.4249547920434 5.4249547920434 5.4249547920434 5.4249547920434 5.4249547920434 5.4249547920434 5.4249547920434 5.4249547920434 5.4249547920434 1.9546520719312 1.9546520719312 1.9546520719312 1.9546520719312 1.9546520719312 0 0 0 0 0 5.35168195718654 -9999 -9999 5.35168195718654 5.35168195718654 -9999 -9999 -9999 -9999 4.34027777777778 4.34027777777778 4.34027777777778 4.34027777777778 4.34027777777778 4.34027777777778 4.34027777777778 4.34027777777778 4.34027777777778 4.34027777777778 4.34027777777778 4.34027777777778 4.34027777777778 4.34027777777778 4.34027777777778 -9999 -9999 -9999 -9999 -9999 -9999 -9999 -9999 -9999 -9999 -9999 -9999 -9999 -9999 -9999 -9999 -9999 -9999 -9999 -9999 -9999 -9999 -9999 -9999 -9999 -9999 -9999 -9999 -9999 -9999 -9999 -9999 -9999 -9999 -9999 -9999 -9999 -9999 -9999 -9999 -9999 -9999 -9999 -9999 -9999 -9999 -9999 -9999 -9999 -9999 -9999 -9999 -9999 -9999 -9999 -9999 -9999 -9999 -9999 -9999 -9999 -9999 -9999 -9999 -9999 -9999 -9999 -9999 -9999 4.62962962962963 4.62962962962963 4.62962962962963 4.62962962962963 4.62962962962963 -9999 -9999 -9999 -9999 -9999 -9999 4.62962962962963 4.62962962962963 4.62962962962963 -9999 -9999 -9999 -9999 -9999 -9999 -9999 -9999 -9999 -9999 -9999 0 0 0 0 5.62851782363977 5.62851782363977 2.9126213592233 2.9126213592233 12.3152709359606 12.3152709359606 20.6093189964158 20.6093189964158 10.0502512562814 10.0502512562814 0 0 0 0 0 0 0 6.23885918003565 6.23885918003565 6.23885918003565 6.23885918003565 9.74512743628186 9.74512743628186 4.59770114942529 4.59770114942529 4.59770114942529 6.83371298405467 0 0 24.9609984399376 24.9609984399376 0 0 0 0 0 0 0 0 5.23560209424084 5.23560209424084 5.23560209424084 5.23560209424084 4.79616306954436 9.63855421686747 5.50964187327824 5.50964187327824 5.50964187327824 4.49293966623877 4.49293966623877 5.6 5.6 5.6 5.6 -9999 -9999 -9999 -9999 6.61625708884688 6.61625708884688 -9999 2.69299820466786 3.13971742543171 3.13971742543171 3.13971742543171 3.13971742543171 3.13971742543171 3.13971742543171 3.13971742543171 -9999 3.67647058823529 3.67647058823529 3.67647058823529 3.67647058823529 0 0 -9999 -9999 -9999 -9999 -9999 -9999 -9999 -9999 -9999 0 0 0 0 0 -9999 -9999 -9999 -9999 -9999 -9999 -9999 -9999 -9999 -9999 -9999 -9999 -9999 -9999 -9999 -9999 -9999 -9999 -9999 -9999 -9999 -9999 -9999 -9999 -9999 -9999 -9999 -9999 -9999 -9999 -9999 -9999 -9999 -9999 -9999 -9999 -9999 -9999 -9999 -9999 -9999 -9999 -9999 -9999 -9999 -9999 -9999 -9999 -9999 -9999 -9999 -9999
-9999 -9999 -9999 -9999 -9999 -9999 -9999 -9999 -9999 -9999 -9999 -9999 -9999 -9999 -9999 -9999 -9999 -9999 -9999 -9999 -9999 -9999 -9999 -9999 -9999 -9999 -9999 -9999 -9999 0 0 0 0 0 0 0 13.1386861313869 13.1386861313869 13.1386861313869 13.1386861313869 13.1386861313869 13.1386861313869 13.1386861313869 13.1386861313869 13.1386861313869 13.1386861313869 13.1386861313869 13.1386861313869 13.1386861313869 13.1386861313869 13.1386861313869 13.1386861313869 13.1386861313869 13.1386861313869 13.1386861313869 13.1386861313869 13.1386861313869 13.1386861313869 13.1386861313869 13.1386861313869 13.1386861313869 13.1386861313869 13.1386861313869 13.1386861313869 13.1386861313869 13.1386861313869 13.1386861313869 13.1386861313869 13.1386861313869 13.1386861313869 13.1386861313869 13.1386861313869 13.1386861313869 13.1386861313869 13.1386861313869 13.1386861313869 13.1386861313869 13.1386861313869 13.1386861313869 13.1386861313869 0 0 -9999 -9999 -9999 0 0 -9999 -9999 0 0 4.69798657718121 4.69798657718121 4.69798657718121 4.69798657718121 4.69798657718121 7.25388601036269 7.25388601036269 5.21512385919166 5.67260940032415 5.67260940032415 5.67260940032415 5.67260940032415 5.67260940032415 5.67260940032415 8.78477306002928 8.78477306002928 0 0 0 3.35570469798658 3.35570469798658 3.35570469798658 3.35570469798658 3.35570469798658 3.35570469798658 3.35570469798658 3.35570469798658 3.35570469798658 0 4.0983606557377 4.0983606557377 4.0983606557377 4.0983606557377 4.0983606557377 4.0983606557377 5.4249547920434 5.4249547920434 5.4249547920434 5.4249547920434 5.4249547920434 5.4249547920434 5.4249547920434 5.4249547920434 5.4249547920434 5.4249547920434 5.4249547920434 5.4249547920434 5.4249547920434 5.4249547920434 5.4249547920434 1.9546520719312 1.9546520719312 1.9546520719312 2.22551928783383 2.22551928783383 2.22551928783383 0 0 0 0 0 5.35168195718654 5.35168195718654 -9999 -9999 -9999 -9999 4.34027777777778 4.34027777777778 4.34027777777778 4.34027777777778 4.34027777777778 4.34027777777778 4.34027777777778 4.34027777777778 4.34027777777778 4.34027777777778 4.34027777777778 4.34027777777778 4.34027777777778 4.34027777777778 4.34027777777778 -9999 -9999 -9999 -9999 -9999 -9999 -9999 -9999 -9999 -9999 -9999 -9999 -9999 -9999 -9999 -9999 -9999 -9999 -9999 -9999 -9999 -9999 -9999 -9999 -9999 -9999 -9999 -9999 -9999 -9999 -9999 -9999 -9999 -9999 -9999 -9999 -9999 -9999 -9999 -9999 -9999 -9999 -9999 -9999 -9999 -9999 -9999 -9999 -9999 -9999 -9999 -9999 -9999 -9999 -9999 -9999 -9999 -9999 -9999 -9999 -9999 -9999 -9999 -9999 -9999 -9999 -9999 -9999 -9999 -9999 -9999 -9999 4.62962962962963 4.62962962962963 4.62962962962963 4.62962962962963 -9999 -9999 -9999 -9999 -9999 -9999 -9999 -9999 -9999 -9999 -9999 -9999 -9999 -9999 -9999 -9999 -9999 -9999 -9999 0 0 0 0 0 0 0 2.9126213592233 2.9126213592233 2.9126213592233 2.98804780876494 5.06072874493927 5.06072874493927 5.06072874493927 4.13907284768212 8.79120879120879 8.79120879120879 0 8.79120879120879 0 0 7.05645161290323 7.05645161290323 7.05645161290323 3.8961038961039 3.8961038961039 3.8961038961039 6.7911714770798 9.74512743628186 9.74512743628186 4.59770114942529 0 0 0 0 0 0 0 0 3.13807531380753 3.13807531380753 3.13807531380753 3.13807531380753 5.23560209424084 5.23560209424084 5.23560209424084 5.23560209424084 4.6801872074883 9.63855421686747 9.63855421686747 9.63855421686747 9.63855421686747 4.49293966623877 4.49293966623877 5.6 5.6 5.6 5.6 5.6 5.6 -9999 -9999 6.61625708884688 6.61625708884688 13.5338345864662 13.5338345864662 10.0931677018634 10.0931677018634 10.0931677018634 3.13971742543171 3.13971742543171 3.13971742543171 3.13971742543171 3.67647058823529 3.67647058823529 3.67647058823529 3.67647058823529 3.67647058823529 3.67647058823529 0 0 0 0 0 0 0 0 0 0 0 0 0 0 0 0 0 -9999 -9999 -9999 -9999 -9999 -9999 -9999 -9999 -9999 -9999 -9999 -9999 -9999 -9999 -9999 -9999 -9999 -9999 -9999 -9999 -9999 -9999 -9999 -9999 -9999 -9999 -9999 -9999 -9999 -9999 -9999 -9999 -9999 -9999 -9999 -9999 -9999 -9999 -9999 -9999 -9999 -9999 -9999 -9999 -9999 -9999 -9999 -9999 -9999 -9999 -9999
-9999 -9999 -9999 -9999 -9999 -9999 -9999 -9999 -9999 -9999 -9999 -9999 -9999 -9999 -9999 -9999 -9999 -9999 -9999 -9999 -9999 -9999 -9999 -9999 -9999 -9999 -9999 -9999 -9999 0 0 0 0 0 0 0 0 13.1386861313869 13.1386861313869 13.1386861313869 13.1386861313869 13.1386861313869 13.1386861313869 13.1386861313869 13.1386861313869 13.1386861313869 13.1386861313869 13.1386861313869 13.1386861313869 13.1386861313869 13.1386861313869 13.1386861313869 13.1386861313869 13.1386861313869 13.1386861313869 13.1386861313869 13.1386861313869 13.1386861313869 13.1386861313869 13.1386861313869 13.1386861313869 13.1386861313869 13.1386861313869 13.1386861313869 13.1386861313869 13.1386861313869 13.1386861313869 13.1386861313869 13.1386861313869 13.1386861313869 13.1386861313869 13.1386861313869 13.1386861313869 13.1386861313869 13.1386861313869 13.1386861313869 13.1386861313869 13.1386861313869 13.1386861313869 3.4965034965035 0 0 -9999 -9999 -9999 -9999 -9999 -9999 0 0 0 0 2.59067357512953 4.69798657718121 4.69798657718121 7.25388601036269 7.25388601036269 7.25388601036269 5.67260940032415 5.67260940032415 5.67260940032415 5.67260940032415 5.67260940032415 5.67260940032415 5.67260940032415 8.78477306002928 8.78477306002928 8.78477306002928 0 0 3.35570469798658 3.35570469798658 3.35570469798658 3.35570469798658 3.35570469798658 3.35570469798658 3.35570469798658 0 0 0 0 0 0 4.0983606557377 4.80769230769231 5.4249547920434 5.4249547920434 5.4249547920434 5.4249547920434 5.4249547920434 5.4249547920434 5.4249547920434 5.4249547920434 5.4249547920434 5.4249547920434 5.4249547920434 5.4249547920434 5.4249547920434 5.4249547920434 5.4249547920434 5.4249547920434 1.9546520719312 2.22551928783383 2.22551928783383 2.22551928783383 2.22551928783383 2.22551928783383 2.22551928783383 0 0 0 5.35168195718654 5.35168195718654 5.35168195718654 -9999 -9999 4.34027777777778 4.34027777777778 4.34027777777778 4.34027777777778 4.34027777777778 4.34027777777778 4.34027777777778 4.34027777777778 4.34027777777778 4.34027777777778 4.34027777777778 4.34027777777778 4.34027777777778 4.34027777777778 4.34027777777778 4.34027777777778 4.34027777777778 -9999 -9999 -9999 -9999 -9999 -9999 -9999 -9999 -9999 -9999 -9999 -9999 -9999 -9999 -9999 -9999 -9999 -9999 -9999 -9999 -9999 -9999 -9999 -9999 -9999 -9999 -9999 -9999 -9999 -9999 -9999 -9999 -9999 -9999 -9999 -9999 -9999 -9999 -9999 -9999 -9999 -9999 -9999 -9999 -9999 -9999 -9999 -9999 -9999 -9999 -9999 -9999 -9999 -9999 -9999 -9999 -9999 -9999 -9999 -9999 -9999 -9999 -9999 -9999 -9999 -9999 -9999 -9999 -9999 -9999 -9999 -9999 -9999 -9999 4.62962962962963 -9999 -9999 -9999 -9999 -9999 -9999 -9999 -9999 -9999 -9999 -9999 -9999 -9999 -9999 -9999 -9999 -9999 4.15973377703827 4.15973377703827 4.15973377703827 0 0 0 0 0 0 0 0 0 2.98804780876494 2.98804780876494 2.98804780876494 2.98804780876494 4.13907284768212 4.13907284768212 4.13907284768212 4.13907284768212 4.8661800486618 8.79120879120879 8.79120879120879 8.79120879120879 12.7272727272727 7.05645161290323 7.05645161290323 3.8961038961039 3.8961038961039 3.8961038961039 3.8961038961039 -9999 6.7911714770798 0 0 0 0 0 0 0 0 3.13807531380753 3.13807531380753 3.13807531380753 3.13807531380753 3.13807531380753 3.13807531380753 4.6801872074883 4.6801872074883 4.6801872074883 7.70925110132159 7.70925110132159 7.70925110132159 7.70925110132159 -9999 -9999 -9999 -9999 -9999 5.6 5.6 5.6 0 3.6231884057971 3.6231884057971 0 0 13.5338345864662 7.31261425959781 7.31261425959781 7.31261425959781 3.13971742543171 3.13971742543171 3.13971742543171 -9999 3.67647058823529 3.67647058823529 3.67647058823529 3.67647058823529 3.67647058823529 3.67647058823529 8.94454382826476 0 0 0 0 0 0 0 0 0 0 0 0 0 0 0 0 0 -9999 -9999 -9999 -9999 -9999 -9999 -9999 -9999 -9999 -9999 -9999 -9999 -9999 -9999 -9999 -9999 -9999 -9999 -9999 -9999 -9999 -9999 -9999 -9999 -9999 -9999 -9999 -9999 -9999 -9999 -9999 -9999 -9999 -9999 -9999 -9999 -9999 -9999 -9999 -9999 -9999 -9999 -9999 -9999 -9999 -9999 -9999 -9999 -9999 -9999 -9999
-9999 -9999 -9999 -9999 -9999 -9999 -9999 -9999 -9999 -9999 -9999 -9999 -9999 -9999 -9999 -9999 -9999 -9999 -9999 -9999 -9999 -9999 -9999 -9999 -9999 -9999 -9999 0 0 0 0 0 0 0 0 0 0 0 0 13.1386861313869 13.1386861313869 13.1386861313869 13.1386861313869 13.1386861313869 13.1386861313869 13.1386861313869 13.1386861313869 13.1386861313869 13.1386861313869 13.1386861313869 13.1386861313869 13.1386861313869 13.1386861313869 13.1386861313869 13.1386861313869 13.1386861313869 13.1386861313869 13.1386861313869 13.1386861313869 13.1386861313869 13.1386861313869 13.1386861313869 13.1386861313869 13.1386861313869 13.1386861313869 13.1386861313869 13.1386861313869 13.1386861313869 13.1386861313869 13.1386861313869 13.1386861313869 13.1386861313869 13.1386861313869 13.1386861313869 13.1386861313869 13.1386861313869 13.1386861313869 13.1386861313869 3.4965034965035 3.4965034965035 3.4965034965035 -9999 0 0 -9999 -9999 -9999 -9999 0 0 2.59067357512953 2.59067357512953 2.59067357512953 2.59067357512953 7.25388601036269 7.25388601036269 7.25388601036269 5.67260940032415 9.83899821109124 5.86854460093897 5.86854460093897 5.67260940032415 5.67260940032415 5.67260940032415 5.67260940032415 5.67260940032415 8.78477306002928 8.78477306002928 8.78477306002928 0 0 3.35570469798658 3.35570469798658 3.35570469798658 6.11111111111111 6.11111111111111 0 0 0 0 0 0 0 0 4.80769230769231 4.80769230769231 4.80769230769231 4.80769230769231 0 5.4249547920434 5.4249547920434 5.4249547920434 2.22551928783383 2.22551928783383 5.4249547920434 5.4249547920434 5.4249547920434 5.4249547920434 5.4249547920434 5.4249547920434 2.22551928783383 2.22551928783383 2.22551928783383 2.22551928783383 2.22551928783383 2.22551928783383 2.22551928783383 2.22551928783383 2.22551928783383 0 5.35168195718654 5.35168195718654 5.35168195718654 5.35168195718654 4.34027777777778 4.34027777777778 4.34027777777778 4.34027777777778 4.34027777777778 4.34027777777778 4.34027777777778 4.34027777777778 4.34027777777778 4.34027777777778 4.34027777777778 4.34027777777778 4.34027777777778 4.34027777777778 4.34027777777778 4.34027777777778 4.34027777777778 -9999 -9999 -9999 -9999 -9999 -9999 -9999 -9999 -9999 -9999 -9999 -9999 -9999 -9999 -9999 -9999 -9999 -9999 -9999 -9999 -9999 -9999 -9999 -9999 -9999 -9999 -9999 -9999 -9999 -9999 -9999 -9999 -9999 -9999 -9999 -9999 -9999 -9999 -9999 -9999 -9999 -9999 -9999 -9999 -9999 -9999 -9999 -9999 -9999 -9999 -9999 -9999 -9999 -9999 -9999 -9999 -9999 -9999 -9999 -9999 -9999 -9999 -9999 -9999 -9999 -9999 -9999 -9999 -9999 -9999 -9999 -9999 -9999 -9999 -9999 -9999 -9999 -9999 -9999 -9999 -9999 -9999 -9999 -9999 -9999 -9999 -9999 -9999 -9999 -9999 -9999 -9999 -9999 -9999 4.15973377703827 4.15973377703827 4.15973377703827 4.15973377703827 0 0 0 0 0 0 0 0 0 0 0 4.13907284768212 4.13907284768212 4.13907284768212 4.13907284768212 4.8661800486618 4.8661800486618 4.8661800486618 4.8661800486618 12.7272727272727 12.7272727272727 12.7272727272727 0 7.05645161290323 3.8961038961039 3.8961038961039 -9999 -9999 -9999 -9999 1.61290322580645 6.11246943765281 0 0 0 0 3.13807531380753 3.13807531380753 3.13807531380753 3.13807531380753 8.12274368231047 4.6801872074883 4.6801872074883 4.6801872074883 11.7739403453689 11.7739403453689 11.7739403453689 11.7739403453689 -9999 -9999 -9999 -9999 -9999 -9999 -9999 -9999 -9999 0 0 0 0 0 7.79727095516569 7.79727095516569 7.31261425959781 7.31261425959781 5.36992840095465 5.36992840095465 3.13971742543171 6.49350649350649 6.49350649350649 0 0 0 3.67647058823529 3.67647058823529 8.94454382826476 8.94454382826476 0 0 0 0 0 0 0 0 0 0 0 0 0 0 0 0 0 -9999 -9999 -9999 -9999 -9999 -9999 -9999 -9999 -9999 -9999 -9999 -9999 -9999 -9999 -9999 -9999 -9999 -9999 -9999 -9999 -9999 -9999 -9999 -9999 -9999 -9999 -9999 -9999 -9999 -9999 -9999 -9999 -9999 -9999 -9999 -9999 -9999 -9999 -9999 -9999 -9999 -9999 -9999 -9999 -9999 -9999 -9999 -9999 -9999 -9999 -9999
-9999 -9999 -9999 -9999 -9999 -9999 -9999 -9999 -9999 -9999 -9999 -9999 -9999 -9999 -9999 -9999 -9999 -9999 -9999 -9999 -9999 -9999 -9999 -9999 -9999 -9999 -9999 -9999 -9999 -9999 0 0 0 0 0 0 0 0 0 0 13.1386861313869 13.1386861313869 13.1386861313869 13.1386861313869 13.1386861313869 13.1386861313869 13.1386861313869 13.1386861313869 13.1386861313869 13.1386861313869 13.1386861313869 13.1386861313869 13.1386861313869 13.1386861313869 13.1386861313869 13.1386861313869 13.1386861313869 13.1386861313869 13.1386861313869 13.1386861313869 13.1386861313869 13.1386861313869 13.1386861313869 13.1386861313869 13.1386861313869 13.1386861313869 13.1386861313869 13.1386861313869 13.1386861313869 13.1386861313869 13.1386861313869 13.1386861313869 13.1386861313869 13.1386861313869 13.1386861313869 13.1386861313869 3.4965034965035 3.4965034965035 13.1386861313869 3.4965034965035 3.4965034965035 -9999 0 0 -9999 -9999 -9999 0 0 2.59067357512953 2.59067357512953 2.59067357512953 2.59067357512953 7.25388601036269 7.25388601036269 7.25388601036269 7.25388601036269 7.25388601036269 9.83899821109124 9.83899821109124 9.83899821109124 5.86854460093897 5.86854460093897 5.86854460093897 5.06072874493927 5.06072874493927 8.78477306002928 8.78477306002928 8.78477306002928 8.78477306002928 0 0 0 6.11111111111111 6.11111111111111 6.11111111111111 6.11111111111111 -9999 -9999 -9999 0 0 0 4.80769230769231 4.80769230769231 4.80769230769231 4.80769230769231 0 0 0 2.22551928783383 2.22551928783383 2.22551928783383 2.22551928783383 2.22551928783383 2.22551928783383 2.22551928783383 2.22551928783383 2.22551928783383 2.22551928783383 2.22551928783383 2.22551928783383 2.22551928783383 2.22551928783383 2.22551928783383 2.22551928783383 2.22551928783383 2.22551928783383 2.22551928783383 4.12881915772089 5.35168195718654 5.35168195718654 4.34027777777778 4.34027777777778 4.34027777777778 4.34027777777778 4.34027777777778 4.34027777777778 4.34027777777778 4.34027777777778 4.34027777777778 4.34027777777778 4.34027777777778 4.34027777777778 4.34027777777778 4.34027777777778 4.34027777777778 4.34027777777778 4.34027777777778 -9999 -9999 -9999 -9999 -9999 -9999 -9999 -9999 -9999 -9999 -9999 -9999 -9999 -9999 -9999 -9999 -9999 -9999 -9999 -9999 -9999 -9999 -9999 -9999 -9999 -9999 -9999 -9999 -9999 -9999 -9999 -9999 -9999 -9999 -9999 -9999 -9999 -9999 -9999 -9999 -9999 -9999 -9999 -9999 -9999 -9999 -9999 -9999 -9999 -9999 -9999 -9999 -9999 -9999 -9999 -9999 -9999 -9999 -9999 -9999 -9999 -9999 -9999 -9999 -9999 -9999 -9999 -9999 -9999 -9999 -9999 -9999 -9999 -9999 -9999 -9999 -9999 -9999 -9999 5.50206327372765 5.50206327372765 -9999 5.50206327372765 5.50206327372765 1.80940892641737 1.80940892641737 5.50206327372765 -9999 -9999 -9999 -9999 -9999 -9999 -9999 -9999 -9999 4.15973377703827 4.15973377703827 0 0 0 0 0 0 0 0 0 0 0 0 0 0 3.81194409148666 4.13907284768212 5.73065902578797 5.73065902578797 5.73065902578797 4.8661800486618 13.7976346911958 13.7976346911958 13.7976346911958 0 0 -9999 -9999 -9999 1.61290322580645 1.61290322580645 1.61290322580645 1.61290322580645 1.61290322580645 1.61290322580645 6.11246943765281 6.11246943765281 0 6.11246943765281 3.13807531380753 3.13807531380753 3.7243947858473 8.12274368231047 8.12274368231047 8.12274368231047 8.12274368231047 0 0 0 11.7739403453689 11.7739403453689 14.5985401459854 14.5985401459854 3.97727272727273 -9999 -9999 -9999 0 0 0 0 0 0 0 7.79727095516569 7.79727095516569 5.36992840095465 5.36992840095465 5.36992840095465 5.36992840095465 -9999 6.49350649350649 6.49350649350649 6.49350649350649 0 0 0 5.74712643678161 8.94454382826476 8.94454382826476 8.94454382826476 0 0 0 0 0 0 0 0 0 0 0 0 0 0 0 0 -9999 -9999 -9999 -9999 -9999 -9999 -9999 -9999 -9999 -9999 -9999 -9999 -9999 -9999 -9999 -9999 -9999 -9999 -9999 -9999 -9999 -9999 -9999 -9999 -9999 -9999 -9999 -9999 -9999 -9999 -9999 -9999 -9999 -9999 -9999 -9999 -9999 -9999 -9999 -9999 -9999 -9999 -9999 -9999 -9999 -9999 -9999 -9999 -9999 -9999 -9999 -9999
-9999 -9999 -9999 -9999 -9999 -9999 -9999 -9999 -9999 -9999 -9999 -9999 -9999 -9999 -9999 -9999 -9999 -9999 -9999 -9999 -9999 -9999 -9999 -9999 -9999 -9999 -9999 -9999 -9999 -9999 -9999 0 0 0 0 0 0 0 0 0 0 13.1386861313869 13.1386861313869 13.1386861313869 13.1386861313869 13.1386861313869 13.1386861313869 13.1386861313869 13.1386861313869 13.1386861313869 13.1386861313869 13.1386861313869 13.1386861313869 13.1386861313869 13.1386861313869 13.1386861313869 13.1386861313869 13.1386861313869 13.1386861313869 13.1386861313869 13.1386861313869 13.1386861313869 13.1386861313869 13.1386861313869 13.1386861313869 13.1386861313869 13.1386861313869 13.1386861313869 13.1386861313869 13.1386861313869 13.1386861313869 13.1386861313869 13.1386861313869 13.1386861313869 13.1386861313869 3.4965034965035 3.4965034965035 3.4965034965035 3.4965034965035 13.1386861313869 3.4965034965035 -9999 -9999 -9999 -9999 -9999 0 0 2.59067357512953 2.59067357512953 2.59067357512953 0 7.25388601036269 4.35729847494553 4.35729847494553 7.25388601036269 9.83899821109124 9.83899821109124 9.83899821109124 9.83899821109124 9.83899821109124 5.86854460093897 5.86854460093897 5.86854460093897 5.86854460093897 5.06072874493927 5.06072874493927 8.78477306002928 8.78477306002928 8.78477306002928 8.78477306002928 0 0 6.11111111111111 8.04721030042919 8.04721030042919 -9999 -9999 -9999 -9999 -9999 6.57894736842105 4.80769230769231 4.80769230769231 4.80769230769231 4.80769230769231 0 0 0 0 12.5968992248062 2.22551928783383 2.22551928783383 2.22551928783383 2.22551928783383 2.22551928783383 2.22551928783383 2.22551928783383 2.22551928783383 2.22551928783383 2.22551928783383 2.22551928783383 2.22551928783383 2.22551928783383 2.22551928783383 2.22551928783383 4.12881915772089 4.12881915772089 4.12881915772089 4.12881915772089 4.12881915772089 4.34027777777778 4.34027777777778 4.34027777777778 4.34027777777778 4.34027777777778 4.34027777777778 4.34027777777778 4.34027777777778 4.34027777777778 4.34027777777778 4.34027777777778 4.34027777777778 4.34027777777778 4.34027777777778 4.34027777777778 4.34027777777778 4.34027777777778 4.34027777777778 -9999 -9999 -9999 -9999 -9999 -9999 -9999 -9999 -9999 -9999 -9999 -9999 -9999 -9999 -9999 -9999 -9999 -9999 -9999 -9999 -9999 -9999 -9999 -9999 -9999 -9999 -9999 -9999 -9999 -9999 -9999 -9999 -9999 -9999 -9999 -9999 -9999 -9999 -9999 -9999 6.8359375 6.8359375 -9999 -9999 -9999 -9999 -9999 -9999 -9999 -9999 -9999 -9999 -9999 -9999 -9999 -9999 -9999 -9999 -9999 -9999 -9999 -9999 -9999 -9999 -9999 -9999 -9999 -9999 -9999 -9999 -9999 -9999 -9999 -9999 -9999 -9999 -9999 -9999 5.50206327372765 5.50206327372765 5.50206327372765 5.50206327372765 5.50206327372765 1.80940892641737 1.80940892641737 1.80940892641737 3.38409475465313 5.50206327372765 5.50206327372765 -9999 -9999 -9999 -9999 -9999 -9999 -9999 4.15973377703827 0 0 0 0 0 0 0 0 0 0 0 0 0 0 0 0 0 7.37463126843658 5.73065902578797 5.73065902578797 13.7976346911958 13.7976346911958 13.7976346911958 0 16.629711751663 16.629711751663 0 1.61290322580645 1.61290322580645 1.61290322580645 1.61290322580645 1.61290322580645 1.61290322580645 1.61290322580645 1.61290322580645 6.11246943765281 6.11246943765281 6.11246943765281 6.11246943765281 6.11246943765281 5.51181102362205 3.7243947858473 3.7243947858473 3.7243947858473 8.12274368231047 0 0 0 0 0 0 11.7739403453689 3.97727272727273 -9999 -9999 0 0 1.60771704180064 1.60771704180064 1.60771704180064 0 0 0 0 2.16763005780347 2.16763005780347 2.16763005780347 2.16763005780347 5.36992840095465 -9999 6.49350649350649 6.49350649350649 6.49350649350649 6.49350649350649 6.49350649350649 6.92307692307692 5.74712643678161 5.74712643678161 5.74712643678161 2.82087447108604 4.71698113207547 4.71698113207547 0 0 0 0 0 0 0 0 0 0 0 0 0 0 0 -9999 -9999 -9999 -9999 -9999 -9999 -9999 -9999 -9999 -9999 -9999 -9999 -9999 -9999 -9999 -9999 -9999 -9999 -9999 -9999 -9999 -9999 -9999 -9999 -9999 -9999 -9999 -9999 -9999 -9999 -9999 -9999 -9999 -9999 -9999 -9999 -9999 -9999 -9999 -9999 -9999 -9999 -9999 -9999 -9999 -9999 -9999 -9999 -9999 -9999 -9999 -9999
-9999 -9999 -9999 -9999 -9999 -9999 -9999 -9999 -9999 -9999 -9999 -9999 -9999 -9999 -9999 -9999 -9999 -9999 -9999 -9999 -9999 -9999 -9999 -9999 -9999 -9999 -9999 -9999 -9999 -9999 -9999 0 0 0 0 0 0 0 0 0 0 0 13.1386861313869 13.1386861313869 13.1386861313869 13.1386861313869 13.1386861313869 13.1386861313869 13.1386861313869 13.1386861313869 13.1386861313869 13.1386861313869 13.1386861313869 13.1386861313869 13.1386861313869 13.1386861313869 13.1386861313869 13.1386861313869 13.1386861313869 13.1386861313869 13.1386861313869 13.1386861313869 13.1386861313869 13.1386861313869 13.1386861313869 13.1386861313869 13.1386861313869 13.1386861313869 13.1386861313869 13.1386861313869 13.1386861313869 13.1386861313869 3.4965034965035 13.1386861313869 3.4965034965035 13.1386861313869 3.4965034965035 3.4965034965035 3.4965034965035 -9999 -9999 -9999 -9999 -9999 -9999 0 0 2.59067357512953 2.59067357512953 2.59067357512953 0 0 0 4.35729847494553 4.35729847494553 4.35729847494553 4.35729847494553 9.83899821109124 11.482254697286 11.482254697286 11.482254697286 11.482254697286 5.86854460093897 5.86854460093897 5.86854460093897 5.06072874493927 5.06072874493927 5.06072874493927 8.78477306002928 8.78477306002928 8.78477306002928 6.14439324116743 6.11111111111111 8.04721030042919 8.04721030042919 8.04721030042919 8.04721030042919 8.04721030042919 -9999 -9999 6.57894736842105 6.57894736842105 5.62700964630225 5.62700964630225 5.62700964630225 0 0 0 12.5968992248062 12.5968992248062 12.5968992248062 12.5968992248062 2.22551928783383 2.22551928783383 2.22551928783383 2.22551928783383 2.22551928783383 2.22551928783383 2.22551928783383 2.22551928783383 2.22551928783383 2.22551928783383 2.22551928783383 2.22551928783383 4.12881915772089 4.12881915772089 4.12881915772089 4.12881915772089 4.12881915772089 4.12881915772089 4.12881915772089 4.12881915772089 4.34027777777778 4.34027777777778 4.34027777777778 4.34027777777778 4.34027777777778 4.34027777777778 4.34027777777778 4.34027777777778 4.34027777777778 4.34027777777778 4.34027777777778 4.34027777777778 4.34027777777778 4.34027777777778 4.34027777777778 4.34027777777778 4.34027777777778 4.34027777777778 -9999 -9999 -9999 -9999 -9999 -9999 -9999 -9999 -9999 -9999 -9999 -9999 -9999 -9999 -9999 -9999 -9999 -9999 -9999 -9999 -9999 -9999 -9999 -9999 -9999 -9999 -9999 -9999 -9999 -9999 -9999 -9999 -9999 -9999 -9999 -9999 -9999 6.8359375 6.8359375 6.8359375 6.8359375 6.8359375 6.8359375 -9999 -9999 -9999 -9999 -9999 -9999 -9999 -9999 -9999 -9999 -9999 -9999 -9999 -9999 -9999 -9999 -9999 -9999 -9999 -9999 -9999 -9999 -9999 -9999 -9999 -9999 -9999 -9999 -9999 -9999 -9999 -9999 -9999 -9999 5.50206327372765 5.50206327372765 5.50206327372765 5.50206327372765 5.50206327372765 1.80940892641737 1.80940892641737 3.38409475465313 3.38409475465313 -9999 -9999 -9999 -9999 -9999 -9999 -9999 -9999 -9999 4.15973377703827 0 0 0 0 0 5.79896907216495 5.79896907216495 5.79896907216495 0 0 0 0 0 0 0 0 0 0 0 7.37463126843658 5.02008032128514 5.02008032128514 3.88802488335925 3.88802488335925 0 0 16.629711751663 4.57142857142857 7.09219858156028 1.61290322580645 1.61290322580645 1.61290322580645 1.61290322580645 5.03778337531486 1.61290322580645 6.11246943765281 6.11246943765281 6.11246943765281 6.11246943765281 5.51181102362205 5.51181102362205 5.51181102362205 5.51181102362205 3.7243947858473 4.58715596330275 4.58715596330275 4.58715596330275 0 0 0 3.97727272727273 3.97727272727273 -9999 -9999 0 0 1.60771704180064 1.60771704180064 1.60771704180064 1.99600798403194 1.99600798403194 1.99600798403194 0 0 0 2.16763005780347 2.16763005780347 2.16763005780347 -9999 6.49350649350649 6.49350649350649 4.56204379562044 4.56204379562044 6.92307692307692 6.92307692307692 6.92307692307692 5.74712643678161 5.74712643678161 2.82087447108604 2.82087447108604 4.71698113207547 4.71698113207547 0 0 0 0 0 0 0 0 0 0 0 0 0 0 0 -9999 -9999 -9999 -9999 -9999 -9999 -9999 -9999 -9999 -9999 -9999 -9999 -9999 -9999 -9999 -9999 -9999 -9999 -9999 -9999 -9999 -9999 -9999 -9999 -9999 -9999 -9999 -9999 -9999 -9999 -9999 -9999 -9999 -9999 -9999 -9999 -9999 -9999 -9999 -9999 -9999 -9999 -9999 -9999 -9999 -9999 -9999 -9999 -9999 -9999 -9999 -9999
-9999 -9999 -9999 -9999 -9999 -9999 -9999 -9999 -9999 -9999 -9999 -9999 -9999 -9999 -9999 -9999 -9999 -9999 -9999 -9999 -9999 -9999 -9999 -9999 -9999 -9999 -9999 -9999 0 0 0 0 0 0 0 0 0 0 0 0 0 0 0 13.1386861313869 13.1386861313869 13.1386861313869 13.1386861313869 13.1386861313869 13.1386861313869 13.1386861313869 13.1386861313869 13.1386861313869 13.1386861313869 13.1386861313869 13.1386861313869 13.1386861313869 13.1386861313869 13.1386861313869 13.1386861313869 13.1386861313869 13.1386861313869 13.1386861313869 13.1386861313869 13.1386861313869 13.1386861313869 13.1386861313869 13.1386861313869 13.1386861313869 13.1386861313869 3.4965034965035 3.4965034965035 3.4965034965035 3.4965034965035 3.4965034965035 13.1386861313869 3.4965034965035 3.4965034965035 -9999 -9999 -9999 -9999 -9999 -9999 -9999 3.53356890459364 0 2.59067357512953 2.59067357512953 2.59067357512953 0 0 0 4.35729847494553 4.35729847494553 4.35729847494553 12.0320855614973 4.35729847494553 4.35729847494553 13.1578947368421 13.1578947368421 11.482254697286 11.482254697286 11.482254697286 5.06072874493927 5.06072874493927 5.06072874493927 5.06072874493927 8.78477306002928 6.14439324116743 6.14439324116743 6.14439324116743 6.14439324116743 6.14439324116743 6.11111111111111 6.11111111111111 8.04721030042919 8.04721030042919 9.62419798350138 9.62419798350138 9.62419798350138 6.57894736842105 6.57894736842105 6.57894736842105 5.62700964630225 5.62700964630225 5.62700964630225 3.48027842227378 12.5968992248062 12.5968992248062 12.5968992248062 12.5968992248062 12.5968992248062 12.5968992248062 2.22551928783383 2.22551928783383 2.22551928783383 2.22551928783383 2.22551928783383 2.22551928783383 2.22551928783383 2.22551928783383 2.22551928783383 4.12881915772089 4.12881915772089 4.12881915772089 4.12881915772089 4.12881915772089 4.12881915772089 4.12881915772089 4.12881915772089 4.12881915772089 4.12881915772089 4.12881915772089 4.34027777777778 4.34027777777778 4.34027777777778 4.34027777777778 4.34027777777778 4.34027777777778 4.34027777777778 4.34027777777778 4.34027777777778 4.34027777777778 4.34027777777778 4.34027777777778 4.34027777777778 4.34027777777778 4.34027777777778 4.34027777777778 4.34027777777778 4.34027777777778 4.34027777777778 -9999 -9999 -9999 -9999 -9999 -9999 -9999 -9999 -9999 -9999 -9999 -9999 -9999 -9999 -9999 -9999 -9999 -9999 -9999 -9999 -9999 -9999 -9999 -9999 -9999 -9999 -9999 -9999 -9999 -9999 -9999 -9999 -9999 -9999 6.8359375 6.8359375 6.8359375 6.8359375 6.8359375 6.8359375 6.8359375 6.8359375 6.8359375 -9999 -9999 -9999 -9999 -9999 -9999 -9999 -9999 -9999 -9999 -9999 -9999 -9999 -9999 -9999 -9999 -9999 -9999 -9999 -9999 -9999 -9999 -9999 -9999 -9999 -9999 -9999 -9999 -9999 -9999 -9999 -9999 5.50206327372765 5.50206327372765 5.50206327372765 5.50206327372765 5.50206327372765 5.50206327372765 1.80940892641737 -9999 -9999 3.38409475465313 -9999 -9999 -9999 -9999 2.52206809583859 -9999 1.85643564356436 1.85643564356436 0 4.15973377703827 0 0 0 0 5.79896907216495 5.79896907216495 5.79896907216495 5.79896907216495 0 0 0 0 0 0 0 0 0 9.06344410876133 9.06344410876133 9.06344410876133 14.827018121911 14.827018121911 9.14634146341463 9.14634146341463 4.57142857142857 4.57142857142857 4.57142857142857 4.57142857142857 7.09219858156028 -9999 -9999 -9999 1.61290322580645 5.03778337531486 5.03778337531486 5.03778337531486 0 1.68350168350168 1.68350168350168 1.68350168350168 1.68350168350168 5.51181102362205 0 4.58715596330275 4.58715596330275 4.58715596330275 15.6521739130435 0 -9999 -9999 -9999 -9999 5.51876379690949 5.51876379690949 3.17460317460317 3.17460317460317 3.17460317460317 1.60771704180064 1.99600798403194 10.7758620689655 10.7758620689655 10.7758620689655 16.2116040955631 0 0 1.6 -9999 7.12435233160622 7.12435233160622 7.12435233160622 4.56204379562044 0 0 6.92307692307692 0 2.08333333333333 2.82087447108604 0 0 0 0 0 0 0 4.3859649122807 4.3859649122807 0 0 0 0 0 0 0 0 0 -9999 -9999 -9999 -9999 -9999 -9999 -9999 -9999 -9999 -9999 -9999 -9999 -9999 -9999 -9999 -9999 -9999 -9999 -9999 -9999 -9999 -9999 -9999 -9999 -9999 -9999 -9999 -9999 -9999 -9999 -9999 -9999 -9999 -9999 -9999 -9999 -9999 -9999 -9999 -9999 -9999 -9999 -9999 -9999 -9999 -9999 -9999 -9999 -9999 -9999 -9999 -9999 -9999
-9999 -9999 -9999 -9999 -9999 -9999 -9999 -9999 -9999 -9999 -9999 -9999 -9999 -9999 -9999 -9999 -9999 -9999 -9999 -9999 -9999 -9999 -9999 -9999 -9999 -9999 -9999 0 0 0 0 0 0 0 0 0 0 -9999 0 0 0 0 3.4965034965035 3.4965034965035 3.4965034965035 13.1386861313869 13.1386861313869 13.1386861313869 13.1386861313869 13.1386861313869 13.1386861313869 13.1386861313869 13.1386861313869 13.1386861313869 13.1386861313869 13.1386861313869 13.1386861313869 13.1386861313869 13.1386861313869 13.1386861313869 13.1386861313869 13.1386861313869 13.1386861313869 13.1386861313869 13.1386861313869 3.4965034965035 3.4965034965035 3.4965034965035 3.4965034965035 3.4965034965035 3.4965034965035 3.4965034965035 3.4965034965035 3.4965034965035 3.4965034965035 3.4965034965035 -9999 -9999 -9999 -9999 -9999 -9999 -9999 -9999 3.53356890459364 0 2.59067357512953 0 0 0 28.9079229122056 28.9079229122056 0 12.0320855614973 12.0320855614973 12.0320855614973 9.00900900900901 13.1578947368421 13.1578947368421 13.1578947368421 13.1578947368421 11.482254697286 11.482254697286 5.06072874493927 11.482254697286 6.14439324116743 6.14439324116743 6.14439324116743 6.14439324116743 6.14439324116743 6.14439324116743 6.14439324116743 6.14439324116743 6.14439324116743 6.11111111111111 6.11111111111111 9.62419798350138 9.62419798350138 9.62419798350138 9.62419798350138 8 5.62700964630225 5.62700964630225 5.62700964630225 3.48027842227378 3.48027842227378 0 12.5968992248062 12.5968992248062 12.5968992248062 12.5968992248062 0 4.12881915772089 4.12881915772089 2.22551928783383 2.22551928783383 2.22551928783383 2.22551928783383 2.22551928783383 4.12881915772089 4.12881915772089 4.12881915772089 4.12881915772089 4.12881915772089 4.12881915772089 4.12881915772089 4.12881915772089 4.12881915772089 4.12881915772089 4.12881915772089 4.12881915772089 4.12881915772089 4.12881915772089 4.12881915772089 4.34027777777778 4.34027777777778 4.34027777777778 4.34027777777778 4.34027777777778 4.34027777777778 4.34027777777778 4.34027777777778 4.34027777777778 4.34027777777778 4.34027777777778 4.34027777777778 4.34027777777778 4.34027777777778 4.34027777777778 4.34027777777778 4.34027777777778 4.34027777777778 4.34027777777778 -9999 -9999 -9999 -9999 -9999 -9999 -9999 -9999 -9999 -9999 -9999 -9999 -9999 -9999 -9999 -9999 -9999 -9999 -9999 -9999 -9999 -9999 -9999 -9999 -9999 -9999 -9999 -9999 -9999 -9999 -9999 -9999 6.8359375 6.8359375 6.8359375 6.8359375 6.8359375 6.8359375 6.8359375 6.8359375 6.8359375 6.8359375 6.8359375 -9999 -9999 -9999 -9999 -9999 -9999 -9999 -9999 -9999 -9999 -9999 -9999 -9999 -9999 -9999 -9999 -9999 -9999 -9999 -9999 -9999 -9999 -9999 -9999 -9999 -9999 -9999 -9999 -9999 -9999 5.50206327372765 5.50206327372765 5.50206327372765 5.50206327372765 5.50206327372765 5.50206327372765 5.50206327372765 0 -9999 -9999 0 0 -9999 -9999 -9999 -9999 2.52206809583859 2.52206809583859 1.85643564356436 0 0 0 4.15973377703827 4.15973377703827 2.82485875706215 2.82485875706215 5.79896907216495 5.79896907216495 5.79896907216495 5.79896907216495 0 0 0 0 0 0 0 0 3.04878048780488 3.04878048780488 3.04878048780488 0 9.14634146341463 9.14634146341463 9.14634146341463 3.2051282051282 3.2051282051282 6.43086816720257 6.43086816720257 6.43086816720257 7.09219858156028 7.09219858156028 7.09219858156028 5.03778337531486 5.03778337531486 5.03778337531486 -9999 0 0 0 1.68350168350168 1.68350168350168 0 0 0 0 15.6521739130435 15.6521739130435 -9999 -9999 -9999 -9999 6.43382352941176 3.88802488335925 3.17460317460317 3.17460317460317 3.17460317460317 3.17460317460317 1.6 1.6 1.6 10.7758620689655 16.2116040955631 16.2116040955631 1.6 1.6 4.84848484848485 7.12435233160622 7.12435233160622 7.12435233160622 3.67647058823529 3.67647058823529 3.67647058823529 0 0 2.08333333333333 2.08333333333333 2.82087447108604 0 0 0 0 0 0 0 0 0 0 0 0 0 0 0 0 0 0 -9999 -9999 -9999 -9999 -9999 -9999 -9999 -9999 -9999 -9999 -9999 -9999 -9999 -9999 -9999 -9999 -9999 -9999 -9999 -9999 -9999 -9999 -9999 -9999 -9999 -9999 -9999 -9999 -9999 -9999 -9999 -9999 -9999 -9999 -9999 -9999 -9999 -9999 -9999 -9999 -9999 -9999 -9999 -9999 -9999 -9999 -9999 -9999 -9999 -9999 -9999 -9999 -9999
-9999 -9999 -9999 -9999 -9999 -9999 -9999 -9999 -9999 -9999 -9999 -9999 -9999 -9999 -9999 -9999 -9999 -9999 -9999 -9999 -9999 -9999 -9999 -9999 -9999 -9999 -9999 0 0 0 0 0 0 -9999 -9999 0 -9999 -9999 -9999 -9999 -9999 -9999 -9999 -9999 3.4965034965035 3.4965034965035 13.1386861313869 13.1386861313869 13.1386861313869 13.1386861313869 13.1386861313869 13.1386861313869 13.1386861313869 13.1386861313869 13.1386861313869 13.1386861313869 13.1386861313869 13.1386861313869 13.1386861313869 13.1386861313869 13.1386861313869 13.1386861313869 3.4965034965035 3.4965034965035 3.4965034965035 3.4965034965035 3.4965034965035 3.4965034965035 3.4965034965035 3.4965034965035 3.4965034965035 3.4965034965035 3.4965034965035 3.4965034965035 -9999 -9999 -9999 -9999 -9999 -9999 -9999 -9999 -9999 -9999 3.53356890459364 0 0 0 28.9079229122056 28.9079229122056 28.9079229122056 28.9079229122056 0 0 12.0320855614973 12.0320855614973 12.0320855614973 9.00900900900901 13.1578947368421 13.1578947368421 13.1578947368421 13.1578947368421 11.482254697286 0 4.91803278688525 4.91803278688525 4.91803278688525 6.14439324116743 6.14439324116743 6.14439324116743 6.14439324116743 6.14439324116743 6.14439324116743 6.14439324116743 5.14579759862779 8 9.62419798350138 9.62419798350138 9.62419798350138 8 8 8 3.48027842227378 3.48027842227378 3.48027842227378 0 0 0 12.5968992248062 0 4.12881915772089 4.12881915772089 4.12881915772089 4.12881915772089 4.12881915772089 2.22551928783383 2.22551928783383 4.12881915772089 4.12881915772089 4.12881915772089 4.12881915772089 4.12881915772089 4.12881915772089 4.12881915772089 4.12881915772089 4.12881915772089 4.12881915772089 4.12881915772089 4.12881915772089 4.12881915772089 4.12881915772089 4.12881915772089 4.12881915772089 4.12881915772089 4.12881915772089 4.34027777777778 4.34027777777778 4.34027777777778 4.34027777777778 4.34027777777778 4.34027777777778 4.34027777777778 4.34027777777778 4.34027777777778 4.34027777777778 4.34027777777778 4.34027777777778 4.34027777777778 4.34027777777778 4.34027777777778 4.34027777777778 4.34027777777778 4.34027777777778 4.34027777777778 -9999 -9999 -9999 -9999 -9999 -9999 -9999 -9999 -9999 -9999 -9999 -9999 -9999 -9999 -9999 -9999 -9999 -9999 -9999 -9999 -9999 -9999 -9999 -9999 -9999 -9999 -9999 -9999 -9999 -9999 6.8359375 6.8359375 6.8359375 6.8359375 6.8359375 6.8359375 6.8359375 6.8359375 6.8359375 6.8359375 6.8359375 6.8359375 6.8359375 6.8359375 -9999 -9999 -9999 -9999 -9999 -9999 -9999 -9999 -9999 -9999 -9999 -9999 -9999 -9999 -9999 -9999 -9999 -9999 -9999 -9999 -9999 -9999 -9999 -9999 -9999 -9999 -9999 -9999 5.50206327372765 5.50206327372765 5.50206327372765 5.50206327372765 5.50206327372765 5.50206327372765 5.50206327372765 0 0 0 0 0 0 0 -9999 1.85643564356436 1.85643564356436 2.52206809583859 1.85643564356436 1.85643564356436 0 0 0 0 0 2.82485875706215 2.82485875706215 2.82485875706215 2.82485875706215 5.79896907216495 5.79896907216495 5.79896907216495 5.79896907216495 5.2790346907994 9.35374149659864 9.35374149659864 9.35374149659864 9.35374149659864 9.35374149659864 9.35374149659864 3.04878048780488 0 0 0 0 0 3.2051282051282 3.2051282051282 5.59105431309904 6.43086816720257 6.43086816720257 14.8148148148148 7.09219858156028 7.09219858156028 7.09219858156028 12.2549019607843 -9999 -9999 -9999 0 0 8.80626223091977 8.80626223091977 0 0 5.19287833827893 5.19287833827893 5.19287833827893 5.19287833827893 -9999 -9999 6.43382352941176 6.43382352941176 3.88802488335925 3.88802488335925 -9999 -9999 -9999 1.6 1.6 1.6 1.6 1.6 1.6 1.6 4.84848484848485 4.84848484848485 4.84848484848485 3.67647058823529 3.67647058823529 3.67647058823529 3.67647058823529 3.67647058823529 1.9723865877712 2.08333333333333 2.08333333333333 0 0 0 0 0 0 0 0 0 0 0 0 0 0 0 0 0 0 -9999 -9999 -9999 -9999 -9999 -9999 -9999 -9999 -9999 -9999 -9999 -9999 -9999 -9999 -9999 -9999 -9999 -9999 -9999 -9999 -9999 -9999 -9999 -9999 -9999 -9999 -9999 -9999 -9999 -9999 -9999 -9999 -9999 -9999 -9999 -9999 -9999 -9999 -9999 -9999 -9999 -9999 -9999 -9999 -9999 -9999 -9999 -9999 -9999 -9999 -9999 -9999 -9999 -9999 -9999
-9999 -9999 -9999 -9999 -9999 -9999 -9999 -9999 -9999 -9999 -9999 -9999 -9999 -9999 -9999 -9999 -9999 -9999 -9999 -9999 -9999 -9999 -9999 -9999 -9999 -9999 -9999 -9999 -9999 -9999 -9999 -9999 -9999 -9999 -9999 -9999 -9999 -9999 -9999 -9999 -9999 -9999 -9999 -9999 -9999 3.4965034965035 3.4965034965035 13.1386861313869 13.1386861313869 13.1386861313869 13.1386861313869 13.1386861313869 13.1386861313869 13.1386861313869 13.1386861313869 13.1386861313869 13.1386861313869 3.4965034965035 3.4965034965035 3.4965034965035 3.4965034965035 3.4965034965035 3.4965034965035 3.4965034965035 3.4965034965035 3.4965034965035 3.4965034965035 3.4965034965035 3.4965034965035 3.4965034965035 3.4965034965035 3.4965034965035 3.4965034965035 -9999 -9999 -9999 -9999 -9999 -9999 -9999 -9999 -9999 -9999 3.53356890459364 3.53356890459364 0 0 5.79896907216495 5.79896907216495 5.79896907216495 28.9079229122056 28.9079229122056 28.9079229122056 0 0 12.0320855614973 12.0320855614973 9.00900900900901 13.1578947368421 13.1578947368421 11.482254697286 0 0 0 0 4.91803278688525 4.91803278688525 4.91803278688525 4.91803278688525 6.14439324116743 6.14439324116743 6.14439324116743 0 0 5.14579759862779 5.14579759862779 8 8 8 8 8 8 3.48027842227378 3.48027842227378 3.48027842227378 3.48027842227378 0 0 4.12881915772089 4.12881915772089 4.12881915772089 4.12881915772089 4.12881915772089 4.12881915772089 4.12881915772089 4.12881915772089 4.12881915772089 4.12881915772089 4.12881915772089 4.12881915772089 4.12881915772089 4.12881915772089 4.12881915772089 4.12881915772089 4.12881915772089 4.12881915772089 4.12881915772089 4.12881915772089 4.12881915772089 4.12881915772089 4.12881915772089 4.12881915772089 4.12881915772089 4.12881915772089 4.12881915772089 4.12881915772089 4.34027777777778 4.34027777777778 4.34027777777778 4.34027777777778 4.34027777777778 4.34027777777778 4.34027777777778 4.34027777777778 4.34027777777778 4.34027777777778 4.34027777777778 4.34027777777778 4.34027777777778 4.34027777777778 4.34027777777778 4.34027777777778 4.34027777777778 -9999 -9999 -9999 -9999 -9999 -9999 -9999 -9999 -9999 -9999 -9999 -9999 -9999 -9999 -9999 -9999 -9999 -9999 -9999 -9999 -9999 -9999 -9999 -9999 -9999 -9999 -9999 -9999 -9999 6.8359375 6.8359375 6.8359375 6.8359375 6.8359375 6.8359375 6.8359375 6.8359375 6.8359375 6.8359375 6.8359375 6.8359375 6.8359375 6.8359375 6.8359375 6.8359375 6.8359375 -9999 -9999 -9999 -9999 -9999 -9999 -9999 -9999 -9999 -9999 -9999 -9999 -9999 -9999 -9999 -9999 -9999 -9999 -9999 -9999 -9999 -9999 -9999 -9999 -9999 -9999 -9999 0 0 5.50206327372765 5.50206327372765 5.50206327372765 5.50206327372765 5.50206327372765 5.50206327372765 0 0 0 0 0 0 0 -9999 -9999 1.85643564356436 1.85643564356436 1.85643564356436 0 0 0 0 0 0 9.89208633093525 2.82485875706215 2.82485875706215 2.82485875706215 2.82485875706215 5.2790346907994 5.2790346907994 5.2790346907994 5.2790346907994 5.2790346907994 9.35374149659864 9.35374149659864 9.35374149659864 9.35374149659864 5.25210084033613 5.25210084033613 0 6.6793893129771 6.6793893129771 0 0 3.96825396825397 5.59105431309904 5.59105431309904 5.59105431309904 14.8148148148148 14.8148148148148 14.8148148148148 11.25 11.2016293279022 11.2016293279022 12.2549019607843 -9999 4.85436893203883 4.85436893203883 4.85436893203883 4.85436893203883 4.85436893203883 4.85436893203883 5.19287833827893 5.19287833827893 5.19287833827893 5.19287833827893 5.19287833827893 0 6.43382352941176 6.43382352941176 6.43382352941176 6.43382352941176 0 0 -9999 -9999 -9999 1.6 1.6 1.6 1.6 4.84848484848485 4.84848484848485 4.84848484848485 4.84848484848485 4.84848484848485 4.84848484848485 4.84848484848485 1.9723865877712 1.9723865877712 1.9723865877712 1.9723865877712 1.9723865877712 0 0 0 0 0 0 0 0 0 0 0 0 0 0 0 0 -9999 -9999 -9999 -9999 -9999 -9999 -9999 -9999 -9999 -9999 -9999 -9999 -9999 -9999 -9999 -9999 -9999 -9999 -9999 -9999 -9999 -9999 -9999 -9999 -9999 -9999 -9999 -9999 -9999 -9999 -9999 -9999 -9999 -9999 -9999 -9999 -9999 -9999 -9999 -9999 -9999 -9999 -9999 -9999 -9999 -9999 -9999 -9999 -9999 -9999 -9999 -9999 -9999 -9999 -9999 -9999 -9999
-9999 -9999 -9999 -9999 -9999 -9999 -9999 -9999 -9999 -9999 -9999 -9999 -9999 -9999 -9999 -9999 -9999 -9999 -9999 -9999 -9999 -9999 -9999 -9999 -9999 -9999 -9999 -9999 -9999 -9999 -9999 -9999 -9999 -9999 -9999 -9999 -9999 -9999 -9999 -9999 -9999 0 -9999 -9999 -9999 3.4965034965035 3.4965034965035 3.4965034965035 13.1386861313869 13.1386861313869 13.1386861313869 13.1386861313869 13.1386861313869 3.4965034965035 3.4965034965035 3.4965034965035 3.4965034965035 3.4965034965035 3.4965034965035 3.4965034965035 3.4965034965035 3.4965034965035 3.4965034965035 3.4965034965035 3.4965034965035 3.4965034965035 3.4965034965035 3.4965034965035 3.4965034965035 3.4965034965035 3.4965034965035 3.4965034965035 3.4965034965035 -9999 -9999 -9999 -9999 -9999 -9999 -9999 -9999 -9999 3.53356890459364 3.53356890459364 3.53356890459364 8.54700854700855 8.54700854700855 5.74204946996466 5.79896907216495 5.79896907216495 0 0 0 0 0 3.83877159309021 9.00900900900901 9.00900900900901 9.00900900900901 0 0 0 0 0 0 4.91803278688525 4.91803278688525 4.91803278688525 4.91803278688525 4.91803278688525 0 0 0 0 5.14579759862779 5.14579759862779 5.14579759862779 8 8 8 8 8 3.48027842227378 3.48027842227378 3.48027842227378 0 4.12881915772089 4.12881915772089 4.12881915772089 4.12881915772089 4.12881915772089 4.12881915772089 4.12881915772089 4.12881915772089 4.12881915772089 4.12881915772089 4.12881915772089 4.12881915772089 4.12881915772089 4.12881915772089 4.12881915772089 4.12881915772089 4.12881915772089 4.12881915772089 4.12881915772089 4.12881915772089 4.12881915772089 4.12881915772089 4.12881915772089 4.12881915772089 4.12881915772089 4.12881915772089 4.12881915772089 4.12881915772089 4.12881915772089 4.12881915772089 4.12881915772089 4.34027777777778 4.34027777777778 4.34027777777778 4.34027777777778 4.34027777777778 4.34027777777778 4.34027777777778 4.34027777777778 4.34027777777778 4.34027777777778 4.34027777777778 4.34027777777778 4.34027777777778 4.34027777777778 4.34027777777778 4.34027777777778 -9999 -9999 -9999 -9999 -9999 -9999 -9999 -9999 -9999 -9999 -9999 -9999 -9999 -9999 -9999 -9999 -9999 -9999 -9999 -9999 -9999 -9999 -9999 -9999 -9999 -9999 -9999 -9999 6.8359375 6.8359375 6.8359375 6.8359375 6.8359375 6.8359375 6.8359375 6.8359375 6.8359375 6.8359375 6.8359375 6.8359375 6.8359375 6.8359375 6.8359375 6.8359375 6.8359375 6.8359375 6.8359375 6.8359375 -9999 -9999 -9999 -9999 -9999 -9999 -9999 -9999 -9999 -9999 -9999 -9999 -9999 -9999 -9999 -9999 -9999 -9999 -9999 -9999 -9999 -9999 -9999 -9999 -9999 0 0 0 0 0 5.50206327372765 5.50206327372765 5.50206327372765 5.50206327372765 5.50206327372765 0 0 0 0 -9999 -9999 -9999 0 0 7.16845878136201 7.16845878136201 0 0 0 0 0 9.89208633093525 9.89208633093525 9.89208633093525 24.60024600246 24.60024600246 24.60024600246 24.60024600246 5.2790346907994 5.2790346907994 5.2790346907994 5.2790346907994 5.2790346907994 9.35374149659864 7.70925110132159 7.70925110132159 5.25210084033613 5.93824228028503 5.93824228028503 6.6793893129771 6.6793893129771 0 3.96825396825397 3.96825396825397 3.96825396825397 5.59105431309904 5.67375886524823 5.67375886524823 14.8148148148148 14.8148148148148 14.8148148148148 11.25 11.25 12.0689655172414 4.85436893203883 4.85436893203883 4.85436893203883 4.85436893203883 4.85436893203883 10.3189493433396 10.3189493433396 10.3189493433396 10.3189493433396 10.3189493433396 0 0 0 0 6.43382352941176 0 0 5.58659217877095 0 0 6.17283950617284 1.6 1.6 1.6 4.84848484848485 4.84848484848485 4.84848484848485 4.84848484848485 4.84848484848485 4.84848484848485 4.0650406504065 4.0650406504065 7.17079530638853 7.17079530638853 1.9723865877712 1.9723865877712 0 0 0 0 0 0 0 0 0 0 0 0 0 0 0 -9999 -9999 -9999 5.49450549450549 2.92397660818713 2.92397660818713 2.92397660818713 2.92397660818713 -9999 -9999 -9999 -9999 -9999 -9999 -9999 -9999 -9999 -9999 -9999 -9999 -9999 -9999 -9999 -9999 -9999 -9999 -9999 -9999 -9999 -9999 -9999 -9999 -9999 -9999 -9999 -9999 -9999 -9999 -9999 -9999 -9999 -9999 -9999 -9999 -9999 -9999 -9999 -9999 -9999 -9999 -9999 -9999 -9999 -9999 -9999 -9999 -9999 -9999 -9999
-9999 -9999 -9999 -9999 -9999 -9999 -9999 -9999 -9999 -9999 -9999 -9999 -9999 -9999 -9999 -9999 -9999 -9999 -9999 -9999 -9999 -9999 -9999 -9999 -9999 -9999 -9999 -9999 -9999 -9999 -9999 -9999 -9999 -9999 0 0 0 0 0 0 0 0 -9999 -9999 -9999 -9999 -9999 -9999 3.4965034965035 3.4965034965035 3.4965034965035 3.4965034965035 3.4965034965035 3.4965034965035 3.4965034965035 3.4965034965035 3.4965034965035 3.4965034965035 3.4965034965035 3.4965034965035 3.4965034965035 3.4965034965035 3.4965034965035 3.4965034965035 3.4965034965035 3.4965034965035 3.4965034965035 3.4965034965035 3.4965034965035 3.4965034965035 3.4965034965035 3.4965034965035 -9999 -9999 -9999 -9999 -9999 -9999 -9999 -9999 -9999 3.53356890459364 3.53356890459364 3.53356890459364 8.54700854700855 8.54700854700855 5.74204946996466 5.79896907216495 5.79896907216495 5.79896907216495 0 0 0 0 3.83877159309021 3.83877159309021 7.54310344827586 7.54310344827586 7.54310344827586 12.1042830540037 0 0 12.1042830540037 12.1042830540037 4.91803278688525 4.91803278688525 4.91803278688525 4.91803278688525 4.91803278688525 5.13347022587269 0 0 5.13347022587269 5.14579759862779 5.14579759862779 5.14579759862779 5.64971751412429 5.64971751412429 8 8 8 3.48027842227378 3.48027842227378 0 4.12881915772089 4.12881915772089 4.12881915772089 4.12881915772089 4.12881915772089 4.12881915772089 4.12881915772089 4.12881915772089 4.12881915772089 4.12881915772089 4.12881915772089 4.12881915772089 4.12881915772089 4.12881915772089 4.12881915772089 4.12881915772089 4.12881915772089 4.12881915772089 4.12881915772089 4.12881915772089 4.12881915772089 4.12881915772089 4.12881915772089 4.12881915772089 4.12881915772089 4.12881915772089 4.12881915772089 4.12881915772089 4.12881915772089 4.12881915772089 4.12881915772089 4.12881915772089 4.12881915772089 4.12881915772089 4.34027777777778 4.34027777777778 4.34027777777778 4.34027777777778 4.34027777777778 4.34027777777778 4.34027777777778 4.34027777777778 4.34027777777778 4.34027777777778 4.34027777777778 4.34027777777778 4.34027777777778 4.34027777777778 4.34027777777778 4.34027777777778 -9999 -9999 -9999 -9999 -9999 -9999 -9999 -9999 -9999 -9999 -9999 -9999 -9999 -9999 -9999 -9999 -9999 -9999 -9999 -9999 -9999 -9999 -9999 -9999 -9999 -9999 6.8359375 6.8359375 6.8359375 6.8359375 6.8359375 6.8359375 6.8359375 6.8359375 6.8359375 6.8359375 6.8359375 6.8359375 6.8359375 6.8359375 6.8359375 6.8359375 6.8359375 6.8359375 6.8359375 6.8359375 6.8359375 6.8359375 -9999 -9999 -9999 -9999 -9999 -9999 -9999 -9999 -9999 -9999 -9999 -9999 -9999 -9999 -9999 -9999 -9999 -9999 -9999 -9999 -9999 -9999 -9999 0 0 0 0 0 0 0 0 0 0 -9999 -9999 0 0 -9999 -9999 -9999 0 0 0 7.16845878136201 0 0 0 0 3.76647834274953 3.76647834274953 0 13.3614627285513 13.3614627285513 24.60024600246 24.60024600246 24.60024600246 24.60024600246 8.61008610086101 8.61008610086101 8.61008610086101 5.2790346907994 5.2790346907994 4.57875457875458 7.70925110132159 7.70925110132159 0 0 5.93824228028503 5.93824228028503 2.61096605744125 0 0 0 3.96825396825397 5.67375886524823 5.67375886524823 5.36480686695279 5.36480686695279 5.36480686695279 5.36480686695279 3.55450236966825 3.55450236966825 12.0689655172414 12.0689655172414 12.0689655172414 12.0689655172414 10.3189493433396 10.3189493433396 10.3189493433396 10.3189493433396 10.3189493433396 10.3189493433396 -9999 0 0 0 0 4.59558823529412 4.59558823529412 5.58659217877095 5.58659217877095 5.58659217877095 5.58659217877095 6.17283950617284 6.17283950617284 6.17283950617284 4.84848484848485 4.84848484848485 4.84848484848485 4.84848484848485 4.84848484848485 4.84848484848485 4.84848484848485 4.0650406504065 4.0650406504065 7.17079530638853 7.17079530638853 7.17079530638853 7.17079530638853 7.17079530638853 1.9723865877712 0 0 0 0 0 0 0 0 0 0 0 -9999 -9999 -9999 -9999 5.49450549450549 2.92397660818713 2.92397660818713 2.92397660818713 2.92397660818713 2.92397660818713 2.92397660818713 -9999 -9999 -9999 -9999 -9999 -9999 -9999 -9999 -9999 -9999 -9999 -9999 -9999 -9999 -9999 -9999 -9999 -9999 -9999 -9999 -9999 -9999 -9999 -9999 -9999 -9999 -9999 -9999 -9999 -9999 -9999 -9999 -9999 -9999 -9999 -9999 -9999 -9999 -9999 -9999 -9999 -9999 -9999 -9999 -9999 -9999 -9999 -9999 -9999 -9999
-9999 -9999 -9999 -9999 -9999 -9999 -9999 -9999 -9999 -9999 -9999 -9999 -9999 -9999 -9999 -9999 -9999 -9999 -9999 -9999 -9999 -9999 -9999 -9999 -9999 -9999 -9999 -9999 -9999 -9999 -9999 -9999 0 0 0 0 0 0 0 0 0 0 0 -9999 -9999 -9999 -9999 -9999 3.4965034965035 3.4965034965035 3.4965034965035 3.4965034965035 3.4965034965035 3.4965034965035 3.4965034965035 3.4965034965035 3.4965034965035 3.4965034965035 3.4965034965035 3.4965034965035 3.4965034965035 3.4965034965035 3.4965034965035 -9999 -9999 -9999 -9999 -9999 -9999 -9999 -9999 -9999 -9999 -9999 -9999 -9999 -9999 0 0 0 0 3.53356890459364 8.54700854700855 5.74204946996466 5.74204946996466 5.74204946996466 5.74204946996466 5.79896907216495 5.79896907216495 5.79896907216495 5.79896907216495 0 3.83877159309021 3.83877159309021 3.83877159309021 3.83877159309021 3.83877159309021 4.99001996007984 4.99001996007984 4.99001996007984 12.1042830540037 12.1042830540037 12.1042830540037 12.1042830540037 12.1042830540037 12.1042830540037 4.00801603206413 4.91803278688525 5.13347022587269 5.13347022587269 5.13347022587269 5.13347022587269 5.13347022587269 5.13347022587269 5.64971751412429 5.64971751412429 12.1621621621622 5.64971751412429 5.64971751412429 0 0 0 4.12881915772089 4.12881915772089 4.12881915772089 4.12881915772089 4.12881915772089 4.12881915772089 4.12881915772089 4.12881915772089 4.12881915772089 4.12881915772089 4.12881915772089 4.12881915772089 4.12881915772089 4.12881915772089 4.12881915772089 4.12881915772089 4.12881915772089 4.12881915772089 4.12881915772089 4.12881915772089 4.12881915772089 4.12881915772089 4.12881915772089 4.12881915772089 4.12881915772089 4.12881915772089 4.12881915772089 4.12881915772089 4.12881915772089 4.12881915772089 4.12881915772089 4.12881915772089 4.12881915772089 4.12881915772089 4.12881915772089 4.12881915772089 4.12881915772089 4.34027777777778 4.34027777777778 4.34027777777778 4.34027777777778 4.34027777777778 4.34027777777778 4.34027777777778 4.34027777777778 4.34027777777778 4.34027777777778 4.34027777777778 4.34027777777778 4.34027777777778 4.34027777777778 4.34027777777778 4.34027777777778 -9999 -9999 -9999 -9999 -9999 -9999 -9999 -9999 -9999 -9999 -9999 -9999 -9999 -9999 -9999 -9999 -9999 -9999 -9999 -9999 -9999 -9999 -9999 6.8359375 6.8359375 6.8359375 6.8359375 6.8359375 6.8359375 6.8359375 6.8359375 6.8359375 6.8359375 6.8359375 6.8359375 6.8359375 6.8359375 6.8359375 6.8359375 6.8359375 6.8359375 6.8359375 6.8359375 6.8359375 6.8359375 17.7705977382876 17.7705977382876 17.7705977382876 17.7705977382876 -9999 -9999 -9999 -9999 -9999 -9999 -9999 -9999 -9999 -9999 -9999 -9999 -9999 -9999 -9999 -9999 -9999 -9999 -9999 -9999 -9999 0 0 0 0 0 0 0 0 0 -9999 -9999 -9999 -9999 -9999 -9999 -9999 0 0 0 0 7.16845878136201 0 0 0 15.7342657342657 15.7342657342657 15.7342657342657 13.3614627285513 13.3614627285513 13.3614627285513 15.0659133709981 15.0659133709981 15.0659133709981 24.60024600246 8.61008610086101 8.61008610086101 16.9039145907473 8.61008610086101 16.9039145907473 4.57875457875458 4.57875457875458 13.4920634920635 0 0 0 2.61096605744125 2.61096605744125 2.61096605744125 2.61096605744125 2.61096605744125 5.67375886524823 5.67375886524823 5.36480686695279 5.36480686695279 5.36480686695279 2.10084033613445 3.55450236966825 3.55450236966825 3.55450236966825 3.55450236966825 3.55450236966825 10.3189493433396 10.3189493433396 10.3189493433396 10.3189493433396 10.3189493433396 10.3189493433396 -9999 -9999 0 0 1.93423597678917 19.7594501718213 4.59558823529412 4.59558823529412 4.59558823529412 0 0 6.17283950617284 6.17283950617284 6.17283950617284 6.17283950617284 4.84848484848485 4.84848484848485 4.84848484848485 4.84848484848485 4.84848484848485 4.84848484848485 4.84848484848485 4.84848484848485 4.0650406504065 3.77358490566038 3.77358490566038 0 0 0 5.13950073421439 1.08932461873638 1.08932461873638 0 0 0 0 0 0 0 0 -9999 -9999 -9999 -9999 5.49450549450549 5.49450549450549 2.92397660818713 2.92397660818713 2.92397660818713 2.92397660818713 2.92397660818713 2.92397660818713 2.92397660818713 2.92397660818713 -9999 -9999 -9999 -9999 -9999 -9999 -9999 -9999 -9999 -9999 -9999 -9999 -9999 -9999 -9999 -9999 -9999 -9999 -9999 -9999 -9999 -9999 -9999 -9999 -9999 -9999 -9999 -9999 -9999 -9999 -9999 -9999 -9999 -9999 -9999 -9999 -9999 -9999 -9999 -9999 -9999 -9999 -9999 -9999 -9999 -9999 -9999 -9999 -9999
-9999 -9999 -9999 -9999 -9999 -9999 -9999 -9999 -9999 -9999 -9999 -9999 -9999 -9999 -9999 -9999 -9999 -9999 -9999 -9999 -9999 -9999 -9999 -9999 -9999 -9999 -9999 -9999 -9999 -9999 -9999 0 0 0 0 0 0 0 0 0 0 0 0 0 0 -9999 -9999 -9999 -9999 -9999 3.4965034965035 3.4965034965035 3.4965034965035 3.4965034965035 3.4965034965035 3.4965034965035 3.4965034965035 3.4965034965035 3.4965034965035 3.4965034965035 3.4965034965035 3.4965034965035 3.4965034965035 -9999 -9999 -9999 -9999 -9999 -9999 -9999 -9999 -9999 -9999 -9999 -9999 -9999 0 0 8.05008944543828 0 8.05008944543828 8.05008944543828 4.95049504950495 5.74204946996466 5.74204946996466 5.74204946996466 7.95947901591896 7.95947901591896 5.79896907216495 7.95947901591896 7.95947901591896 7.95947901591896 7.54310344827586 3.83877159309021 7.54310344827586 3.83877159309021 7.54310344827586 4.99001996007984 4.99001996007984 4.99001996007984 4.99001996007984 12.1042830540037 12.1042830540037 12.1042830540037 12.1042830540037 4.00801603206413 4.00801603206413 4.00801603206413 0 0 0 5.13347022587269 5.64971751412429 5.64971751412429 12.1621621621622 12.1621621621622 12.1621621621622 12.1621621621622 5.64971751412429 5.64971751412429 4.12881915772089 4.12881915772089 4.12881915772089 4.12881915772089 4.12881915772089 4.12881915772089 4.12881915772089 4.12881915772089 4.12881915772089 4.12881915772089 4.12881915772089 4.12881915772089 4.12881915772089 4.12881915772089 4.12881915772089 4.12881915772089 4.12881915772089 4.12881915772089 4.12881915772089 4.12881915772089 4.12881915772089 4.12881915772089 4.12881915772089 4.12881915772089 4.12881915772089 4.12881915772089 4.12881915772089 4.12881915772089 4.12881915772089 4.12881915772089 4.12881915772089 4.12881915772089 4.12881915772089 4.12881915772089 4.12881915772089 4.12881915772089 4.12881915772089 4.12881915772089 4.12881915772089 4.12881915772089 4.34027777777778 4.34027777777778 4.34027777777778 4.34027777777778 4.34027777777778 4.34027777777778 4.34027777777778 4.34027777777778 4.34027777777778 4.34027777777778 4.34027777777778 4.34027777777778 4.34027777777778 4.34027777777778 4.34027777777778 4.34027777777778 -9999 -9999 -9999 -9999 -9999 -9999 -9999 -9999 -9999 -9999 -9999 -9999 -9999 -9999 -9999 -9999 -9999 -9999 -9999 -9999 -9999 6.8359375 6.8359375 6.8359375 6.8359375 6.8359375 6.8359375 6.8359375 6.8359375 6.8359375 6.8359375 6.8359375 6.8359375 6.8359375 6.8359375 6.8359375 6.8359375 6.8359375 6.8359375 6.8359375 6.8359375 6.8359375 6.8359375 17.7705977382876 17.7705977382876 17.7705977382876 17.7705977382876 17.7705977382876 17.7705977382876 17.7705977382876 -9999 -9999 -9999 -9999 -9999 -9999 -9999 -9999 -9999 17.7705977382876 -9999 -9999 -9999 -9999 -9999 -9999 -9999 -9999 -9999 0 0 0 0 0 0 0 0 -9999 -9999 -9999 -9999 -9999 -9999 -9999 -9999 0 0 0 0 7.16845878136201 0 0 0 15.7342657342657 15.7342657342657 12.1765601217656 12.1765601217656 12.1765601217656 6.31911532385466 6.31911532385466 6.31911532385466 15.0659133709981 7.09779179810726 7.09779179810726 8.61008610086101 8.61008610086101 5.59284116331096 16.9039145907473 16.9039145907473 8.57632933104631 13.4920634920635 13.4920634920635 13.4920634920635 2.61096605744125 2.61096605744125 2.61096605744125 2.61096605744125 2.61096605744125 10.221465076661 10.221465076661 10.221465076661 5.36480686695279 11.1111111111111 11.1111111111111 2.10084033613445 2.10084033613445 2.10084033613445 3.55450236966825 12.0817843866171 12.0817843866171 10.3189493433396 10.3189493433396 10.3189493433396 10.3189493433396 10.3189493433396 -9999 -9999 -9999 1.93423597678917 1.93423597678917 19.7594501718213 19.7594501718213 19.7594501718213 6.68337510442774 0 6.17283950617284 6.17283950617284 6.17283950617284 6.17283950617284 -9999 4.84848484848485 4.84848484848485 4.84848484848485 4.84848484848485 -9999 4.84848484848485 4.84848484848485 4.84848484848485 4.84848484848485 0 0 3.77358490566038 9.09090909090909 9.09090909090909 5.13950073421439 1.08932461873638 1.08932461873638 1.08932461873638 1.08932461873638 1.08932461873638 0 0 0 0 -9999 -9999 -9999 -9999 -9999 5.49450549450549 5.49450549450549 2.92397660818713 2.92397660818713 2.92397660818713 2.92397660818713 2.92397660818713 2.92397660818713 2.92397660818713 2.92397660818713 2.92397660818713 -9999 -9999 -9999 -9999 -9999 -9999 -9999 -9999 -9999 -9999 -9999 -9999 -9999 -9999 -9999 -9999 -9999 -9999 -9999 -9999 -9999 -9999 -9999 -9999 -9999 -9999 -9999 -9999 -9999 -9999 -9999 -9999 -9999 -9999 -9999 -9999 -9999 -9999 -9999 -9999 -9999 -9999 -9999 -9999 -9999 -9999 -9999 -9999 -9999
-9999 -9999 -9999 -9999 -9999 -9999 -9999 -9999 -9999 -9999 -9999 -9999 -9999 -9999 -9999 -9999 -9999 -9999 -9999 -9999 -9999 -9999 -9999 -9999 -9999 -9999 -9999 -9999 -9999 -9999 0 0 0 0 0 0 0 0 0 0 0 0 0 0 0 -9999 -9999 -9999 -9999 -9999 -9999 -9999 -9999 3.4965034965035 3.4965034965035 3.4965034965035 -9999 -9999 -9999 -9999 3.4965034965035 3.4965034965035 3.4965034965035 3.4965034965035 -9999 -9999 -9999 -9999 -9999 -9999 -9999 -9999 -9999 -9999 2.64084507042254 2.64084507042254 2.64084507042254 0 2.64084507042254 8.05008944543828 8.05008944543828 8.05008944543828 4.95049504950495 5.74204946996466 5.74204946996466 7.95947901591896 7.95947901591896 7.95947901591896 7.95947901591896 7.95947901591896 7.95947901591896 7.95947901591896 7.95947901591896 7.54310344827586 7.54310344827586 7.54310344827586 4.99001996007984 4.99001996007984 4.99001996007984 4.99001996007984 11.5606936416185 11.5606936416185 4.00801603206413 4.00801603206413 4.00801603206413 4.00801603206413 4.00801603206413 4.00801603206413 0 0 5.64971751412429 5.64971751412429 0 12.1621621621622 12.1621621621622 12.1621621621622 12.1621621621622 5.64971751412429 -9999 1.53374233128834 1.53374233128834 4.12881915772089 4.12881915772089 4.12881915772089 4.12881915772089 4.12881915772089 4.12881915772089 4.12881915772089 4.12881915772089 4.12881915772089 4.12881915772089 4.12881915772089 4.12881915772089 4.12881915772089 4.12881915772089 4.12881915772089 4.12881915772089 4.12881915772089 4.12881915772089 4.12881915772089 4.12881915772089 4.12881915772089 4.12881915772089 4.12881915772089 4.12881915772089 4.12881915772089 4.12881915772089 4.12881915772089 4.12881915772089 4.12881915772089 4.12881915772089 4.12881915772089 4.12881915772089 4.12881915772089 4.12881915772089 4.12881915772089 4.12881915772089 4.12881915772089 4.12881915772089 4.12881915772089 4.12881915772089 4.34027777777778 4.34027777777778 4.34027777777778 4.34027777777778 4.34027777777778 4.34027777777778 4.34027777777778 4.34027777777778 4.34027777777778 4.34027777777778 4.34027777777778 4.34027777777778 4.34027777777778 4.34027777777778 4.34027777777778 4.34027777777778 -9999 -9999 -9999 -9999 -9999 -9999 -9999 -9999 -9999 -9999 -9999 -9999 -9999 -9999 -9999 -9999 -9999 -9999 -9999 6.8359375 6.8359375 6.8359375 6.8359375 6.8359375 6.8359375 6.8359375 6.8359375 6.8359375 6.8359375 6.8359375 6.8359375 6.8359375 6.8359375 6.8359375 6.8359375 6.8359375 6.8359375 6.8359375 6.8359375 6.8359375 6.8359375 17.7705977382876 17.7705977382876 17.7705977382876 17.7705977382876 17.7705977382876 17.7705977382876 17.7705977382876 17.7705977382876 17.7705977382876 17.7705977382876 -9999 -9999 -9999 -9999 -9999 -9999 -9999 17.7705977382876 17.7705977382876 -9999 -9999 -9999 -9999 -9999 -9999 -9999 -9999 0 0 0 0 0 0 0 0 -9999 -9999 -9999 -9999 -9999 -9999 -9999 0 0 0 0 0 7.16845878136201 7.16845878136201 7.16845878136201 3.74064837905237 3.74064837905237 9.16030534351145 14.4444444444444 14.4444444444444 17.1480144404332 17.1480144404332 6.31911532385466 6.31911532385466 16.4744645799012 16.4744645799012 7.09779179810726 7.09779179810726 5.59284116331096 5.59284116331096 5.59284116331096 5.59284116331096 8.57632933104631 8.57632933104631 8.57632933104631 0 0 0 0 2.61096605744125 10.221465076661 10.221465076661 10.221465076661 10.221465076661 16.3339382940109 0 11.1111111111111 11.1111111111111 11.1111111111111 12.0817843866171 12.0817843866171 17.1149144254279 17.1149144254279 17.1149144254279 12.0817843866171 6.84931506849315 6.84931506849315 -9999 -9999 -9999 1.93423597678917 1.93423597678917 1.93423597678917 1.93423597678917 6.68337510442774 6.68337510442774 6.68337510442774 6.68337510442774 6.68337510442774 6.17283950617284 6.17283950617284 -9999 4.84848484848485 4.84848484848485 4.84848484848485 4.84848484848485 4.84848484848485 4.84848484848485 4.84848484848485 4.84848484848485 4.84848484848485 4.84848484848485 0 0 3.77358490566038 9.09090909090909 9.09090909090909 5.13950073421439 1.08932461873638 1.08932461873638 1.08932461873638 1.08932461873638 1.08932461873638 1.08932461873638 -9999 -9999 -9999 -9999 -9999 -9999 -9999 5.49450549450549 5.49450549450549 5.49450549450549 2.92397660818713 2.92397660818713 2.92397660818713 2.92397660818713 2.92397660818713 2.92397660818713 2.92397660818713 2.92397660818713 2.92397660818713 -9999 -9999 -9999 -9999 -9999 -9999 -9999 -9999 -9999 -9999 -9999 -9999 -9999 -9999 -9999 -9999 -9999 -9999 -9999 -9999 -9999 -9999 -9999 -9999 -9999 -9999 -9999 -9999 -9999 -9999 -9999 -9999 -9999 -9999 -9999 -9999 -9999 -9999 -9999 -9999 -9999 -9999 -9999 -9999 -9999 -9999 -9999 -9999 -9999
-9999 -9999 -9999 -9999 -9999 -9999 -9999 -9999 -9999 -9999 -9999 -9999 -9999 -9999 -9999 -9999 -9999 -9999 -9999 -9999 -9999 -9999 -9999 -9999 -9999 -9999 -9999 -9999 -9999 -9999 0 0 0 0 0 0 0 0 0 0 0 0 0 0 0 0 -9999 -9999 -9999 -9999 -9999 -9999 -9999 -9999 -9999 -9999 -9999 -9999 -9999 -9999 -9999 3.4965034965035 -9999 -9999 -9999 -9999 -9999 -9999 -9999 -9999 0 0 0 0 2.64084507042254 2.64084507042254 2.64084507042254 2.64084507042254 2.64084507042254 8.05008944543828 8.05008944543828 8.05008944543828 4.95049504950495 4.95049504950495 5.74204946996466 5.74204946996466 7.95947901591896 7.95947901591896 7.95947901591896 7.95947901591896 7.95947901591896 7.95947901591896 7.95947901591896 7.95947901591896 7.54310344827586 4.99001996007984 4.99001996007984 4.99001996007984 0 0 0 11.5606936416185 11.5606936416185 4.00801603206413 4.00801603206413 4.00801603206413 0 0 0 5.64971751412429 5.64971751412429 0 0 0 5.64971751412429 5.64971751412429 -9999 -9999 1.53374233128834 1.53374233128834 1.53374233128834 1.53374233128834 4.12881915772089 4.12881915772089 4.12881915772089 4.12881915772089 4.12881915772089 4.12881915772089 4.12881915772089 4.12881915772089 4.12881915772089 4.12881915772089 4.12881915772089 4.12881915772089 4.12881915772089 4.12881915772089 4.12881915772089 4.12881915772089 4.12881915772089 4.12881915772089 4.12881915772089 2.03252032520325 2.03252032520325 4.12881915772089 4.12881915772089 4.12881915772089 4.12881915772089 4.12881915772089 4.12881915772089 4.12881915772089 4.12881915772089 4.12881915772089 4.12881915772089 4.12881915772089 4.12881915772089 4.12881915772089 4.12881915772089 4.12881915772089 4.12881915772089 4.12881915772089 4.12881915772089 4.12881915772089 4.34027777777778 4.34027777777778 4.34027777777778 4.34027777777778 4.34027777777778 4.34027777777778 4.34027777777778 4.34027777777778 4.34027777777778 4.34027777777778 4.34027777777778 4.34027777777778 4.34027777777778 4.34027777777778 4.34027777777778 4.34027777777778 4.34027777777778 -9999 -9999 -9999 -9999 -9999 -9999 -9999 -9999 -9999 -9999 -9999 -9999 -9999 -9999 -9999 -9999 6.8359375 6.8359375 6.8359375 6.8359375 6.8359375 6.8359375 6.8359375 6.8359375 6.8359375 6.8359375 6.8359375 6.8359375 6.8359375 6.8359375 6.8359375 6.8359375 6.8359375 6.8359375 6.8359375 6.8359375 6.8359375 17.7705977382876 17.7705977382876 17.7705977382876 17.7705977382876 17.7705977382876 17.7705977382876 17.7705977382876 17.7705977382876 17.7705977382876 17.7705977382876 17.7705977382876 17.7705977382876 17.7705977382876 -9999 -9999 -9999 -9999 -9999 -9999 17.7705977382876 17.7705977382876 17.7705977382876 17.7705977382876 -9999 -9999 -9999 -9999 -9999 0 0 0 0 0 0 0 0 0 22.6337448559671 22.6337448559671 22.6337448559671 0 0 0 -9999 0 0 0 0 0 7.16845878136201 7.16845878136201 7.16845878136201 7.16845878136201 9.16030534351145 9.16030534351145 9.16030534351145 16.0142348754448 31.3014827018122 31.3014827018122 17.1480144404332 10.1910828025478 16.4744645799012 16.4744645799012 16.4744645799012 5.59284116331096 5.59284116331096 5.59284116331096 5.59284116331096 7.73694390715667 7.73694390715667 7.73694390715667 8.57632933104631 8.57632933104631 8.57632933104631 0 0 6.71785028790787 6.71785028790787 6.71785028790787 10.6382978723404 5.57103064066852 16.3339382940109 16.3339382940109 16.3339382940109 4.42477876106195 12.0817843866171 12.0817843866171 6.56455142231947 17.1149144254279 17.1149144254279 17.1149144254279 6.84931506849315 -9999 -9999 -9999 -9999 -9999 1.93423597678917 1.93423597678917 1.93423597678917 1.93423597678917 6.68337510442774 6.68337510442774 6.68337510442774 6.68337510442774 -9999 -9999 4.84848484848485 4.84848484848485 4.84848484848485 4.84848484848485 4.84848484848485 4.84848484848485 4.84848484848485 4.84848484848485 4.84848484848485 4.84848484848485 4.84848484848485 4.84848484848485 3.80228136882129 3.80228136882129 6.70498084291188 6.70498084291188 6.70498084291188 1.08932461873638 1.08932461873638 1.08932461873638 1.08932461873638 1.08932461873638 1.08932461873638 -9999 -9999 -9999 -9999 -9999 -9999 5.49450549450549 5.49450549450549 5.49450549450549 5.49450549450549 2.1043771043771 2.92397660818713 2.92397660818713 2.92397660818713 2.92397660818713 2.92397660818713 2.92397660818713 2.92397660818713 2.92397660818713 -9999 -9999 -9999 -9999 -9999 -9999 -9999 -9999 -9999 -9999 -9999 -9999 -9999 -9999 -9999 -9999 -9999 -9999 -9999 -9999 -9999 -9999 -9999 -9999 -9999 -9999 -9999 -9999 -9999 -9999 -9999 -9999 -9999 -9999 -9999 -9999 -9999 -9999 -9999 -9999 -9999 -9999 -9999 -9999 -9999 -9999 -9999 -9999 -9999 -9999
-9999 -9999 -9999 -9999 -9999 -9999 -9999 -9999 -9999 -9999 -9999 -9999 -9999 -9999 -9999 -9999 -9999 -9999 -9999 -9999 -9999 -9999 -9999 -9999 -9999 -9999 -9999 -9999 -9999 -9999 -9999 0 0 0 0 0 0 0 0 0 0 0 0 0 0 0 -9999 -9999 -9999 -9999 -9999 -9999 -9999 -9999 -9999 -9999 -9999 -9999 -9999 -9999 -9999 -9999 -9999 -9999 -9999 -9999 -9999 -9999 0 -9999 0 0 0 0 6.72268907563025 6.72268907563025 6.72268907563025 6.72268907563025 2.64084507042254 2.64084507042254 2.64084507042254 11.0294117647059 9.59488272921109 4.95049504950495 4.95049504950495 5.74204946996466 12.5570776255708 12.5570776255708 7.95947901591896 7.95947901591896 7.95947901591896 7.95947901591896 7.95947901591896 7.95947901591896 5.1440329218107 4.99001996007984 5.1440329218107 0 0 0 11.5606936416185 11.5606936416185 11.5606936416185 0 0 0 0 5.64971751412429 5.64971751412429 5.64971751412429 0 0 0 5.64971751412429 -9999 -9999 1.53374233128834 1.53374233128834 1.53374233128834 1.53374233128834 -9999 -9999 -9999 4.12881915772089 4.12881915772089 4.12881915772089 4.12881915772089 4.12881915772089 4.12881915772089 4.12881915772089 4.12881915772089 4.12881915772089 4.12881915772089 4.12881915772089 4.12881915772089 4.12881915772089 4.12881915772089 4.12881915772089 4.12881915772089 4.12881915772089 2.03252032520325 2.03252032520325 0 2.03252032520325 0 0 0 4.12881915772089 4.12881915772089 4.12881915772089 4.12881915772089 4.12881915772089 4.12881915772089 4.12881915772089 4.12881915772089 4.12881915772089 4.12881915772089 4.12881915772089 4.12881915772089 4.12881915772089 4.12881915772089 4.12881915772089 4.34027777777778 4.34027777777778 4.34027777777778 4.34027777777778 4.34027777777778 4.34027777777778 4.34027777777778 4.34027777777778 4.34027777777778 4.34027777777778 4.34027777777778 4.34027777777778 4.34027777777778 4.34027777777778 4.34027777777778 4.34027777777778 4.34027777777778 4.34027777777778 -9999 -9999 -9999 -9999 -9999 -9999 -9999 -9999 -9999 -9999 -9999 -9999 -9999 6.8359375 6.8359375 6.8359375 6.8359375 6.8359375 6.8359375 6.8359375 6.8359375 6.8359375 6.8359375 6.8359375 6.8359375 6.8359375 6.8359375 6.8359375 6.8359375 6.8359375 6.8359375 6.8359375 6.8359375 6.8359375 6.8359375 17.7705977382876 17.7705977382876 17.7705977382876 17.7705977382876 17.7705977382876 17.7705977382876 17.7705977382876 17.7705977382876 17.7705977382876 17.7705977382876 17.7705977382876 17.7705977382876 17.7705977382876 17.7705977382876 17.7705977382876 17.7705977382876 -9999 -9999 -9999 -9999 17.7705977382876 17.7705977382876 17.7705977382876 17.7705977382876 17.7705977382876 17.7705977382876 -9999 -9999 -9999 0 0 0 0 0 0 0 0 0 1.83823529411765 22.6337448559671 22.6337448559671 0 0 0 3.10077519379845 3.10077519379845 3.10077519379845 0 0 3.22234156820623 7.16845878136201 7.16845878136201 7.16845878136201 11.1111111111111 11.1111111111111 11.1111111111111 11.1111111111111 12.4633431085044 12.4633431085044 16.0142348754448 16.0142348754448 8.43694493783304 10.1910828025478 10.1910828025478 10.1910828025478 0 0 0 7.73694390715667 7.73694390715667 7.73694390715667 13.0841121495327 13.0841121495327 8.57632933104631 6.27240143369176 6.27240143369176 6.27240143369176 6.71785028790787 6.38297872340426 6.38297872340426 6.38297872340426 10.6382978723404 10.6382978723404 4.42477876106195 4.42477876106195 4.42477876106195 12.1739130434783 6.56455142231947 6.56455142231947 6.84931506849315 6.84931506849315 -9999 -9999 -9999 -9999 -9999 -9999 -9999 -9999 1.93423597678917 1.93423597678917 1.93423597678917 6.68337510442774 6.68337510442774 -9999 4.84848484848485 4.84848484848485 4.84848484848485 4.84848484848485 4.84848484848485 4.84848484848485 4.84848484848485 4.84848484848485 4.84848484848485 4.84848484848485 0 0 4.84848484848485 4.84848484848485 4.84848484848485 5.37634408602151 1.91815856777494 1.91815856777494 0 0 7.37463126843658 7.37463126843658 1.08932461873638 1.08932461873638 1.08932461873638 -9999 -9999 -9999 -9999 5.49450549450549 5.49450549450549 5.49450549450549 5.49450549450549 5.49450549450549 2.1043771043771 2.1043771043771 2.1043771043771 2.92397660818713 2.92397660818713 2.92397660818713 2.92397660818713 2.92397660818713 2.92397660818713 0 0 0 -9999 -9999 -9999 -9999 -9999 -9999 -9999 -9999 -9999 -9999 -9999 -9999 -9999 -9999 -9999 -9999 -9999 -9999 -9999 -9999 -9999 -9999 -9999 -9999 -9999 -9999 -9999 -9999 -9999 -9999 -9999 -9999 -9999 -9999 -9999 -9999 -9999 -9999 -9999 -9999 -9999 -9999 -9999 -9999 -9999 -9999 -9999 -9999 -9999
-9999 -9999 -9999 -9999 -9999 -9999 -9999 -9999 -9999 -9999 -9999 -9999 -9999 -9999 -9999 -9999 -9999 -9999 -9999 -9999 -9999 -9999 -9999 -9999 -9999 -9999 -9999 -9999 0 0 0 0 0 0 0 0 0 0 0 0 0 0 0 0 0 0 -9999 -9999 -9999 -9999 -9999 -9999 -9999 -9999 -9999 -9999 -9999 -9999 -9999 -9999 -9999 -9999 -9999 -9999 -9999 0 0 0 0 0 0 -9999 -9999 -9999 -9999 6.72268907563025 6.72268907563025 6.72268907563025 2.64084507042254 11.0294117647059 11.0294117647059 11.0294117647059 11.0294117647059 9.59488272921109 4.95049504950495 9.59488272921109 12.5570776255708 12.5570776255708 12.5570776255708 7.95947901591896 7.95947901591896 7.95947901591896 7.95947901591896 5.1440329218107 5.1440329218107 5.1440329218107 0 0 11.5606936416185 11.5606936416185 11.5606936416185 0 0 0 0 5.64971751412429 5.64971751412429 5.64971751412429 0 0 0 5.64971751412429 -9999 1.53374233128834 -9999 1.53374233128834 1.53374233128834 1.53374233128834 1.53374233128834 -9999 -9999 -9999 -9999 -9999 4.12881915772089 4.12881915772089 4.12881915772089 4.12881915772089 4.12881915772089 4.12881915772089 4.12881915772089 4.12881915772089 4.12881915772089 4.12881915772089 4.12881915772089 4.12881915772089 4.12881915772089 4.12881915772089 2.03252032520325 2.03252032520325 2.03252032520325 0 0 0 0 0 0 11.3104524180967 11.3104524180967 4.12881915772089 4.12881915772089 4.12881915772089 4.12881915772089 4.12881915772089 4.12881915772089 4.12881915772089 4.12881915772089 4.12881915772089 4.12881915772089 4.12881915772089 4.34027777777778 4.34027777777778 4.34027777777778 4.34027777777778 4.34027777777778 4.34027777777778 4.34027777777778 4.34027777777778 4.34027777777778 4.34027777777778 4.34027777777778 4.34027777777778 4.34027777777778 4.34027777777778 4.34027777777778 4.34027777777778 4.34027777777778 4.34027777777778 4.34027777777778 4.34027777777778 6.8359375 6.8359375 -9999 -9999 -9999 -9999 -9999 -9999 -9999 -9999 -9999 -9999 6.8359375 6.8359375 6.8359375 6.8359375 6.8359375 6.8359375 6.8359375 6.8359375 6.8359375 6.8359375 6.8359375 6.8359375 6.8359375 6.8359375 6.8359375 6.8359375 6.8359375 6.8359375 6.8359375 6.8359375 6.8359375 6.8359375 17.7705977382876 17.7705977382876 17.7705977382876 17.7705977382876 17.7705977382876 17.7705977382876 17.7705977382876 17.7705977382876 17.7705977382876 17.7705977382876 17.7705977382876 17.7705977382876 17.7705977382876 17.7705977382876 17.7705977382876 17.7705977382876 17.7705977382876 17.7705977382876 -9999 -9999 -9999 17.7705977382876 17.7705977382876 17.7705977382876 17.7705977382876 17.7705977382876 17.7705977382876 17.7705977382876 -9999 -9999 0 0 0 0 0 0 0 0 1.83823529411765 1.83823529411765 1.83823529411765 0 0 0 3.10077519379845 3.10077519379845 3.10077519379845 3.10077519379845 3.10077519379845 3.22234156820623 3.22234156820623 7.16845878136201 7.16845878136201 11.1111111111111 11.1111111111111 11.1111111111111 11.1111111111111 10.806916426513 10.806916426513 12.4633431085044 12.4633431085044 8.43694493783304 8.43694493783304 8.43694493783304 8.43694493783304 -9999 -9999 0 5.13698630136986 5.13698630136986 5.13698630136986 13.0841121495327 13.0841121495327 13.0841121495327 13.0841121495327 13.0841121495327 6.27240143369176 23.2394366197183 8.70069605568446 8.70069605568446 8.70069605568446 6.38297872340426 4.42477876106195 12.1739130434783 12.1739130434783 12.1739130434783 12.1739130434783 12.1739130434783 6.84931506849315 6.84931506849315 -9999 -9999 -9999 -9999 -9999 -9999 -9999 -9999 -9999 -9999 -9999 -9999 -9999 4.84848484848485 4.84848484848485 4.84848484848485 4.84848484848485 4.84848484848485 4.84848484848485 4.84848484848485 4.84848484848485 4.84848484848485 4.84848484848485 4.84848484848485 0 0 0 0 0 0 0 5.37634408602151 1.91815856777494 1.91815856777494 0 7.37463126843658 7.37463126843658 0 1.08932461873638 1.08932461873638 1.08932461873638 -9999 -9999 -9999 5.49450549450549 5.49450549450549 0 0 4.8721071863581 4.8721071863581 2.1043771043771 2.1043771043771 2.1043771043771 2.1043771043771 2.92397660818713 2.92397660818713 2.92397660818713 -9999 2.92397660818713 -9999 0 -9999 -9999 -9999 -9999 -9999 -9999 -9999 -9999 -9999 -9999 -9999 -9999 -9999 -9999 -9999 -9999 -9999 -9999 -9999 -9999 -9999 -9999 -9999 -9999 -9999 -9999 -9999 -9999 -9999 -9999 -9999 -9999 -9999 -9999 -9999 -9999 -9999 -9999 -9999 -9999 -9999 -9999 -9999 -9999 -9999 -9999 -9999 -9999 -9999 -9999
-9999 -9999 -9999 -9999 -9999 -9999 -9999 -9999 -9999 -9999 -9999 -9999 -9999 -9999 -9999 -9999 -9999 -9999 -9999 -9999 -9999 -9999 -9999 -9999 -9999 0 0 0 0 0 0 0 0 0 0 0 0 0 0 0 0 0 0 0 0 0 0 -9999 -9999 -9999 -9999 -9999 -9999 -9999 -9999 -9999 -9999 -9999 -9999 -9999 -9999 -9999 -9999 -9999 0 0 0 0 0 -9999 -9999 -9999 -9999 -9999 -9999 -9999 -9999 6.72268907563025 6.91244239631336 6.91244239631336 11.0294117647059 11.0294117647059 11.0294117647059 9.59488272921109 9.59488272921109 9.59488272921109 12.5570776255708 12.5570776255708 12.5570776255708 12.5570776255708 7.95947901591896 7.95947901591896 5.1440329218107 5.1440329218107 0 0 0 0 0 0 0 0 0 0 0 3.125 5.64971751412429 5.64971751412429 5.64971751412429 5.64971751412429 -9999 1.53374233128834 -9999 1.53374233128834 1.53374233128834 1.53374233128834 1.53374233128834 -9999 -9999 -9999 -9999 -9999 -9999 -9999 -9999 4.12881915772089 4.12881915772089 4.12881915772089 4.12881915772089 4.12881915772089 4.12881915772089 4.12881915772089 4.12881915772089 4.12881915772089 4.12881915772089 4.12881915772089 4.93096646942801 4.93096646942801 2.03252032520325 2.03252032520325 2.03252032520325 2.03252032520325 0 0 0 0 11.3104524180967 11.3104524180967 11.3104524180967 11.3104524180967 4.12881915772089 4.12881915772089 4.12881915772089 4.12881915772089 4.12881915772089 4.12881915772089 4.12881915772089 2.03804347826087 2.03804347826087 2.03804347826087 4.34027777777778 4.34027777777778 4.34027777777778 4.34027777777778 4.34027777777778 4.34027777777778 4.34027777777778 4.34027777777778 4.34027777777778 4.34027777777778 4.34027777777778 4.34027777777778 4.34027777777778 4.34027777777778 4.34027777777778 4.34027777777778 4.34027777777778 4.34027777777778 4.34027777777778 6.8359375 6.8359375 6.8359375 6.8359375 -9999 -9999 -9999 -9999 -9999 -9999 -9999 -9999 6.8359375 6.8359375 6.8359375 6.8359375 6.8359375 6.8359375 6.8359375 6.8359375 6.8359375 6.8359375 6.8359375 6.8359375 6.8359375 6.8359375 6.8359375 6.8359375 6.8359375 6.8359375 6.8359375 6.8359375 6.8359375 17.7705977382876 17.7705977382876 17.7705977382876 17.7705977382876 17.7705977382876 17.7705977382876 17.7705977382876 17.7705977382876 17.7705977382876 17.7705977382876 17.7705977382876 17.7705977382876 17.7705977382876 17.7705977382876 17.7705977382876 17.7705977382876 17.7705977382876 17.7705977382876 17.7705977382876 17.7705977382876 17.7705977382876 17.7705977382876 17.7705977382876 17.7705977382876 17.7705977382876 17.7705977382876 17.7705977382876 17.7705977382876 17.7705977382876 17.7705977382876 17.7705977382876 0 0 0 0 0 0 0 0 0 0 1.83823529411765 0 0 0 0 0 0 3.10077519379845 3.10077519379845 3.22234156820623 5.94353640416047 3.22234156820623 7.16845878136201 7.16845878136201 6.94444444444444 6.94444444444444 6.94444444444444 10.806916426513 10.806916426513 10.806916426513 10.806916426513 4.51977401129944 8.43694493783304 8.43694493783304 8.43694493783304 -9999 -9999 -9999 5.13698630136986 5.13698630136986 5.13698630136986 5.13698630136986 6.20636152055857 6.20636152055857 13.0841121495327 13.0841121495327 -9999 -9999 0 23.2394366197183 23.2394366197183 6.84931506849315 6.84931506849315 6.84931506849315 6.84931506849315 6.84931506849315 6.84931506849315 6.84931506849315 6.84931506849315 -9999 -9999 -9999 -9999 -9999 -9999 -9999 -9999 -9999 -9999 -9999 -9999 -9999 1.77725118483412 1.77725118483412 4.84848484848485 4.84848484848485 4.84848484848485 4.84848484848485 4.84848484848485 4.84848484848485 4.84848484848485 4.84848484848485 4.84848484848485 4.84848484848485 4.84848484848485 0 0 2.77264325323475 6.25 6.25 13.0151843817787 13.0151843817787 5.37634408602151 0 0 0 14.1196013289037 14.1196013289037 0 0 1.08932461873638 1.08932461873638 -9999 -9999 -9999 5.49450549450549 5.49450549450549 0 4.8721071863581 4.8721071863581 2.1043771043771 2.1043771043771 2.1043771043771 2.1043771043771 2.92397660818713 2.92397660818713 2.92397660818713 2.92397660818713 -9999 -9999 -9999 -9999 -9999 -9999 -9999 -9999 -9999 -9999 -9999 -9999 -9999 -9999 -9999 -9999 -9999 -9999 -9999 -9999 -9999 -9999 -9999 -9999 -9999 -9999 -9999 -9999 -9999 -9999 -9999 -9999 -9999 -9999 -9999 -9999 -9999 -9999 -9999 -9999 -9999 -9999 -9999 -9999 -9999 -9999 -9999 -9999 -9999 -9999 -9999 -9999 -9999 -9999
-9999 -9999 -9999 -9999 -9999 -9999 -9999 -9999 -9999 -9999 -9999 -9999 -9999 -9999 -9999 -9999 -9999 -9999 -9999 -9999 -9999 -9999 -9999 -9999 -9999 -9999 0 0 0 0 0 0 0 0 0 0 0 0 0 0 0 0 0 0 0 0 0 -9999 -9999 -9999 -9999 -9999 -9999 -9999 -9999 -9999 -9999 -9999 -9999 -9999 -9999 -9999 -9999 -9999 0 -9999 -9999 -9999 -9999 -9999 -9999 -9999 -9999 -9999 -9999 -9999 11.6504854368932 11.6504854368932 6.91244239631336 6.91244239631336 6.91244239631336 11.0294117647059 11.0294117647059 9.59488272921109 4.53172205438066 9.59488272921109 9.59488272921109 9.59488272921109 12.5570776255708 12.5570776255708 5.1440329218107 5.1440329218107 0 0 0 0 0 0 0 0 0 0 0 3.125 3.125 3.125 3.125 5.64971751412429 -9999 -9999 1.53374233128834 1.53374233128834 1.53374233128834 1.53374233128834 1.53374233128834 -9999 -9999 -9999 -9999 -9999 -9999 -9999 -9999 1.88323917137476 1.88323917137476 1.88323917137476 4.12881915772089 4.12881915772089 4.12881915772089 4.12881915772089 4.12881915772089 4.12881915772089 4.12881915772089 4.12881915772089 0 4.93096646942801 4.93096646942801 4.93096646942801 4.93096646942801 4.93096646942801 2.03252032520325 0 0 0 0 0 0 11.3104524180967 11.3104524180967 11.3104524180967 11.3104524180967 11.3104524180967 4.12881915772089 4.12881915772089 4.12881915772089 2.03804347826087 2.03804347826087 2.03804347826087 2.03804347826087 2.03804347826087 4.34027777777778 4.34027777777778 4.34027777777778 4.34027777777778 4.34027777777778 4.34027777777778 4.34027777777778 4.34027777777778 4.34027777777778 4.34027777777778 4.34027777777778 4.34027777777778 4.34027777777778 4.34027777777778 4.34027777777778 4.34027777777778 4.34027777777778 4.34027777777778 6.8359375 6.8359375 6.8359375 6.8359375 6.8359375 6.8359375 6.8359375 -9999 -9999 -9999 -9999 6.8359375 6.8359375 6.8359375 6.8359375 6.8359375 6.8359375 6.8359375 6.8359375 6.8359375 6.8359375 6.8359375 6.8359375 6.8359375 6.8359375 6.8359375 6.8359375 6.8359375 6.8359375 6.8359375 6.8359375 6.8359375 6.8359375 17.7705977382876 17.7705977382876 17.7705977382876 17.7705977382876 17.7705977382876 17.7705977382876 17.7705977382876 17.7705977382876 17.7705977382876 17.7705977382876 17.7705977382876 17.7705977382876 17.7705977382876 17.7705977382876 17.7705977382876 17.7705977382876 17.7705977382876 17.7705977382876 17.7705977382876 17.7705977382876 17.7705977382876 17.7705977382876 17.7705977382876 17.7705977382876 17.7705977382876 17.7705977382876 17.7705977382876 17.7705977382876 17.7705977382876 17.7705977382876 17.7705977382876 17.7705977382876 0 0 0 0 0 0 0 0 0 0 0 0 0 0 0 0 0 0 3.22234156820623 5.94353640416047 5.94353640416047 3.22234156820623 7.16845878136201 0 0 6.94444444444444 6.94444444444444 6.94444444444444 6.94444444444444 6.94444444444444 4.51977401129944 4.51977401129944 4.51977401129944 4.51977401129944 -9999 -9999 -9999 10.5162523900574 10.5162523900574 5.13698630136986 5.13698630136986 6.20636152055857 6.20636152055857 6.20636152055857 5.56792873051225 5.56792873051225 -9999 -9999 -9999 6.84931506849315 6.84931506849315 6.84931506849315 6.84931506849315 6.84931506849315 6.84931506849315 6.84931506849315 6.84931506849315 -9999 -9999 -9999 -9999 -9999 -9999 -9999 -9999 -9999 -9999 -9999 -9999 -9999 0 1.77725118483412 1.77725118483412 1.77725118483412 1.77725118483412 7.65864332603939 7.65864332603939 7.65864332603939 7.65864332603939 2.59515570934256 2.59515570934256 2.59515570934256 0 0 0 -9999 -9999 -9999 -9999 4.3010752688172 4.3010752688172 13.0151843817787 5.37634408602151 0 0 0 14.1196013289037 14.1196013289037 14.1196013289037 0 1.08932461873638 1.08932461873638 -9999 -9999 -9999 5.49450549450549 5.49450549450549 4.8721071863581 4.8721071863581 2.1043771043771 2.1043771043771 2.1043771043771 2.1043771043771 0 30.2681992337165 30.2681992337165 2.92397660818713 -9999 -9999 -9999 -9999 -9999 -9999 -9999 -9999 -9999 -9999 -9999 -9999 -9999 -9999 -9999 -9999 -9999 -9999 -9999 -9999 -9999 -9999 -9999 -9999 -9999 -9999 -9999 -9999 -9999 -9999 -9999 -9999 -9999 -9999 -9999 -9999 -9999 -9999 -9999 -9999 -9999 -9999 -9999 -9999 -9999 -9999 -9999 -9999 -9999 -9999 -9999 -9999 -9999 -9999 -9999
-9999 -9999 -9999 -9999 -9999 -9999 -9999 -9999 -9999 -9999 -9999 -9999 -9999 -9999 -9999 -9999 -9999 -9999 -9999 -9999 -9999 -9999 -9999 -9999 -9999 -9999 -9999 -9999 -9999 0 0 0 0 0 0 0 0 0 0 0 0 0 0 0 0 0 0 0 -9999 0 0 -9999 -9999 -9999 -9999 -9999 0 -9999 -9999 -9999 -9999 0 0 -9999 -9999 -9999 -9999 -9999 -9999 -9999 -9999 -9999 -9999 -9999 11.6504854368932 11.6504854368932 11.6504854368932 11.6504854368932 11.6504854368932 6.91244239631336 6.91244239631336 6.91244239631336 4.53172205438066 4.53172205438066 4.53172205438066 4.53172205438066 4.53172205438066 9.59488272921109 1.71232876712329 1.71232876712329 5.1440329218107 0 0 0 0 0 0 0 0 0 0 0 0 3.125 3.125 3.125 3.125 3.125 -9999 -9999 -9999 1.53374233128834 1.53374233128834 -9999 -9999 -9999 -9999 -9999 -9999 -9999 -9999 1.88323917137476 1.88323917137476 1.88323917137476 1.88323917137476 1.88323917137476 1.88323917137476 4.12881915772089 4.12881915772089 4.12881915772089 4.12881915772089 4.12881915772089 0 0 0 4.93096646942801 4.93096646942801 4.93096646942801 4.93096646942801 3.77358490566038 3.77358490566038 0 0 0 0 1.65016501650165 1.65016501650165 1.65016501650165 11.3104524180967 11.3104524180967 11.3104524180967 11.3104524180967 2.03804347826087 2.03804347826087 6.74157303370786 6.74157303370786 2.03804347826087 2.03804347826087 2.03804347826087 2.03804347826087 2.03804347826087 4.34027777777778 4.34027777777778 4.34027777777778 4.34027777777778 4.34027777777778 4.34027777777778 4.34027777777778 4.34027777777778 4.34027777777778 4.34027777777778 4.34027777777778 4.34027777777778 4.34027777777778 4.34027777777778 4.34027777777778 6.8359375 6.8359375 6.8359375 6.8359375 6.8359375 6.8359375 6.8359375 6.8359375 6.8359375 6.8359375 6.8359375 -9999 6.8359375 6.8359375 6.8359375 6.8359375 6.8359375 6.8359375 6.8359375 6.8359375 6.8359375 6.8359375 6.8359375 6.8359375 6.8359375 6.8359375 6.8359375 6.8359375 6.8359375 6.8359375 6.8359375 6.8359375 6.8359375 6.8359375 17.7705977382876 17.7705977382876 17.7705977382876 17.7705977382876 17.7705977382876 17.7705977382876 17.7705977382876 17.7705977382876 17.7705977382876 17.7705977382876 17.7705977382876 17.7705977382876 17.7705977382876 17.7705977382876 17.7705977382876 17.7705977382876 17.7705977382876 17.7705977382876 17.7705977382876 17.7705977382876 17.7705977382876 17.7705977382876 17.7705977382876 17.7705977382876 17.7705977382876 17.7705977382876 17.7705977382876 17.7705977382876 17.7705977382876 17.7705977382876 17.7705977382876 17.7705977382876 17.7705977382876 0 0 0 0 0 0 5.76036866359447 0 0 0 0 0 0 0 0 0 0 3.22234156820623 0 0 3.77155172413793 14.2326732673267 14.2326732673267 0 0 9.87306064880113 9.87306064880113 9.87306064880113 9.87306064880113 5.33536585365854 5.33536585365854 5.33536585365854 4.51977401129944 -9999 -9999 -9999 -9999 10.5162523900574 10.5162523900574 10.5162523900574 10.5162523900574 10.5162523900574 7.7319587628866 7.7319587628866 12.8939828080229 5.56792873051225 5.56792873051225 6.84931506849315 6.84931506849315 6.84931506849315 6.84931506849315 6.84931506849315 6.84931506849315 6.84931506849315 -9999 -9999 -9999 -9999 -9999 -9999 -9999 -9999 -9999 -9999 -9999 -9999 -9999 -9999 0 0 0 1.77725118483412 10.6100795755968 10.6100795755968 10.6100795755968 7.33634311512415 7.33634311512415 0 0 2.83687943262411 2.59515570934256 2.59515570934256 0 0 0 -9999 -9999 -9999 -9999 5.56328233657858 5.56328233657858 5.56328233657858 5.56328233657858 9.64187327823691 9.64187327823691 9.64187327823691 5.11247443762781 0 0 0 5.11247443762781 5.11247443762781 -9999 -9999 -9999 5.49450549450549 4.8721071863581 4.8721071863581 4.8721071863581 4.8721071863581 2.1043771043771 2.1043771043771 0 30.2681992337165 30.2681992337165 30.2681992337165 0 -9999 -9999 -9999 -9999 -9999 -9999 -9999 -9999 -9999 -9999 -9999 -9999 -9999 -9999 -9999 -9999 -9999 -9999 -9999 -9999 -9999 -9999 -9999 -9999 -9999 -9999 -9999 -9999 -9999 -9999 -9999 -9999 -9999 -9999 -9999 -9999 -9999 -9999 -9999 -9999 -9999 -9999 -9999 -9999 -9999 -9999 -9999 -9999 -9999 -9999 -9999 -9999 -9999 -9999 -9999
-9999 -9999 -9999 -9999 -9999 -9999 -9999 -9999 -9999 -9999 -9999 -9999 -9999 -9999 -9999 -9999 -9999 -9999 -9999 -9999 -9999 -9999 -9999 -9999 -9999 -9999 -9999 -9999 0 0 0 0 0 0 0 0 0 0 0 0 0 0 0 0 0 0 -9999 -9999 -9999 -9999 -9999 -9999 0 -9999 0 -9999 0 0 0 -9999 0 -9999 -9999 -9999 -9999 -9999 -9999 -9999 -9999 -9999 -9999 7.28155339805825 7.28155339805825 2.41935483870968 0 0 0 0 11.6504854368932 6.91244239631336 6.91244239631336 4.53172205438066 4.53172205438066 4.53172205438066 4.53172205438066 1.71232876712329 1.71232876712329 1.71232876712329 1.71232876712329 1.71232876712329 1.71232876712329 0 0 0 0 0 0 0 1.02354145342886 1.02354145342886 0 0 0 3.125 3.125 3.125 3.125 3.125 3.125 -9999 -9999 -9999 -9999 -9999 -9999 -9999 -9999 -9999 -9999 1.88323917137476 1.88323917137476 1.88323917137476 1.88323917137476 1.88323917137476 1.88323917137476 1.88323917137476 1.88323917137476 4.12881915772089 4.12881915772089 4.12881915772089 0 0 0 0 0 0 4.93096646942801 3.77358490566038 3.77358490566038 3.77358490566038 3.77358490566038 3.77358490566038 0 1.65016501650165 1.65016501650165 1.65016501650165 1.65016501650165 1.65016501650165 1.65016501650165 2.03804347826087 2.03804347826087 2.03804347826087 0 6.74157303370786 6.74157303370786 6.74157303370786 6.74157303370786 6.74157303370786 2.03804347826087 2.03804347826087 2.03804347826087 4.34027777777778 4.34027777777778 4.34027777777778 4.34027777777778 4.34027777777778 4.34027777777778 4.34027777777778 4.34027777777778 4.34027777777778 4.34027777777778 4.34027777777778 4.34027777777778 4.34027777777778 4.34027777777778 6.8359375 6.8359375 6.8359375 6.8359375 6.8359375 6.8359375 6.8359375 6.8359375 6.8359375 6.8359375 6.8359375 6.8359375 6.8359375 6.8359375 6.8359375 6.8359375 6.8359375 6.8359375 6.8359375 6.8359375 6.8359375 6.8359375 6.8359375 6.8359375 6.8359375 6.8359375 6.8359375 6.8359375 6.8359375 6.8359375 6.8359375 6.8359375 6.8359375 6.8359375 17.7705977382876 17.7705977382876 17.7705977382876 17.7705977382876 17.7705977382876 17.7705977382876 17.7705977382876 17.7705977382876 17.7705977382876 17.7705977382876 17.7705977382876 17.7705977382876 17.7705977382876 17.7705977382876 17.7705977382876 17.7705977382876 17.7705977382876 17.7705977382876 17.7705977382876 17.7705977382876 17.7705977382876 17.7705977382876 17.7705977382876 17.7705977382876 17.7705977382876 17.7705977382876 17.7705977382876 17.7705977382876 17.7705977382876 17.7705977382876 17.7705977382876 17.7705977382876 17.7705977382876 17.7705977382876 0 0 0 0 5.76036866359447 0 5.76036866359447 5.76036866359447 5.76036866359447 0 0 0 0 0 0 0 3.22234156820623 9.14634146341463 5.63063063063063 3.77155172413793 3.77155172413793 14.2326732673267 14.2326732673267 0 0 9.87306064880113 9.87306064880113 9.87306064880113 9.87306064880113 5.33536585365854 5.33536585365854 5.33536585365854 5.33536585365854 3.19829424307036 3.19829424307036 -9999 12.5 12.5 12.5 12.5 7.5187969924812 7.7319587628866 7.7319587628866 7.7319587628866 7.7319587628866 5.56792873051225 6.84931506849315 6.84931506849315 6.84931506849315 6.84931506849315 6.84931506849315 6.84931506849315 -9999 -9999 -9999 -9999 -9999 -9999 -9999 -9999 -9999 -9999 -9999 -9999 -9999 -9999 0 0 0 0 0 0 0 0 0 0 0 11.6279069767442 0 2.83687943262411 2.83687943262411 2.83687943262411 0 0 0 -9999 -9999 -9999 -9999 0 0 0 0 0 0 0 5.85480093676815 5.85480093676815 5.85480093676815 5.85480093676815 5.11247443762781 5.11247443762781 -9999 -9999 -9999 5.49450549450549 5.49450549450549 3.2258064516129 3.2258064516129 3.2258064516129 0 0 6.33528265107212 6.33528265107212 30.2681992337165 30.2681992337165 -9999 -9999 -9999 -9999 -9999 -9999 -9999 -9999 -9999 -9999 -9999 -9999 -9999 -9999 -9999 -9999 -9999 -9999 -9999 -9999 -9999 -9999 -9999 -9999 -9999 -9999 -9999 -9999 -9999 -9999 -9999 -9999 -9999 -9999 -9999 -9999 -9999 -9999 -9999 -9999 -9999 -9999 -9999 -9999 -9999 -9999 -9999 -9999 -9999 -9999 -9999 -9999 -9999 -9999 -9999 -9999
-9999 -9999 -9999 -9999 -9999 -9999 -9999 -9999 -9999 -9999 -9999 -9999 -9999 -9999 -9999 -9999 -9999 -9999 -9999 -9999 -9999 -9999 -9999 -9999 -9999 -9999 0 0 0 0 0 0 0 0 0 0 0 0 0 0 0 0 0 -9999 -9999 -9999 -9999 -9999 -9999 -9999 -9999 -9999 -9999 -9999 -9999 -9999 -9999 -9999 -9999 -9999 -9999 -9999 -9999 -9999 -9999 -9999 -9999 -9999 -9999 7.28155339805825 7.28155339805825 7.28155339805825 2.41935483870968 2.41935483870968 2.41935483870968 0 0 0 6.25 6.25 6.25 6.25 4.53172205438066 4.53172205438066 4.53172205438066 4.53172205438066 1.71232876712329 1.71232876712329 1.71232876712329 1.71232876712329 4.92125984251969 4.92125984251969 0 0 0 1.02354145342886 1.02354145342886 1.02354145342886 1.02354145342886 1.02354145342886 1.02354145342886 0 0 0 3.125 3.125 3.125 3.125 3.125 3.125 -9999 -9999 -9999 -9999 -9999 -9999 -9999 1.88323917137476 1.88323917137476 1.88323917137476 1.88323917137476 1.88323917137476 1.88323917137476 1.88323917137476 1.88323917137476 1.88323917137476 1.88323917137476 1.88323917137476 0 0 0 0 0 0 0 0 3.77358490566038 3.77358490566038 3.77358490566038 3.77358490566038 3.77358490566038 1.65016501650165 1.65016501650165 1.65016501650165 1.65016501650165 1.65016501650165 1.65016501650165 2.03804347826087 2.03804347826087 2.03804347826087 0 0 0 6.74157303370786 6.74157303370786 6.74157303370786 6.74157303370786 6.74157303370786 2.03804347826087 2.03804347826087 2.03804347826087 4.34027777777778 4.34027777777778 4.34027777777778 4.34027777777778 4.34027777777778 4.34027777777778 4.34027777777778 4.34027777777778 4.34027777777778 4.34027777777778 4.34027777777778 4.34027777777778 4.34027777777778 4.34027777777778 6.8359375 6.8359375 6.8359375 6.8359375 6.8359375 6.8359375 6.8359375 6.8359375 6.8359375 6.8359375 6.8359375 6.8359375 6.8359375 6.8359375 6.8359375 6.8359375 6.8359375 6.8359375 6.8359375 6.8359375 6.8359375 6.8359375 6.8359375 6.8359375 6.8359375 6.8359375 6.8359375 6.8359375 6.8359375 6.8359375 6.8359375 6.8359375 6.8359375 6.8359375 17.7705977382876 17.7705977382876 17.7705977382876 17.7705977382876 17.7705977382876 17.7705977382876 17.7705977382876 17.7705977382876 17.7705977382876 17.7705977382876 17.7705977382876 17.7705977382876 17.7705977382876 17.7705977382876 17.7705977382876 17.7705977382876 17.7705977382876 17.7705977382876 17.7705977382876 17.7705977382876 17.7705977382876 17.7705977382876 17.7705977382876 17.7705977382876 17.7705977382876 17.7705977382876 17.7705977382876 17.7705977382876 17.7705977382876 17.7705977382876 17.7705977382876 17.7705977382876 17.7705977382876 8.59375 8.59375 8.59375 8.59375 0 0 8.59375 5.76036866359447 5.76036866359447 8.59375 0 0 0 0 0 0 7.49625187406297 7.49625187406297 5.63063063063063 12.8022759601707 3.77155172413793 3.77155172413793 14.2326732673267 14.2326732673267 14.2326732673267 6.88468158347676 6.88468158347676 6.88468158347676 6.88468158347676 5.33536585365854 5.33536585365854 5.33536585365854 5.33536585365854 3.19829424307036 3.19829424307036 3.19829424307036 3.19829424307036 3.19829424307036 3.19829424307036 0 0 0 0 7.5187969924812 0 6.84931506849315 6.84931506849315 6.84931506849315 6.84931506849315 6.84931506849315 6.84931506849315 -9999 -9999 -9999 -9999 -9999 -9999 -9999 -9999 -9999 -9999 -9999 -9999 -9999 0 0 0 0 0 0 0 27.9441117764471 27.9441117764471 13.6268343815514 13.6268343815514 13.6268343815514 0 0 11.6279069767442 11.6279069767442 2.83687943262411 2.83687943262411 0 0 0 0 -9999 4.16088765603329 4.16088765603329 4.16088765603329 0 0 0 5.76036866359447 0 0 0 0 0 0 5.11247443762781 5.11247443762781 5.11247443762781 -9999 -9999 5.49450549450549 5.49450549450549 5.49450549450549 3.2258064516129 3.2258064516129 3.2258064516129 6.33528265107212 6.33528265107212 6.33528265107212 6.33528265107212 6.33528265107212 8.62068965517241 8.62068965517241 8.62068965517241 -9999 -9999 -9999 -9999 -9999 -9999 -9999 -9999 -9999 -9999 -9999 -9999 -9999 -9999 -9999 -9999 -9999 -9999 -9999 -9999 -9999 -9999 -9999 -9999 -9999 -9999 -9999 -9999 -9999 -9999 -9999 -9999 -9999 -9999 -9999 -9999 -9999 -9999 -9999 -9999 -9999 -9999 -9999 -9999 -9999 -9999 -9999 -9999 -9999 -9999 -9999 -9999 -9999 -9999
-9999 -9999 -9999 -9999 -9999 -9999 -9999 -9999 -9999 -9999 -9999 -9999 -9999 -9999 -9999 -9999 -9999 -9999 -9999 -9999 -9999 -9999 -9999 -9999 0 0 0 0 0 0 0 0 0 0 0 0 0 0 0 0 -9999 -9999 -9999 -9999 -9999 -9999 -9999 -9999 -9999 -9999 -9999 -9999 -9999 -9999 -9999 -9999 -9999 -9999 -9999 -9999 -9999 -9999 -9999 -9999 -9999 -9999 -9999 -9999 -9999 -9999 -9999 2.41935483870968 2.41935483870968 2.41935483870968 2.41935483870968 6.46830530401035 6.46830530401035 6.46830530401035 6.46830530401035 6.25 6.25 6.25 6.25 4.53172205438066 4.53172205438066 4.53172205438066 1.71232876712329 1.71232876712329 4.92125984251969 4.92125984251969 4.92125984251969 4.92125984251969 4.92125984251969 0 1.02354145342886 1.02354145342886 1.02354145342886 1.02354145342886 1.02354145342886 1.02354145342886 1.02354145342886 0 0 0 3.125 3.125 3.125 3.125 3.125 3.125 3.125 -9999 -9999 -9999 -9999 1.88323917137476 1.88323917137476 1.88323917137476 1.88323917137476 1.88323917137476 1.88323917137476 1.88323917137476 1.88323917137476 1.88323917137476 1.88323917137476 1.88323917137476 1.88323917137476 1.88323917137476 0 0 0 0 0 0 0 0 0 3.77358490566038 3.77358490566038 1.65016501650165 1.65016501650165 1.65016501650165 1.65016501650165 1.65016501650165 1.65016501650165 0 0 2.03804347826087 2.03804347826087 0 0 0 0 6.74157303370786 6.74157303370786 6.74157303370786 6.74157303370786 0 0 0 2.03804347826087 2.03804347826087 4.34027777777778 4.34027777777778 4.34027777777778 4.34027777777778 4.34027777777778 4.34027777777778 4.34027777777778 4.34027777777778 4.34027777777778 4.34027777777778 4.34027777777778 4.34027777777778 4.34027777777778 6.8359375 6.8359375 6.8359375 6.8359375 6.8359375 6.8359375 6.8359375 6.8359375 6.8359375 6.8359375 6.8359375 6.8359375 6.8359375 6.8359375 6.8359375 6.8359375 6.8359375 6.8359375 6.8359375 6.8359375 6.8359375 6.8359375 6.8359375 6.8359375 6.8359375 6.8359375 6.8359375 6.8359375 6.8359375 6.8359375 6.8359375 6.8359375 6.8359375 6.8359375 17.7705977382876 17.7705977382876 17.7705977382876 17.7705977382876 17.7705977382876 17.7705977382876 17.7705977382876 17.7705977382876 17.7705977382876 17.7705977382876 17.7705977382876 17.7705977382876 17.7705977382876 17.7705977382876 17.7705977382876 17.7705977382876 17.7705977382876 17.7705977382876 17.7705977382876 17.7705977382876 17.7705977382876 17.7705977382876 17.7705977382876 17.7705977382876 17.7705977382876 17.7705977382876 17.7705977382876 17.7705977382876 17.7705977382876 17.7705977382876 17.7705977382876 17.7705977382876 8.59375 8.59375 8.59375 8.59375 8.59375 8.59375 8.59375 8.59375 8.59375 8.59375 8.59375 8.59375 0 0 0 7.49625187406297 7.49625187406297 0 0 7.49625187406297 7.49625187406297 0 0 0 0 5.85480093676815 6.88468158347676 6.88468158347676 6.88468158347676 4.12541254125412 5.33536585365854 5.33536585365854 5.33536585365854 2.98804780876494 3.19829424307036 3.19829424307036 3.19829424307036 3.19829424307036 3.19829424307036 0 0 0 0 0 6.84931506849315 6.84931506849315 6.84931506849315 6.84931506849315 6.84931506849315 6.84931506849315 6.84931506849315 -9999 -9999 -9999 -9999 -9999 -9999 -9999 -9999 -9999 -9999 -9999 0 0 0 0 0 0 4.70809792843691 1.71526586620926 1.71526586620926 2.67022696929239 2.67022696929239 27.9441117764471 3.91644908616188 3.91644908616188 3.91644908616188 12.3106060606061 12.3106060606061 11.6279069767442 11.6279069767442 3.72208436724566 3.72208436724566 0 0 0 0 -9999 4.16088765603329 4.16088765603329 4.16088765603329 0 0 0 1.89753320683112 1.89753320683112 1.89753320683112 1.89753320683112 0 0 0 0 0 -9999 -9999 -9999 8.0188679245283 5.49450549450549 3.2258064516129 6.33528265107212 6.33528265107212 6.33528265107212 6.33528265107212 6.33528265107212 6.33528265107212 6.33528265107212 9.91501416430595 9.91501416430595 -9999 -9999 -9999 -9999 -9999 -9999 -9999 -9999 -9999 -9999 -9999 -9999 -9999 -9999 -9999 -9999 -9999 -9999 -9999 -9999 -9999 -9999 -9999 -9999 -9999 -9999 -9999 -9999 -9999 -9999 -9999 -9999 -9999 -9999 -9999 -9999 -9999 -9999 -9999 -9999 -9999 -9999 -9999 -9999 -9999 -9999 -9999 -9999 -9999 -9999 -9999 -9999 -9999 -9999 -9999 -9999
-9999 -9999 -9999 -9999 -9999 -9999 -9999 -9999 -9999 -9999 -9999 -9999 -9999 -9999 -9999 -9999 -9999 -9999 -9999 -9999 -9999 -9999 -9999 -9999 -9999 -9999 -9999 0 0 0 0 0 0 0 0 0 0 0 -9999 -9999 -9999 -9999 -9999 -9999 -9999 -9999 -9999 -9999 -9999 -9999 -9999 -9999 -9999 -9999 -9999 -9999 -9999 -9999 -9999 -9999 -9999 -9999 -9999 -9999 -9999 -9999 -9999 -9999 -9999 -9999 -9999 -9999 6.46830530401035 6.46830530401035 6.46830530401035 6.46830530401035 6.46830530401035 6.46830530401035 6.46830530401035 3.88802488335925 3.88802488335925 6.25 6.25 6.25 4.53172205438066 5.05902192242833 4.92125984251969 4.92125984251969 4.92125984251969 4.92125984251969 4.92125984251969 4.92125984251969 4.92125984251969 4.92125984251969 1.02354145342886 1.02354145342886 1.02354145342886 1.02354145342886 1.02354145342886 1.02354145342886 1.02354145342886 1.02354145342886 3.125 3.125 3.125 3.125 3.125 3.125 3.125 3.125 3.125 3.125 -9999 1.88323917137476 1.88323917137476 1.88323917137476 1.88323917137476 1.88323917137476 1.88323917137476 1.88323917137476 1.88323917137476 1.88323917137476 1.88323917137476 1.88323917137476 1.88323917137476 1.88323917137476 1.88323917137476 1.88323917137476 1.88323917137476 6.14439324116743 6.14439324116743 0 0 0 0 0 0 0 1.65016501650165 1.65016501650165 1.65016501650165 1.65016501650165 1.65016501650165 0 0 0 0 0 0 0 0 0 0 0 0 0 0 0 0 7.60456273764259 3.33889816360601 2.03804347826087 4.34027777777778 4.34027777777778 2.27272727272727 4.34027777777778 4.34027777777778 4.34027777777778 4.34027777777778 4.34027777777778 4.34027777777778 4.34027777777778 4.34027777777778 4.34027777777778 4.34027777777778 4.34027777777778 6.8359375 6.8359375 6.8359375 6.8359375 6.8359375 6.8359375 6.8359375 6.8359375 6.8359375 6.8359375 6.8359375 6.8359375 6.8359375 6.8359375 6.8359375 6.8359375 6.8359375 6.8359375 6.8359375 6.8359375 6.8359375 6.8359375 6.8359375 6.8359375 6.8359375 6.8359375 6.8359375 6.8359375 6.8359375 6.8359375 6.8359375 6.8359375 6.8359375 6.8359375 17.7705977382876 17.7705977382876 17.7705977382876 17.7705977382876 17.7705977382876 17.7705977382876 17.7705977382876 17.7705977382876 17.7705977382876 17.7705977382876 17.7705977382876 17.7705977382876 17.7705977382876 17.7705977382876 17.7705977382876 17.7705977382876 17.7705977382876 17.7705977382876 17.7705977382876 17.7705977382876 17.7705977382876 17.7705977382876 17.7705977382876 17.7705977382876 17.7705977382876 17.7705977382876 17.7705977382876 17.7705977382876 17.7705977382876 17.7705977382876 17.7705977382876 8.59375 8.59375 8.59375 8.59375 8.59375 8.59375 8.59375 8.59375 8.59375 8.59375 8.59375 8.59375 15.4826958105647 15.4826958105647 7.49625187406297 0 7.49625187406297 0 0 0 0 0 0 -9999 -9999 5.85480093676815 5.85480093676815 5.85480093676815 4.95049504950495 4.12541254125412 4.12541254125412 4.12541254125412 2.98804780876494 2.98804780876494 2.98804780876494 3.19829424307036 3.19829424307036 3.19829424307036 0 0 0 0 6.84931506849315 6.84931506849315 6.84931506849315 6.84931506849315 6.84931506849315 6.84931506849315 6.84931506849315 6.84931506849315 -9999 -9999 -9999 -9999 -9999 -9999 -9999 -9999 -9999 10.1289134438306 10.1289134438306 0 0 0 0 0 0 0 4.70809792843691 4.70809792843691 1.71526586620926 2.67022696929239 2.67022696929239 27.9441117764471 27.9441117764471 0 0 0 0 12.3106060606061 12.3106060606061 3.72208436724566 3.72208436724566 0 0 0 0 4.16088765603329 4.16088765603329 4.16088765603329 4.16088765603329 0 0 0 5.43478260869565 5.43478260869565 5.43478260869565 5.43478260869565 0 0 0 0 0 -9999 -9999 8.0188679245283 8.0188679245283 8.0188679245283 8.0188679245283 8.0188679245283 8.0188679245283 8.0188679245283 17.7849636216653 17.7849636216653 17.7849636216653 17.7849636216653 9.91501416430595 9.91501416430595 -9999 -9999 -9999 -9999 -9999 -9999 -9999 -9999 -9999 -9999 -9999 -9999 -9999 -9999 -9999 -9999 -9999 -9999 -9999 -9999 -9999 -9999 -9999 -9999 -9999 -9999 -9999 -9999 -9999 -9999 -9999 -9999 -9999 -9999 -9999 -9999 -9999 -9999 -9999 -9999 -9999 -9999 -9999 -9999 -9999 -9999 -9999 -9999 -9999 -9999 -9999 -9999 -9999 -9999 -9999 -9999
-9999 -9999 -9999 -9999 -9999 -9999 -9999 -9999 -9999 -9999 -9999 -9999 -9999 -9999 -9999 -9999 -9999 -9999 -9999 -9999 -9999 -9999 -9999 -9999 -9999 -9999 -9999 -9999 -9999 -9999 0 0 0 0 0 -9999 -9999 -9999 -9999 -9999 -9999 -9999 -9999 -9999 -9999 -9999 -9999 -9999 -9999 -9999 -9999 -9999 -9999 -9999 -9999 -9999 -9999 -9999 -9999 -9999 -9999 -9999 -9999 -9999 -9999 -9999 -9999 -9999 -9999 7.77777777777778 7.77777777777778 6.46830530401035 6.46830530401035 6.46830530401035 6.46830530401035 6.46830530401035 3.88802488335925 3.88802488335925 3.88802488335925 3.88802488335925 3.88802488335925 6.25 6.25 5.05902192242833 2.48138957816377 2.48138957816377 2.48138957816377 4.92125984251969 4.92125984251969 4.92125984251969 3.47222222222222 3.47222222222222 3.47222222222222 3.47222222222222 4.88997555012225 1.02354145342886 1.02354145342886 1.02354145342886 1.02354145342886 1.02354145342886 1.02354145342886 1.02354145342886 1.02354145342886 3.125 3.125 3.125 3.125 3.125 6.26423690205011 6.26423690205011 6.26423690205011 6.26423690205011 6.26423690205011 6.26423690205011 1.88323917137476 1.88323917137476 1.88323917137476 1.88323917137476 1.88323917137476 1.88323917137476 1.88323917137476 1.88323917137476 1.88323917137476 1.88323917137476 1.88323917137476 1.88323917137476 1.88323917137476 1.88323917137476 1.88323917137476 6.14439324116743 6.14439324116743 6.14439324116743 0 0 0 0 0 1.65016501650165 1.65016501650165 1.65016501650165 1.65016501650165 4.6875 0 0 0 0 0 0 0 0 0 0 0 0 0 0 7.60456273764259 7.60456273764259 7.60456273764259 7.60456273764259 3.33889816360601 3.33889816360601 2.27272727272727 2.27272727272727 2.27272727272727 2.27272727272727 2.27272727272727 4.34027777777778 4.34027777777778 4.34027777777778 4.34027777777778 4.34027777777778 4.34027777777778 4.34027777777778 4.34027777777778 4.34027777777778 6.8359375 6.8359375 6.8359375 6.8359375 6.8359375 6.8359375 6.8359375 6.8359375 6.8359375 6.8359375 6.8359375 6.8359375 6.8359375 6.8359375 6.8359375 6.8359375 6.8359375 6.8359375 6.8359375 6.8359375 6.8359375 6.8359375 6.8359375 6.8359375 6.8359375 6.8359375 6.8359375 6.8359375 6.8359375 6.8359375 6.8359375 6.8359375 6.8359375 6.8359375 17.7705977382876 17.7705977382876 17.7705977382876 17.7705977382876 17.7705977382876 17.7705977382876 17.7705977382876 17.7705977382876 17.7705977382876 17.7705977382876 17.7705977382876 17.7705977382876 17.7705977382876 17.7705977382876 17.7705977382876 17.7705977382876 17.7705977382876 17.7705977382876 17.7705977382876 17.7705977382876 17.7705977382876 17.7705977382876 17.7705977382876 17.7705977382876 17.7705977382876 17.7705977382876 17.7705977382876 17.7705977382876 17.7705977382876 17.7705977382876 8.59375 8.59375 8.59375 8.59375 8.59375 8.59375 8.59375 8.59375 8.59375 8.59375 8.59375 8.59375 8.59375 15.4826958105647 7.49625187406297 4.81611208406305 -9999 -9999 0 0 7.49625187406297 0 7.49625187406297 7.49625187406297 -9999 -9999 5.85480093676815 5.85480093676815 4.95049504950495 4.95049504950495 4.95049504950495 4.95049504950495 4.12541254125412 4.12541254125412 4.12541254125412 2.98804780876494 2.98804780876494 2.98804780876494 7.2463768115942 0 0 6.84931506849315 6.84931506849315 6.84931506849315 6.84931506849315 6.84931506849315 6.84931506849315 6.84931506849315 6.84931506849315 -9999 -9999 -9999 -9999 -9999 -9999 -9999 -9999 -9999 10.1289134438306 10.1289134438306 10.1289134438306 10.1289134438306 10.1289134438306 10.1289134438306 0 0 0 0 0 4.70809792843691 4.70809792843691 0 3.28947368421053 0 3.85802469135802 3.85802469135802 4.1958041958042 0 0 0 0 0 0 0 0 0 0 -9999 4.28082191780822 4.28082191780822 4.28082191780822 4.28082191780822 0 0 0 0 0 0 0 3.64431486880466 3.64431486880466 3.64431486880466 0 -9999 -9999 -9999 8.0188679245283 8.0188679245283 8.0188679245283 8.0188679245283 8.0188679245283 8.0188679245283 8.0188679245283 8.0188679245283 17.7849636216653 17.7849636216653 17.7849636216653 17.7849636216653 -9999 -9999 -9999 -9999 -9999 -9999 -9999 -9999 -9999 -9999 -9999 -9999 -9999 -9999 -9999 -9999 -9999 -9999 -9999 -9999 -9999 -9999 -9999 -9999 -9999 -9999 -9999 -9999 -9999 -9999 -9999 -9999 -9999 -9999 -9999 -9999 -9999 -9999 -9999 -9999 -9999 -9999 -9999 -9999 -9999 -9999 -9999 -9999 -9999 -9999 -9999 -9999 -9999 -9999 -9999 -9999 -9999
-9999 -9999 -9999 -9999 -9999 -9999 -9999 -9999 -9999 -9999 -9999 -9999 -9999 -9999 -9999 -9999 -9999 -9999 -9999 -9999 -9999 -9999 -9999 -9999 -9999 -9999 -9999 -9999 -9999 -9999 -9999 0 0 -9999 -9999 -9999 -9999 -9999 -9999 -9999 -9999 -9999 -9999 -9999 -9999 -9999 -9999 -9999 -9999 -9999 -9999 -9999 -9999 -9999 -9999 -9999 -9999 -9999 -9999 -9999 -9999 -9999 -9999 -9999 -9999 -9999 -9999 7.77777777777778 7.77777777777778 7.77777777777778 7.77777777777778 7.77777777777778 6.46830530401035 6.46830530401035 5.05902192242833 5.05902192242833 5.05902192242833 3.88802488335925 3.88802488335925 6.25 6.25 5.05902192242833 2.48138957816377 2.48138957816377 2.48138957816377 2.48138957816377 2.48138957816377 4.92125984251969 3.47222222222222 3.47222222222222 3.47222222222222 3.47222222222222 4.88997555012225 4.88997555012225 4.88997555012225 4.88997555012225 1.02354145342886 1.02354145342886 1.02354145342886 1.02354145342886 1.02354145342886 1.02354145342886 1.02354145342886 6.26423690205011 6.26423690205011 6.26423690205011 6.26423690205011 6.26423690205011 6.26423690205011 6.26423690205011 6.26423690205011 6.26423690205011 6.26423690205011 6.26423690205011 6.26423690205011 1.88323917137476 1.88323917137476 1.88323917137476 1.88323917137476 1.88323917137476 1.88323917137476 1.88323917137476 0 0 1.88323917137476 1.88323917137476 1.88323917137476 1.88323917137476 2.77392510402219 6.14439324116743 6.14439324116743 6.14439324116743 6.14439324116743 0 0 0 0 0 1.65016501650165 4.6875 4.6875 4.6875 0 0 0 0 0 0 0 0 0 0 0 0 7.60456273764259 7.60456273764259 7.60456273764259 7.60456273764259 7.60456273764259 7.60456273764259 3.33889816360601 4.69924812030075 4.69924812030075 4.69924812030075 2.27272727272727 2.27272727272727 2.27272727272727 4.34027777777778 4.34027777777778 4.34027777777778 4.34027777777778 4.08997955010225 4.08997955010225 4.08997955010225 4.08997955010225 6.8359375 6.8359375 6.8359375 6.8359375 6.8359375 6.8359375 6.8359375 6.8359375 6.8359375 6.8359375 6.8359375 6.8359375 6.8359375 6.8359375 6.8359375 6.8359375 6.8359375 6.8359375 6.8359375 6.8359375 6.8359375 6.8359375 6.8359375 6.8359375 6.8359375 6.8359375 6.8359375 6.8359375 6.8359375 6.8359375 6.8359375 6.8359375 6.8359375 6.8359375 6.8359375 17.7705977382876 17.7705977382876 17.7705977382876 17.7705977382876 17.7705977382876 17.7705977382876 17.7705977382876 17.7705977382876 17.7705977382876 17.7705977382876 17.7705977382876 17.7705977382876 17.7705977382876 17.7705977382876 17.7705977382876 17.7705977382876 17.7705977382876 17.7705977382876 17.7705977382876 17.7705977382876 17.7705977382876 17.7705977382876 17.7705977382876 17.7705977382876 17.7705977382876 17.7705977382876 17.7705977382876 17.7705977382876 17.7705977382876 17.7705977382876 17.7705977382876 8.59375 8.59375 8.59375 8.59375 8.59375 8.59375 8.59375 8.59375 8.59375 8.59375 8.59375 8.59375 7.49625187406297 4.81611208406305 4.81611208406305 4.81611208406305 4.81611208406305 4.81611208406305 -9999 -9999 0 0 0 -9999 -9999 -9999 -9999 -9999 4.95049504950495 3.49040139616056 3.49040139616056 4.95049504950495 4.72813238770686 4.95049504950495 4.12541254125412 4.12541254125412 7.2463768115942 7.2463768115942 6.84931506849315 3.4965034965035 3.4965034965035 3.4965034965035 6.84931506849315 6.84931506849315 6.84931506849315 6.84931506849315 6.84931506849315 -9999 -9999 -9999 -9999 -9999 -9999 -9999 10.1289134438306 10.1289134438306 10.1289134438306 10.1289134438306 10.1289134438306 10.1289134438306 10.1289134438306 10.1289134438306 10.1289134438306 10.1289134438306 10.1289134438306 0 0 0 0 0 0 3.28947368421053 3.28947368421053 0 3.85802469135802 3.85802469135802 4.1958041958042 0 0 0 0 0 0 0 0 0 0 0 0 0 4.69483568075117 4.69483568075117 4.69483568075117 4.69483568075117 0 0 0 0 0 0 0 -9999 -9999 -9999 8.0188679245283 8.0188679245283 8.0188679245283 8.0188679245283 8.0188679245283 8.0188679245283 8.0188679245283 8.0188679245283 8.0188679245283 8.0188679245283 17.7849636216653 17.7849636216653 -9999 -9999 -9999 -9999 -9999 -9999 -9999 -9999 -9999 -9999 -9999 -9999 -9999 -9999 -9999 -9999 -9999 -9999 -9999 -9999 -9999 -9999 -9999 -9999 -9999 -9999 -9999 -9999 -9999 -9999 -9999 -9999 -9999 -9999 -9999 -9999 -9999 -9999 -9999 -9999 -9999 -9999 -9999 -9999 -9999 -9999 -9999 -9999 -9999 -9999 -9999 -9999 -9999 -9999 -9999 -9999 -9999 -9999
-9999 -9999 -9999 -9999 -9999 -9999 -9999 -9999 -9999 -9999 -9999 -9999 -9999 -9999 -9999 -9999 -9999 -9999 -9999 -9999 -9999 -9999 -9999 -9999 -9999 -9999 -9999 -9999 -9999 -9999 -9999 -9999 -9999 0 -9999 -9999 -9999 -9999 -9999 -9999 -9999 -9999 -9999 -9999 -9999 -9999 -9999 -9999 -9999 -9999 -9999 -9999 -9999 -9999 -9999 -9999 -9999 -9999 -9999 -9999 -9999 -9999 -9999 -9999 -9999 -9999 -9999 7.77777777777778 7.77777777777778 7.77777777777778 7.77777777777778 7.77777777777778 7.77777777777778 6.46830530401035 5.05902192242833 5.05902192242833 5.05902192242833 5.05902192242833 3.88802488335925 5.05902192242833 2.48138957816377 2.48138957816377 2.48138957816377 2.48138957816377 2.48138957816377 2.48138957816377 2.48138957816377 13.3451957295374 3.47222222222222 3.47222222222222 16.1290322580645 4.88997555012225 4.88997555012225 4.88997555012225 4.88997555012225 4.88997555012225 4.88997555012225 1.02354145342886 1.02354145342886 6.26423690205011 6.26423690205011 6.26423690205011 6.26423690205011 6.26423690205011 6.26423690205011 6.26423690205011 6.26423690205011 6.26423690205011 6.26423690205011 6.26423690205011 6.26423690205011 6.26423690205011 6.26423690205011 6.26423690205011 6.26423690205011 6.26423690205011 1.88323917137476 1.88323917137476 1.88323917137476 1.88323917137476 1.88323917137476 1.88323917137476 0 0 0 1.88323917137476 2.77392510402219 2.77392510402219 2.77392510402219 2.77392510402219 6.14439324116743 6.14439324116743 6.14439324116743 6.14439324116743 0 0 0 4.6875 4.6875 4.6875 4.6875 4.6875 4.6875 0 0 0 0 0 0 0 0 0 0 0 7.60456273764259 7.60456273764259 7.60456273764259 7.60456273764259 3.33889816360601 3.33889816360601 3.33889816360601 4.69924812030075 4.69924812030075 4.69924812030075 0 2.27272727272727 0 0 4.34027777777778 4.34027777777778 4.08997955010225 4.08997955010225 4.08997955010225 4.08997955010225 4.08997955010225 6.8359375 6.8359375 6.8359375 6.8359375 6.8359375 6.8359375 6.8359375 6.8359375 6.8359375 6.8359375 6.8359375 6.8359375 6.8359375 6.8359375 6.8359375 6.8359375 6.8359375 6.8359375 6.8359375 6.8359375 6.8359375 6.8359375 6.8359375 6.8359375 6.8359375 6.8359375 6.8359375 6.8359375 6.8359375 6.8359375 6.8359375 6.8359375 6.8359375 6.8359375 6.8359375 6.8359375 17.7705977382876 17.7705977382876 17.7705977382876 17.7705977382876 17.7705977382876 17.7705977382876 17.7705977382876 17.7705977382876 17.7705977382876 17.7705977382876 17.7705977382876 17.7705977382876 17.7705977382876 17.7705977382876 17.7705977382876 17.7705977382876 17.7705977382876 17.7705977382876 17.7705977382876 17.7705977382876 17.7705977382876 17.7705977382876 17.7705977382876 17.7705977382876 17.7705977382876 17.7705977382876 17.7705977382876 17.7705977382876 17.7705977382876 17.7705977382876 17.7705977382876 17.7705977382876 17.7705977382876 17.7705977382876 8.59375 8.59375 8.59375 8.59375 8.59375 8.59375 8.59375 7.49625187406297 4.81611208406305 4.81611208406305 4.81611208406305 4.81611208406305 4.81611208406305 4.81611208406305 4.81611208406305 4.81611208406305 4.81611208406305 -9999 0 -9999 -9999 -9999 -9999 -9999 3.49040139616056 3.49040139616056 3.49040139616056 3.49040139616056 4.72813238770686 4.72813238770686 4.72813238770686 -9999 6.32911392405063 6.32911392405063 6.32911392405063 6.32911392405063 16.497461928934 16.497461928934 16.497461928934 6.84931506849315 6.84931506849315 6.84931506849315 -9999 -9999 -9999 -9999 -9999 -9999 10.1289134438306 10.1289134438306 10.1289134438306 10.1289134438306 10.1289134438306 10.1289134438306 10.1289134438306 10.1289134438306 10.1289134438306 10.1289134438306 10.1289134438306 10.1289134438306 10.1289134438306 10.1289134438306 0 0 0 0 0 3.28947368421053 3.28947368421053 0 0 0 4.1958041958042 0 0 0 0 0 0 0 0 0 0 0 0 0 4.69483568075117 4.69483568075117 4.69483568075117 4.69483568075117 0 0 0 0 0 0 0 -9999 -9999 -9999 8.0188679245283 8.0188679245283 8.0188679245283 8.0188679245283 8.0188679245283 8.0188679245283 8.0188679245283 8.0188679245283 8.0188679245283 8.0188679245283 8.0188679245283 -9999 -9999 -9999 -9999 -9999 -9999 -9999 -9999 -9999 -9999 -9999 -9999 -9999 -9999 -9999 -9999 -9999 -9999 -9999 -9999 -9999 -9999 -9999 -9999 -9999 -9999 -9999 -9999 -9999 -9999 -9999 -9999 -9999 -9999 -9999 -9999 -9999 -9999 -9999 -9999 -9999 -9999 -9999 -9999 -9999 -9999 -9999 -9999 -9999 -9999 -9999 -9999 -9999 -9999 -9999 -9999 -9999 -9999 -9999
-9999 -9999 -9999 -9999 -9999 -9999 -9999 -9999 -9999 -9999 -9999 -9999 -9999 -9999 -9999 -9999 -9999 -9999 -9999 -9999 -9999 -9999 -9999 -9999 -9999 -9999 -9999 -9999 -9999 -9999 -9999 -9999 -9999 -9999 -9999 -9999 -9999 -9999 -9999 -9999 -9999 -9999 -9999 -9999 -9999 -9999 -9999 -9999 -9999 -9999 -9999 -9999 -9999 -9999 -9999 -9999 -9999 -9999 -9999 -9999 -9999 -9999 -9999 -9999 -9999 -9999 -9999 -9999 -9999 -9999 -9999 7.77777777777778 7.77777777777778 -9999 -9999 5.05902192242833 3.31858407079646 2.48138957816377 2.48138957816377 2.48138957816377 2.48138957816377 2.48138957816377 2.48138957816377 13.3451957295374 13.3451957295374 13.3451957295374 13.3451957295374 13.3451957295374 16.1290322580645 16.1290322580645 16.1290322580645 4.88997555012225 4.88997555012225 4.88997555012225 4.88997555012225 4.88997555012225 4.88997555012225 3.60750360750361 6.26423690205011 6.26423690205011 6.26423690205011 6.26423690205011 6.26423690205011 6.26423690205011 6.26423690205011 6.26423690205011 6.26423690205011 6.26423690205011 6.26423690205011 6.26423690205011 6.26423690205011 6.26423690205011 6.26423690205011 6.26423690205011 6.26423690205011 6.26423690205011 6.26423690205011 9.03614457831325 9.03614457831325 9.03614457831325 9.03614457831325 9.03614457831325 0 0 0 0 0 2.77392510402219 2.77392510402219 2.77392510402219 6.14439324116743 6.14439324116743 6.14439324116743 6.14439324116743 6.14439324116743 4.6875 4.6875 4.6875 4.6875 4.6875 4.6875 4.6875 4.6875 0 0 0 0 0 0 0 0 0 0 0 0 0 0 0 3.33889816360601 3.33889816360601 3.33889816360601 4.69924812030075 4.69924812030075 4.69924812030075 4.69924812030075 0 0 0 0 2.73722627737226 2.73722627737226 4.08997955010225 4.08997955010225 4.08997955010225 6.8359375 6.8359375 6.8359375 6.8359375 6.8359375 6.8359375 6.8359375 6.8359375 6.8359375 6.8359375 6.8359375 6.8359375 6.8359375 6.8359375 6.8359375 6.8359375 6.8359375 6.8359375 6.8359375 6.8359375 6.8359375 6.8359375 6.8359375 6.8359375 6.8359375 6.8359375 6.8359375 6.8359375 6.8359375 6.8359375 6.8359375 6.8359375 6.8359375 6.8359375 6.8359375 6.8359375 6.8359375 17.7705977382876 17.7705977382876 17.7705977382876 17.7705977382876 17.7705977382876 17.7705977382876 17.7705977382876 17.7705977382876 17.7705977382876 17.7705977382876 17.7705977382876 17.7705977382876 17.7705977382876 17.7705977382876 17.7705977382876 17.7705977382876 17.7705977382876 17.7705977382876 17.7705977382876 17.7705977382876 17.7705977382876 17.7705977382876 17.7705977382876 17.7705977382876 17.7705977382876 17.7705977382876 17.7705977382876 17.7705977382876 17.7705977382876 17.7705977382876 17.7705977382876 17.7705977382876 17.7705977382876 17.7705977382876 17.7705977382876 17.7705977382876 17.7705977382876 17.7705977382876 17.7705977382876 17.7705977382876 17.7705977382876 17.7705977382876 -9999 4.81611208406305 4.81611208406305 4.81611208406305 4.81611208406305 4.81611208406305 4.81611208406305 4.81611208406305 4.81611208406305 4.81611208406305 4.81611208406305 4.81611208406305 -9999 -9999 -9999 -9999 3.49040139616056 3.49040139616056 3.49040139616056 4.72813238770686 4.72813238770686 -9999 -9999 3.84615384615385 3.84615384615385 3.84615384615385 0 16.497461928934 16.497461928934 16.497461928934 16.497461928934 6.84931506849315 -9999 -9999 -9999 -9999 -9999 -9999 -9999 10.1289134438306 10.1289134438306 10.1289134438306 10.1289134438306 10.1289134438306 10.1289134438306 10.1289134438306 10.1289134438306 10.1289134438306 10.1289134438306 10.1289134438306 10.1289134438306 10.1289134438306 10.1289134438306 10.1289134438306 4.42477876106195 4.42477876106195 0 0 0 0 4.07331975560081 0 0 0 4.1958041958042 4.1958041958042 0 0 0 0 0 0 0 0 0 0 0 0 0 12.5223613595707 12.5223613595707 12.5223613595707 0 0 0 0 0 0 -9999 -9999 -9999 -9999 8.0188679245283 8.0188679245283 8.0188679245283 8.0188679245283 8.0188679245283 8.0188679245283 8.0188679245283 8.0188679245283 8.0188679245283 8.0188679245283 8.0188679245283 8.0188679245283 -9999 -9999 -9999 -9999 -9999 -9999 -9999 -9999 -9999 -9999 -9999 -9999 -9999 -9999 -9999 -9999 -9999 -9999 -9999 -9999 -9999 -9999 -9999 -9999 -9999 -9999 -9999 -9999 -9999 -9999 -9999 -9999 -9999 -9999 -9999 -9999 -9999 -9999 -9999 -9999 -9999 -9999 -9999 -9999 -9999 -9999 -9999 -9999 -9999 -9999 -9999 -9999 -9999 -9999 -9999 -9999 -9999 -9999
-9999 -9999 -9999 -9999 -9999 -9999 -9999 -9999 -9999 -9999 -9999 -9999 -9999 -9999 -9999 -9999 -9999 -9999 -9999 -9999 -9999 -9999 -9999 -9999 -9999 -9999 -9999 -9999 -9999 -9999 -9999 -9999 -9999 -9999 -9999 -9999 -9999 -9999 -9999 -9999 -9999 -9999 -9999 -9999 -9999 -9999 -9999 -9999 -9999 -9999 -9999 -9999 -9999 -9999 -9999 -9999 -9999 -9999 -9999 -9999 -9999 -9999 -9999 -9999 -9999 -9999 -9999 -9999 0 7.77777777777778 0 0 -9999 -9999 -9999 3.31858407079646 3.31858407079646 3.31858407079646 3.31858407079646 2.48138957816377 2.48138957816377 2.48138957816377 13.3451957295374 13.3451957295374 13.3451957295374 13.3451957295374 16.1290322580645 16.1290322580645 16.1290322580645 16.1290322580645 4.88997555012225 4.88997555012225 4.88997555012225 4.88997555012225 4.88997555012225 3.60750360750361 3.60750360750361 3.60750360750361 3.60750360750361 6.26423690205011 6.26423690205011 6.26423690205011 6.26423690205011 6.26423690205011 6.26423690205011 6.26423690205011 6.26423690205011 6.26423690205011 6.26423690205011 6.26423690205011 6.26423690205011 6.26423690205011 6.26423690205011 6.26423690205011 0 0 6.26423690205011 6.26423690205011 6.47948164146868 6.47948164146868 6.47948164146868 9.03614457831325 9.03614457831325 0 0 0 0 0 2.77392510402219 5.49450549450549 5.49450549450549 6.14439324116743 6.14439324116743 6.14439324116743 6.14439324116743 4.6875 4.6875 4.6875 4.6875 4.6875 4.6875 4.6875 4.6875 4.6875 0 0 0 0 0 0 0 0 0 0 0 0 0 3.33889816360601 3.33889816360601 3.33889816360601 3.33889816360601 3.33889816360601 4.69924812030075 4.69924812030075 4.69924812030075 4.69924812030075 0 0 0 2.73722627737226 2.73722627737226 2.73722627737226 2.73722627737226 2.73722627737226 2.73722627737226 6.8359375 6.8359375 6.8359375 6.8359375 6.8359375 6.8359375 6.8359375 6.8359375 6.8359375 6.8359375 6.8359375 6.8359375 6.8359375 6.8359375 6.8359375 6.8359375 6.8359375 6.8359375 6.8359375 6.8359375 6.8359375 6.8359375 6.8359375 6.8359375 6.8359375 6.8359375 6.8359375 6.8359375 6.8359375 6.8359375 6.8359375 6.8359375 6.8359375 6.8359375 6.8359375 6.8359375 17.7705977382876 17.7705977382876 17.7705977382876 17.7705977382876 17.7705977382876 17.7705977382876 17.7705977382876 17.7705977382876 17.7705977382876 17.7705977382876 17.7705977382876 17.7705977382876 17.7705977382876 17.7705977382876 17.7705977382876 17.7705977382876 17.7705977382876 17.7705977382876 17.7705977382876 17.7705977382876 17.7705977382876 17.7705977382876 17.7705977382876 17.7705977382876 17.7705977382876 17.7705977382876 17.7705977382876 17.7705977382876 17.7705977382876 17.7705977382876 17.7705977382876 17.7705977382876 17.7705977382876 17.7705977382876 17.7705977382876 17.7705977382876 17.7705977382876 17.7705977382876 17.7705977382876 17.7705977382876 17.7705977382876 17.7705977382876 -9999 -9999 -9999 -9999 4.81611208406305 4.81611208406305 4.81611208406305 4.81611208406305 4.81611208406305 4.81611208406305 4.81611208406305 4.81611208406305 4.81611208406305 4.81611208406305 4.81611208406305 -9999 -9999 -9999 -9999 -9999 3.84615384615385 3.84615384615385 3.84615384615385 3.84615384615385 0 0 0 0 0 16.497461928934 -9999 -9999 -9999 -9999 -9999 -9999 -9999 -9999 10.1289134438306 10.1289134438306 10.1289134438306 10.1289134438306 10.1289134438306 10.1289134438306 10.1289134438306 10.1289134438306 10.1289134438306 10.1289134438306 10.1289134438306 10.1289134438306 10.1289134438306 10.1289134438306 10.1289134438306 -9999 4.42477876106195 4.42477876106195 0 0 0 0 4.07331975560081 4.07331975560081 0 0 1.81488203266788 0 0 0 0 0 -9999 0 0 0 0 0 0 0 2.84900284900285 2.84900284900285 2.84900284900285 2.84900284900285 0 0 0 0 3.3112582781457 -9999 -9999 -9999 -9999 8.0188679245283 8.0188679245283 8.0188679245283 8.0188679245283 8.0188679245283 8.0188679245283 8.0188679245283 8.0188679245283 8.0188679245283 8.0188679245283 8.0188679245283 8.0188679245283 -9999 -9999 -9999 -9999 -9999 -9999 -9999 -9999 -9999 -9999 -9999 -9999 -9999 -9999 -9999 -9999 -9999 -9999 -9999 -9999 -9999 -9999 -9999 -9999 -9999 -9999 -9999 -9999 -9999 -9999 -9999 -9999 -9999 -9999 -9999 -9999 -9999 -9999 -9999 -9999 -9999 -9999 -9999 -9999 -9999 -9999 -9999 -9999 -9999 -9999 -9999 -9999 -9999 -9999 -9999 -9999 -9999 -9999 -9999
-9999 -9999 -9999 -9999 -9999 -9999 -9999 -9999 -9999 -9999 -9999 -9999 -9999 -9999 -9999 -9999 -9999 -9999 -9999 -9999 -9999 -9999 3.11203319502075 3.11203319502075 3.11203319502075 -9999 3.11203319502075 -9999 -9999 -9999 -9999 3.11203319502075 3.11203319502075 3.11203319502075 -9999 -9999 -9999 -9999 -9999 -9999 -9999 -9999 -9999 -9999 -9999 -9999 -9999 -9999 -9999 -9999 -9999 -9999 -9999 -9999 -9999 -9999 -9999 -9999 -9999 -9999 -9999 -9999 -9999 -9999 -9999 -9999 -9999 -9999 0 0 -9999 -9999 -9999 3.31858407079646 -9999 3.31858407079646 3.31858407079646 3.31858407079646 3.31858407079646 3.31858407079646 2.48138957816377 13.3451957295374 13.3451957295374 13.3451957295374 0 0 0 16.1290322580645 4.88997555012225 4.88997555012225 4.88997555012225 4.88997555012225 4.88997555012225 0 3.60750360750361 3.60750360750361 3.60750360750361 3.60750360750361 3.60750360750361 3.60750360750361 0 0 0 0 0 6.26423690205011 6.26423690205011 6.26423690205011 0 0 0 0 0 0 0 0 0 0 0 9.03614457831325 0 0 0 0 0 0 0 6.02409638554217 6.02409638554217 6.02409638554217 5.49450549450549 6.14439324116743 6.14439324116743 4.6875 4.6875 4.6875 4.6875 4.6875 4.6875 4.6875 4.6875 4.6875 4.6875 10.8303249097473 0 0 0 0 0 0 0 0 4.6875 3.33889816360601 2.67379679144385 2.67379679144385 2.67379679144385 2.67379679144385 2.67379679144385 2.67379679144385 2.67379679144385 2.67379679144385 2.67379679144385 2.9585798816568 2.9585798816568 2.9585798816568 2.9585798816568 2.9585798816568 2.9585798816568 2.9585798816568 2.9585798816568 2.73722627737226 2.73722627737226 2.73722627737226 6.8359375 6.8359375 6.8359375 6.8359375 6.8359375 6.8359375 6.8359375 6.8359375 6.8359375 6.8359375 6.8359375 6.8359375 6.8359375 6.8359375 6.8359375 6.8359375 6.8359375 6.8359375 6.8359375 6.8359375 6.8359375 6.8359375 6.8359375 6.8359375 6.8359375 6.8359375 6.8359375 6.8359375 6.8359375 6.8359375 6.8359375 6.8359375 6.8359375 6.8359375 6.8359375 6.8359375 6.8359375 6.8359375 17.7705977382876 17.7705977382876 17.7705977382876 17.7705977382876 17.7705977382876 17.7705977382876 17.7705977382876 17.7705977382876 17.7705977382876 17.7705977382876 17.7705977382876 17.7705977382876 17.7705977382876 17.7705977382876 17.7705977382876 17.7705977382876 17.7705977382876 17.7705977382876 17.7705977382876 17.7705977382876 17.7705977382876 17.7705977382876 17.7705977382876 17.7705977382876 17.7705977382876 17.7705977382876 17.7705977382876 17.7705977382876 17.7705977382876 17.7705977382876 17.7705977382876 17.7705977382876 17.7705977382876 17.7705977382876 17.7705977382876 17.7705977382876 17.7705977382876 17.7705977382876 17.7705977382876 17.7705977382876 17.7705977382876 -9999 -9999 -9999 -9999 4.81611208406305 4.81611208406305 4.81611208406305 4.81611208406305 4.81611208406305 4.81611208406305 4.81611208406305 4.81611208406305 4.81611208406305 4.81611208406305 4.81611208406305 4.81611208406305 4.81611208406305 4.81611208406305 -9999 3.84615384615385 3.84615384615385 3.84615384615385 3.84615384615385 3.84615384615385 0 0 0 0 0 0 0 0 -9999 -9999 -9999 -9999 -9999 10.1289134438306 10.1289134438306 10.1289134438306 10.1289134438306 10.1289134438306 10.1289134438306 10.1289134438306 10.1289134438306 10.1289134438306 10.1289134438306 10.1289134438306 10.1289134438306 10.1289134438306 10.1289134438306 10.1289134438306 10.1289134438306 -9999 -9999 4.42477876106195 0 0 3.68731563421829 0 0 0 0 1.81488203266788 1.81488203266788 0 0 0 0 -9999 1.45137880986938 1.45137880986938 1.45137880986938 1.45137880986938 0 0 0 0 0 0 0 0 0 0 0 3.3112582781457 3.3112582781457 -9999 -9999 -9999 -9999 8.0188679245283 8.0188679245283 8.0188679245283 8.0188679245283 8.0188679245283 8.0188679245283 8.0188679245283 8.0188679245283 8.0188679245283 8.0188679245283 8.0188679245283 8.0188679245283 -9999 -9999 -9999 -9999 -9999 -9999 -9999 -9999 -9999 -9999 -9999 -9999 -9999 -9999 -9999 -9999 -9999 -9999 -9999 -9999 -9999 -9999 -9999 -9999 -9999 -9999 -9999 -9999 -9999 -9999 -9999 -9999 -9999 -9999 -9999 -9999 -9999 -9999 -9999 -9999 -9999 -9999 -9999 -9999 -9999 -9999 -9999 -9999 -9999 -9999 -9999 -9999 -9999 -9999 -9999 -9999 -9999 -9999 -9999
-9999 -9999 -9999 -9999 -9999 -9999 -9999 -9999 -9999 -9999 -9999 -9999 -9999 -9999 -9999 -9999 -9999 -9999 -9999 -9999 3.11203319502075 3.11203319502075 3.11203319502075 3.11203319502075 3.11203319502075 3.11203319502075 3.11203319502075 3.11203319502075 3.11203319502075 3.11203319502075 3.11203319502075 3.11203319502075 3.11203319502075 3.11203319502075 3.11203319502075 -9999 -9999 -9999 -9999 -9999 -9999 -9999 -9999 -9999 -9999 -9999 -9999 -9999 -9999 -9999 -9999 -9999 -9999 -9999 -9999 -9999 -9999 -9999 -9999 -9999 -9999 -9999 -9999 -9999 -9999 -9999 -9999 -9999 -9999 -9999 -9999 -9999 -9999 3.31858407079646 3.31858407079646 3.31858407079646 3.31858407079646 3.31858407079646 3.31858407079646 3.31858407079646 3.31858407079646 0 0 0 0 0 0 0 4.88997555012225 4.88997555012225 0 0 0 0 0 3.60750360750361 3.60750360750361 3.60750360750361 3.60750360750361 3.60750360750361 3.60750360750361 0 0 6.26423690205011 6.26423690205011 6.26423690205011 6.26423690205011 6.26423690205011 0 0 0 0 0 0 0 0 0 0 0 0 0 0 0 0 0 6.02409638554217 6.02409638554217 6.02409638554217 6.02409638554217 6.02409638554217 0 0 4.6875 4.6875 4.6875 4.6875 4.6875 4.6875 4.6875 4.6875 10.8303249097473 10.8303249097473 10.8303249097473 10.8303249097473 0 0 0 4.6875 2.67379679144385 2.67379679144385 2.67379679144385 2.67379679144385 2.67379679144385 2.67379679144385 2.67379679144385 5.55555555555556 5.55555555555556 5.55555555555556 5.55555555555556 5.55555555555556 5.55555555555556 5.55555555555556 5.55555555555556 2.63620386643234 2.63620386643234 2.63620386643234 2.9585798816568 2.9585798816568 2.9585798816568 2.9585798816568 2.9585798816568 2.9585798816568 2.9585798816568 0 0 0 9.1533180778032 9.1533180778032 4.08719346049046 4.08719346049046 4.08719346049046 4.08719346049046 4.90196078431373 4.90196078431373 4.91803278688525 4.91803278688525 4.91803278688525 4.91803278688525 4.91803278688525 4.91803278688525 4.91803278688525 4.91803278688525 4.91803278688525 4.91803278688525 5.49450549450549 5.49450549450549 5.49450549450549 5.49450549450549 5.49450549450549 5.49450549450549 5.49450549450549 5.49450549450549 5.49450549450549 5.49450549450549 5.49450549450549 5.49450549450549 5.49450549450549 5.49450549450549 5.49450549450549 5.49450549450549 5.49450549450549 6 0 0 0 0 0 0 0 0 0 0 0 0 0 0 0 0 0 17.7705977382876 17.7705977382876 17.7705977382876 17.7705977382876 17.7705977382876 17.7705977382876 17.7705977382876 17.7705977382876 17.7705977382876 17.7705977382876 17.7705977382876 17.7705977382876 17.7705977382876 17.7705977382876 17.7705977382876 17.7705977382876 17.7705977382876 17.7705977382876 17.7705977382876 17.7705977382876 17.7705977382876 17.7705977382876 17.7705977382876 17.7705977382876 -9999 -9999 -9999 -9999 -9999 4.81611208406305 4.81611208406305 4.81611208406305 4.81611208406305 4.81611208406305 4.81611208406305 4.81611208406305 4.81611208406305 4.81611208406305 4.81611208406305 4.81611208406305 4.81611208406305 4.81611208406305 4.81611208406305 4.81611208406305 4.81611208406305 3.84615384615385 3.84615384615385 0 0 0 0 0 0 0 4.99286733238231 4.99286733238231 4.99286733238231 4.99286733238231 -9999 10.1289134438306 10.1289134438306 10.1289134438306 10.1289134438306 10.1289134438306 10.1289134438306 10.1289134438306 10.1289134438306 10.1289134438306 10.1289134438306 10.1289134438306 10.1289134438306 10.1289134438306 10.1289134438306 10.1289134438306 10.1289134438306 10.1289134438306 -9999 -9999 -9999 7.95334040296925 7.95334040296925 7.95334040296925 3.68731563421829 0 0 0 0 0 1.81488203266788 0 0 0 -9999 0 0 0 0 0 0 1.45137880986938 1.45137880986938 1.45137880986938 3.3112582781457 3.3112582781457 3.3112582781457 3.3112582781457 3.3112582781457 3.3112582781457 3.3112582781457 -9999 -9999 -9999 -9999 -9999 -9999 8.0188679245283 8.0188679245283 8.0188679245283 8.0188679245283 8.0188679245283 8.0188679245283 8.0188679245283 8.0188679245283 8.0188679245283 -9999 -9999 -9999 -9999 -9999 -9999 -9999 -9999 -9999 -9999 -9999 -9999 -9999 -9999 -9999 -9999 -9999 -9999 -9999 -9999 -9999 -9999 -9999 -9999 -9999 -9999 -9999 -9999 -9999 -9999 -9999 -9999 -9999 -9999 -9999 -9999 -9999 -9999 -9999 -9999 -9999 -9999 -9999 -9999 -9999 -9999 -9999 -9999 -9999 -9999 -9999 -9999 -9999 -9999 -9999 -9999 -9999 -9999 -9999 -9999 -9999 -9999
-9999 -9999 -9999 -9999 -9999 -9999 -9999 -9999 -9999 -9999 -9999 -9999 -9999 -9999 -9999 -9999 -9999 -9999 -9999 -9999 -9999 -9999 3.11203319502075 3.11203319502075 3.11203319502075 3.11203319502075 3.11203319502075 3.11203319502075 3.11203319502075 3.11203319502075 3.11203319502075 3.11203319502075 3.11203319502075 3.11203319502075 3.11203319502075 3.11203319502075 -9999 -9999 -9999 -9999 -9999 -9999 -9999 -9999 -9999 -9999 -9999 -9999 -9999 -9999 -9999 -9999 -9999 -9999 -9999 -9999 2.74223034734918 2.74223034734918 2.74223034734918 -9999 -9999 -9999 -9999 -9999 5.60224089635854 -9999 -9999 -9999 -9999 -9999 -9999 -9999 -9999 2.65486725663717 2.65486725663717 2.65486725663717 3.31858407079646 3.31858407079646 3.31858407079646 3.31858407079646 3.31858407079646 3.31858407079646 0 0 0 0 0 0 7 0 0 0 0 0 0 0 3.60750360750361 3.60750360750361 2.55536626916525 3.60750360750361 3.60750360750361 3.60750360750361 0 0 6.26423690205011 6.26423690205011 6.26423690205011 6.26423690205011 0 0 0 0 0 0 0 0 0 0 0 0 0 0 0 6.02409638554217 6.02409638554217 6.02409638554217 6.02409638554217 6.02409638554217 0 0 0 0 4.6875 4.6875 4.6875 4.6875 4.6875 4.6875 4.6875 4.6875 10.8303249097473 4.6875 10.8303249097473 4.6875 2.67379679144385 2.67379679144385 2.67379679144385 2.67379679144385 2.67379679144385 3.6101083032491 -9999 -9999 -9999 -9999 -9999 -9999 -9999 -9999 -9999 3.6101083032491 5.55555555555556 5.55555555555556 5.55555555555556 2.63620386643234 2.63620386643234 2.63620386643234 2.63620386643234 2.9585798816568 2.9585798816568 2.9585798816568 2.9585798816568 2.9585798816568 2.9585798816568 0 0 0 0 9.1533180778032 9.1533180778032 0 0 0 0 4.90196078431373 4.90196078431373 4.90196078431373 4.90196078431373 4.91803278688525 4.91803278688525 4.91803278688525 4.91803278688525 4.91803278688525 4.91803278688525 4.91803278688525 5.49450549450549 5.49450549450549 5.49450549450549 11.7891816920943 11.7891816920943 11.7891816920943 11.7891816920943 5.49450549450549 5.49450549450549 5.49450549450549 5.49450549450549 5.49450549450549 5.49450549450549 5.49450549450549 5.49450549450549 20.6073752711497 20.6073752711497 6 0 2.45901639344262 2.45901639344262 2.45901639344262 2.45901639344262 2.45901639344262 2.45901639344262 2.45901639344262 0 0 0 0 0 0 0 0 0 6.36132315521628 -9999 -9999 -9999 -9999 -9999 1.51821862348178 1.51821862348178 1.51821862348178 1.51821862348178 1.51821862348178 1.51821862348178 17.7705977382876 17.7705977382876 17.7705977382876 17.7705977382876 17.7705977382876 17.7705977382876 17.7705977382876 0 0 0 0 0 -9999 -9999 -9999 -9999 -9999 -9999 -9999 4.81611208406305 4.81611208406305 4.81611208406305 4.81611208406305 4.81611208406305 4.81611208406305 4.70957613814757 4.70957613814757 4.70957613814757 4.81611208406305 4.70957613814757 1.22100122100122 1.22100122100122 1.22100122100122 1.22100122100122 1.22100122100122 4.99286733238231 4.99286733238231 0 0 4.99286733238231 4.99286733238231 4.99286733238231 4.99286733238231 4.99286733238231 4.99286733238231 -9999 10.1289134438306 10.1289134438306 10.1289134438306 10.1289134438306 10.1289134438306 10.1289134438306 10.1289134438306 10.1289134438306 10.1289134438306 10.1289134438306 10.1289134438306 10.1289134438306 10.1289134438306 10.1289134438306 10.1289134438306 10.1289134438306 10.1289134438306 -9999 -9999 -9999 7.95334040296925 7.95334040296925 7.95334040296925 7.95334040296925 3.68731563421829 3.68731563421829 0 3.61663652802893 3.61663652802893 1.84956843403206 1.84956843403206 1.84956843403206 0 -9999 9.61538461538462 0 0 0 5.10204081632653 5.10204081632653 5.10204081632653 8.15217391304348 0 0 0 4.07608695652174 4.07608695652174 4.07608695652174 2.12464589235127 2.12464589235127 3.3112582781457 -9999 -9999 -9999 -9999 -9999 -9999 8.0188679245283 8.0188679245283 8.0188679245283 8.0188679245283 8.0188679245283 8.0188679245283 -9999 -9999 -9999 -9999 -9999 -9999 -9999 -9999 -9999 -9999 -9999 -9999 -9999 -9999 -9999 -9999 -9999 -9999 -9999 -9999 -9999 -9999 -9999 -9999 -9999 -9999 -9999 -9999 -9999 -9999 -9999 -9999 -9999 -9999 -9999 -9999 -9999 -9999 -9999 -9999 -9999 -9999 -9999 -9999 -9999 -9999 -9999 -9999 -9999 -9999 -9999 -9999 -9999 -9999 -9999 -9999 -9999 -9999 -9999 -9999 -9999 -9999 -9999 -9999 -9999
-9999 -9999 -9999 -9999 -9999 -9999 -9999 -9999 -9999 -9999 -9999 -9999 -9999 3.11203319502075 -9999 3.11203319502075 3.11203319502075 -9999 -9999 -9999 3.11203319502075 3.11203319502075 3.11203319502075 3.11203319502075 3.11203319502075 3.11203319502075 3.11203319502075 3.11203319502075 3.11203319502075 3.11203319502075 3.11203319502075 3.11203319502075 3.11203319502075 3.11203319502075 3.11203319502075 3.11203319502075 3.11203319502075 -9999 -9999 -9999 -9999 -9999 -9999 -9999 -9999 -9999 -9999 -9999 -9999 -9999 -9999 -9999 -9999 2.74223034734918 2.74223034734918 2.74223034734918 2.74223034734918 2.74223034734918 2.74223034734918 2.74223034734918 5.60224089635854 5.60224089635854 5.60224089635854 3.24675324675325 3.24675324675325 -9999 -9999 -9999 -9999 -9999 -9999 -9999 -9999 -9999 2.65486725663717 2.65486725663717 3.31858407079646 3.31858407079646 3.31858407079646 3.31858407079646 3.31858407079646 -9999 -9999 0 0 0 7 7 7 7 0 0 0 0 0 0 0 2.55536626916525 2.55536626916525 2.55536626916525 3.60750360750361 3.60750360750361 3.60750360750361 0 0 0 0 0 0 0 0 0 0 0 0 0 0 0 0 0 0 0 0 0 6.02409638554217 6.02409638554217 0 0 0 0 0 0 4.6875 4.6875 4.6875 4.6875 4.6875 4.6875 4.6875 4.6875 2.67379679144385 2.67379679144385 2.67379679144385 2.67379679144385 2.67379679144385 2.67379679144385 2.67379679144385 3.6101083032491 -9999 -9999 -9999 -9999 -9999 -9999 -9999 -9999 -9999 -9999 -9999 -9999 -9999 -9999 3.6101083032491 5.55555555555556 2.63620386643234 2.63620386643234 2.63620386643234 0 0 2.9585798816568 2.9585798816568 2.9585798816568 2.9585798816568 2.9585798816568 0 0 0 9.1533180778032 9.1533180778032 0 0 0 0 0 4.90196078431373 4.90196078431373 4.90196078431373 4.90196078431373 4.91803278688525 0 4.91803278688525 4.91803278688525 4.91803278688525 4.91803278688525 4.91803278688525 11.7891816920943 11.7891816920943 11.7891816920943 11.7891816920943 11.7891816920943 11.7891816920943 11.7891816920943 11.7891816920943 4.53857791225416 4.53857791225416 5.49450549450549 5.49450549450549 5.49450549450549 5.49450549450549 20.6073752711497 31.25 6 6 0 2.45901639344262 2.45901639344262 2.45901639344262 2.45901639344262 2.45901639344262 2.45901639344262 0 0 0 0 0 0 0 0 0 6.36132315521628 -9999 -9999 -9999 -9999 -9999 1.51821862348178 0 0 0 1.51821862348178 1.51821862348178 2.60960334029228 17.7705977382876 17.7705977382876 9.33997509339975 9.33997509339975 9.33997509339975 17.7705977382876 0 0 0 0 0 -9999 -9999 -9999 -9999 -9999 -9999 -9999 -9999 -9999 -9999 -9999 4.81611208406305 4.81611208406305 12.0845921450151 4.70957613814757 4.70957613814757 4.70957613814757 4.70957613814757 4.70957613814757 1.22100122100122 1.22100122100122 1.22100122100122 4.99286733238231 4.99286733238231 4.99286733238231 4.99286733238231 4.99286733238231 4.99286733238231 4.99286733238231 4.99286733238231 4.99286733238231 -9999 10.1289134438306 10.1289134438306 10.1289134438306 10.1289134438306 10.1289134438306 10.1289134438306 10.1289134438306 10.1289134438306 10.1289134438306 10.1289134438306 10.1289134438306 10.1289134438306 10.1289134438306 10.1289134438306 10.1289134438306 10.1289134438306 10.1289134438306 -9999 -9999 -9999 -9999 -9999 -9999 -9999 -9999 -9999 -9999 -9999 3.61663652802893 3.61663652802893 3.61663652802893 1.84956843403206 1.84956843403206 1.84956843403206 -9999 9.61538461538462 9.61538461538462 9.61538461538462 9.61538461538462 9.61538461538462 5.47045951859956 5.47045951859956 5.47045951859956 8.15217391304348 8.15217391304348 8.15217391304348 2.12464589235127 2.12464589235127 2.12464589235127 2.12464589235127 2.12464589235127 -9999 -9999 -9999 -9999 -9999 -9999 -9999 -9999 -9999 8.0188679245283 8.0188679245283 8.0188679245283 8.0188679245283 8.0188679245283 -9999 -9999 -9999 -9999 -9999 -9999 -9999 -9999 -9999 -9999 -9999 -9999 -9999 -9999 -9999 -9999 -9999 -9999 -9999 -9999 -9999 -9999 -9999 -9999 -9999 -9999 -9999 -9999 -9999 -9999 -9999 -9999 -9999 -9999 -9999 -9999 -9999 -9999 -9999 -9999 -9999 -9999 -9999 -9999 -9999 -9999 -9999 -9999 -9999 -9999 -9999 -9999 -9999 -9999 -9999 -9999 -9999 -9999 -9999 -9999 -9999 -9999 -9999 -9999 -9999
-9999 -9999 -9999 -9999 -9999 -9999 -9999 -9999 -9999 -9999 -9999 -9999 -9999 -9999 3.11203319502075 3.11203319502075 3.11203319502075 3.11203319502075 3.11203319502075 3.11203319502075 3.11203319502075 3.11203319502075 3.11203319502075 3.11203319502075 3.11203319502075 3.11203319502075 3.11203319502075 3.11203319502075 3.11203319502075 3.11203319502075 3.11203319502075 3.11203319502075 3.11203319502075 3.11203319502075 3.11203319502075 3.11203319502075 3.11203319502075 3.11203319502075 -9999 -9999 -9999 -9999 -9999 -9999 -9999 -9999 -9999 -9999 -9999 -9999 2.74223034734918 2.74223034734918 2.74223034734918 2.74223034734918 2.74223034734918 2.74223034734918 2.74223034734918 2.74223034734918 2.74223034734918 5.60224089635854 5.60224089635854 5.60224089635854 3.24675324675325 3.24675324675325 3.24675324675325 3.24675324675325 -9999 -9999 -9999 -9999 -9999 -9999 2.65486725663717 2.65486725663717 2.65486725663717 2.65486725663717 2.65486725663717 3.31858407079646 3.31858407079646 -9999 -9999 -9999 -9999 -9999 7 7 7 7 7 7 0 0 0 0 0 0 2.55536626916525 2.55536626916525 2.55536626916525 2.55536626916525 2.55536626916525 3.60750360750361 0 0 0 0 0 0 0 5.175983436853 5.175983436853 5.175983436853 0 0 0 0 0 0 0 0 0 0 0 0 4.23728813559322 0 0 0 0 0 12.5523012552301 12.5523012552301 12.5523012552301 4.6875 4.6875 4.6875 4.6875 2.67379679144385 2.67379679144385 2.67379679144385 2.67379679144385 12.7551020408163 12.7551020408163 12.7551020408163 12.7551020408163 2.67379679144385 2.67379679144385 3.6101083032491 -9999 -9999 -9999 -9999 -9999 -9999 -9999 -9999 -9999 -9999 -9999 -9999 -9999 -9999 -9999 -9999 0 2.63620386643234 2.63620386643234 0 0 2.9585798816568 2.9585798816568 2.9585798816568 2.9585798816568 4.87329434697856 4.87329434697856 4.87329434697856 4.87329434697856 9.1533180778032 9.1533180778032 6.79611650485437 6.79611650485437 6.79611650485437 0 4.90196078431373 4.90196078431373 4.90196078431373 4.90196078431373 4.90196078431373 4.91803278688525 0 0 4.91803278688525 4.91803278688525 4.91803278688525 4.91803278688525 11.7891816920943 11.7891816920943 11.7891816920943 11.7891816920943 11.7891816920943 2.73722627737226 11.7891816920943 11.7891816920943 4.53857791225416 4.53857791225416 4.53857791225416 4.53857791225416 4.53857791225416 4.53857791225416 4.53857791225416 31.25 5.49450549450549 6 0 0 0 0 0 0 0 0 0 0 0 0 0 0 0 0 6.36132315521628 -9999 -9999 -9999 -9999 -9999 1.51821862348178 1.51821862348178 1.51821862348178 1.51821862348178 1.51821862348178 1.51821862348178 2.60960334029228 2.60960334029228 2.60960334029228 2.60960334029228 2.18340611353712 2.18340611353712 2.18340611353712 0 0 0 0 0 -9999 -9999 -9999 -9999 -9999 -9999 -9999 -9999 -9999 -9999 -9999 -9999 -9999 0 12.0845921450151 12.0845921450151 6.76982591876209 6.76982591876209 6.76982591876209 6.76982591876209 1.22100122100122 4.99286733238231 4.99286733238231 4.99286733238231 4.99286733238231 4.99286733238231 4.99286733238231 4.99286733238231 4.99286733238231 -9999 10.1289134438306 10.1289134438306 10.1289134438306 10.1289134438306 10.1289134438306 10.1289134438306 10.1289134438306 10.1289134438306 10.1289134438306 10.1289134438306 10.1289134438306 10.1289134438306 10.1289134438306 10.1289134438306 10.1289134438306 10.1289134438306 10.1289134438306 10.1289134438306 -9999 -9999 -9999 -9999 -9999 -9999 -9999 -9999 -9999 -9999 -9999 -9999 -9999 -9999 -9999 -9999 -9999 -9999 -9999 -9999 -9999 -9999 -9999 -9999 0 0 5.47045951859956 0 0 0 0 0 2.12464589235127 2.12464589235127 -9999 -9999 -9999 -9999 -9999 -9999 -9999 -9999 -9999 -9999 -9999 -9999 -9999 -9999 -9999 -9999 -9999 -9999 -9999 -9999 -9999 -9999 -9999 -9999 -9999 -9999 -9999 -9999 -9999 -9999 -9999 -9999 -9999 -9999 -9999 -9999 -9999 -9999 -9999 -9999 -9999 -9999 -9999 -9999 -9999 -9999 -9999 -9999 -9999 -9999 -9999 -9999 -9999 -9999 -9999 -9999 -9999 -9999 -9999 -9999 -9999 -9999 -9999 -9999 -9999 -9999 -9999 -9999 -9999 -9999 -9999 -9999 -9999 -9999 -9999 -9999 -9999 -9999 -9999 -9999
-9999 -9999 -9999 -9999 -9999 -9999 -9999 -9999 -9999 -9999 -9999 -9999 -9999 -9999 -9999 3.11203319502075 3.11203319502075 3.11203319502075 3.11203319502075 3.11203319502075 3.11203319502075 3.11203319502075 3.11203319502075 3.11203319502075 3.11203319502075 3.11203319502075 3.11203319502075 3.11203319502075 3.11203319502075 3.11203319502075 3.11203319502075 3.11203319502075 3.11203319502075 3.11203319502075 3.11203319502075 3.11203319502075 3.11203319502075 3.11203319502075 3.11203319502075 3.11203319502075 -9999 -9999 -9999 -9999 -9999 -9999 2.74223034734918 2.74223034734918 2.74223034734918 2.74223034734918 2.74223034734918 2.74223034734918 2.74223034734918 2.74223034734918 2.74223034734918 2.74223034734918 2.74223034734918 2.74223034734918 2.74223034734918 5.60224089635854 5.60224089635854 5.60224089635854 3.24675324675325 3.24675324675325 3.24675324675325 -9999 -9999 -9999 -9999 -9999 -9999 -9999 2.65486725663717 2.65486725663717 2.65486725663717 2.65486725663717 -9999 -9999 -9999 -9999 -9999 -9999 1.76470588235294 1.76470588235294 7 7 7 7 7 7 7 0 0 0 0 0 0 2.55536626916525 2.55536626916525 2.55536626916525 0 0 0 0 0 0 0 0 5.175983436853 5.175983436853 5.175983436853 5.175983436853 0 0 0 0 0 0 0 0 0 0 0 4.23728813559322 4.23728813559322 4.23728813559322 0 0 12.5523012552301 12.5523012552301 12.5523012552301 12.5523012552301 12.5523012552301 4.6875 2.67379679144385 2.67379679144385 2.67379679144385 2.67379679144385 2.67379679144385 2.12765957446809 12.7551020408163 12.7551020408163 12.7551020408163 12.7551020408163 12.7551020408163 -9999 -9999 -9999 -9999 -9999 -9999 -9999 -9999 -9999 -9999 -9999 -9999 -9999 -9999 -9999 -9999 -9999 -9999 -9999 -9999 -9999 0 0 0 0 0 0 0 4.87329434697856 4.87329434697856 4.87329434697856 4.87329434697856 4.87329434697856 9.1533180778032 6.79611650485437 6.79611650485437 6.79611650485437 6.79611650485437 6.79611650485437 6.79611650485437 6.79611650485437 0 0 0 0 0 0 4.91803278688525 4.91803278688525 4.91803278688525 3.57142857142857 3.57142857142857 3.57142857142857 3.57142857142857 3.57142857142857 2.73722627737226 2.73722627737226 2.73722627737226 2.73722627737226 4.53857791225416 4.53857791225416 4.53857791225416 4.53857791225416 4.53857791225416 4.53857791225416 4.53857791225416 4.53857791225416 0 0 0 0 0 0 0 0 0 0 0 0 0 0 0 0 0 6.36132315521628 6.36132315521628 -9999 -9999 -9999 -9999 5.24109014675052 5.24109014675052 7.59013282732448 7.59013282732448 10.4895104895105 10.4895104895105 2.60960334029228 2.60960334029228 2.60960334029228 2.60960334029228 2.18340611353712 2.18340611353712 2.18340611353712 0 0 0 0 0 -9999 -9999 -9999 -9999 -9999 -9999 -9999 -9999 -9999 -9999 -9999 -9999 -9999 4.81611208406305 0 8.38574423480084 8.38574423480084 6.76982591876209 6.76982591876209 4.99286733238231 4.99286733238231 4.99286733238231 4.99286733238231 4.99286733238231 4.99286733238231 4.99286733238231 -9999 0 0 0 0 0 0 10.1289134438306 10.1289134438306 10.1289134438306 10.1289134438306 10.1289134438306 10.1289134438306 10.1289134438306 10.1289134438306 10.1289134438306 10.1289134438306 10.1289134438306 10.1289134438306 10.1289134438306 10.1289134438306 -9999 -9999 -9999 -9999 -9999 -9999 -9999 -9999 -9999 -9999 -9999 -9999 -9999 -9999 -9999 -9999 -9999 -9999 -9999 -9999 -9999 -9999 -9999 -9999 -9999 -9999 -9999 -9999 -9999 -9999 -9999 -9999 0 0 -9999 -9999 -9999 -9999 -9999 -9999 -9999 -9999 -9999 -9999 -9999 -9999 -9999 -9999 -9999 -9999 -9999 -9999 -9999 -9999 -9999 -9999 -9999 -9999 -9999 -9999 -9999 -9999 -9999 -9999 -9999 -9999 -9999 -9999 -9999 -9999 -9999 -9999 -9999 -9999 -9999 -9999 -9999 -9999 -9999 -9999 -9999 -9999 -9999 -9999 -9999 -9999 -9999 -9999 -9999 -9999 -9999 -9999 -9999 -9999 -9999 -9999 -9999 -9999 -9999 -9999 -9999 -9999 -9999 -9999 -9999 -9999 -9999 -9999 -9999 -9999 -9999 -9999 -9999 -9999 -9999
-9999 -9999 -9999 -9999 -9999 -9999 -9999 3.11203319502075 -9999 -9999 -9999 -9999 3.11203319502075 3.11203319502075 3.11203319502075 3.11203319502075 3.11203319502075 3.11203319502075 3.11203319502075 3.11203319502075 3.11203319502075 3.11203319502075 3.11203319502075 3.11203319502075 3.11203319502075 3.11203319502075 3.11203319502075 3.11203319502075 3.11203319502075 3.11203319502075 3.11203319502075 3.11203319502075 3.11203319502075 3.11203319502075 3.11203319502075 3.11203319502075 3.11203319502075 3.11203319502075 3.11203319502075 3.11203319502075 3.11203319502075 -9999 -9999 -9999 2.74223034734918 2.74223034734918 2.74223034734918 2.74223034734918 2.74223034734918 2.74223034734918 2.74223034734918 2.74223034734918 2.74223034734918 2.74223034734918 2.74223034734918 2.74223034734918 2.74223034734918 2.74223034734918 2.74223034734918 5.60224089635854 5.60224089635854 5.60224089635854 5.60224089635854 3.24675324675325 3.24675324675325 -9999 -9999 -9999 -9999 -9999 -9999 -9999 -9999 2.65486725663717 -9999 -9999 -9999 -9999 -9999 -9999 1.76470588235294 1.76470588235294 1.76470588235294 1.76470588235294 7 0 7 7 7 0 7 0 0 0 0 0 2.55536626916525 2.55536626916525 8.33333333333333 8.33333333333333 8.33333333333333 0 0 0 0 0 0 0 5.175983436853 5.175983436853 5.175983436853 5.175983436853 5.175983436853 0 0 0 0 0 0 0 0 0 0 4.23728813559322 4.23728813559322 4.23728813559322 0 4.23728813559322 12.5523012552301 12.5523012552301 2.12765957446809 2.12765957446809 2.12765957446809 2.12765957446809 2.67379679144385 12.7551020408163 12.7551020408163 2.12765957446809 2.12765957446809 2.12765957446809 12.7551020408163 12.7551020408163 12.7551020408163 12.7551020408163 -9999 -9999 -9999 -9999 -9999 -9999 -9999 -9999 -9999 -9999 -9999 -9999 -9999 -9999 -9999 -9999 -9999 -9999 -9999 -9999 -9999 -9999 -9999 0 0 0 0 0 0 4.87329434697856 4.87329434697856 4.87329434697856 4.87329434697856 4.87329434697856 9.1533180778032 6.79611650485437 6.79611650485437 6.79611650485437 6.79611650485437 6.79611650485437 6.79611650485437 6.79611650485437 6.79611650485437 0 0 0 0 0 0 0 0 0 3.57142857142857 3.57142857142857 3.57142857142857 3.57142857142857 2.73722627737226 2.73722627737226 2.73722627737226 8.43373493975904 8.43373493975904 8.43373493975904 4.53857791225416 4.53857791225416 4.53857791225416 4.53857791225416 4.53857791225416 4.53857791225416 0 0 0 8.51063829787234 8.51063829787234 8.51063829787234 8.51063829787234 8.51063829787234 0 0 0 0 0 0 0 0 0 6.36132315521628 6.36132315521628 -9999 -9999 -9999 -9999 5.24109014675052 13.9784946236559 13.9784946236559 13.9784946236559 10.4895104895105 10.4895104895105 2.60960334029228 2.60960334029228 2.60960334029228 2.60960334029228 2.18340611353712 2.18340611353712 2.18340611353712 0 0 0 0 0 -9999 -9999 -9999 -9999 -9999 -9999 -9999 -9999 -9999 -9999 -9999 -9999 -9999 -9999 -9999 -9999 8.38574423480084 8.38574423480084 8.38574423480084 8.38574423480084 4.99286733238231 4.99286733238231 4.99286733238231 4.99286733238231 -9999 0 0 0 0 0 0 0 0 0 0 10.1289134438306 10.1289134438306 10.1289134438306 10.1289134438306 10.1289134438306 10.1289134438306 10.1289134438306 10.1289134438306 10.1289134438306 10.1289134438306 -9999 -9999 -9999 -9999 -9999 -9999 -9999 -9999 -9999 -9999 -9999 -9999 -9999 -9999 -9999 -9999 -9999 -9999 -9999 -9999 -9999 -9999 -9999 -9999 -9999 -9999 -9999 -9999 -9999 -9999 -9999 -9999 -9999 -9999 -9999 -9999 -9999 -9999 -9999 -9999 -9999 -9999 -9999 -9999 -9999 -9999 -9999 -9999 -9999 -9999 -9999 -9999 -9999 -9999 -9999 -9999 -9999 -9999 -9999 -9999 -9999 -9999 -9999 -9999 -9999 -9999 -9999 -9999 -9999 -9999 -9999 -9999 -9999 -9999 -9999 -9999 -9999 -9999 -9999 -9999 -9999 -9999 -9999 -9999 -9999 -9999 -9999 -9999 -9999 -9999 -9999 -9999 -9999 -9999 -9999 -9999 -9999 -9999 -9999 -9999 -9999 -9999 -9999 -9999 -9999 -9999 -9999 -9999 -9999 -9999 -9999 -9999 -9999 -9999 -9999 -9999 -9999
-9999 -9999 -9999 -9999 -9999 -9999 -9999 3.11203319502075 3.11203319502075 3.11203319502075 3.11203319502075 3.11203319502075 3.11203319502075 3.11203319502075 3.11203319502075 3.11203319502075 3.11203319502075 3.11203319502075 3.11203319502075 3.11203319502075 3.11203319502075 3.11203319502075 3.11203319502075 3.11203319502075 3.11203319502075 3.11203319502075 3.11203319502075 3.11203319502075 3.11203319502075 3.11203319502075 3.11203319502075 3.11203319502075 3.11203319502075 3.11203319502075 3.11203319502075 3.11203319502075 3.11203319502075 3.11203319502075 3.11203319502075 3.11203319502075 3.11203319502075 3.11203319502075 -9999 2.74223034734918 2.74223034734918 2.74223034734918 2.74223034734918 2.74223034734918 2.74223034734918 2.74223034734918 2.74223034734918 2.74223034734918 2.74223034734918 2.74223034734918 2.74223034734918 2.74223034734918 2.74223034734918 2.74223034734918 2.74223034734918 5.60224089635854 0 0 5.60224089635854 3.24675324675325 3.24675324675325 3.24675324675325 -9999 -9999 -9999 -9999 -9999 -9999 -9999 -9999 -9999 -9999 -9999 -9999 1.76470588235294 1.76470588235294 1.76470588235294 1.76470588235294 1.76470588235294 0 0 0 0 0 0 0 0 0 0 0 0 0 8.33333333333333 8.33333333333333 8.33333333333333 8.33333333333333 8.33333333333333 0 0 0 0 0 0 0 0 5.175983436853 5.175983436853 5.175983436853 0 0 0 0 0 0 0 0 0 0 0 0 4.23728813559322 0 2.12765957446809 2.12765957446809 2.12765957446809 2.12765957446809 2.12765957446809 2.12765957446809 2.12765957446809 2.12765957446809 2.12765957446809 12.7551020408163 12.7551020408163 2.12765957446809 2.12765957446809 2.12765957446809 12.7551020408163 12.7551020408163 12.7551020408163 12.7551020408163 -9999 -9999 -9999 -9999 -9999 -9999 -9999 -9999 -9999 -9999 -9999 -9999 -9999 -9999 -9999 -9999 -9999 -9999 -9999 -9999 -9999 -9999 -9999 0 0 0 0 0 0 0 0 0 0 4.87329434697856 6.79611650485437 6.79611650485437 6.79611650485437 6.79611650485437 6.79611650485437 6.79611650485437 6.79611650485437 6.79611650485437 6.79611650485437 0 0 0 0 12.1555915721232 12.1555915721232 12.1555915721232 -9999 12.1555915721232 3.57142857142857 3.57142857142857 3.57142857142857 3.57142857142857 2.73722627737226 2.73722627737226 2.73722627737226 8.43373493975904 8.43373493975904 8.43373493975904 4.53857791225416 4.53857791225416 4.53857791225416 4.53857791225416 4.53857791225416 4.53857791225416 4.53857791225416 0 0 8.51063829787234 8.51063829787234 0 0 0 0 0 0 0 0 0 0 0 0 0 0 9.18079096045198 9.18079096045198 9.18079096045198 9.18079096045198 0 1.55763239875389 1.55763239875389 1.55763239875389 1.55763239875389 1.55763239875389 0 0 0 0 0 0 0 0 0 10.6194690265487 10.6194690265487 10.6194690265487 -9999 -9999 -9999 -9999 -9999 -9999 -9999 -9999 -9999 -9999 -9999 -9999 -9999 -9999 -9999 -9999 -9999 8.38574423480084 8.38574423480084 8.38574423480084 8.38574423480084 -9999 0 0 0 0 0 0 0 0 0 0 0 0 12.2549019607843 12.2549019607843 10.1289134438306 10.1289134438306 10.1289134438306 10.1289134438306 10.1289134438306 10.1289134438306 10.1289134438306 -9999 -9999 -9999 -9999 -9999 -9999 -9999 -9999 -9999 -9999 -9999 -9999 -9999 -9999 -9999 -9999 -9999 -9999 -9999 -9999 -9999 -9999 -9999 -9999 -9999 -9999 -9999 -9999 -9999 -9999 -9999 -9999 -9999 -9999 -9999 -9999 -9999 -9999 -9999 -9999 -9999 -9999 -9999 -9999 -9999 -9999 -9999 -9999 -9999 -9999 -9999 -9999 -9999 -9999 -9999 -9999 -9999 -9999 -9999 -9999 -9999 -9999 -9999 -9999 -9999 -9999 -9999 -9999 -9999 -9999 -9999 -9999 -9999 -9999 -9999 -9999 -9999 -9999 -9999 -9999 -9999 -9999 -9999 -9999 -9999 -9999 -9999 -9999 -9999 -9999 -9999 -9999 -9999 -9999 -9999 -9999 -9999 -9999 -9999 -9999 -9999 -9999 -9999 -9999 -9999 -9999 -9999 -9999 -9999 -9999 -9999 -9999 -9999 -9999 -9999 -9999 -9999 -9999 -9999
-9999 -9999 -9999 -9999 -9999 -9999 -9999 3.11203319502075 3.11203319502075 3.11203319502075 3.11203319502075 3.11203319502075 3.11203319502075 3.11203319502075 3.11203319502075 3.11203319502075 3.11203319502075 3.11203319502075 3.11203319502075 3.11203319502075 3.11203319502075 3.11203319502075 3.11203319502075 3.11203319502075 3.11203319502075 3.11203319502075 3.11203319502075 3.11203319502075 3.11203319502075 3.11203319502075 3.11203319502075 3.11203319502075 3.11203319502075 3.11203319502075 3.11203319502075 3.11203319502075 3.11203319502075 3.11203319502075 2.74223034734918 0 0 2.74223034734918 2.74223034734918 2.74223034734918 2.74223034734918 2.74223034734918 2.74223034734918 2.74223034734918 2.74223034734918 2.74223034734918 2.74223034734918 2.74223034734918 2.74223034734918 2.74223034734918 2.74223034734918 2.74223034734918 2.74223034734918 2.74223034734918 2.74223034734918 2.74223034734918 5.60224089635854 0 0 0 0 0 -9999 -9999 -9999 -9999 -9999 -9999 -9999 -9999 -9999 -9999 1.76470588235294 1.76470588235294 1.76470588235294 1.76470588235294 1.76470588235294 1.76470588235294 1.76470588235294 0 0 0 0 0 0 0 0 3.21199143468951 0 0 3.21199143468951 3.21199143468951 3.21199143468951 8.33333333333333 8.33333333333333 8.33333333333333 8.33333333333333 8.33333333333333 0 0 0 0 0 0 0 0 0 0 0 0 0 0 0 0 0 0 0 0 0 2.12765957446809 2.12765957446809 2.12765957446809 2.12765957446809 2.12765957446809 0 0 0 0 2.12765957446809 2.12765957446809 2.12765957446809 12.7551020408163 12.7551020408163 12.7551020408163 2.12765957446809 2.44299674267101 2.44299674267101 3.6101083032491 3.6101083032491 -9999 -9999 -9999 -9999 -9999 -9999 -9999 -9999 -9999 -9999 -9999 -9999 -9999 -9999 -9999 -9999 -9999 -9999 -9999 -9999 -9999 -9999 -9999 -9999 0 0 -9999 -9999 -9999 -9999 0 0 0 0 0 0 6.79611650485437 6.79611650485437 6.79611650485437 6.79611650485437 6.79611650485437 6.79611650485437 6.79611650485437 6.79611650485437 0 0 0 0 12.1555915721232 12.1555915721232 12.1555915721232 -9999 12.1555915721232 3.05810397553517 3.05810397553517 3.05810397553517 3.05810397553517 3.0750307503075 3.0750307503075 3.0750307503075 3.0750307503075 3.0750307503075 8.43373493975904 8.43373493975904 8.43373493975904 8.43373493975904 3.0750307503075 3.0750307503075 4.53857791225416 4.53857791225416 0 0 8.51063829787234 8.51063829787234 0 0 0 0 0 0 0 0 0 0 0 0 0 0 9.18079096045198 9.18079096045198 9.18079096045198 9.18079096045198 0 0 0 0 1.55763239875389 1.55763239875389 0 0 0 0 0 0 0 0 0 10.6194690265487 0 0 -9999 -9999 -9999 -9999 -9999 -9999 -9999 -9999 -9999 -9999 -9999 -9999 -9999 -9999 -9999 -9999 -9999 8.38574423480084 8.38574423480084 -9999 8.82825040128411 8.82825040128411 0 0 0 0 0 0 0 0 0 0 8.91089108910891 8.91089108910891 8.91089108910891 12.2549019607843 6.80786686838124 6.80786686838124 10.1289134438306 10.1289134438306 10.1289134438306 9.14634146341463 9.14634146341463 9.14634146341463 9.14634146341463 9.14634146341463 -9999 -9999 -9999 -9999 -9999 -9999 -9999 -9999 -9999 -9999 -9999 -9999 -9999 -9999 -9999 -9999 0 0 0 0 0 0 -9999 -9999 -9999 -9999 -9999 -9999 -9999 -9999 -9999 -9999 -9999 -9999 -9999 -9999 -9999 -9999 -9999 -9999 -9999 -9999 -9999 -9999 -9999 -9999 -9999 -9999 -9999 -9999 -9999 -9999 -9999 -9999 -9999 -9999 -9999 -9999 -9999 -9999 -9999 -9999 -9999 -9999 -9999 -9999 -9999 -9999 -9999 -9999 -9999 -9999 -9999 -9999 -9999 -9999 -9999 -9999 -9999 -9999 -9999 -9999 -9999 -9999 -9999 -9999 -9999 -9999 -9999 -9999 -9999 -9999 -9999 -9999 -9999 -9999 -9999 -9999 -9999 -9999 -9999 -9999 -9999 -9999 -9999 -9999 -9999 -9999 -9999 -9999 -9999 -9999 -9999 -9999 -9999 -9999
-9999 -9999 -9999 -9999 -9999 -9999 -9999 3.11203319502075 3.11203319502075 3.11203319502075 3.11203319502075 3.11203319502075 3.11203319502075 3.11203319502075 3.11203319502075 3.11203319502075 3.11203319502075 3.11203319502075 3.11203319502075 3.11203319502075 3.11203319502075 3.11203319502075 3.11203319502075 3.11203319502075 3.11203319502075 3.11203319502075 3.11203319502075 3.11203319502075 3.11203319502075 3.11203319502075 3.11203319502075 3.11203319502075 3.11203319502075 3.11203319502075 3.11203319502075 3.11203319502075 3.11203319502075 2.74223034734918 0 0 0 0 2.74223034734918 2.74223034734918 2.74223034734918 2.74223034734918 2.74223034734918 2.74223034734918 2.74223034734918 2.74223034734918 2.74223034734918 2.74223034734918 2.74223034734918 2.74223034734918 2.74223034734918 2.74223034734918 2.74223034734918 2.74223034734918 2.74223034734918 2.74223034734918 2.74223034734918 5.60224089635854 0 0 0 -9999 -9999 -9999 -9999 -9999 -9999 -9999 -9999 1.76470588235294 1.76470588235294 1.76470588235294 1.76470588235294 1.76470588235294 1.76470588235294 0 1.76470588235294 1.76470588235294 1.76470588235294 0 0 0 0 0 0 0 0 3.21199143468951 3.21199143468951 3.21199143468951 3.21199143468951 3.21199143468951 3.21199143468951 8.33333333333333 8.33333333333333 8.33333333333333 8.33333333333333 8.33333333333333 0 0 0 0 0 0 0 0 0 0 0 0 0 0 0 0 0 2.12765957446809 2.12765957446809 3.40599455040872 3.40599455040872 3.40599455040872 9.55882352941176 9.55882352941176 0 0 0 0 0 0 2.12765957446809 2.12765957446809 2.12765957446809 2.12765957446809 2.12765957446809 2.44299674267101 2.44299674267101 2.44299674267101 2.44299674267101 3.6101083032491 3.6101083032491 -9999 -9999 -9999 -9999 -9999 -9999 -9999 -9999 -9999 -9999 -9999 -9999 -9999 -9999 -9999 -9999 -9999 -9999 -9999 -9999 -9999 -9999 -9999 -9999 -9999 -9999 -9999 -9999 -9999 -9999 -9999 -9999 -9999 -9999 -9999 -9999 -9999 -9999 0 0 0 0 0 0 0 0 0 0 0 12.1555915721232 12.1555915721232 12.1555915721232 12.1555915721232 3.0750307503075 3.0750307503075 3.0750307503075 3.0750307503075 3.0750307503075 3.0750307503075 3.0750307503075 3.0750307503075 3.0750307503075 3.0750307503075 8.43373493975904 8.43373493975904 -9999 3.0750307503075 3.0750307503075 3.0750307503075 5.97609561752988 0 0 8.51063829787234 0 0 0 0 0 0 0 0 0 0 0 0 0 0 0 3.2258064516129 10.7438016528926 10.7438016528926 12.751677852349 12.751677852349 0 0 0 0 0 5.81395348837209 5.81395348837209 5.81395348837209 0 0 6.55021834061135 0 0 0 0 0 0 -9999 -9999 -9999 -9999 -9999 -9999 -9999 -9999 -9999 -9999 -9999 -9999 -9999 -9999 -9999 -9999 -9999 -9999 8.82825040128411 8.82825040128411 8.82825040128411 8.82825040128411 8.82825040128411 0 0 0 0 0 0 0 0 4.67914438502674 4.67914438502674 8.91089108910891 8.91089108910891 6.80786686838124 6.80786686838124 9.25925925925926 8.24742268041237 8.24742268041237 3.96825396825397 3.96825396825397 9.14634146341463 9.14634146341463 9.14634146341463 -9999 -9999 -9999 -9999 -9999 4.96688741721854 4.96688741721854 -9999 -9999 -9999 -9999 -9999 -9999 -9999 -9999 0 0 0 0 0 0 0 0 0 0 0 0 0 0 5.97014925373134 -9999 -9999 -9999 -9999 -9999 -9999 -9999 -9999 -9999 -9999 -9999 -9999 -9999 -9999 -9999 -9999 -9999 -9999 -9999 -9999 -9999 -9999 -9999 -9999 -9999 -9999 -9999 -9999 -9999 -9999 -9999 -9999 -9999 -9999 -9999 -9999 -9999 -9999 -9999 -9999 -9999 -9999 -9999 -9999 -9999 -9999 -9999 -9999 -9999 -9999 -9999 -9999 -9999 -9999 -9999 -9999 -9999 -9999 -9999 -9999 -9999 -9999 -9999 -9999 -9999 -9999 -9999 -9999 -9999 -9999 -9999 -9999 -9999 -9999 -9999 -9999 -9999 -9999 -9999 -9999 -9999 -9999 -9999 -9999 -9999 -9999 -9999
-9999 -9999 -9999 -9999 -9999 3.11203319502075 3.11203319502075 3.11203319502075 3.11203319502075 3.11203319502075 3.11203319502075 3.11203319502075 3.11203319502075 3.11203319502075 3.11203319502075 3.11203319502075 3.11203319502075 3.11203319502075 3.11203319502075 3.11203319502075 3.11203319502075 3.11203319502075 3.11203319502075 3.11203319502075 3.11203319502075 3.11203319502075 2.74223034734918 3.11203319502075 3.11203319502075 2.74223034734918 2.74223034734918 3.11203319502075 3.11203319502075 2.74223034734918 3.11203319502075 2.74223034734918 2.74223034734918 0 0 0 0 0 2.74223034734918 2.74223034734918 2.74223034734918 2.74223034734918 2.74223034734918 2.74223034734918 2.74223034734918 2.74223034734918 2.74223034734918 2.74223034734918 2.74223034734918 2.74223034734918 2.74223034734918 2.74223034734918 2.74223034734918 2.74223034734918 2.74223034734918 2.74223034734918 2.74223034734918 2.74223034734918 0 0 -9999 -9999 -9999 -9999 -9999 1.76470588235294 1.76470588235294 1.76470588235294 1.76470588235294 1.76470588235294 1.76470588235294 0 0 1.76470588235294 1.76470588235294 0 0 0 0 0 0 0 0 0 0 0 0 0 3.21199143468951 3.21199143468951 3.21199143468951 3.21199143468951 3.21199143468951 3.21199143468951 8.33333333333333 8.33333333333333 8.33333333333333 8.33333333333333 0 0 0 0 0 0 0 3.4324942791762 3.4324942791762 3.4324942791762 0 0 3.4324942791762 0 0 3.40599455040872 3.40599455040872 3.40599455040872 3.40599455040872 3.40599455040872 3.40599455040872 3.40599455040872 9.55882352941176 9.55882352941176 0 9.55882352941176 0 0 0 0 2.12765957446809 2.12765957446809 1.64744645799012 1.64744645799012 2.44299674267101 2.44299674267101 2.44299674267101 2.44299674267101 2.44299674267101 2.44299674267101 3.6101083032491 -9999 -9999 -9999 -9999 -9999 -9999 -9999 -9999 -9999 -9999 -9999 -9999 -9999 -9999 -9999 -9999 -9999 -9999 -9999 -9999 -9999 -9999 -9999 -9999 -9999 -9999 -9999 -9999 -9999 -9999 -9999 -9999 -9999 -9999 -9999 -9999 -9999 -9999 -9999 0 0 0 -9999 0 0 0 0 0 0 -9999 -9999 -9999 -9999 -9999 -9999 3.0750307503075 3.0750307503075 3.0750307503075 3.0750307503075 3.0750307503075 3.0750307503075 3.0750307503075 3.0750307503075 3.0750307503075 -9999 -9999 -9999 -9999 -9999 -9999 -9999 -9999 -9999 5.97609561752988 0 0 0 0 0 0 0 0 0 0 0 0 0 0 3.2258064516129 2.33100233100233 2.33100233100233 12.751677852349 12.751677852349 0 0 0 0 0 0 0 0 0 0 6.55021834061135 0 0 0 0 0 0 -9999 -9999 -9999 -9999 -9999 -9999 -9999 -9999 -9999 -9999 -9999 -9999 -9999 -9999 -9999 -9999 4.13793103448276 4.13793103448276 8.82825040128411 8.82825040128411 8.82825040128411 8.82825040128411 8.82825040128411 8.82825040128411 0 0 0 0 0 0 0 4.67914438502674 4.67914438502674 4.67914438502674 8.91089108910891 8.5995085995086 8.24742268041237 8.24742268041237 8.24742268041237 3.96825396825397 3.96825396825397 12.987012987013 9.14634146341463 9.14634146341463 -9999 -9999 -9999 -9999 -9999 11.5384615384615 11.5384615384615 11.5384615384615 11.5384615384615 11.5384615384615 11.5384615384615 3.77358490566038 3.77358490566038 -9999 -9999 -9999 -9999 0 0 0 0 0 0 0 0 0 5.97014925373134 0 0 5.97014925373134 5.97014925373134 -9999 -9999 -9999 -9999 -9999 -9999 -9999 -9999 -9999 -9999 -9999 -9999 -9999 -9999 -9999 -9999 -9999 -9999 -9999 -9999 -9999 -9999 -9999 -9999 -9999 -9999 -9999 -9999 -9999 -9999 -9999 -9999 -9999 -9999 -9999 -9999 -9999 -9999 -9999 -9999 -9999 -9999 -9999 -9999 -9999 -9999 -9999 -9999 -9999 -9999 -9999 -9999 -9999 -9999 -9999 -9999 -9999 -9999 -9999 -9999 -9999 -9999 -9999 -9999 -9999 -9999 -9999 -9999 -9999 -9999 -9999 -9999 -9999 -9999 -9999 -9999 -9999 -9999 -9999 -9999 -9999 -9999 -9999 -9999 -9999 -9999 -9999
-9999 -9999 -9999 3.11203319502075 3.11203319502075 3.11203319502075 3.11203319502075 3.11203319502075 3.11203319502075 3.11203319502075 3.11203319502075 3.11203319502075 3.11203319502075 3.11203319502075 3.11203319502075 3.11203319502075 3.11203319502075 3.11203319502075 3.11203319502075 3.11203319502075 3.11203319502075 3.11203319502075 3.11203319502075 3.11203319502075 3.11203319502075 2.74223034734918 2.74223034734918 2.74223034734918 2.74223034734918 2.74223034734918 2.74223034734918 2.74223034734918 2.74223034734918 2.74223034734918 2.74223034734918 2.74223034734918 2.74223034734918 2.74223034734918 0 3.77073906485671 3.77073906485671 3.77073906485671 3.77073906485671 2.74223034734918 2.74223034734918 2.74223034734918 2.74223034734918 2.74223034734918 2.74223034734918 2.74223034734918 2.74223034734918 2.74223034734918 2.74223034734918 2.74223034734918 2.74223034734918 2.74223034734918 2.74223034734918 2.74223034734918 2.74223034734918 2.74223034734918 2.74223034734918 2.74223034734918 -9999 -9999 -9999 -9999 0.879507475813544 0.879507475813544 1.76470588235294 1.76470588235294 0.879507475813544 0.879507475813544 0.879507475813544 0.879507475813544 0 0 0 0 0 0 0 0 0 0 0 0 0 3.7037037037037 3.7037037037037 3.7037037037037 3.7037037037037 0 0 0 0 0 0 0 0 0 0 0 0 0 0 0 3.4324942791762 3.4324942791762 3.4324942791762 3.4324942791762 0 3.4324942791762 0 0 0 0 0 3.40599455040872 3.40599455040872 3.40599455040872 3.40599455040872 3.40599455040872 3.40599455040872 3.40599455040872 9.55882352941176 9.55882352941176 9.55882352941176 9.55882352941176 9.55882352941176 0 0 1.64744645799012 1.64744645799012 1.64744645799012 1.64744645799012 1.64744645799012 1.64744645799012 2.44299674267101 2.44299674267101 2.44299674267101 2.44299674267101 2.10526315789474 3.6101083032491 -9999 -9999 -9999 -9999 -9999 -9999 -9999 -9999 -9999 -9999 -9999 -9999 -9999 -9999 -9999 -9999 -9999 -9999 -9999 -9999 -9999 -9999 -9999 -9999 -9999 -9999 -9999 -9999 -9999 -9999 -9999 -9999 -9999 -9999 -9999 -9999 -9999 -9999 -9999 -9999 0 -9999 -9999 -9999 -9999 0 0 -9999 -9999 -9999 -9999 -9999 -9999 -9999 -9999 -9999 -9999 -9999 -9999 -9999 3.0750307503075 3.0750307503075 -9999 -9999 -9999 -9999 -9999 -9999 -9999 -9999 -9999 -9999 -9999 -9999 -9999 5.97609561752988 0 0 0 5.97609561752988 5.97609561752988 0 0 5.97609561752988 5.97609561752988 5.97609561752988 3.2258064516129 3.2258064516129 3.2258064516129 2.33100233100233 2.33100233100233 2.33100233100233 0 0 0 0 0 0 0 0 0 0 0 6.55021834061135 0 0 -9999 -9999 -9999 -9999 -9999 -9999 -9999 -9999 -9999 -9999 -9999 -9999 -9999 -9999 -9999 -9999 -9999 -9999 4.13793103448276 4.13793103448276 4.13793103448276 8.82825040128411 8.82825040128411 8.82825040128411 8.82825040128411 8.82825040128411 8.82825040128411 8.82825040128411 8.82825040128411 0 0 0 0 0 0 6.06585788561525 6.06585788561525 6.50759219088937 6.50759219088937 9.85761226725082 9.85761226725082 9.85761226725082 3.96825396825397 3.96825396825397 3.96825396825397 12.987012987013 12.987012987013 9.14634146341463 18.018018018018 18.018018018018 18.018018018018 6.90846286701209 -9999 11.5384615384615 11.5384615384615 11.5384615384615 11.5384615384615 11.5384615384615 11.5384615384615 11.5384615384615 11.5384615384615 11.5384615384615 11.5384615384615 -9999 0 0 0 0 0 0 0 0 0 0 5.97014925373134 5.97014925373134 5.97014925373134 5.97014925373134 -9999 -9999 -9999 -9999 -9999 -9999 -9999 -9999 -9999 -9999 -9999 -9999 -9999 -9999 -9999 -9999 -9999 -9999 -9999 -9999 -9999 -9999 -9999 -9999 -9999 -9999 -9999 -9999 -9999 -9999 -9999 -9999 -9999 -9999 -9999 -9999 -9999 -9999 -9999 -9999 -9999 -9999 -9999 -9999 -9999 -9999 -9999 -9999 -9999 -9999 -9999 -9999 -9999 -9999 -9999 -9999 -9999 -9999 -9999 -9999 -9999 -9999 -9999 -9999 -9999 -9999 -9999 -9999 -9999 -9999 -9999 -9999 -9999 -9999 -9999 -9999 -9999 -9999 -9999 -9999 -9999 -9999 -9999 -9999 -9999 -9999 -9999 -9999
-9999 -9999 -9999 3.11203319502075 3.11203319502075 3.11203319502075 3.11203319502075 3.11203319502075 3.11203319502075 3.11203319502075 3.11203319502075 3.11203319502075 3.11203319502075 3.11203319502075 3.11203319502075 3.11203319502075 3.11203319502075 3.11203319502075 3.11203319502075 3.11203319502075 3.11203319502075 3.11203319502075 3.11203319502075 3.11203319502075 3.11203319502075 2.74223034734918 2.74223034734918 2.74223034734918 2.74223034734918 2.74223034734918 2.74223034734918 2.74223034734918 2.74223034734918 2.74223034734918 2.74223034734918 2.74223034734918 2.74223034734918 2.74223034734918 3.77073906485671 3.77073906485671 3.77073906485671 3.77073906485671 3.77073906485671 2.74223034734918 2.74223034734918 2.74223034734918 2.74223034734918 2.74223034734918 2.74223034734918 2.74223034734918 2.74223034734918 2.74223034734918 2.74223034734918 2.74223034734918 2.74223034734918 2.74223034734918 2.74223034734918 2.74223034734918 2.74223034734918 2.74223034734918 2.74223034734918 2.74223034734918 2.4390243902439 0.879507475813544 0.879507475813544 0.879507475813544 0.879507475813544 0.879507475813544 0.879507475813544 0.879507475813544 0.879507475813544 0.879507475813544 0.879507475813544 0.879507475813544 0.879507475813544 0 0 0.879507475813544 0 0 0 0 0 0 0 0 0 3.7037037037037 0 0 0 0 0 0 0 0 0 0 0 0 0 0 0 0 0 3.4324942791762 3.4324942791762 3.4324942791762 0 0 0 0 0 0 0 0 0 0 3.40599455040872 3.40599455040872 3.40599455040872 3.40599455040872 3.40599455040872 3.40599455040872 3.40599455040872 9.55882352941176 9.55882352941176 9.55882352941176 9.55882352941176 1.64744645799012 1.64744645799012 1.64744645799012 1.64744645799012 1.64744645799012 1.64744645799012 1.64744645799012 1.64744645799012 2.44299674267101 2.44299674267101 2.10526315789474 2.10526315789474 2.10526315789474 2.10526315789474 3.6101083032491 -9999 -9999 -9999 -9999 -9999 -9999 -9999 -9999 -9999 -9999 -9999 -9999 -9999 -9999 -9999 -9999 -9999 -9999 -9999 -9999 -9999 -9999 -9999 -9999 -9999 -9999 -9999 -9999 -9999 -9999 -9999 -9999 -9999 -9999 -9999 -9999 -9999 -9999 -9999 -9999 -9999 0 -9999 -9999 -9999 -9999 -9999 -9999 -9999 -9999 -9999 -9999 -9999 -9999 -9999 -9999 -9999 -9999 -9999 -9999 -9999 -9999 -9999 -9999 -9999 -9999 -9999 -9999 -9999 -9999 -9999 -9999 -9999 -9999 -9999 -9999 -9999 -9999 -9999 -9999 5.97609561752988 5.97609561752988 5.97609561752988 5.97609561752988 5.97609561752988 3.2258064516129 3.2258064516129 3.2258064516129 2.33100233100233 2.33100233100233 0 0 0 0 0 0 0 0 0 0 0 0 0 0 -9999 -9999 -9999 -9999 -9999 -9999 -9999 -9999 -9999 -9999 -9999 -9999 -9999 -9999 -9999 -9999 -9999 6.66666666666667 4.13793103448276 4.13793103448276 4.13793103448276 4.13793103448276 8.82825040128411 8.82825040128411 8.82825040128411 8.82825040128411 8.82825040128411 8.82825040128411 8.82825040128411 8.82825040128411 11.4678899082569 0 0 0 0 18.3585313174946 18.3585313174946 18.8679245283019 18.8679245283019 9.85761226725082 9.85761226725082 9.85761226725082 7.67918088737201 7.67918088737201 4.60122699386503 0 0 0 18.018018018018 0 0 6.90846286701209 6.90846286701209 0 0 0 0 0 0 11.5384615384615 11.5384615384615 11.5384615384615 11.5384615384615 -9999 3.65497076023392 3.65497076023392 0 0 0 0 0 0 0 0 0 0 5.97014925373134 5.97014925373134 -9999 -9999 -9999 -9999 -9999 -9999 -9999 -9999 -9999 -9999 -9999 -9999 -9999 -9999 -9999 -9999 -9999 -9999 -9999 -9999 -9999 -9999 -9999 -9999 -9999 -9999 -9999 -9999 -9999 -9999 -9999 -9999 -9999 -9999 -9999 -9999 -9999 -9999 -9999 -9999 -9999 -9999 -9999 -9999 -9999 -9999 -9999 -9999 -9999 -9999 -9999 -9999 -9999 -9999 -9999 -9999 -9999 -9999 -9999 -9999 -9999 -9999 -9999 -9999 -9999 -9999 -9999 -9999 -9999 -9999 -9999 -9999 -9999 -9999 -9999 -9999 -9999 -9999 -9999 -9999 -9999 -9999 -9999 -9999 -9999 -9999 -9999 -9999 -9999
-9999 -9999 -9999 3.11203319502075 3.11203319502075 3.11203319502075 3.11203319502075 3.11203319502075 3.11203319502075 3.11203319502075 3.11203319502075 3.11203319502075 3.11203319502075 3.11203319502075 3.11203319502075 3.11203319502075 3.11203319502075 3.11203319502075 3.11203319502075 3.11203319502075 3.11203319502075 3.11203319502075 3.11203319502075 2.74223034734918 2.74223034734918 2.74223034734918 2.74223034734918 2.74223034734918 2.74223034734918 2.74223034734918 2.74223034734918 2.74223034734918 2.74223034734918 2.74223034734918 2.74223034734918 2.74223034734918 2.74223034734918 2.74223034734918 2.74223034734918 3.77073906485671 3.77073906485671 2.74223034734918 2.74223034734918 2.74223034734918 2.74223034734918 2.74223034734918 2.74223034734918 2.74223034734918 2.74223034734918 2.74223034734918 2.74223034734918 2.74223034734918 2.74223034734918 2.74223034734918 2.74223034734918 2.74223034734918 2.74223034734918 2.74223034734918 2.74223034734918 2.74223034734918 2.4390243902439 2.4390243902439 2.4390243902439 0.879507475813544 0.879507475813544 0.879507475813544 0.879507475813544 0.879507475813544 0.879507475813544 0.879507475813544 0.879507475813544 0.879507475813544 0.879507475813544 0.879507475813544 0.879507475813544 0 0 0.879507475813544 0 0 0 0 0 0 0 0 0 3.7037037037037 3.7037037037037 0 0 0 0 0 0 3.4324942791762 3.4324942791762 3.4324942791762 3.4324942791762 0 0 0 0 3.4324942791762 3.81679389312977 3.81679389312977 3.81679389312977 0 0 0 0 0 0 0 0 0 0 0 3.40599455040872 3.40599455040872 3.40599455040872 3.40599455040872 3.40599455040872 3.40599455040872 3.40599455040872 9.55882352941176 0 0 0 1.64744645799012 1.64744645799012 1.64744645799012 1.64744645799012 1.64744645799012 1.64744645799012 1.64744645799012 1.64744645799012 1.64744645799012 2.10526315789474 2.10526315789474 -9999 -9999 2.10526315789474 -9999 -9999 -9999 -9999 -9999 -9999 -9999 -9999 -9999 -9999 -9999 -9999 -9999 -9999 -9999 -9999 -9999 -9999 -9999 -9999 -9999 -9999 -9999 -9999 -9999 -9999 -9999 -9999 -9999 -9999 -9999 -9999 -9999 -9999 -9999 -9999 -9999 -9999 -9999 -9999 -9999 -9999 -9999 -9999 -9999 -9999 -9999 -9999 -9999 -9999 -9999 -9999 -9999 -9999 -9999 -9999 -9999 -9999 -9999 -9999 -9999 -9999 -9999 -9999 -9999 -9999 -9999 -9999 -9999 -9999 -9999 -9999 -9999 -9999 -9999 -9999 -9999 -9999 -9999 -9999 -9999 -9999 -9999 -9999 -9999 -9999 -9999 -9999 5.97609561752988 0 0 0 0 0 0 0 0 0 0 0 0 0 7.86713286713287 7.86713286713287 7.86713286713287 -9999 -9999 -9999 -9999 -9999 -9999 -9999 -9999 -9999 -9999 -9999 -9999 -9999 -9999 -9999 8.54037267080745 10.5105105105105 6.66666666666667 4.13793103448276 16.1839863713799 16.1839863713799 16.1839863713799 8.82825040128411 8.82825040128411 8.82825040128411 8.82825040128411 13.6986301369863 13.6986301369863 13.6986301369863 13.6986301369863 8.82825040128411 11.4678899082569 0 0 0 11.6731517509728 11.6731517509728 11.6731517509728 18.3585313174946 9.85761226725082 9.85761226725082 7.67918088737201 7.67918088737201 7.67918088737201 4.60122699386503 4.60122699386503 4.60122699386503 0 15.6903765690377 5.95238095238095 5.95238095238095 5.95238095238095 6.90846286701209 6.90846286701209 0 0 0 0 0 0 0 -9999 3.65497076023392 3.65497076023392 3.65497076023392 3.65497076023392 0 0 0 0 0 0 0 0 0 0 -9999 -9999 -9999 -9999 -9999 -9999 -9999 -9999 -9999 -9999 -9999 -9999 -9999 -9999 -9999 -9999 -9999 -9999 -9999 -9999 -9999 -9999 -9999 -9999 -9999 -9999 -9999 -9999 -9999 -9999 -9999 -9999 -9999 -9999 -9999 -9999 -9999 -9999 -9999 -9999 -9999 -9999 -9999 -9999 -9999 -9999 -9999 -9999 -9999 -9999 -9999 -9999 -9999 -9999 -9999 -9999 -9999 -9999 -9999 -9999 -9999 -9999 -9999 -9999 -9999 -9999 -9999 -9999 -9999 -9999 -9999 -9999 -9999 -9999 -9999 -9999 -9999 -9999 -9999 -9999 -9999 -9999 -9999 -9999 -9999 -9999 -9999 -9999 -9999 -9999 -9999
-9999 -9999 3.11203319502075 3.11203319502075 3.11203319502075 3.11203319502075 3.11203319502075 3.11203319502075 3.11203319502075 3.11203319502075 3.11203319502075 3.11203319502075 3.11203319502075 3.11203319502075 3.11203319502075 3.11203319502075 3.11203319502075 3.11203319502075 3.11203319502075 3.11203319502075 3.11203319502075 2.74223034734918 2.74223034734918 2.74223034734918 2.74223034734918 2.74223034734918 2.74223034734918 2.74223034734918 2.74223034734918 2.74223034734918 2.74223034734918 2.74223034734918 2.74223034734918 2.74223034734918 2.74223034734918 2.74223034734918 2.74223034734918 2.74223034734918 2.74223034734918 2.74223034734918 3.77073906485671 2.74223034734918 2.74223034734918 2.74223034734918 2.74223034734918 2.74223034734918 2.74223034734918 2.74223034734918 2.74223034734918 2.74223034734918 2.74223034734918 2.74223034734918 2.74223034734918 2.74223034734918 2.74223034734918 2.74223034734918 2.74223034734918 2.74223034734918 2.4390243902439 2.4390243902439 2.4390243902439 2.4390243902439 2.4390243902439 0.879507475813544 0.879507475813544 0.879507475813544 0.879507475813544 0.879507475813544 0.879507475813544 0.879507475813544 0.879507475813544 0.879507475813544 0.879507475813544 0.879507475813544 0.879507475813544 0.879507475813544 0.879507475813544 0.879507475813544 0.879507475813544 0 0 0 0 0 0 0 0 3.7037037037037 3.7037037037037 0 0 0 0 0 0 0 3.4324942791762 3.4324942791762 3.4324942791762 3.4324942791762 3.81679389312977 3.81679389312977 3.81679389312977 3.81679389312977 0 0 0 0 0 0 0 0 0 0 0 0 0 0 0 3.40599455040872 3.40599455040872 3.40599455040872 3.40599455040872 3.40599455040872 3.40599455040872 3.40599455040872 0 0 0 0 1.64744645799012 1.64744645799012 -9999 -9999 -9999 -9999 -9999 -9999 -9999 -9999 -9999 -9999 -9999 -9999 -9999 -9999 -9999 -9999 -9999 -9999 -9999 -9999 -9999 -9999 -9999 -9999 -9999 -9999 -9999 -9999 -9999 -9999 -9999 -9999 -9999 -9999 -9999 -9999 -9999 -9999 -9999 -9999 -9999 -9999 -9999 -9999 -9999 -9999 -9999 -9999 -9999 -9999 -9999 -9999 -9999 -9999 -9999 -9999 -9999 -9999 -9999 -9999 -9999 -9999 -9999 -9999 -9999 -9999 -9999 -9999 -9999 -9999 -9999 -9999 -9999 -9999 -9999 -9999 -9999 -9999 -9999 -9999 -9999 -9999 -9999 -9999 -9999 -9999 -9999 -9999 -9999 -9999 -9999 -9999 -9999 -9999 -9999 -9999 -9999 -9999 -9999 -9999 -9999 -9999 5.97609561752988 5.97609561752988 -9999 -9999 -9999 -9999 -9999 -9999 0 -9999 -9999 7.86713286713287 7.86713286713287 7.86713286713287 -9999 -9999 -9999 -9999 -9999 -9999 -9999 -9999 -9999 -9999 -9999 -9999 -9999 4.739336492891 4.739336492891 10.5105105105105 10.5105105105105 6.66666666666667 16.1839863713799 16.1839863713799 16.1839863713799 10.8191653786708 8.82825040128411 8.82825040128411 8.82825040128411 8.82825040128411 6.50557620817844 6.50557620817844 6.50557620817844 13.6986301369863 7.33333333333333 11.4678899082569 11.4678899082569 0 0 0 0 11.6731517509728 0 0 7.67918088737201 8.91410048622366 8.91410048622366 8.91410048622366 8.91410048622366 4.60122699386503 4.60122699386503 27.3722627737226 27.3722627737226 27.3722627737226 5.95238095238095 6.90846286701209 6.90846286701209 6.90846286701209 4.4529262086514 4.4529262086514 4.4529262086514 4.4529262086514 4.4529262086514 0 -9999 0 0 0 0 0 0 0 0 1.83150183150183 1.83150183150183 1.83150183150183 1.83150183150183 0 0 -9999 -9999 -9999 -9999 -9999 -9999 -9999 -9999 -9999 -9999 -9999 -9999 -9999 -9999 -9999 -9999 -9999 -9999 -9999 -9999 -9999 -9999 -9999 -9999 -9999 -9999 -9999 -9999 -9999 -9999 -9999 -9999 -9999 -9999 -9999 -9999 -9999 -9999 -9999 -9999 -9999 -9999 -9999 -9999 -9999 -9999 -9999 -9999 -9999 -9999 -9999 -9999 -9999 -9999 -9999 -9999 -9999 -9999 -9999 -9999 -9999 -9999 -9999 -9999 -9999 -9999 -9999 -9999 -9999 -9999 -9999 -9999 -9999 -9999 -9999 -9999 -9999 -9999 -9999 -9999 -9999 -9999 -9999 -9999 -9999 -9999 -9999 -9999 -9999 -9999 -9999 -9999
-9999 -9999 3.11203319502075 3.11203319502075 3.11203319502075 3.11203319502075 3.11203319502075 3.11203319502075 3.11203319502075 3.11203319502075 3.11203319502075 3.11203319502075 3.11203319502075 3.11203319502075 3.11203319502075 3.11203319502075 3.11203319502075 3.11203319502075 3.11203319502075 3.11203319502075 2.74223034734918 2.74223034734918 2.74223034734918 2.74223034734918 2.74223034734918 2.74223034734918 2.74223034734918 2.74223034734918 2.74223034734918 2.74223034734918 2.74223034734918 2.74223034734918 2.74223034734918 2.74223034734918 2.74223034734918 2.74223034734918 2.74223034734918 2.74223034734918 2.74223034734918 2.74223034734918 2.74223034734918 2.74223034734918 2.74223034734918 2.74223034734918 2.74223034734918 2.74223034734918 2.74223034734918 2.74223034734918 2.74223034734918 2.74223034734918 2.74223034734918 2.74223034734918 2.74223034734918 2.74223034734918 2.74223034734918 2.74223034734918 2.4390243902439 2.4390243902439 2.4390243902439 2.4390243902439 2.4390243902439 2.4390243902439 2.4390243902439 0.879507475813544 0.879507475813544 0.879507475813544 0.879507475813544 0.879507475813544 0.879507475813544 0.879507475813544 0.879507475813544 0.879507475813544 0.879507475813544 0.879507475813544 0.879507475813544 0.879507475813544 0.879507475813544 0.879507475813544 0.879507475813544 5.53505535055351 5.53505535055351 5.53505535055351 5.53505535055351 5.53505535055351 0 0 8.89328063241107 8.89328063241107 8.89328063241107 0 8.89328063241107 8.89328063241107 0 0 0 3.4324942791762 3.81679389312977 3.81679389312977 3.81679389312977 3.81679389312977 0 0 0 0 0 0 0 0 0 0 0 0 0 0 0 0 0 0 0 3.40599455040872 3.40599455040872 3.40599455040872 3.40599455040872 3.40599455040872 3.40599455040872 3.40599455040872 0 0 0 0 0 -9999 -9999 -9999 -9999 -9999 -9999 -9999 -9999 -9999 -9999 -9999 -9999 -9999 -9999 -9999 -9999 -9999 -9999 -9999 -9999 -9999 -9999 -9999 -9999 -9999 -9999 -9999 -9999 -9999 -9999 -9999 -9999 -9999 -9999 -9999 -9999 -9999 -9999 -9999 -9999 -9999 -9999 -9999 -9999 -9999 -9999 -9999 -9999 -9999 -9999 -9999 -9999 -9999 -9999 -9999 -9999 -9999 -9999 -9999 -9999 -9999 -9999 -9999 -9999 -9999 -9999 -9999 -9999 -9999 -9999 -9999 -9999 -9999 -9999 -9999 -9999 -9999 -9999 -9999 -9999 -9999 -9999 -9999 -9999 -9999 -9999 -9999 -9999 -9999 -9999 -9999 -9999 -9999 -9999 -9999 -9999 -9999 -9999 -9999 -9999 -9999 -9999 -9999 -9999 -9999 -9999 -9999 -9999 -9999 -9999 -9999 -9999 -9999 -9999 -9999 -9999 0 -9999 -9999 -9999 -9999 -9999 -9999 -9999 -9999 -9999 -9999 8.54037267080745 8.54037267080745 4.739336492891 4.739336492891 4.739336492891 6.66666666666667 6.66666666666667 6.66666666666667 4.13793103448276 10.8191653786708 10.8191653786708 10.8191653786708 8.82825040128411 8.82825040128411 8.82825040128411 6.50557620817844 6.50557620817844 6.50557620817844 6.50557620817844 7.33333333333333 7.33333333333333 11.4678899082569 7.33333333333333 27.1317829457364 0 0 0 0 14.9253731343284 14.9253731343284 14.9253731343284 14.9253731343284 8.91410048622366 4.60122699386503 4.60122699386503 4.60122699386503 5.95238095238095 5.95238095238095 5.95238095238095 5.95238095238095 6.90846286701209 6.90846286701209 6.90846286701209 4.4529262086514 4.4529262086514 4.4529262086514 4.4529262086514 0 -9999 0 0 0 0 5.74712643678161 5.74712643678161 0 0 0 0 4.46428571428571 4.46428571428571 4.46428571428571 0 -9999 -9999 -9999 -9999 -9999 -9999 -9999 -9999 -9999 -9999 -9999 -9999 -9999 -9999 -9999 -9999 -9999 -9999 -9999 -9999 -9999 -9999 -9999 -9999 -9999 -9999 -9999 -9999 -9999 -9999 -9999 -9999 -9999 -9999 -9999 -9999 -9999 -9999 -9999 -9999 -9999 -9999 -9999 -9999 -9999 -9999 -9999 -9999 -9999 -9999 -9999 -9999 -9999 -9999 -9999 -9999 -9999 -9999 -9999 -9999 -9999 -9999 -9999 -9999 -9999 -9999 -9999 -9999 -9999 -9999 -9999 -9999 -9999 -9999 -9999 -9999 -9999 -9999 -9999 -9999 -9999 -9999 -9999 -9999 -9999 -9999 -9999 -9999 -9999 -9999 -9999 -9999 -9999 -9999
-9999 -9999 3.11203319502075 3.11203319502075 3.11203319502075 3.11203319502075 3.11203319502075 3.11203319502075 3.11203319502075 3.11203319502075 3.11203319502075 3.11203319502075 3.11203319502075 3.11203319502075 3.11203319502075 3.11203319502075 3.11203319502075 3.11203319502075 3.11203319502075 2.74223034734918 2.74223034734918 2.74223034734918 2.74223034734918 2.74223034734918 2.74223034734918 2.74223034734918 2.74223034734918 2.74223034734918 2.74223034734918 2.74223034734918 2.74223034734918 2.74223034734918 2.74223034734918 2.74223034734918 2.74223034734918 2.74223034734918 2.74223034734918 2.74223034734918 2.74223034734918 2.74223034734918 2.74223034734918 2.74223034734918 2.74223034734918 2.74223034734918 2.74223034734918 2.74223034734918 2.74223034734918 2.74223034734918 2.74223034734918 2.74223034734918 2.74223034734918 2.74223034734918 2.74223034734918 2.74223034734918 2.4390243902439 2.4390243902439 2.4390243902439 2.4390243902439 2.4390243902439 2.4390243902439 2.4390243902439 2.4390243902439 2.4390243902439 2.4390243902439 0.879507475813544 0.879507475813544 0.879507475813544 0.879507475813544 0.879507475813544 0.879507475813544 0.879507475813544 0.879507475813544 0.879507475813544 0.879507475813544 0.879507475813544 0.879507475813544 0.879507475813544 0.879507475813544 0.879507475813544 5.53505535055351 5.53505535055351 5.53505535055351 5.53505535055351 5.53505535055351 5.53505535055351 8.89328063241107 8.89328063241107 8.89328063241107 8.89328063241107 8.89328063241107 3.81679389312977 3.81679389312977 3.81679389312977 3.81679389312977 3.81679389312977 3.81679389312977 8.53889943074004 8.53889943074004 0 0 0 0 0 0 0 0 0 0 0 0 0 9.61538461538462 9.61538461538462 9.61538461538462 9.61538461538462 9.61538461538462 9.61538461538462 9.61538461538462 0 0 3.40599455040872 3.40599455040872 3.40599455040872 3.40599455040872 2.10526315789474 0 0 0 0 0 2.10526315789474 -9999 -9999 -9999 -9999 -9999 -9999 -9999 -9999 -9999 -9999 -9999 -9999 -9999 -9999 -9999 -9999 -9999 -9999 -9999 -9999 -9999 -9999 -9999 -9999 -9999 -9999 -9999 -9999 -9999 -9999 -9999 -9999 -9999 -9999 -9999 -9999 -9999 -9999 -9999 -9999 -9999 -9999 -9999 -9999 -9999 -9999 -9999 -9999 -9999 -9999 -9999 -9999 -9999 -9999 -9999 -9999 -9999 -9999 -9999 -9999 -9999 -9999 -9999 -9999 -9999 -9999 -9999 -9999 -9999 -9999 -9999 -9999 -9999 -9999 -9999 -9999 -9999 -9999 -9999 -9999 -9999 -9999 -9999 -9999 -9999 -9999 -9999 -9999 -9999 -9999 -9999 -9999 -9999 -9999 -9999 -9999 -9999 -9999 -9999 -9999 -9999 -9999 -9999 -9999 -9999 -9999 -9999 -9999 -9999 -9999 -9999 -9999 0 0 0 -9999 -9999 -9999 -9999 -9999 -9999 -9999 -9999 -9999 -9999 -9999 -9999 8.54037267080745 8.54037267080745 4.739336492891 4.739336492891 12.0643431635389 6.66666666666667 6.66666666666667 6.66666666666667 4.13793103448276 10.8191653786708 10.8191653786708 10.8191653786708 10.8191653786708 10 10 10 6.50557620817844 6.50557620817844 6.50557620817844 7.33333333333333 7.33333333333333 7.33333333333333 7.33333333333333 27.1317829457364 27.1317829457364 14.9253731343284 14.9253731343284 14.9253731343284 14.9253731343284 22.3713646532438 22.3713646532438 5.47445255474453 5.47445255474453 5.47445255474453 14.3646408839779 14.3646408839779 14.3646408839779 14.3646408839779 10.8024691358025 5.24475524475525 9.01525658807212 5.24475524475525 5.24475524475525 9.01525658807212 4.4529262086514 4.4529262086514 0 -9999 0 0 5.5452865064695 5.5452865064695 5.5452865064695 5.74712643678161 5.74712643678161 5.74712643678161 3.13807531380753 3.13807531380753 3.13807531380753 3.13807531380753 3.13807531380753 3.13807531380753 -9999 -9999 -9999 -9999 -9999 -9999 -9999 -9999 -9999 -9999 -9999 -9999 -9999 -9999 -9999 -9999 -9999 -9999 -9999 -9999 -9999 -9999 -9999 -9999 -9999 -9999 -9999 -9999 -9999 -9999 -9999 -9999 -9999 -9999 -9999 -9999 -9999 -9999 -9999 -9999 -9999 -9999 -9999 -9999 -9999 -9999 -9999 -9999 -9999 -9999 -9999 -9999 -9999 -9999 -9999 -9999 -9999 -9999 -9999 -9999 -9999 -9999 -9999 -9999 -9999 -9999 -9999 -9999 -9999 -9999 -9999 -9999 -9999 -9999 -9999 -9999 -9999 -9999 -9999 -9999 -9999 -9999 -9999 -9999 -9999 -9999 -9999 -9999 -9999 -9999 -9999 -9999 -9999 -9999 -9999
-9999 3.11203319502075 3.11203319502075 3.11203319502075 3.11203319502075 3.11203319502075 3.11203319502075 3.11203319502075 3.11203319502075 3.11203319502075 3.11203319502075 3.11203319502075 3.11203319502075 3.11203319502075 3.11203319502075 3.11203319502075 3.11203319502075 3.11203319502075 2.74223034734918 2.74223034734918 2.74223034734918 2.74223034734918 2.74223034734918 2.74223034734918 2.74223034734918 2.74223034734918 2.74223034734918 2.74223034734918 2.74223034734918 2.74223034734918 2.74223034734918 2.74223034734918 2.74223034734918 2.74223034734918 2.74223034734918 2.74223034734918 2.74223034734918 2.74223034734918 2.74223034734918 2.74223034734918 2.74223034734918 2.74223034734918 2.74223034734918 2.74223034734918 2.74223034734918 2.74223034734918 2.74223034734918 2.74223034734918 2.74223034734918 2.74223034734918 2.74223034734918 2.74223034734918 2.4390243902439 2.4390243902439 2.4390243902439 2.4390243902439 2.4390243902439 2.4390243902439 2.4390243902439 2.4390243902439 2.4390243902439 2.4390243902439 2.4390243902439 2.4390243902439 0.879507475813544 0.879507475813544 0.879507475813544 0.879507475813544 0.879507475813544 0.879507475813544 0.879507475813544 0.879507475813544 0.879507475813544 0.879507475813544 0.879507475813544 0.879507475813544 0.879507475813544 0.879507475813544 0.879507475813544 0.879507475813544 0.879507475813544 0.879507475813544 8.89328063241107 8.89328063241107 3.81679389312977 3.81679389312977 3.81679389312977 3.81679389312977 3.81679389312977 3.81679389312977 0 0 0 0 0 0 0 0 0 8.53889943074004 8.53889943074004 8.53889943074004 0 0 0 0 0 -9999 -9999 -9999 0 0 9.61538461538462 9.61538461538462 9.61538461538462 9.61538461538462 9.61538461538462 9.61538461538462 0 0 2.10526315789474 3.40599455040872 2.10526315789474 2.10526315789474 2.10526315789474 2.10526315789474 2.10526315789474 2.10526315789474 -9999 -9999 -9999 -9999 -9999 -9999 -9999 -9999 -9999 -9999 -9999 -9999 -9999 -9999 -9999 -9999 -9999 -9999 -9999 -9999 -9999 -9999 -9999 -9999 -9999 -9999 -9999 -9999 -9999 -9999 -9999 -9999 -9999 -9999 -9999 -9999 -9999 -9999 -9999 -9999 -9999 -9999 -9999 -9999 -9999 -9999 -9999 -9999 -9999 -9999 -9999 -9999 -9999 -9999 -9999 -9999 -9999 -9999 -9999 -9999 -9999 -9999 -9999 -9999 -9999 -9999 -9999 -9999 -9999 -9999 -9999 -9999 -9999 -9999 -9999 -9999 -9999 -9999 -9999 -9999 -9999 -9999 -9999 -9999 -9999 -9999 -9999 -9999 -9999 -9999 -9999 -9999 -9999 -9999 -9999 -9999 -9999 -9999 -9999 -9999 -9999 -9999 -9999 -9999 -9999 -9999 -9999 -9999 -9999 -9999 -9999 -9999 -9999 -9999 -9999 0 0 -9999 -9999 -9999 -9999 -9999 -9999 -9999 -9999 -9999 -9999 -9999 -9999 -9999 8.54037267080745 14.9750415973378 14.9750415973378 14.9750415973378 12.0643431635389 6.66666666666667 6.66666666666667 6.66666666666667 4.13793103448276 4.13793103448276 10.8191653786708 10.8191653786708 10.8191653786708 10 10 10 10 10 10 10 7.33333333333333 7.33333333333333 19.1780821917808 19.1780821917808 19.1780821917808 19.1780821917808 9.00900900900901 14.9253731343284 22.6244343891403 22.3713646532438 22.3713646532438 5.47445255474453 5.47445255474453 5.47445255474453 14.3646408839779 14.3646408839779 5.24475524475525 5.24475524475525 5.24475524475525 5.24475524475525 5.24475524475525 5.24475524475525 9.01525658807212 9.01525658807212 5.24475524475525 -9999 9.00163666121113 9.00163666121113 9.00163666121113 7.74336283185841 5.5452865064695 5.5452865064695 0 0 0 3.13807531380753 3.13807531380753 3.13807531380753 3.13807531380753 3.13807531380753 3.13807531380753 -9999 -9999 -9999 -9999 -9999 -9999 -9999 -9999 -9999 -9999 -9999 -9999 -9999 -9999 -9999 -9999 -9999 -9999 -9999 -9999 -9999 -9999 -9999 -9999 -9999 -9999 -9999 -9999 -9999 -9999 -9999 -9999 -9999 -9999 -9999 -9999 -9999 -9999 -9999 -9999 -9999 -9999 -9999 -9999 -9999 -9999 -9999 -9999 -9999 -9999 -9999 -9999 -9999 -9999 -9999 -9999 -9999 -9999 -9999 -9999 -9999 -9999 -9999 -9999 -9999 -9999 -9999 -9999 -9999 -9999 -9999 -9999 -9999 -9999 -9999 -9999 -9999 -9999 -9999 -9999 -9999 -9999 -9999 -9999 -9999 -9999 -9999 -9999 -9999 -9999 -9999 -9999 -9999 -9999 -9999 -9999
-9999 3.11203319502075 3.11203319502075 3.11203319502075 3.11203319502075 3.11203319502075 3.11203319502075 3.11203319502075 3.11203319502075 3.11203319502075 3.11203319502075 3.11203319502075 3.11203319502075 3.11203319502075 3.11203319502075 3.11203319502075 3.11203319502075 2.74223034734918 2.74223034734918 2.74223034734918 2.74223034734918 2.74223034734918 2.74223034734918 2.74223034734918 2.74223034734918 2.74223034734918 2.74223034734918 2.74223034734918 2.74223034734918 2.74223034734918 2.74223034734918 2.74223034734918 2.74223034734918 2.74223034734918 2.74223034734918 2.74223034734918 2.74223034734918 2.74223034734918 2.74223034734918 2.74223034734918 2.74223034734918 2.74223034734918 2.74223034734918 2.74223034734918 2.74223034734918 2.74223034734918 2.74223034734918 2.74223034734918 2.74223034734918 2.74223034734918 2.74223034734918 2.4390243902439 2.4390243902439 2.4390243902439 2.4390243902439 2.4390243902439 2.4390243902439 2.4390243902439 2.4390243902439 2.4390243902439 2.4390243902439 2.4390243902439 2.4390243902439 2.4390243902439 0.879507475813544 0.879507475813544 0.879507475813544 0.879507475813544 0.879507475813544 0.879507475813544 0.879507475813544 0.879507475813544 0.879507475813544 0.879507475813544 0.879507475813544 0.879507475813544 8.89328063241107 0 3.81679389312977 3.81679389312977 3.81679389312977 3.81679389312977 3.81679389312977 3.81679389312977 3.81679389312977 3.87596899224806 3.81679389312977 3.81679389312977 3.81679389312977 3.81679389312977 3.81679389312977 0 0 0 0 0 0 8.53889943074004 8.53889943074004 8.53889943074004 8.53889943074004 8.53889943074004 0 8.53889943074004 -9999 -9999 -9999 -9999 -9999 -9999 -9999 -9999 -9999 9.61538461538462 9.61538461538462 9.61538461538462 9.61538461538462 9.61538461538462 0 -9999 -9999 -9999 -9999 -9999 2.10526315789474 2.10526315789474 2.10526315789474 2.10526315789474 2.10526315789474 -9999 -9999 -9999 -9999 -9999 -9999 -9999 -9999 -9999 -9999 -9999 -9999 -9999 -9999 -9999 -9999 -9999 -9999 -9999 -9999 -9999 -9999 -9999 -9999 -9999 -9999 -9999 -9999 -9999 -9999 -9999 -9999 -9999 -9999 -9999 -9999 -9999 -9999 -9999 -9999 -9999 -9999 -9999 -9999 -9999 -9999 -9999 -9999 -9999 -9999 -9999 -9999 -9999 -9999 -9999 -9999 -9999 -9999 -9999 -9999 -9999 -9999 -9999 -9999 -9999 -9999 -9999 -9999 -9999 -9999 -9999 -9999 -9999 -9999 -9999 -9999 -9999 -9999 -9999 -9999 -9999 -9999 -9999 -9999 -9999 -9999 -9999 -9999 -9999 -9999 -9999 -9999 -9999 -9999 -9999 -9999 -9999 -9999 -9999 -9999 -9999 -9999 -9999 -9999 -9999 -9999 -9999 -9999 -9999 -9999 -9999 -9999 -9999 -9999 -9999 -9999 0 0 0 -9999 -9999 -9999 -9999 -9999 -9999 -9999 -9999 -9999 -9999 14.9750415973378 14.9750415973378 14.9750415973378 14.9750415973378 12.0643431635389 6.66666666666667 6.66666666666667 6.66666666666667 0 0 0 0 0 0 10 10 10 10 10 17.8082191780822 17.8082191780822 10.9561752988048 10.9561752988048 10.9561752988048 19.1780821917808 22.6244343891403 9.47368421052632 9.00900900900901 9.00900900900901 22.6244343891403 14.4092219020173 14.4092219020173 5.47445255474453 5.47445255474453 14.3646408839779 11.7283950617284 5.24475524475525 5.24475524475525 5.24475524475525 5.24475524475525 5.24475524475525 5.24475524475525 5.24475524475525 5.24475524475525 -9999 9.00163666121113 9.00163666121113 9.00163666121113 9.00163666121113 7.74336283185841 7.74336283185841 7.74336283185841 7.74336283185841 7.74336283185841 7.74336283185841 5.08905852417303 5.08905852417303 3.13807531380753 3.13807531380753 3.13807531380753 3.13807531380753 3.13807531380753 -9999 -9999 -9999 -9999 -9999 -9999 -9999 -9999 -9999 -9999 -9999 -9999 -9999 -9999 -9999 -9999 -9999 -9999 -9999 -9999 -9999 -9999 -9999 -9999 -9999 -9999 -9999 -9999 -9999 -9999 -9999 -9999 -9999 -9999 -9999 -9999 -9999 -9999 -9999 -9999 -9999 -9999 -9999 -9999 -9999 -9999 -9999 -9999 -9999 -9999 -9999 -9999 -9999 -9999 -9999 -9999 -9999 -9999 -9999 -9999 -9999 -9999 -9999 -9999 -9999 -9999 -9999 -9999 -9999 -9999 -9999 -9999 -9999 -9999 -9999 -9999 -9999 -9999 -9999 -9999 -9999 -9999 -9999 -9999 -9999 -9999 -9999 -9999 -9999 -9999 -9999 -9999 -9999 -9999 -9999
-9999 3.11203319502075 3.11203319502075 3.11203319502075 3.11203319502075 3.11203319502075 3.11203319502075 3.11203319502075 3.11203319502075 3.11203319502075 3.11203319502075 3.11203319502075 3.11203319502075 3.11203319502075 3.11203319502075 3.11203319502075 2.74223034734918 2.74223034734918 2.74223034734918 2.74223034734918 2.74223034734918 2.74223034734918 2.74223034734918 2.74223034734918 2.74223034734918 2.74223034734918 2.74223034734918 2.74223034734918 2.74223034734918 2.74223034734918 2.74223034734918 2.74223034734918 2.74223034734918 2.74223034734918 2.74223034734918 2.74223034734918 2.74223034734918 2.74223034734918 2.74223034734918 2.74223034734918 2.74223034734918 2.74223034734918 2.74223034734918 2.74223034734918 2.74223034734918 2.74223034734918 2.74223034734918 2.74223034734918 2.74223034734918 2.4390243902439 2.4390243902439 2.4390243902439 2.4390243902439 2.4390243902439 2.4390243902439 2.4390243902439 2.4390243902439 2.4390243902439 2.4390243902439 2.4390243902439 2.4390243902439 2.4390243902439 2.4390243902439 2.4390243902439 0.879507475813544 0.879507475813544 0.879507475813544 0.879507475813544 0.879507475813544 0.879507475813544 0.879507475813544 2.22882615156018 2.22882615156018 2.22882615156018 2.22882615156018 0 0 0 4.3859649122807 4.3859649122807 4.3859649122807 4.3859649122807 4.3859649122807 3.87596899224806 3.87596899224806 3.87596899224806 3.81679389312977 3.81679389312977 3.81679389312977 3.81679389312977 3.81679389312977 0 0 0 0 0 0 0 8.53889943074004 8.53889943074004 8.53889943074004 8.53889943074004 8.53889943074004 -9999 -9999 -9999 -9999 -9999 -9999 -9999 -9999 -9999 -9999 -9999 0 0 0 0 -9999 -9999 -9999 -9999 -9999 -9999 2.10526315789474 2.10526315789474 2.10526315789474 2.10526315789474 2.10526315789474 -9999 -9999 -9999 -9999 -9999 -9999 -9999 -9999 -9999 -9999 -9999 -9999 -9999 -9999 -9999 -9999 -9999 -9999 -9999 -9999 -9999 -9999 -9999 -9999 -9999 -9999 -9999 -9999 -9999 -9999 -9999 -9999 -9999 -9999 -9999 -9999 -9999 -9999 -9999 -9999 -9999 -9999 -9999 -9999 -9999 -9999 -9999 -9999 -9999 -9999 -9999 -9999 -9999 -9999 -9999 -9999 -9999 -9999 -9999 -9999 -9999 -9999 -9999 -9999 -9999 -9999 -9999 -9999 -9999 -9999 -9999 -9999 -9999 -9999 -9999 -9999 -9999 -9999 -9999 -9999 -9999 -9999 -9999 -9999 -9999 -9999 -9999 -9999 -9999 -9999 -9999 -9999 -9999 -9999 -9999 -9999 -9999 -9999 -9999 -9999 -9999 -9999 -9999 -9999 -9999 -9999 -9999 -9999 -9999 -9999 -9999 -9999 -9999 -9999 -9999 -9999 -9999 -9999 -9999 -9999 -9999 -9999 -9999 -9999 -9999 -9999 -9999 -9999 -9999 -9999 0 0 0 0 0 6.66666666666667 0 0 0 0 0 0 14.0625 14.0625 14.0625 14.0625 14.0625 14.0625 14.0625 14.0625 10.9561752988048 10.9561752988048 19.1780821917808 19.1780821917808 9.47368421052632 9.47368421052632 9.00900900900901 26.8817204301075 23.5294117647059 23.5294117647059 23.5294117647059 14.4092219020173 11.7283950617284 11.7283950617284 11.7283950617284 5.24475524475525 5.24475524475525 5.24475524475525 5.24475524475525 5.24475524475525 5.24475524475525 -9999 7.33137829912024 9.00163666121113 9.00163666121113 9.00163666121113 9.00163666121113 9.00163666121113 9.00163666121113 5.12820512820513 5.12820512820513 5.12820512820513 5.12820512820513 7.37463126843658 7.37463126843658 7.37463126843658 0 -9999 -9999 3.13807531380753 3.13807531380753 -9999 -9999 -9999 -9999 -9999 -9999 -9999 -9999 -9999 3.13807531380753 3.13807531380753 3.13807531380753 3.13807531380753 3.13807531380753 3.13807531380753 -9999 -9999 -9999 -9999 -9999 -9999 -9999 -9999 -9999 -9999 -9999 -9999 -9999 -9999 -9999 -9999 -9999 -9999 -9999 -9999 -9999 -9999 -9999 -9999 -9999 -9999 -9999 -9999 -9999 -9999 -9999 -9999 -9999 -9999 -9999 -9999 -9999 -9999 -9999 -9999 -9999 -9999 -9999 -9999 -9999 -9999 -9999 -9999 -9999 -9999 -9999 -9999 -9999 -9999 -9999 -9999 -9999 -9999 -9999 -9999 -9999 -9999 -9999 -9999 -9999 -9999 -9999 -9999 -9999 -9999 -9999 -9999 -9999 -9999 -9999 -9999 -9999 -9999 -9999 -9999
-9999 3.11203319502075 3.11203319502075 3.11203319502075 3.11203319502075 3.11203319502075 3.11203319502075 3.11203319502075 3.11203319502075 3.11203319502075 3.11203319502075 3.11203319502075 3.11203319502075 3.11203319502075 3.11203319502075 3.11203319502075 3.11203319502075 2.74223034734918 2.74223034734918 2.74223034734918 2.74223034734918 2.74223034734918 2.74223034734918 2.74223034734918 2.74223034734918 2.74223034734918 2.74223034734918 2.74223034734918 2.74223034734918 2.74223034734918 2.74223034734918 2.74223034734918 2.74223034734918 2.74223034734918 2.74223034734918 2.74223034734918 2.74223034734918 2.74223034734918 2.74223034734918 2.74223034734918 2.74223034734918 2.74223034734918 2.74223034734918 2.74223034734918 2.74223034734918 2.74223034734918 2.74223034734918 2.4390243902439 2.4390243902439 2.4390243902439 2.4390243902439 2.4390243902439 2.4390243902439 2.4390243902439 2.4390243902439 2.4390243902439 2.4390243902439 2.4390243902439 2.4390243902439 2.4390243902439 2.4390243902439 2.4390243902439 2.4390243902439 2.4390243902439 2.4390243902439 2.22882615156018 2.22882615156018 2.22882615156018 2.22882615156018 2.22882615156018 2.22882615156018 2.22882615156018 2.22882615156018 2.22882615156018 0 0 0 0 0 4.3859649122807 4.3859649122807 4.3859649122807 4.3859649122807 4.3859649122807 3.87596899224806 3.87596899224806 3.87596899224806 3.81679389312977 3.81679389312977 3.81679389312977 3.81679389312977 0 0 0 0 8.53889943074004 8.53889943074004 8.53889943074004 8.53889943074004 8.53889943074004 8.53889943074004 -9999 -9999 -9999 -9999 -9999 -9999 -9999 -9999 -9999 -9999 -9999 -9999 -9999 -9999 -9999 -9999 -9999 -9999 -9999 -9999 -9999 -9999 -9999 2.10526315789474 -9999 -9999 -9999 -9999 -9999 -9999 -9999 -9999 -9999 -9999 -9999 -9999 -9999 -9999 -9999 -9999 -9999 -9999 -9999 -9999 -9999 -9999 -9999 -9999 -9999 -9999 -9999 -9999 -9999 -9999 -9999 -9999 -9999 -9999 -9999 -9999 -9999 -9999 -9999 -9999 -9999 -9999 -9999 -9999 -9999 -9999 -9999 -9999 -9999 -9999 -9999 -9999 -9999 -9999 -9999 -9999 -9999 -9999 -9999 -9999 -9999 -9999 -9999 -9999 -9999 -9999 -9999 -9999 -9999 -9999 -9999 -9999 -9999 -9999 -9999 -9999 -9999 -9999 -9999 -9999 -9999 -9999 -9999 -9999 -9999 -9999 -9999 -9999 -9999 -9999 -9999 -9999 -9999 -9999 -9999 -9999 -9999 -9999 -9999 -9999 -9999 -9999 -9999 -9999 -9999 -9999 -9999 -9999 -9999 -9999 -9999 -9999 -9999 -9999 -9999 -9999 -9999 -9999 -9999 -9999 -9999 -9999 -9999 -9999 -9999 -9999 -9999 -9999 -9999 -9999 -9999 -9999 -9999 -9999 -9999 -9999 -9999 0 0 6.66666666666667 0 0 0 0 0 0 14.0625 14.0625 14.0625 14.0625 14.0625 14.0625 14.0625 14.0625 25.7452574525745 25.7452574525745 25.7452574525745 25.7452574525745 25.7452574525745 25.7452574525745 25.7452574525745 25.7452574525745 19.1780821917808 19.1780821917808 19.1780821917808 19.1780821917808 19.1780821917808 11.7283950617284 5.24475524475525 5.24475524475525 5.24475524475525 5.24475524475525 5.24475524475525 5.24475524475525 5.20833333333333 7.33137829912024 7.33137829912024 7.33137829912024 7.33137829912024 9.00163666121113 3.69685767097967 9.00163666121113 5.43478260869565 5.43478260869565 5.61797752808989 5.61797752808989 5.12820512820513 0 0 7.37463126843658 -9999 -9999 -9999 3.13807531380753 -9999 -9999 -9999 -9999 -9999 -9999 -9999 -9999 3.13807531380753 3.13807531380753 3.13807531380753 3.13807531380753 -9999 3.13807531380753 3.13807531380753 3.13807531380753 3.13807531380753 -9999 -9999 -9999 -9999 -9999 -9999 -9999 -9999 -9999 -9999 -9999 -9999 -9999 -9999 -9999 -9999 -9999 -9999 -9999 -9999 -9999 -9999 -9999 -9999 -9999 -9999 -9999 -9999 -9999 -9999 -9999 -9999 -9999 -9999 -9999 -9999 -9999 -9999 -9999 -9999 -9999 -9999 -9999 -9999 -9999 -9999 -9999 -9999 -9999 -9999 -9999 -9999 -9999 -9999 -9999 -9999 -9999 -9999 -9999 -9999 -9999 -9999 -9999 -9999 -9999 -9999 -9999 -9999 -9999 -9999 -9999 -9999 -9999 -9999 -9999 -9999 -9999 -9999 -9999
-9999 -9999 -9999 -9999 -9999 3.11203319502075 3.11203319502075 3.11203319502075 3.11203319502075 3.11203319502075 3.11203319502075 3.11203319502075 3.11203319502075 3.11203319502075 3.11203319502075 3.11203319502075 3.11203319502075 2.74223034734918 2.74223034734918 2.74223034734918 2.74223034734918 2.74223034734918 2.74223034734918 2.74223034734918 2.74223034734918 2.74223034734918 2.74223034734918 2.74223034734918 2.74223034734918 2.74223034734918 2.74223034734918 2.74223034734918 2.74223034734918 2.74223034734918 2.74223034734918 2.74223034734918 2.74223034734918 2.74223034734918 2.74223034734918 2.74223034734918 2.74223034734918 2.74223034734918 2.74223034734918 2.74223034734918 2.74223034734918 2.4390243902439 2.4390243902439 2.4390243902439 2.4390243902439 2.4390243902439 2.4390243902439 2.4390243902439 2.4390243902439 2.4390243902439 2.4390243902439 2.4390243902439 2.4390243902439 2.4390243902439 2.4390243902439 2.4390243902439 2.4390243902439 2.4390243902439 2.4390243902439 2.4390243902439 2.4390243902439 2.22882615156018 2.22882615156018 2.22882615156018 2.22882615156018 2.22882615156018 2.22882615156018 2.22882615156018 2.22882615156018 2.22882615156018 2.22882615156018 0 0 0 0 4.3859649122807 4.3859649122807 4.3859649122807 4.3859649122807 3.87596899224806 3.87596899224806 3.87596899224806 3.81679389312977 3.81679389312977 3.81679389312977 3.81679389312977 3.81679389312977 3.81679389312977 0 8.53889943074004 8.53889943074004 8.53889943074004 -9999 -9999 -9999 -9999 -9999 -9999 -9999 -9999 -9999 -9999 -9999 -9999 -9999 -9999 -9999 -9999 -9999 -9999 -9999 -9999 -9999 -9999 -9999 -9999 -9999 -9999 -9999 -9999 -9999 -9999 -9999 -9999 -9999 -9999 -9999 -9999 -9999 -9999 -9999 -9999 -9999 -9999 -9999 -9999 -9999 -9999 -9999 -9999 -9999 -9999 -9999 -9999 -9999 -9999 -9999 -9999 -9999 -9999 -9999 -9999 -9999 -9999 -9999 -9999 -9999 -9999 -9999 -9999 -9999 -9999 -9999 -9999 -9999 -9999 -9999 -9999 -9999 -9999 -9999 -9999 -9999 -9999 -9999 -9999 -9999 -9999 -9999 -9999 -9999 -9999 -9999 -9999 -9999 -9999 -9999 -9999 -9999 -9999 -9999 -9999 -9999 -9999 -9999 -9999 -9999 -9999 -9999 -9999 -9999 -9999 -9999 -9999 -9999 -9999 -9999 -9999 -9999 -9999 -9999 -9999 -9999 -9999 -9999 -9999 -9999 -9999 -9999 -9999 -9999 -9999 -9999 -9999 -9999 -9999 -9999 -9999 -9999 -9999 -9999 -9999 -9999 -9999 -9999 -9999 -9999 -9999 -9999 -9999 -9999 -9999 -9999 -9999 -9999 -9999 -9999 -9999 -9999 -9999 -9999 -9999 -9999 -9999 -9999 -9999 -9999 -9999 -9999 0 0 0 0 0 0 0 0 0 0 14.0625 14.0625 14.0625 14.0625 14.0625 25.7452574525745 25.7452574525745 25.7452574525745 25.7452574525745 25.7452574525745 25.7452574525745 25.7452574525745 9.92063492063492 7.14285714285714 7.14285714285714 13.0784708249497 25.7452574525745 25.7452574525745 13.0784708249497 13.0784708249497 5.24475524475525 5.24475524475525 5.24475524475525 5.24475524475525 -9999 5.20833333333333 5.20833333333333 2.59965337954939 2.59965337954939 7.33137829912024 7.33137829912024 0 0 0 3.69685767097967 3.69685767097967 5.43478260869565 0 0 0 0 -9999 -9999 -9999 -9999 -9999 -9999 -9999 -9999 -9999 -9999 -9999 3.13807531380753 -9999 -9999 3.13807531380753 3.13807531380753 3.13807531380753 3.13807531380753 3.13807531380753 3.13807531380753 3.13807531380753 3.13807531380753 -9999 -9999 -9999 -9999 -9999 -9999 -9999 -9999 -9999 -9999 -9999 -9999 -9999 -9999 -9999 -9999 -9999 -9999 -9999 -9999 -9999 -9999 -9999 -9999 -9999 -9999 -9999 -9999 -9999 -9999 -9999 -9999 -9999 -9999 -9999 -9999 -9999 -9999 -9999 -9999 -9999 -9999 -9999 -9999 -9999 -9999 -9999 -9999 -9999 -9999 -9999 -9999 -9999 -9999 -9999 -9999 -9999 -9999 -9999 -9999 -9999 -9999 -9999 -9999 -9999 -9999 -9999 -9999 -9999 -9999 -9999 -9999 -9999 -9999 -9999 -9999 -9999 -9999 -9999
-9999 -9999 -9999 -9999 -9999 3.11203319502075 3.11203319502075 3.11203319502075 3.11203319502075 3.11203319502075 3.11203319502075 3.11203319502075 3.11203319502075 3.11203319502075 3.11203319502075 3.11203319502075 3.11203319502075 3.11203319502075 2.74223034734918 2.74223034734918 2.74223034734918 2.74223034734918 2.74223034734918 2.74223034734918 2.74223034734918 2.74223034734918 2.74223034734918 2.74223034734918 2.74223034734918 2.74223034734918 2.74223034734918 2.74223034734918 2.74223034734918 2.74223034734918 2.74223034734918 2.74223034734918 2.74223034734918 2.74223034734918 2.74223034734918 2.74223034734918 2.74223034734918 2.74223034734918 2.74223034734918 2.4390243902439 2.4390243902439 2.4390243902439 2.4390243902439 2.4390243902439 2.4390243902439 2.4390243902439 2.4390243902439 2.4390243902439 2.4390243902439 2.4390243902439 2.4390243902439 2.4390243902439 2.4390243902439 2.4390243902439 2.4390243902439 2.4390243902439 2.4390243902439 2.4390243902439 2.4390243902439 2.4390243902439 2.4390243902439 0 0 2.22882615156018 2.22882615156018 2.22882615156018 2.22882615156018 2.22882615156018 2.22882615156018 2.22882615156018 2.22882615156018 0 0 0 0 0 4.3859649122807 4.3859649122807 3.87596899224806 3.87596899224806 3.87596899224806 3.81679389312977 3.81679389312977 3.81679389312977 3.81679389312977 0 0 0 0 0 0 -9999 -9999 -9999 -9999 -9999 -9999 -9999 -9999 -9999 -9999 -9999 -9999 -9999 -9999 -9999 -9999 -9999 -9999 -9999 -9999 -9999 -9999 -9999 -9999 -9999 -9999 -9999 -9999 -9999 -9999 -9999 -9999 -9999 -9999 -9999 -9999 -9999 -9999 -9999 -9999 -9999 -9999 -9999 -9999 -9999 -9999 -9999 -9999 -9999 -9999 -9999 -9999 -9999 -9999 -9999 -9999 -9999 -9999 -9999 -9999 -9999 -9999 -9999 -9999 -9999 -9999 -9999 -9999 -9999 -9999 -9999 -9999 -9999 -9999 -9999 -9999 -9999 -9999 -9999 -9999 -9999 -9999 -9999 -9999 -9999 -9999 -9999 -9999 -9999 -9999 -9999 -9999 -9999 -9999 -9999 -9999 -9999 -9999 -9999 -9999 -9999 -9999 -9999 -9999 -9999 -9999 -9999 -9999 -9999 -9999 -9999 -9999 -9999 -9999 -9999 -9999 -9999 -9999 -9999 -9999 -9999 -9999 -9999 -9999 -9999 -9999 -9999 -9999 -9999 -9999 -9999 -9999 -9999 -9999 -9999 -9999 -9999 -9999 -9999 -9999 -9999 -9999 -9999 -9999 -9999 -9999 -9999 -9999 -9999 -9999 -9999 -9999 -9999 -9999 -9999 -9999 -9999 -9999 -9999 -9999 -9999 -9999 -9999 -9999 -9999 -9999 -9999 -9999 -9999 -9999 0 0 0 0 0 0 0 0 17.5 14.0625 14.0625 14.0625 14.0625 25.7452574525745 25.7452574525745 25.7452574525745 25.7452574525745 25.7452574525745 25.7452574525745 25.7452574525745 9.92063492063492 7.14285714285714 7.14285714285714 13.0784708249497 13.0784708249497 13.0784708249497 13.0784708249497 13.0784708249497 13.0784708249497 -9999 -9999 5.20833333333333 5.20833333333333 5.20833333333333 5.20833333333333 2.59965337954939 2.59965337954939 2.59965337954939 7.33137829912024 7.33137829912024 0 0 0 0 0 0 0 0 -9999 -9999 -9999 -9999 -9999 -9999 -9999 -9999 -9999 -9999 3.13807531380753 3.13807531380753 3.13807531380753 3.13807531380753 3.13807531380753 3.13807531380753 3.13807531380753 3.13807531380753 3.13807531380753 3.13807531380753 3.13807531380753 3.13807531380753 -9999 -9999 -9999 -9999 -9999 -9999 -9999 -9999 -9999 -9999 -9999 -9999 -9999 -9999 -9999 -9999 -9999 -9999 -9999 -9999 -9999 -9999 -9999 -9999 -9999 -9999 -9999 -9999 -9999 -9999 -9999 -9999 -9999 -9999 -9999 -9999 -9999 -9999 -9999 -9999 -9999 -9999 -9999 -9999 -9999 -9999 -9999 -9999 -9999 -9999 -9999 -9999 -9999 -9999 -9999 -9999 -9999 -9999 -9999 -9999 -9999 -9999 -9999 -9999 -9999 -9999 -9999 -9999 -9999 -9999 -9999 -9999 -9999 -9999 -9999 -9999 -9999 -9999 -9999 -9999
-9999 3.11203319502075 3.11203319502075 -9999 -9999 3.11203319502075 3.11203319502075 3.11203319502075 3.11203319502075 3.11203319502075 3.11203319502075 3.11203319502075 3.11203319502075 3.11203319502075 3.11203319502075 3.11203319502075 3.11203319502075 3.11203319502075 3.11203319502075 2.74223034734918 2.74223034734918 2.74223034734918 2.74223034734918 2.74223034734918 2.74223034734918 2.74223034734918 2.74223034734918 2.74223034734918 2.74223034734918 2.74223034734918 2.74223034734918 2.74223034734918 2.74223034734918 2.74223034734918 2.74223034734918 2.74223034734918 2.74223034734918 2.74223034734918 2.74223034734918 2.74223034734918 2.74223034734918 2.4390243902439 2.4390243902439 2.4390243902439 2.4390243902439 2.4390243902439 2.4390243902439 2.4390243902439 2.4390243902439 2.4390243902439 2.4390243902439 2.4390243902439 2.4390243902439 2.4390243902439 2.4390243902439 2.4390243902439 2.4390243902439 2.4390243902439 2.4390243902439 2.4390243902439 2.4390243902439 2.4390243902439 2.4390243902439 2.4390243902439 2.4390243902439 0 0 0 2.22882615156018 2.22882615156018 2.22882615156018 2.22882615156018 2.22882615156018 2.22882615156018 2.22882615156018 0 0 0 0 0 3.87596899224806 3.87596899224806 3.87596899224806 3.87596899224806 3.87596899224806 3.87596899224806 0 0 0 0 0 0 0 -9999 -9999 -9999 -9999 -9999 -9999 -9999 -9999 -9999 -9999 -9999 -9999 -9999 -9999 -9999 -9999 -9999 -9999 -9999 -9999 -9999 -9999 -9999 -9999 -9999 -9999 -9999 -9999 -9999 -9999 -9999 -9999 -9999 -9999 -9999 -9999 -9999 -9999 -9999 -9999 -9999 -9999 -9999 -9999 -9999 -9999 -9999 -9999 -9999 -9999 -9999 -9999 -9999 -9999 -9999 -9999 -9999 -9999 -9999 -9999 -9999 -9999 -9999 -9999 -9999 -9999 -9999 -9999 -9999 -9999 -9999 -9999 -9999 -9999 -9999 -9999 -9999 -9999 -9999 -9999 -9999 -9999 -9999 -9999 -9999 -9999 -9999 -9999 -9999 -9999 -9999 -9999 -9999 -9999 -9999 -9999 -9999 -9999 -9999 -9999 -9999 -9999 -9999 -9999 -9999 -9999 -9999 -9999 -9999 -9999 -9999 -9999 -9999 -9999 -9999 -9999 -9999 -9999 -9999 -9999 -9999 -9999 -9999 -9999 -9999 -9999 -9999 -9999 -9999 -9999 -9999 -9999 -9999 -9999 -9999 -9999 -9999 -9999 -9999 -9999 -9999 -9999 -9999 -9999 -9999 -9999 -9999 -9999 -9999 -9999 -9999 -9999 -9999 -9999 -9999 -9999 -9999 -9999 -9999 -9999 -9999 -9999 -9999 -9999 -9999 -9999 -9999 -9999 -9999 -9999 -9999 -9999 -9999 -9999 0 0 0 9.00900900900901 9.00900900900901 17.5 17.5 18.6170212765957 18.6170212765957 14.0625 8.07537012113055 8.07537012113055 8.07537012113055 8.07537012113055 25.7452574525745 25.7452574525745 5.33049040511727 5.33049040511727 5.33049040511727 5.33049040511727 9.92063492063492 13.0784708249497 13.0784708249497 13.0784708249497 -9999 3.90015600624025 3.90015600624025 5.20833333333333 5.20833333333333 5.20833333333333 5.20833333333333 2.59965337954939 2.59965337954939 2.59965337954939 2.59965337954939 2.59965337954939 2.59965337954939 3.51288056206089 3.51288056206089 3.51288056206089 0 0 4.34782608695652 4.34782608695652 4.34782608695652 -9999 -9999 -9999 -9999 -9999 -9999 -9999 -9999 -9999 -9999 -9999 3.13807531380753 3.13807531380753 3.13807531380753 3.13807531380753 3.13807531380753 3.13807531380753 3.13807531380753 3.13807531380753 3.13807531380753 3.13807531380753 3.13807531380753 -9999 -9999 -9999 -9999 -9999 -9999 -9999 -9999 -9999 -9999 -9999 -9999 -9999 -9999 -9999 -9999 -9999 -9999 -9999 -9999 -9999 -9999 -9999 -9999 -9999 -9999 -9999 -9999 -9999 -9999 -9999 -9999 -9999 -9999 -9999 -9999 -9999 -9999 -9999 -9999 -9999 -9999 -9999 -9999 -9999 -9999 -9999 -9999 -9999 -9999 -9999 -9999 -9999 -9999 -9999 -9999 -9999 -9999 -9999 -9999 -9999 -9999 -9999 -9999 -9999 -9999 -9999 -9999 -9999 -9999 -9999 -9999 -9999 -9999 -9999 -9999 -9999 -9999 -9999 -9999 -9999
-9999 3.11203319502075 3.11203319502075 3.11203319502075 -9999 3.11203319502075 3.11203319502075 3.42465753424658 3.42465753424658 3.42465753424658 3.42465753424658 3.42465753424658 3.42465753424658 3.42465753424658 3.42465753424658 3.42465753424658 3.42465753424658 3.42465753424658 3.42465753424658 2.74223034734918 2.74223034734918 2.74223034734918 2.74223034734918 2.74223034734918 2.74223034734918 2.74223034734918 2.74223034734918 2.74223034734918 2.74223034734918 2.74223034734918 2.74223034734918 2.74223034734918 2.74223034734918 2.74223034734918 2.74223034734918 2.74223034734918 2.74223034734918 2.74223034734918 2.74223034734918 2.4390243902439 2.4390243902439 2.4390243902439 2.4390243902439 2.4390243902439 2.4390243902439 2.4390243902439 2.4390243902439 2.4390243902439 2.4390243902439 2.4390243902439 2.4390243902439 2.4390243902439 2.4390243902439 2.4390243902439 2.4390243902439 2.4390243902439 8.0091533180778 8.0091533180778 8.0091533180778 8.0091533180778 8.0091533180778 2.4390243902439 2.4390243902439 2.4390243902439 2.4390243902439 2.4390243902439 0 0 0 0 9.92063492063492 9.92063492063492 9.92063492063492 9.92063492063492 9.92063492063492 0 0 0 0 0 3.87596899224806 3.87596899224806 3.87596899224806 3.87596899224806 0 0 0 0 -9999 -9999 -9999 -9999 -9999 -9999 -9999 -9999 -9999 -9999 -9999 -9999 -9999 -9999 -9999 -9999 -9999 -9999 -9999 -9999 -9999 -9999 -9999 -9999 -9999 -9999 -9999 -9999 -9999 -9999 -9999 -9999 -9999 -9999 -9999 -9999 -9999 -9999 -9999 -9999 -9999 -9999 -9999 -9999 -9999 -9999 -9999 -9999 -9999 -9999 -9999 -9999 -9999 -9999 -9999 -9999 -9999 -9999 -9999 -9999 -9999 -9999 -9999 -9999 -9999 -9999 -9999 -9999 -9999 -9999 -9999 -9999 -9999 -9999 -9999 -9999 -9999 -9999 -9999 -9999 -9999 -9999 -9999 -9999 -9999 -9999 -9999 -9999 -9999 -9999 -9999 -9999 -9999 -9999 -9999 -9999 -9999 -9999 -9999 -9999 -9999 -9999 -9999 -9999 -9999 -9999 -9999 -9999 -9999 -9999 -9999 -9999 -9999 -9999 -9999 -9999 -9999 -9999 -9999 -9999 -9999 -9999 -9999 -9999 -9999 -9999 -9999 -9999 -9999 -9999 -9999 -9999 -9999 -9999 -9999 -9999 -9999 -9999 -9999 -9999 -9999 -9999 -9999 -9999 -9999 -9999 -9999 -9999 -9999 -9999 -9999 -9999 -9999 -9999 -9999 -9999 -9999 -9999 -9999 -9999 -9999 -9999 -9999 -9999 -9999 -9999 -9999 -9999 -9999 -9999 -9999 -9999 -9999 -9999 -9999 -9999 -9999 -9999 -9999 -9999 -9999 9.00900900900901 9.00900900900901 9.00900900900901 7.91855203619909 17.5 17.5 18.6170212765957 14.0625 5.26315789473684 3.52733686067019 7.22543352601156 7.22543352601156 8.07537012113055 8.07537012113055 3.69822485207101 3.69822485207101 8.42266462480858 5.33049040511727 13.0784708249497 -9999 3.90015600624025 3.90015600624025 0 3.90015600624025 3.90015600624025 3.90015600624025 5.20833333333333 5.20833333333333 2.59965337954939 2.59965337954939 8.44277673545966 2.59965337954939 2.59965337954939 2.59965337954939 2.59965337954939 0 0 0 4.34782608695652 4.34782608695652 4.34782608695652 4.34782608695652 -9999 -9999 -9999 -9999 -9999 -9999 -9999 -9999 -9999 -9999 -9999 -9999 -9999 3.13807531380753 3.13807531380753 3.13807531380753 3.13807531380753 -9999 -9999 -9999 -9999 -9999 -9999 -9999 -9999 -9999 -9999 -9999 -9999 -9999 -9999 -9999 -9999 -9999 -9999 -9999 -9999 -9999 -9999 -9999 -9999 -9999 -9999 -9999 -9999 -9999 -9999 -9999 -9999 -9999 -9999 -9999 -9999 -9999 -9999 -9999 -9999 -9999 -9999 -9999 -9999 -9999 -9999 -9999 -9999 -9999 -9999 -9999 -9999 -9999 -9999 -9999 -9999 -9999 -9999 -9999 -9999 -9999 -9999 -9999 -9999 -9999 -9999 -9999 -9999 -9999 -9999 -9999 -9999 -9999 -9999 -9999 -9999 -9999 -9999 -9999 -9999 -9999 -9999 -9999 -9999 -9999 -9999 -9999
-9999 -9999 -9999 -9999 -9999 -9999 3.11203319502075 3.11203319502075 3.42465753424658 3.42465753424658 3.42465753424658 3.42465753424658 3.42465753424658 3.42465753424658 3.42465753424658 3.42465753424658 3.42465753424658 3.42465753424658 3.42465753424658 3.42465753424658 2.74223034734918 2.74223034734918 2.74223034734918 2.74223034734918 2.74223034734918 2.74223034734918 2.74223034734918 2.74223034734918 2.74223034734918 2.74223034734918 2.74223034734918 2.74223034734918 2.74223034734918 2.74223034734918 2.74223034734918 2.74223034734918 2.74223034734918 2.74223034734918 2.4390243902439 2.4390243902439 2.4390243902439 2.4390243902439 2.4390243902439 2.4390243902439 2.4390243902439 2.4390243902439 2.4390243902439 2.4390243902439 2.4390243902439 2.4390243902439 2.4390243902439 2.4390243902439 2.4390243902439 8.0091533180778 8.0091533180778 8.0091533180778 8.0091533180778 8.0091533180778 8.0091533180778 8.0091533180778 8.0091533180778 2.4390243902439 4.32276657060519 4.32276657060519 4.32276657060519 4.32276657060519 0 0 0 0 9.92063492063492 9.92063492063492 9.92063492063492 9.92063492063492 9.92063492063492 9.92063492063492 0 0 3.88802488335925 3.88802488335925 3.88802488335925 0 0 0 0 -9999 -9999 -9999 -9999 -9999 -9999 -9999 -9999 -9999 -9999 -9999 -9999 -9999 -9999 -9999 -9999 -9999 -9999 -9999 -9999 -9999 -9999 -9999 -9999 -9999 -9999 -9999 -9999 -9999 -9999 -9999 -9999 -9999 -9999 -9999 -9999 -9999 -9999 -9999 -9999 -9999 -9999 -9999 -9999 -9999 -9999 -9999 -9999 -9999 -9999 -9999 -9999 -9999 -9999 -9999 -9999 -9999 -9999 -9999 -9999 -9999 -9999 -9999 -9999 -9999 -9999 -9999 -9999 -9999 -9999 -9999 -9999 -9999 -9999 -9999 -9999 -9999 -9999 -9999 -9999 -9999 -9999 -9999 -9999 -9999 -9999 -9999 -9999 -9999 -9999 -9999 -9999 -9999 -9999 -9999 -9999 -9999 -9999 -9999 -9999 -9999 -9999 -9999 -9999 -9999 -9999 -9999 -9999 -9999 -9999 -9999 -9999 -9999 -9999 -9999 -9999 -9999 -9999 -9999 -9999 -9999 -9999 -9999 -9999 -9999 -9999 -9999 -9999 -9999 -9999 -9999 -9999 -9999 -9999 -9999 -9999 -9999 -9999 -9999 -9999 -9999 -9999 -9999 -9999 -9999 -9999 -9999 -9999 -9999 -9999 -9999 -9999 -9999 -9999 -9999 -9999 -9999 -9999 -9999 -9999 -9999 -9999 -9999 -9999 -9999 -9999 -9999 -9999 -9999 -9999 -9999 -9999 -9999 -9999 -9999 -9999 -9999 -9999 -9999 -9999 -9999 -9999 -9999 -9999 -9999 -9999 15.370705244123 15.370705244123 7.91855203619909 8.64197530864197 8.64197530864197 3.52733686067019 3.52733686067019 3.52733686067019 3.52733686067019 3.52733686067019 3.52733686067019 3.69822485207101 3.69822485207101 3.69822485207101 8.42266462480858 8.42266462480858 -9999 3.90015600624025 0 0 0 3.90015600624025 3.90015600624025 0 5.20833333333333 5.20833333333333 2.59965337954939 8.44277673545966 8.44277673545966 8.44277673545966 2.59965337954939 2.59965337954939 6.15114235500879 6.15114235500879 4.34782608695652 4.34782608695652 4.34782608695652 4.34782608695652 0 -9999 -9999 -9999 -9999 -9999 -9999 -9999 -9999 -9999 -9999 -9999 -9999 -9999 -9999 -9999 -9999 -9999 -9999 -9999 -9999 -9999 -9999 -9999 -9999 -9999 -9999 -9999 -9999 -9999 -9999 -9999 -9999 -9999 -9999 -9999 -9999 -9999 -9999 -9999 -9999 -9999 -9999 -9999 -9999 -9999 -9999 -9999 -9999 -9999 -9999 -9999 -9999 -9999 -9999 -9999 -9999 -9999 -9999 -9999 -9999 -9999 -9999 -9999 -9999 -9999 -9999 -9999 -9999 -9999 -9999 -9999 -9999 -9999 -9999 -9999 -9999 -9999 -9999 -9999 -9999 -9999 -9999 -9999 -9999 -9999 -9999 -9999 -9999 -9999 -9999 -9999 -9999 -9999 -9999 -9999 -9999 -9999 -9999 -9999 -9999 -9999 -9999 -9999 -9999 -9999
-9999 -9999 -9999 -9999 -9999 -9999 -9999 -9999 3.11203319502075 3.42465753424658 3.42465753424658 3.42465753424658 3.42465753424658 3.42465753424658 3.42465753424658 3.42465753424658 3.42465753424658 3.42465753424658 3.42465753424658 3.42465753424658 3.42465753424658 2.74223034734918 2.74223034734918 2.74223034734918 2.74223034734918 2.74223034734918 2.74223034734918 2.74223034734918 2.74223034734918 2.74223034734918 2.74223034734918 2.74223034734918 2.74223034734918 2.74223034734918 2.74223034734918 2.74223034734918 2.74223034734918 2.74223034734918 2.4390243902439 2.4390243902439 2.4390243902439 2.4390243902439 2.4390243902439 2.4390243902439 2.4390243902439 2.4390243902439 2.4390243902439 2.4390243902439 2.4390243902439 2.4390243902439 6.46950092421442 6.46950092421442 6.46950092421442 8.0091533180778 8.0091533180778 8.0091533180778 8.0091533180778 8.0091533180778 8.0091533180778 4.32276657060519 4.32276657060519 4.32276657060519 4.32276657060519 4.32276657060519 4.32276657060519 4.32276657060519 0 0 0 0 0 9.92063492063492 9.92063492063492 3.88802488335925 3.88802488335925 3.88802488335925 3.88802488335925 3.88802488335925 3.88802488335925 3.88802488335925 3.88802488335925 0 0 -9999 -9999 -9999 -9999 -9999 -9999 -9999 -9999 -9999 -9999 -9999 -9999 -9999 -9999 -9999 -9999 -9999 -9999 -9999 -9999 -9999 -9999 -9999 -9999 -9999 -9999 -9999 -9999 -9999 -9999 -9999 -9999 -9999 -9999 -9999 -9999 -9999 -9999 -9999 -9999 -9999 -9999 -9999 -9999 -9999 -9999 -9999 -9999 -9999 -9999 -9999 -9999 -9999 -9999 -9999 -9999 -9999 -9999 -9999 -9999 -9999 -9999 -9999 -9999 -9999 -9999 -9999 -9999 -9999 -9999 -9999 -9999 -9999 -9999 -9999 -9999 -9999 -9999 -9999 -9999 -9999 -9999 -9999 -9999 -9999 -9999 -9999 -9999 -9999 -9999 -9999 -9999 -9999 -9999 -9999 -9999 -9999 -9999 -9999 -9999 -9999 -9999 -9999 -9999 -9999 -9999 -9999 -9999 -9999 -9999 -9999 -9999 -9999 -9999 -9999 -9999 -9999 -9999 -9999 -9999 -9999 -9999 -9999 -9999 -9999 -9999 -9999 -9999 -9999 -9999 -9999 -9999 -9999 -9999 -9999 -9999 -9999 -9999 -9999 -9999 -9999 -9999 -9999 -9999 -9999 -9999 -9999 -9999 -9999 -9999 -9999 -9999 -9999 -9999 -9999 -9999 -9999 -9999 -9999 -9999 -9999 -9999 -9999 -9999 -9999 -9999 -9999 -9999 -9999 -9999 -9999 -9999 -9999 -9999 -9999 -9999 -9999 -9999 -9999 -9999 -9999 -9999 -9999 -9999 -9999 -9999 -9999 -9999 -9999 -9999 15.370705244123 7.91855203619909 7.91855203619909 3.52733686067019 3.52733686067019 3.52733686067019 3.52733686067019 3.52733686067019 3.52733686067019 0 3.69822485207101 10.4651162790698 8.42266462480858 8.42266462480858 3.90015600624025 3.90015600624025 5.08905852417303 0 0 0 0 0 0 5.20833333333333 2.59965337954939 2.59965337954939 8.44277673545966 8.44277673545966 0 8.69565217391304 6.15114235500879 6.15114235500879 6.15114235500879 4.34782608695652 0 -9999 -9999 -9999 -9999 -9999 -9999 -9999 -9999 -9999 -9999 -9999 -9999 -9999 -9999 -9999 -9999 -9999 -9999 -9999 -9999 -9999 -9999 -9999 -9999 -9999 -9999 -9999 -9999 -9999 -9999 -9999 -9999 -9999 -9999 -9999 -9999 -9999 -9999 -9999 -9999 -9999 -9999 -9999 -9999 -9999 -9999 -9999 -9999 -9999 -9999 -9999 -9999 -9999 -9999 -9999 -9999 -9999 -9999 -9999 -9999 -9999 -9999 -9999 -9999 -9999 -9999 -9999 -9999 -9999 -9999 -9999 -9999 -9999 -9999 -9999 -9999 -9999 -9999 -9999 -9999 -9999 -9999 -9999 -9999 -9999 -9999 -9999 -9999 -9999 -9999 -9999 -9999 -9999 -9999 -9999 -9999 -9999 -9999 -9999 -9999 -9999 -9999 -9999 -9999 -9999 -9999 -9999
-9999 -9999 -9999 -9999 -9999 -9999 -9999 -9999 -9999 -9999 3.11203319502075 3.42465753424658 3.42465753424658 3.42465753424658 3.42465753424658 3.42465753424658 3.42465753424658 3.42465753424658 3.42465753424658 3.42465753424658 3.42465753424658 3.42465753424658 -9999 2.74223034734918 2.74223034734918 2.74223034734918 2.74223034734918 2.74223034734918 2.74223034734918 2.74223034734918 2.74223034734918 2.74223034734918 2.74223034734918 2.74223034734918 2.74223034734918 2.74223034734918 2.74223034734918 2.74223034734918 2.4390243902439 2.4390243902439 2.4390243902439 2.4390243902439 2.4390243902439 2.4390243902439 2.4390243902439 2.4390243902439 2.4390243902439 2.4390243902439 2.4390243902439 6.46950092421442 6.46950092421442 6.46950092421442 6.46950092421442 8.0091533180778 8.0091533180778 8.0091533180778 0 4.32276657060519 4.32276657060519 4.32276657060519 4.32276657060519 4.32276657060519 4.32276657060519 4.32276657060519 4.32276657060519 4.32276657060519 4.32276657060519 0 0 0 9.92063492063492 9.92063492063492 3.88802488335925 3.88802488335925 3.88802488335925 3.88802488335925 3.88802488335925 3.88802488335925 3.88802488335925 3.88802488335925 3.88802488335925 0 0 -9999 -9999 -9999 -9999 -9999 -9999 -9999 -9999 -9999 -9999 -9999 -9999 -9999 -9999 -9999 -9999 -9999 -9999 -9999 -9999 -9999 -9999 -9999 -9999 -9999 -9999 -9999 -9999 -9999 -9999 -9999 -9999 -9999 -9999 -9999 -9999 -9999 -9999 -9999 -9999 -9999 -9999 -9999 -9999 -9999 -9999 -9999 -9999 -9999 -9999 -9999 -9999 -9999 -9999 -9999 -9999 -9999 -9999 -9999 -9999 -9999 -9999 -9999 -9999 -9999 -9999 -9999 -9999 -9999 -9999 -9999 -9999 -9999 -9999 -9999 -9999 -9999 -9999 -9999 -9999 -9999 -9999 -9999 -9999 -9999 -9999 -9999 -9999 -9999 -9999 -9999 -9999 -9999 -9999 -9999 -9999 -9999 -9999 -9999 -9999 -9999 -9999 -9999 -9999 -9999 -9999 -9999 -9999 -9999 -9999 -9999 -9999 -9999 -9999 -9999 -9999 -9999 -9999 -9999 -9999 -9999 -9999 -9999 -9999 -9999 -9999 -9999 -9999 -9999 -9999 -9999 -9999 -9999 -9999 -9999 -9999 -9999 -9999 -9999 -9999 -9999 -9999 -9999 -9999 -9999 -9999 -9999 -9999 -9999 -9999 -9999 -9999 -9999 -9999 -9999 -9999 -9999 -9999 -9999 -9999 -9999 -9999 -9999 -9999 -9999 -9999 -9999 -9999 -9999 -9999 -9999 -9999 -9999 -9999 -9999 -9999 -9999 -9999 -9999 -9999 -9999 -9999 -9999 -9999 -9999 -9999 -9999 -9999 -9999 -9999 -9999 -9999 17.6908752327747 17.6908752327747 17.6908752327747 3.52733686067019 3.52733686067019 3.52733686067019 0 0 10.4651162790698 10.4651162790698 8.42266462480858 -9999 3.90015600624025 3.90015600624025 5.08905852417303 0 0 0 0 0 0 0 0 0 8.44277673545966 0 0 0 6.15114235500879 6.15114235500879 -9999 -9999 -9999 -9999 -9999 -9999 -9999 -9999 -9999 -9999 -9999 -9999 -9999 -9999 -9999 -9999 -9999 -9999 -9999 -9999 -9999 -9999 -9999 -9999 -9999 -9999 -9999 -9999 -9999 -9999 -9999 -9999 -9999 -9999 -9999 -9999 -9999 -9999 -9999 -9999 -9999 -9999 -9999 -9999 -9999 -9999 -9999 -9999 -9999 -9999 -9999 -9999 -9999 -9999 -9999 -9999 -9999 -9999 -9999 -9999 -9999 -9999 -9999 -9999 -9999 -9999 -9999 -9999 -9999 -9999 -9999 -9999 -9999 -9999 -9999 -9999 -9999 -9999 -9999 -9999 -9999 -9999 -9999 -9999 -9999 -9999 -9999 -9999 -9999 -9999 -9999 -9999 -9999 -9999 -9999 -9999 -9999 -9999 -9999 -9999 -9999 -9999 -9999 -9999 -9999 -9999 -9999 -9999 -9999 -9999
-9999 -9999 -9999 -9999 -9999 -9999 -9999 -9999 -9999 -9999 3.11203319502075 3.11203319502075 3.42465753424658 3.42465753424658 3.42465753424658 3.42465753424658 3.42465753424658 3.42465753424658 3.42465753424658 3.42465753424658 3.42465753424658 3.42465753424658 -9999 2.74223034734918 2.74223034734918 2.74223034734918 2.74223034734918 2.74223034734918 2.74223034734918 2.74223034734918 2.74223034734918 2.74223034734918 2.74223034734918 2.74223034734918 2.74223034734918 2.74223034734918 2.74223034734918 2.4390243902439 2.4390243902439 2.4390243902439 2.4390243902439 2.4390243902439 2.4390243902439 2.4390243902439 2.4390243902439 2.4390243902439 6.46950092421442 6.46950092421442 6.46950092421442 6.46950092421442 6.46950092421442 6.46950092421442 6.46950092421442 0 0 0 0 4.32276657060519 4.32276657060519 4.32276657060519 4.32276657060519 4.32276657060519 4.32276657060519 4.32276657060519 4.32276657060519 4.32276657060519 4.32276657060519 0 3.88802488335925 9.92063492063492 9.92063492063492 9.92063492063492 3.88802488335925 3.88802488335925 3.88802488335925 3.88802488335925 3.88802488335925 3.88802488335925 3.88802488335925 3.88802488335925 3.88802488335925 -9999 -9999 -9999 -9999 -9999 -9999 -9999 -9999 -9999 -9999 -9999 -9999 -9999 -9999 -9999 -9999 -9999 -9999 -9999 -9999 -9999 -9999 -9999 -9999 -9999 -9999 -9999 -9999 -9999 -9999 -9999 -9999 -9999 -9999 -9999 -9999 -9999 -9999 -9999 -9999 -9999 -9999 -9999 -9999 -9999 -9999 -9999 -9999 -9999 -9999 -9999 -9999 -9999 -9999 -9999 -9999 -9999 -9999 -9999 -9999 -9999 -9999 -9999 -9999 -9999 -9999 -9999 -9999 -9999 -9999 -9999 -9999 -9999 -9999 -9999 -9999 -9999 -9999 -9999 -9999 -9999 -9999 -9999 -9999 -9999 -9999 -9999 -9999 -9999 -9999 -9999 -9999 -9999 -9999 -9999 -9999 -9999 -9999 -9999 -9999 -9999 -9999 -9999 -9999 -9999 -9999 -9999 -9999 -9999 -9999 -9999 -9999 -9999 -9999 -9999 -9999 -9999 -9999 -9999 -9999 -9999 -9999 -9999 -9999 -9999 -9999 -9999 -9999 -9999 -9999 -9999 -9999 -9999 -9999 -9999 -9999 -9999 -9999 -9999 -9999 -9999 -9999 -9999 -9999 -9999 -9999 -9999 -9999 -9999 -9999 -9999 -9999 -9999 -9999 -9999 -9999 -9999 -9999 -9999 -9999 -9999 -9999 -9999 -9999 -9999 -9999 -9999 -9999 -9999 -9999 -9999 -9999 -9999 -9999 -9999 -9999 -9999 -9999 -9999 -9999 -9999 -9999 -9999 -9999 -9999 -9999 -9999 -9999 -9999 -9999 -9999 -9999 -9999 -9999 -9999 -9999 17.6908752327747 17.6908752327747 17.6908752327747 17.6908752327747 0 0 17.6908752327747 17.6908752327747 17.6908752327747 3.90015600624025 3.90015600624025 3.90015600624025 5.08905852417303 5.08905852417303 5.08905852417303 5.08905852417303 5.08905852417303 0 0 0 0 6.15114235500879 6.15114235500879 6.15114235500879 6.15114235500879 6.15114235500879 -9999 -9999 -9999 -9999 -9999 -9999 -9999 -9999 -9999 -9999 -9999 -9999 -9999 -9999 -9999 -9999 -9999 -9999 -9999 -9999 -9999 -9999 -9999 -9999 -9999 -9999 -9999 -9999 -9999 -9999 -9999 -9999 -9999 -9999 -9999 -9999 -9999 -9999 -9999 -9999 -9999 -9999 -9999 -9999 -9999 -9999 -9999 -9999 -9999 -9999 -9999 -9999 -9999 -9999 -9999 -9999 -9999 -9999 -9999 -9999 -9999 -9999 -9999 -9999 -9999 -9999 -9999 -9999 -9999 -9999 -9999 -9999 -9999 -9999 -9999 -9999 -9999 -9999 -9999 -9999 -9999 -9999 -9999 -9999 -9999 -9999 -9999 -9999 -9999 -9999 -9999 -9999 -9999 -9999 -9999 -9999 -9999 -9999 -9999 -9999 -9999 -9999 -9999 -9999 -9999 -9999 -9999 -9999 -9999 -9999 -9999 -9999
-9999 -9999 -9999 -9999 -9999 -9999 -9999 -9999 -9999 3.11203319502075 3.11203319502075 3.11203319502075 3.11203319502075 3.11203319502075 3.42465753424658 3.42465753424658 3.42465753424658 3.42465753424658 3.42465753424658 3.42465753424658 3.42465753424658 3.42465753424658 -9999 -9999 2.74223034734918 2.74223034734918 2.74223034734918 2.74223034734918 2.74223034734918 2.74223034734918 2.74223034734918 2.74223034734918 2.74223034734918 2.74223034734918 2.74223034734918 2.74223034734918 2.74223034734918 2.4390243902439 2.4390243902439 2.4390243902439 2.4390243902439 2.4390243902439 2.4390243902439 2.4390243902439 6.46950092421442 6.46950092421442 6.46950092421442 6.46950092421442 6.46950092421442 6.46950092421442 0 0 0 0 0 0 0 0 4.32276657060519 4.32276657060519 4.32276657060519 4.32276657060519 4.32276657060519 4.32276657060519 4.32276657060519 4.32276657060519 4.32276657060519 3.88802488335925 3.88802488335925 3.88802488335925 3.88802488335925 3.88802488335925 -9999 3.88802488335925 3.88802488335925 3.88802488335925 -9999 -9999 -9999 3.88802488335925 3.88802488335925 -9999 -9999 -9999 -9999 -9999 -9999 -9999 -9999 -9999 -9999 -9999 -9999 -9999 -9999 -9999 -9999 -9999 -9999 -9999 -9999 -9999 -9999 -9999 -9999 -9999 -9999 -9999 -9999 -9999 -9999 -9999 -9999 -9999 -9999 -9999 -9999 -9999 -9999 -9999 -9999 -9999 -9999 -9999 -9999 -9999 -9999 -9999 -9999 -9999 -9999 -9999 -9999 -9999 -9999 -9999 -9999 -9999 -9999 -9999 -9999 -9999 -9999 -9999 -9999 -9999 -9999 -9999 -9999 -9999 -9999 -9999 -9999 -9999 -9999 -9999 -9999 -9999 -9999 -9999 -9999 -9999 -9999 -9999 -9999 -9999 -9999 -9999 -9999 -9999 -9999 -9999 -9999 -9999 -9999 -9999 -9999 -9999 -9999 -9999 -9999 -9999 -9999 -9999 -9999 -9999 -9999 -9999 -9999 -9999 -9999 -9999 -9999 -9999 -9999 -9999 -9999 -9999 -9999 -9999 -9999 -9999 -9999 -9999 -9999 -9999 -9999 -9999 -9999 -9999 -9999 -9999 -9999 -9999 -9999 -9999 -9999 -9999 -9999 -9999 -9999 -9999 -9999 -9999 -9999 -9999 -9999 -9999 -9999 -9999 -9999 -9999 -9999 -9999 -9999 -9999 -9999 -9999 -9999 -9999 -9999 -9999 -9999 -9999 -9999 -9999 -9999 -9999 -9999 -9999 -9999 -9999 -9999 -9999 -9999 -9999 -9999 -9999 -9999 -9999 -9999 -9999 -9999 -9999 -9999 -9999 -9999 -9999 -9999 -9999 -9999 -9999 -9999 -9999 -9999 -9999 -9999 -9999 -9999 -9999 -9999 -9999 -9999 -9999 -9999 -9999 5.08905852417303 5.08905852417303 -9999 -9999 -9999 -9999 -9999 -9999 -9999 -9999 -9999 -9999 -9999 -9999 -9999 -9999 -9999 -9999 -9999 -9999 -9999 -9999 -9999 -9999 -9999 -9999 -9999 -9999 -9999 -9999 0 0 0 0 -9999 -9999 -9999 -9999 -9999 -9999 -9999 -9999 -9999 -9999 -9999 -9999 -9999 -9999 -9999 -9999 -9999 -9999 -9999 -9999 -9999 -9999 -9999 -9999 -9999 -9999 -9999 -9999 -9999 -9999 -9999 -9999 -9999 -9999 -9999 -9999 -9999 -9999 -9999 -9999 -9999 -9999 -9999 -9999 -9999 -9999 -9999 -9999 -9999 -9999 -9999 -9999 -9999 -9999 -9999 -9999 -9999 -9999 -9999 -9999 -9999 -9999 -9999 -9999 -9999 -9999 -9999 -9999 -9999 -9999 -9999 -9999 -9999 -9999 -9999 -9999 -9999 -9999 -9999 -9999 -9999 -9999 -9999 -9999 -9999 -9999 -9999 -9999 -9999 -9999 -9999 -9999 -9999 -9999 -9999
-9999 -9999 -9999 -9999 -9999 -9999 -9999 -9999 -9999 -9999 3.11203319502075 3.11203319502075 3.11203319502075 3.11203319502075 3.11203319502075 3.11203319502075 3.42465753424658 3.42465753424658 3.42465753424658 3.42465753424658 3.42465753424658 3.42465753424658 -9999 -9999 2.74223034734918 2.74223034734918 2.74223034734918 2.74223034734918 2.74223034734918 2.74223034734918 2.74223034734918 2.74223034734918 2.74223034734918 2.74223034734918 2.74223034734918 2.74223034734918 2.74223034734918 2.4390243902439 2.4390243902439 2.4390243902439 4.79846449136276 4.79846449136276 4.79846449136276 6.46950092421442 6.46950092421442 6.46950092421442 6.46950092421442 6.46950092421442 6.46950092421442 6.46950092421442 0 0 0 0 0 0 0 0 4.32276657060519 4.32276657060519 4.32276657060519 4.32276657060519 4.32276657060519 4.32276657060519 0 0 0 -9999 -9999 -9999 -9999 -9999 -9999 -9999 -9999 -9999 -9999 -9999 -9999 -9999 -9999 -9999 -9999 -9999 -9999 -9999 -9999 -9999 -9999 -9999 -9999 -9999 -9999 -9999 -9999 -9999 -9999 -9999 -9999 -9999 -9999 -9999 -9999 -9999 -9999 -9999 -9999 -9999 -9999 -9999 -9999 -9999 -9999 -9999 -9999 -9999 -9999 -9999 -9999 -9999 -9999 -9999 -9999 -9999 -9999 -9999 -9999 -9999 -9999 -9999 -9999 -9999 -9999 -9999 -9999 -9999 -9999 -9999 -9999 -9999 -9999 -9999 -9999 -9999 -9999 -9999 -9999 -9999 -9999 -9999 -9999 -9999 -9999 -9999 -9999 -9999 -9999 -9999 -9999 -9999 -9999 -9999 -9999 -9999 -9999 -9999 -9999 -9999 -9999 -9999 -9999 -9999 -9999 -9999 -9999 -9999 -9999 -9999 -9999 -9999 -9999 -9999 -9999 -9999 -9999 -9999 -9999 -9999 -9999 -9999 -9999 -9999 -9999 -9999 -9999 -9999 -9999 -9999 -9999 -9999 -9999 -9999 -9999 -9999 -9999 -9999 -9999 -9999 -9999 -9999 -9999 -9999 -9999 -9999 -9999 -9999 -9999 -9999 -9999 -9999 -9999 -9999 -9999 -9999 -9999 -9999 -9999 -9999 -9999 -9999 -9999 -9999 -9999 -9999 -9999 -9999 -9999 -9999 -9999 -9999 -9999 -9999 -9999 -9999 -9999 -9999 -9999 -9999 -9999 -9999 -9999 -9999 -9999 -9999 -9999 -9999 -9999 -9999 -9999 -9999 -9999 -9999 -9999 -9999 -9999 -9999 -9999 -9999 -9999 -9999 -9999 -9999 -9999 -9999 -9999 -9999 -9999 -9999 -9999 -9999 -9999 -9999 -9999 -9999 -9999 -9999 -9999 -9999 -9999 -9999 -9999 -9999 -9999 -9999 -9999 -9999 -9999 -9999 -9999 -9999 -9999 -9999 -9999 -9999 -9999 -9999 -9999 -9999 -9999 -9999 -9999 -9999 -9999 -9999 -9999 -9999 -9999 0 -9999 -9999 -9999 -9999 -9999 -9999 -9999 -9999 -9999 -9999 -9999 -9999 -9999 -9999 -9999 -9999 -9999 -9999 -9999 -9999 -9999 -9999 -9999 -9999 -9999 -9999 -9999 -9999 -9999 -9999 -9999 -9999 -9999 -9999 -9999 -9999 -9999 -9999 -9999 -9999 -9999 -9999 -9999 -9999 -9999 -9999 -9999 -9999 -9999 -9999 -9999 -9999 -9999 -9999 -9999 -9999 -9999 -9999 -9999 -9999 -9999 -9999 -9999 -9999 -9999 -9999 -9999 -9999 -9999 -9999 -9999 -9999 -9999 -9999 -9999 -9999 -9999 -9999 -9999 -9999 -9999 -9999 -9999 -9999 -9999 -9999 -9999 -9999 -9999 -9999 -9999 -9999 -9999 -9999 -9999 -9999 -9999
-9999 -9999 -9999 -9999 -9999 -9999 -9999 -9999 -9999 -9999 -9999 -9999 3.11203319502075 3.11203319502075 3.11203319502075 3.11203319502075 3.11203319502075 3.42465753424658 3.42465753424658 3.42465753424658 3.42465753424658 3.42465753424658 -9999 -9999 2.74223034734918 2.74223034734918 2.74223034734918 2.74223034734918 2.74223034734918 2.74223034734918 2.74223034734918 2.74223034734918 2.74223034734918 2.74223034734918 2.74223034734918 2.74223034734918 2.74223034734918 2.4390243902439 2.4390243902439 4.79846449136276 4.79846449136276 4.79846449136276 4.79846449136276 6.46950092421442 6.46950092421442 6.46950092421442 6.46950092421442 6.46950092421442 6.46950092421442 6.46950092421442 0 0 0 0 0 0 0 0 0 0 0 0 0 0 0 -9999 -9999 -9999 -9999 -9999 -9999 -9999 -9999 -9999 -9999 -9999 -9999 -9999 -9999 -9999 -9999 -9999 -9999 -9999 -9999 -9999 -9999 -9999 -9999 -9999 -9999 -9999 -9999 -9999 -9999 -9999 -9999 -9999 -9999 -9999 -9999 -9999 -9999 -9999 -9999 -9999 -9999 -9999 -9999 -9999 -9999 -9999 -9999 -9999 -9999 -9999 -9999 -9999 -9999 -9999 -9999 -9999 -9999 -9999 -9999 -9999 -9999 -9999 -9999 -9999 -9999 -9999 -9999 -9999 -9999 -9999 -9999 -9999 -9999 -9999 -9999 -9999 -9999 -9999 -9999 -9999 -9999 -9999 -9999 -9999 -9999 -9999 -9999 -9999 -9999 -9999 -9999 -9999 -9999 -9999 -9999 -9999 -9999 -9999 -9999 -9999 -9999 -9999 -9999 -9999 -9999 -9999 -9999 -9999 -9999 -9999 -9999 -9999 -9999 -9999 -9999 -9999 -9999 -9999 -9999 -9999 -9999 -9999 -9999 -9999 -9999 -9999 -9999 -9999 -9999 -9999 -9999 -9999 -9999 -9999 -9999 -9999 -9999 -9999 -9999 -9999 -9999 -9999 -9999 -9999 -9999 -9999 -9999 -9999 -9999 -9999 -9999 -9999 -9999 -9999 -9999 -9999 -9999 -9999 -9999 -9999 -9999 -9999 -9999 -9999 -9999 -9999 -9999 -9999 -9999 -9999 -9999 -9999 -9999 -9999 -9999 -9999 -9999 -9999 -9999 -9999 -9999 -9999 -9999 -9999 -9999 -9999 -9999 -9999 -9999 -9999 -9999 -9999 -9999 -9999 -9999 -9999 -9999 -9999 -9999 -9999 -9999 -9999 -9999 -9999 -9999 -9999 -9999 -9999 -9999 -9999 -9999 -9999 -9999 -9999 -9999 -9999 -9999 -9999 -9999 -9999 -9999 -9999 -9999 -9999 -9999 -9999 -9999 -9999 -9999 -9999 -9999 -9999 -9999 -9999 -9999 -9999 -9999 -9999 -9999 -9999 -9999 -9999 -9999 -9999 -9999 -9999 -9999 -9999 -9999 -9999 -9999 -9999 -9999 -9999 -9999 -9999 -9999 -9999 -9999 -9999 -9999 -9999 -9999 -9999 -9999 -9999 -9999 -9999 -9999 -9999 -9999 -9999 -9999 -9999 -9999 -9999 -9999 -9999 -9999 -9999 -9999 -9999 -9999 -9999 -9999 -9999 -9999 -9999 -9999 -9999 -9999 -9999 -9999 -9999 -9999 -9999 -9999 -9999 -9999 -9999 -9999 -9999 -9999 -9999 -9999 -9999 -9999 -9999 -9999 -9999 -9999 -9999 -9999 -9999 -9999 -9999 -9999 -9999 -9999 -9999 -9999 -9999 -9999 -9999 -9999 -9999 -9999 -9999 -9999 -9999 -9999 -9999 -9999 -9999 -9999 -9999 -9999 -9999 -9999 -9999 -9999 -9999 -9999 -9999 -9999 -9999 -9999 -9999 -9999
-9999 -9999 -9999 -9999 -9999 -9999 -9999 -9999 -9999 -9999 -9999 -9999 -9999 3.11203319502075 3.11203319502075 3.11203319502075 3.42465753424658 3.42465753424658 3.42465753424658 3.42465753424658 4.85436893203883 -9999 -9999 -9999 -9999 2.74223034734918 2.74223034734918 2.74223034734918 2.74223034734918 2.74223034734918 2.74223034734918 2.74223034734918 2.74223034734918 2.74223034734918 2.74223034734918 2.74223034734918 2.74223034734918 2.4390243902439 2.4390243902439 4.79846449136276 4.79846449136276 4.79846449136276 4.79846449136276 4.79846449136276 4.79846449136276 4.79846449136276 6.46950092421442 6.46950092421442 6.46950092421442 6.46950092421442 0 0 0 0 0 0 0 -9999 -9999 -9999 -9999 -9999 -9999 -9999 -9999 -9999 -9999 -9999 -9999 -9999 -9999 -9999 -9999 -9999 -9999 -9999 -9999 -9999 -9999 -9999 -9999 -9999 -9999 -9999 -9999 -9999 -9999 -9999 -9999 -9999 -9999 -9999 -9999 -9999 -9999 -9999 -9999 -9999 -9999 -9999 -9999 -9999 -9999 -9999 -9999 -9999 -9999 -9999 -9999 -9999 -9999 -9999 -9999 -9999 -9999 -9999 -9999 -9999 -9999 -9999 -9999 -9999 -9999 -9999 -9999 -9999 -9999 -9999 -9999 -9999 -9999 -9999 -9999 -9999 -9999 -9999 -9999 -9999 -9999 -9999 -9999 -9999 -9999 -9999 -9999 -9999 -9999 -9999 -9999 -9999 -9999 -9999 -9999 -9999 -9999 -9999 -9999 -9999 -9999 -9999 -9999 -9999 -9999 -9999 -9999 -9999 -9999 -9999 -9999 -9999 -9999 -9999 -9999 -9999 -9999 -9999 -9999 -9999 -9999 -9999 -9999 -9999 -9999 -9999 -9999 -9999 -9999 -9999 -9999 -9999 -9999 -9999 -9999 -9999 -9999 -9999 -9999 -9999 -9999 -9999 -9999 -9999 -9999 -9999 -9999 -9999 -9999 -9999 -9999 -9999 -9999 -9999 -9999 -9999 -9999 -9999 -9999 -9999 -9999 -9999 -9999 -9999 -9999 -9999 -9999 -9999 -9999 -9999 -9999 -9999 -9999 -9999 -9999 -9999 -9999 -9999 -9999 -9999 -9999 -9999 -9999 -9999 -9999 -9999 -9999 -9999 -9999 -9999 -9999 -9999 -9999 -9999 -9999 -9999 -9999 -9999 -9999 -9999 -9999 -9999 -9999 -9999 -9999 -9999 -9999 -9999 -9999 -9999 -9999 -9999 -9999 -9999 -9999 -9999 -9999 -9999 -9999 -9999 -9999 -9999 -9999 -9999 -9999 -9999 -9999 -9999 -9999 -9999 -9999 -9999 -9999 -9999 -9999 -9999 -9999 -9999 -9999 -9999 -9999 -9999 -9999 -9999 -9999 -9999 -9999 -9999 -9999 -9999 -9999 -9999 -9999 -9999 -9999 -9999 -9999 -9999 -9999 -9999 -9999 -9999 -9999 -9999 -9999 -9999 -9999 -9999 -9999 -9999 -9999 -9999 -9999 -9999 -9999 -9999 -9999 -9999 -9999 -9999 -9999 -9999 -9999 -9999 -9999 -9999 -9999 -9999 -9999 -9999 -9999 -9999 -9999 -9999 -9999 -9999 -9999 -9999 -9999 -9999 -9999 -9999 -9999 -9999 -9999 -9999 -9999 -9999 -9999 -9999 -9999 -9999 -9999 -9999 -9999 -9999 -9999 -9999 -9999 -9999 -9999 -9999 -9999 -9999 -9999 -9999 -9999 -9999 -9999 -9999 -9999 -9999 -9999 -9999 -9999 -9999 -9999 -9999 -9999 -9999 -9999 -9999 -9999 -9999 -9999 -9999 -9999 -9999 -9999 -9999 -9999 -9999 -9999 -9999 -9999 -9999 -9999
-9999 -9999 -9999 -9999 -9999 -9999 -9999 -9999 -9999 -9999 -9999 -9999 -9999 -9999 3.11203319502075 3.11203319502075 3.42465753424658 3.42465753424658 3.42465753424658 4.85436893203883 4.85436893203883 -9999 -9999 -9999 -9999 2.74223034734918 2.74223034734918 2.74223034734918 2.74223034734918 2.74223034734918 2.74223034734918 2.74223034734918 2.74223034734918 2.74223034734918 2.74223034734918 2.74223034734918 2.4390243902439 2.4390243902439 2.4390243902439 4.79846449136276 4.79846449136276 4.79846449136276 4.79846449136276 4.79846449136276 4.79846449136276 0 0 0 0 0 0 0 0 0 -9999 -9999 -9999 -9999 -9999 -9999 -9999 -9999 -9999 -9999 -9999 -9999 -9999 -9999 -9999 -9999 -9999 -9999 -9999 -9999 -9999 -9999 -9999 -9999 -9999 -9999 -9999 -9999 -9999 -9999 -9999 -9999 -9999 -9999 -9999 -9999 -9999 -9999 -9999 -9999 -9999 -9999 -9999 -9999 -9999 -9999 -9999 -9999 -9999 -9999 -9999 -9999 -9999 -9999 -9999 -9999 -9999 -9999 -9999 -9999 -9999 -9999 -9999 -9999 -9999 -9999 -9999 -9999 -9999 -9999 -9999 -9999 -9999 -9999 -9999 -9999 -9999 -9999 -9999 -9999 -9999 -9999 -9999 -9999 -9999 -9999 -9999 -9999 -9999 -9999 -9999 -9999 -9999 -9999 -9999 -9999 -9999 -9999 -9999 -9999 -9999 -9999 -9999 -9999 -9999 -9999 -9999 -9999 -9999 -9999 -9999 -9999 -9999 -9999 -9999 -9999 -9999 -9999 -9999 -9999 -9999 -9999 -9999 -9999 -9999 -9999 -9999 -9999 -9999 -9999 -9999 -9999 -9999 -9999 -9999 -9999 -9999 -9999 -9999 -9999 -9999 -9999 -9999 -9999 -9999 -9999 -9999 -9999 -9999 -9999 -9999 -9999 -9999 -9999 -9999 -9999 -9999 -9999 -9999 -9999 -9999 -9999 -9999 -9999 -9999 -9999 -9999 -9999 -9999 -9999 -9999 -9999 -9999 -9999 -9999 -9999 -9999 -9999 -9999 -9999 -9999 -9999 -9999 -9999 -9999 -9999 -9999 -9999 -9999 -9999 -9999 -9999 -9999 -9999 -9999 -9999 -9999 -9999 -9999 -9999 -9999 -9999 -9999 -9999 -9999 -9999 -9999 -9999 -9999 -9999 -9999 -9999 -9999 -9999 -9999 -9999 -9999 -9999 -9999 -9999 -9999 -9999 -9999 -9999 -9999 -9999 -9999 -9999 -9999 -9999 -9999 -9999 -9999 -9999 -9999 -9999 -9999 -9999 -9999 -9999 -9999 -9999 -9999 -9999 -9999 -9999 -9999 -9999 -9999 -9999 -9999 -9999 -9999 -9999 -9999 -9999 -9999 -9999 -9999 -9999 -9999 -9999 -9999 -9999 -9999 -9999 -9999 -9999 -9999 -9999 -9999 -9999 -9999 -9999 -9999 -9999 -9999 -9999 -9999 -9999 -9999 -9999 -9999 -9999 -9999 -9999 -9999 -9999 -9999 -9999 -9999 -9999 -9999 -9999 -9999 -9999 -9999 -9999 -9999 -9999 -9999 -9999 -9999 -9999 -9999 -9999 -9999 -9999 -9999 -9999 -9999 -9999 -9999 -9999 -9999 -9999 -9999 -9999 -9999 -9999 -9999 -9999 -9999 -9999 -9999 -9999 -9999 -9999 -9999 -9999 -9999 -9999 -9999 -9999 -9999 -9999 -9999 -9999 -9999 -9999 -9999 -9999 -9999 -9999 -9999 -9999 -9999 -9999 -9999 -9999 -9999 -9999 -9999 -9999 -9999 -9999 -9999 -9999 -9999 -9999 -9999
-9999 -9999 -9999 -9999 -9999 -9999 -9999 -9999 -9999 -9999 -9999 -9999 -9999 -9999 -9999 4.85436893203883 4.85436893203883 3.42465753424658 3.42465753424658 4.85436893203883 4.85436893203883 -9999 -9999 -9999 5.64971751412429 5.64971751412429 2.74223034734918 2.74223034734918 2.74223034734918 2.74223034734918 2.74223034734918 2.74223034734918 2.74223034734918 2.74223034734918 2.74223034734918 2.74223034734918 2.4390243902439 2.4390243902439 4.79846449136276 4.79846449136276 4.79846449136276 4.79846449136276 4.79846449136276 0 0 0 0 0 0 0 0 -9999 -9999 -9999 -9999 -9999 -9999 -9999 -9999 -9999 -9999 -9999 -9999 -9999 -9999 -9999 -9999 -9999 -9999 -9999 -9999 -9999 -9999 -9999 -9999 -9999 -9999 -9999 -9999 -9999 -9999 -9999 -9999 -9999 -9999 -9999 -9999 -9999 -9999 -9999 -9999 -9999 -9999 -9999 -9999 -9999 -9999 -9999 -9999 -9999 -9999 -9999 -9999 -9999 -9999 -9999 -9999 -9999 -9999 -9999 -9999 -9999 -9999 -9999 -9999 -9999 -9999 -9999 -9999 -9999 -9999 -9999 -9999 -9999 -9999 -9999 -9999 -9999 -9999 -9999 -9999 -9999 -9999 -9999 -9999 -9999 -9999 -9999 -9999 -9999 -9999 -9999 -9999 -9999 -9999 -9999 -9999 -9999 -9999 -9999 -9999 -9999 -9999 -9999 -9999 -9999 -9999 -9999 -9999 -9999 -9999 -9999 -9999 -9999 -9999 -9999 -9999 -9999 -9999 -9999 -9999 -9999 -9999 -9999 -9999 -9999 -9999 -9999 -9999 -9999 -9999 -9999 -9999 -9999 -9999 -9999 -9999 -9999 -9999 -9999 -9999 -9999 -9999 -9999 -9999 -9999 -9999 -9999 -9999 -9999 -9999 -9999 -9999 -9999 -9999 -9999 -9999 -9999 -9999 -9999 -9999 -9999 -9999 -9999 -9999 -9999 -9999 -9999 -9999 -9999 -9999 -9999 -9999 -9999 -9999 -9999 -9999 -9999 -9999 -9999 -9999 -9999 -9999 -9999 -9999 -9999 -9999 -9999 -9999 -9999 -9999 -9999 -9999 -9999 -9999 -9999 -9999 -9999 -9999 -9999 -9999 -9999 -9999 -9999 -9999 -9999 -9999 -9999 -9999 -9999 -9999 -9999 -9999 -9999 -9999 -9999 -9999 -9999 -9999 -9999 -9999 -9999 -9999 -9999 -9999 -9999 -9999 -9999 -9999 -9999 -9999 -9999 -9999 -9999 -9999 -9999 -9999 -9999 -9999 -9999 -9999 -9999 -9999 -9999 -9999 -9999 -9999 -9999 -9999 -9999 -9999 -9999 -9999 -9999 -9999 -9999 -9999 -9999 -9999 -9999 -9999 -9999 -9999 -9999 -9999 -9999 -9999 -9999 -9999 -9999 -9999 -9999 -9999 -9999 -9999 -9999 -9999 -9999 -9999 -9999 -9999 -9999 -9999 -9999 -9999 -9999 -9999 -9999 -9999 -9999 -9999 -9999 -9999 -9999 -9999 -9999 -9999 -9999 -9999 -9999 -9999 -9999 -9999 -9999 -9999 -9999 -9999 -9999 -9999 -9999 -9999 -9999 -9999 -9999 -9999 -9999 -9999 -9999 -9999 -9999 -9999 -9999 -9999 -9999 -9999 -9999 -9999 -9999 -9999 -9999 -9999 -9999 -9999 -9999 -9999 -9999 -9999 -9999 -9999 -9999 -9999 -9999 -9999 -9999 -9999 -9999 -9999 -9999 -9999 -9999 -9999 -9999 -9999 -9999 -9999 -9999 -9999 -9999 -9999 -9999 -9999 -9999 -9999 -9999 -9999
-9999 -9999 -9999 -9999 -9999 -9999 -9999 -9999 -9999 -9999 -9999 -9999 -9999 -9999 -9999 -9999 4.85436893203883 4.85436893203883 4.85436893203883 4.85436893203883 4.85436893203883 5.64971751412429 5.64971751412429 5.64971751412429 0 0 2.74223034734918 2.74223034734918 2.74223034734918 2.74223034734918 2.74223034734918 2.74223034734918 2.74223034734918 2.74223034734918 2.74223034734918 2.74223034734918 2.4390243902439 2.4390243902439 4.79846449136276 4.79846449136276 0 0 0 0 0 0 0 0 -9999 0 -9999 -9999 -9999 -9999 -9999 -9999 -9999 -9999 -9999 -9999 -9999 -9999 -9999 -9999 -9999 -9999 -9999 -9999 -9999 -9999 -9999 -9999 -9999 -9999 -9999 -9999 -9999 -9999 -9999 -9999 -9999 -9999 -9999 -9999 -9999 -9999 -9999 -9999 -9999 -9999 -9999 -9999 -9999 -9999 -9999 -9999 -9999 -9999 -9999 -9999 -9999 -9999 -9999 -9999 -9999 -9999 -9999 -9999 -9999 -9999 -9999 -9999 -9999 -9999 -9999 -9999 -9999 -9999 -9999 -9999 -9999 -9999 -9999 -9999 -9999 -9999 -9999 -9999 -9999 -9999 -9999 -9999 -9999 -9999 -9999 -9999 -9999 -9999 -9999 -9999 -9999 -9999 -9999 -9999 -9999 -9999 -9999 -9999 -9999 -9999 -9999 -9999 -9999 -9999 -9999 -9999 -9999 -9999 -9999 -9999 -9999 -9999 -9999 -9999 -9999 -9999 -9999 -9999 -9999 -9999 -9999 -9999 -9999 -9999 -9999 -9999 -9999 -9999 -9999 -9999 -9999 -9999 -9999 -9999 -9999 -9999 -9999 -9999 -9999 -9999 -9999 -9999 -9999 -9999 -9999 -9999 -9999 -9999 -9999 -9999 -9999 -9999 -9999 -9999 -9999 -9999 -9999 -9999 -9999 -9999 -9999 -9999 -9999 -9999 -9999 -9999 -9999 -9999 -9999 -9999 -9999 -9999 -9999 -9999 -9999 -9999 -9999 -9999 -9999 -9999 -9999 -9999 -9999 -9999 -9999 -9999 -9999 -9999 -9999 -9999 -9999 -9999 -9999 -9999 -9999 -9999 -9999 -9999 -9999 -9999 -9999 -9999 -9999 -9999 -9999 -9999 -9999 -9999 -9999 -9999 -9999 -9999 -9999 -9999 -9999 -9999 -9999 -9999 -9999 -9999 -9999 -9999 -9999 -9999 -9999 -9999 -9999 -9999 -9999 -9999 -9999 -9999 -9999 -9999 -9999 -9999 -9999 -9999 -9999 -9999 -9999 -9999 -9999 -9999 -9999 -9999 -9999 -9999 -9999 -9999 -9999 -9999 -9999 -9999 -9999 -9999 -9999 -9999 -9999 -9999 -9999 -9999 -9999 -9999 -9999 -9999 -9999 -9999 -9999 -9999 -9999 -9999 -9999 -9999 -9999 -9999 -9999 -9999 -9999 -9999 -9999 -9999 -9999 -9999 -9999 -9999 -9999 -9999 -9999 -9999 -9999 -9999 -9999 -9999 -9999 -9999 -9999 -9999 -9999 -9999 -9999 -9999 -9999 -9999 -9999 -9999 -9999 -9999 -9999 -9999 -9999 -9999 -9999 -9999 -9999 -9999 -9999 -9999 -9999 -9999 -9999 -9999 -9999 -9999 -9999 -9999 -9999 -9999 -9999 -9999 -9999 -9999 -9999 -9999 -9999 -9999 -9999 -9999 -9999 -9999 -9999 -9999 -9999 -9999 -9999 -9999 -9999 -9999 -9999 -9999 -9999 -9999 -9999 -9999 -9999 -9999 -9999 -9999 -9999 -9999 -9999 -9999 -9999 -9999 -9999
-9999 -9999 -9999 -9999 -9999 -9999 -9999 -9999 -9999 -9999 -9999 -9999 -9999 -9999 -9999 -9999 4.85436893203883 4.85436893203883 4.85436893203883 4.85436893203883 0 5.64971751412429 5.64971751412429 5.64971751412429 0 0 0 2.74223034734918 2.74223034734918 2.74223034734918 2.74223034734918 2.74223034734918 2.74223034734918 2.74223034734918 2.74223034734918 2.74223034734918 2.4390243902439 4.79846449136276 4.79846449136276 4.79846449136276 0 0 0 0 0 0 0 -9999 -9999 -9999 -9999 -9999 -9999 -9999 -9999 -9999 -9999 -9999 -9999 -9999 -9999 -9999 -9999 -9999 -9999 -9999 -9999 -9999 -9999 -9999 -9999 -9999 -9999 -9999 -9999 -9999 -9999 -9999 -9999 -9999 -9999 -9999 -9999 -9999 -9999 -9999 -9999 -9999 -9999 -9999 -9999 -9999 -9999 -9999 -9999 -9999 -9999 -9999 -9999 -9999 -9999 -9999 -9999 -9999 -9999 -9999 -9999 -9999 -9999 -9999 -9999 -9999 -9999 -9999 -9999 -9999 -9999 -9999 -9999 -9999 -9999 -9999 -9999 -9999 -9999 -9999 -9999 -9999 -9999 -9999 -9999 -9999 -9999 -9999 -9999 -9999 -9999 -9999 -9999 -9999 -9999 -9999 -9999 -9999 -9999 -9999 -9999 -9999 -9999 -9999 -9999 -9999 -9999 -9999 -9999 -9999 -9999 -9999 -9999 -9999 -9999 -9999 -9999 -9999 -9999 -9999 -9999 -9999 -9999 -9999 -9999 -9999 -9999 -9999 -9999 -9999 -9999 -9999 -9999 -9999 -9999 -9999 -9999 -9999 -9999 -9999 -9999 -9999 -9999 -9999 -9999 -9999 -9999 -9999 -9999 -9999 -9999 -9999 -9999 -9999 -9999 -9999 -9999 -9999 -9999 -9999 -9999 -9999 -9999 -9999 -9999 -9999 -9999 -9999 -9999 -9999 -9999 -9999 -9999 -9999 -9999 -9999 -9999 -9999 -9999 -9999 -9999 -9999 -9999 -9999 -9999 -9999 -9999 -9999 -9999 -9999 -9999 -9999 -9999 -9999 -9999 -9999 -9999 -9999 -9999 -9999 -9999 -9999 -9999 -9999 -9999 -9999 -9999 -9999 -9999 -9999 -9999 -9999 -9999 -9999 -9999 -9999 -9999 -9999 -9999 -9999 -9999 -9999 -9999 -9999 -9999 -9999 -9999 -9999 -9999 -9999 -9999 -9999 -9999 -9999 -9999 -9999 -9999 -9999 -9999 -9999 -9999 -9999 -9999 -9999 -9999 -9999 -9999 -9999 -9999 -9999 -9999 -9999 -9999 -9999 -9999 -9999 -9999 -9999 -9999 -9999 -9999 -9999 -9999 -9999 -9999 -9999 -9999 -9999 -9999 -9999 -9999 -9999 -9999 -9999 -9999 -9999 -9999 -9999 -9999 -9999 -9999 -9999 -9999 -9999 -9999 -9999 -9999 -9999 -9999 -9999 -9999 -9999 -9999 -9999 -9999 -9999 -9999 -9999 -9999 -9999 -9999 -9999 -9999 -9999 -9999 -9999 -9999 -9999 -9999 -9999 -9999 -9999 -9999 -9999 -9999 -9999 -9999 -9999 -9999 -9999 -9999 -9999 -9999 -9999 -9999 -9999 -9999 -9999 -9999 -9999 -9999 -9999 -9999 -9999 -9999 -9999 -9999 -9999 -9999 -9999 -9999 -9999 -9999 -9999 -9999 -9999 -9999 -9999 -9999 -9999 -9999 -9999 -9999 -9999 -9999 -9999 -9999 -9999 -9999 -9999 -9999 -9999 -9999 -9999 -9999 -9999 -9999 -9999 -9999
-9999 -9999 -9999 -9999 -9999 -9999 -9999 -9999 -9999 -9999 -9999 -9999 -9999 -9999 4.85436893203883 -9999 4.85436893203883 4.85436893203883 4.85436893203883 0 0 5.64971751412429 5.64971751412429 5.64971751412429 5.64971751412429 0 0 2.74223034734918 2.74223034734918 2.74223034734918 2.74223034734918 2.74223034734918 2.74223034734918 2.74223034734918 2.74223034734918 2.4390243902439 0 0 0 0 0 0 0 0 0 0 0 -9999 -9999 -9999 -9999 -9999 -9999 -9999 -9999 -9999 -9999 -9999 -9999 -9999 -9999 -9999 -9999 -9999 -9999 -9999 -9999 -9999 -9999 -9999 -9999 -9999 -9999 -9999 -9999 -9999 -9999 -9999 -9999 -9999 -9999 -9999 -9999 -9999 -9999 -9999 -9999 -9999 -9999 -9999 -9999 -9999 -9999 -9999 -9999 -9999 -9999 -9999 -9999 -9999 -9999 -9999 -9999 -9999 -9999 -9999 -9999 -9999 -9999 -9999 -9999 -9999 -9999 -9999 -9999 -9999 -9999 -9999 -9999 -9999 -9999 -9999 -9999 -9999 -9999 -9999 -9999 -9999 -9999 -9999 -9999 -9999 -9999 -9999 -9999 -9999 -9999 -9999 -9999 -9999 -9999 -9999 -9999 -9999 -9999 -9999 -9999 -9999 -9999 -9999 -9999 -9999 -9999 -9999 -9999 -9999 -9999 -9999 -9999 -9999 -9999 -9999 -9999 -9999 -9999 -9999 -9999 -9999 -9999 -9999 -9999 -9999 -9999 -9999 -9999 -9999 -9999 -9999 -9999 -9999 -9999 -9999 -9999 -9999 -9999 -9999 -9999 -9999 -9999 -9999 -9999 -9999 -9999 -9999 -9999 -9999 -9999 -9999 -9999 -9999 -9999 -9999 -9999 -9999 -9999 -9999 -9999 -9999 -9999 -9999 -9999 -9999 -9999 -9999 -9999 -9999 -9999 -9999 -9999 -9999 -9999 -9999 -9999 -9999 -9999 -9999 -9999 -9999 -9999 -9999 -9999 -9999 -9999 -9999 -9999 -9999 -9999 -9999 -9999 -9999 -9999 -9999 -9999 -9999 -9999 -9999 -9999 -9999 -9999 -9999 -9999 -9999 -9999 -9999 -9999 -9999 -9999 -9999 -9999 -9999 -9999 -9999 -9999 -9999 -9999 -9999 -9999 -9999 -9999 -9999 -9999 -9999 -9999 -9999 -9999 -9999 -9999 -9999 -9999 -9999 -9999 -9999 -9999 -9999 -9999 -9999 -9999 -9999 -9999 -9999 -9999 -9999 -9999 -9999 -9999 -9999 -9999 -9999 -9999 -9999 -9999 -9999 -9999 -9999 -9999 -9999 -9999 -9999 -9999 -9999 -9999 -9999 -9999 -9999 -9999 -9999 -9999 -9999 -9999 -9999 -9999 -9999 -9999 -9999 -9999 -9999 -9999 -9999 -9999 -9999 -9999 -9999 -9999 -9999 -9999 -9999 -9999 -9999 -9999 -9999 -9999 -9999 -9999 -9999 -9999 -9999 -9999 -9999 -9999 -9999 -9999 -9999 -9999 -9999 -9999 -9999 -9999 -9999 -9999 -9999 -9999 -9999 -9999 -9999 -9999 -9999 -9999 -9999 -9999 -9999 -9999 -9999 -9999 -9999 -9999 -9999 -9999 -9999 -9999 -9999 -9999 -9999 -9999 -9999 -9999 -9999 -9999 -9999 -9999 -9999 -9999 -9999 -9999 -9999 -9999 -9999 -9999 -9999 -9999 -9999 -9999 -9999 -9999 -9999 -9999 -9999 -9999 -9999 -9999 -9999 -9999 -9999 -9999 -9999 -9999
-9999 -9999 -9999 -9999 -9999 -9999 -9999 -9999 -9999 -9999 -9999 -9999 -9999 -9999 -9999 -9999 -9999 4.85436893203883 0 0 0 0 0 0 0 0 0 2.74223034734918 2.74223034734918 2.74223034734918 2.74223034734918 2.74223034734918 -9999 -9999 -9999 -9999 -9999 -9999 0 0 0 0 0 0 0 0 -9999 -9999 -9999 -9999 -9999 -9999 -9999 -9999 -9999 -9999 -9999 -9999 -9999 -9999 -9999 -9999 -9999 -9999 -9999 -9999 -9999 -9999 -9999 -9999 -9999 -9999 -9999 -9999 -9999 -9999 -9999 -9999 -9999 -9999 -9999 -9999 -9999 -9999 -9999 -9999 -9999 -9999 -9999 -9999 -9999 -9999 -9999 -9999 -9999 -9999 -9999 -9999 -9999 -9999 -9999 -9999 -9999 -9999 -9999 -9999 -9999 -9999 -9999 -9999 -9999 -9999 -9999 -9999 -9999 -9999 -9999 -9999 -9999 -9999 -9999 -9999 -9999 -9999 -9999 -9999 -9999 -9999 -9999 -9999 -9999 -9999 -9999 -9999 -9999 -9999 -9999 -9999 -9999 -9999 -9999 -9999 -9999 -9999 -9999 -9999 -9999 -9999 -9999 -9999 -9999 -9999 -9999 -9999 -9999 -9999 -9999 -9999 -9999 -9999 -9999 -9999 -9999 -9999 -9999 -9999 -9999 -9999 -9999 -9999 -9999 -9999 -9999 -9999 -9999 -9999 -9999 -9999 -9999 -9999 -9999 -9999 -9999 -9999 -9999 -9999 -9999 -9999 -9999 -9999 -9999 -9999 -9999 -9999 -9999 -9999 -9999 -9999 -9999 -9999 -9999 -9999 -9999 -9999 -9999 -9999 -9999 -9999 -9999 -9999 -9999 -9999 -9999 -9999 -9999 -9999 -9999 -9999 -9999 -9999 -9999 -9999 -9999 -9999 -9999 -9999 -9999 -9999 -9999 -9999 -9999 -9999 -9999 -9999 -9999 -9999 -9999 -9999 -9999 -9999 -9999 -9999 -9999 -9999 -9999 -9999 -9999 -9999 -9999 -9999 -9999 -9999 -9999 -9999 -9999 -9999 -9999 -9999 -9999 -9999 -9999 -9999 -9999 -9999 -9999 -9999 -9999 -9999 -9999 -9999 -9999 -9999 -9999 -9999 -9999 -9999 -9999 -9999 -9999 -9999 -9999 -9999 -9999 -9999 -9999 -9999 -9999 -9999 -9999 -9999 -9999 -9999 -9999 -9999 -9999 -9999 -9999 -9999 -9999 -9999 -9999 -9999 -9999 -9999 -9999 -9999 -9999 -9999 -9999 -9999 -9999 -9999 -9999 -9999 -9999 -9999 -9999 -9999 -9999 -9999 -9999 -9999 -9999 -9999 -9999 -9999 -9999 -9999 -9999 -9999 -9999 -9999 -9999 -9999 -9999 -9999 -9999 -9999 -9999 -9999 -9999 -9999 -9999 -9999 -9999 -9999 -9999 -9999 -9999 -9999 -9999 -9999 -9999 -9999 -9999 -9999 -9999 -9999 -9999 -9999 -9999 -9999 -9999 -9999 -9999 -9999 -9999 -9999 -9999 -9999 -9999 -9999 -9999 -9999 -9999 -9999 -9999 -9999 -9999 -9999 -9999 -9999 -9999 -9999 -9999 -9999 -9999 -9999 -9999 -9999 -9999 -9999 -9999 -9999 -9999 -9999 -9999 -9999 -9999 -9999 -9999 -9999 -9999 -9999 -9999 -9999 -9999 -9999 -9999 -9999 -9999 -9999 -9999 -9999 -9999
-9999 -9999 -9999 -9999 -9999 -9999 -9999 -9999 -9999 -9999 -9999 -9999 -9999 -9999 -9999 -9999 -9999 -9999 -9999 -9999 -9999 -9999 0 0 0 0 0 2.74223034734918 2.74223034734918 -9999 -9999 -9999 -9999 -9999 -9999 -9999 -9999 -9999 -9999 -9999 -9999 -9999 -9999 -9999 -9999 -9999 -9999 -9999 -9999 -9999 -9999 -9999 -9999 -9999 -9999 -9999 -9999 -9999 -9999 -9999 -9999 -9999 -9999 -9999 -9999 -9999 -9999 -9999 -9999 -9999 -9999 -9999 -9999 -9999 -9999 -9999 -9999 -9999 -9999 -9999 -9999 -9999 -9999 -9999 -9999 -9999 -9999 -9999 -9999 -9999 -9999 -9999 -9999 -9999 -9999 -9999 -9999 -9999 -9999 -9999 -9999 -9999 -9999 -9999 -9999 -9999 -9999 -9999 -9999 -9999 -9999 -9999 -9999 -9999 -9999 -9999 -9999 -9999 -9999 -9999 -9999 -9999 -9999 -9999 -9999 -9999 -9999 -9999 -9999 -9999 -9999 -9999 -9999 -9999 -9999 -9999 -9999 -9999 -9999 -9999 -9999 -9999 -9999 -9999 -9999 -9999 -9999 -9999 -9999 -9999 -9999 -9999 -9999 -9999 -9999 -9999 -9999 -9999 -9999 -9999 -9999 -9999 -9999 -9999 -9999 -9999 -9999 -9999 -9999 -9999 -9999 -9999 -9999 -9999 -9999 -9999 -9999 -9999 -9999 -9999 -9999 -9999 -9999 -9999 -9999 -9999 -9999 -9999 -9999 -9999 -9999 -9999 -9999 -9999 -9999 -9999 -9999 -9999 -9999 -9999 -9999 -9999 -9999 -9999 -9999 -9999 -9999 -9999 -9999 -9999 -9999 -9999 -9999 -9999 -9999 -9999 -9999 -9999 -9999 -9999 -9999 -9999 -9999 -9999 -9999 -9999 -9999 -9999 -9999 -9999 -9999 -9999 -9999 -9999 -9999 -9999 -9999 -9999 -9999 -9999 -9999 -9999 -9999 -9999 -9999 -9999 -9999 -9999 -9999 -9999 -9999 -9999 -9999 -9999 -9999 -9999 -9999 -9999 -9999 -9999 -9999 -9999 -9999 -9999 -9999 -9999 -9999 -9999 -9999 -9999 -9999 -9999 -9999 -9999 -9999 -9999 -9999 -9999 -9999 -9999 -9999 -9999 -9999 -9999 -9999 -9999 -9999 -9999 -9999 -9999 -9999 -9999 -9999 -9999 -9999 -9999 -9999 -9999 -9999 -9999 -9999 -9999 -9999 -9999 -9999 -9999 -9999 -9999 -9999 -9999 -9999 -9999 -9999 -9999 -9999 -9999 -9999 -9999 -9999 -9999 -9999 -9999 -9999 -9999 -9999 -9999 -9999 -9999 -9999 -9999 -9999 -9999 -9999 -9999 -9999 -9999 -9999 -9999 -9999 -9999 -9999 -9999 -9999 -9999 -9999 -9999 -9999 -9999 -9999 -9999 -9999 -9999 -9999 -9999 -9999 -9999 -9999 -9999 -9999 -9999 -9999 -9999 -9999 -9999 -9999 -9999 -9999 -9999 -9999 -9999 -9999 -9999 -9999 -9999 -9999 -9999 -9999 -9999 -9999 -9999 -9999 -9999 -9999 -9999 -9999 -9999 -9999 -9999 -9999 -9999 -9999 -9999 -9999 -9999 -9999 -9999 -9999 -9999 -9999 -9999 -9999 -9999 -9999 -9999 -9999 -9999 -9999 -9999 -9999 -9999 -9999 -9999 -9999 -9999 -9999
