NCOLS 415 
NROWS 250 
XLLCORNER -73.976375774 
YLLCORNER 45.40212923 
CELLSIZE 0.00120647298313256 
NODATA_value -9999 
-9999.000000000000000 -9999 -9999 -9999 -9999 -9999 -9999 -9999 -9999 -9999 -9999 -9999 -9999 -9999 -9999 -9999 -9999 -9999 -9999 -9999 -9999 -9999 -9999 -9999 -9999 -9999 -9999 -9999 -9999 -9999 -9999 -9999 -9999 -9999 -9999 -9999 -9999 -9999 -9999 -9999 -9999 -9999 -9999 -9999 -9999 -9999 -9999 -9999 -9999 -9999 -9999 -9999 -9999 -9999 -9999 -9999 -9999 -9999 -9999 -9999 -9999 -9999 -9999 -9999 -9999 -9999 -9999 -9999 -9999 -9999 -9999 -9999 -9999 -9999 -9999 -9999 -9999 -9999 -9999 -9999 -9999 -9999 -9999 -9999 -9999 -9999 -9999 -9999 -9999 -9999 -9999 -9999 -9999 -9999 -9999 -9999 -9999 -9999 -9999 -9999 -9999 -9999 -9999 -9999 -9999 -9999 -9999 -9999 -9999 -9999 -9999 -9999 -9999 -9999 -9999 -9999 -9999 -9999 -9999 -9999 -9999 -9999 -9999 -9999 -9999 -9999 -9999 -9999 -9999 -9999 -9999 -9999 -9999 -9999 -9999 -9999 -9999 -9999 -9999 -9999 -9999 -9999 -9999 -9999 -9999 -9999 -9999 -9999 -9999 -9999 -9999 -9999 -9999 -9999 -9999 -9999 -9999 -9999 -9999 -9999 -9999 -9999 -9999 -9999 -9999 -9999 -9999 -9999 -9999 -9999 -9999 -9999 -9999 -9999 -9999 -9999 -9999 -9999 -9999 -9999 -9999 -9999 -9999 -9999 -9999 -9999 -9999 -9999 -9999 -9999 -9999 -9999 -9999 -9999 -9999 -9999 -9999 -9999 -9999 -9999 -9999 -9999 -9999 -9999 -9999 -9999 -9999 -9999 -9999 -9999 -9999 -9999 -9999 -9999 -9999 -9999 -9999 -9999 -9999 -9999 -9999 -9999 -9999 -9999 -9999 -9999 -9999 -9999 -9999 -9999 -9999 -9999 -9999 -9999 -9999 -9999 -9999 -9999 -9999 -9999 -9999 -9999 -9999 -9999 -9999 -9999 -9999 -9999 -9999 -9999 -9999 -9999 -9999 -9999 -9999 -9999 -9999 -9999 -9999 -9999 -9999 -9999 -9999 -9999 -9999 -9999 -9999 -9999 -9999 -9999 -9999 -9999 -9999 -9999 -9999 -9999 -9999 -9999 -9999 -9999 -9999 -9999 -9999 -9999 -9999 -9999 -9999 -9999 -9999 -9999 -9999 -9999 -9999 -9999 -9999 -9999 -9999 -9999 -9999 -9999 -9999 -9999 -9999 -9999 -9999 -9999 -9999 -9999 -9999 -9999 -9999 -9999 -9999 -9999 -9999 -9999 -9999 -9999 -9999 -9999 -9999 -9999 -9999 -9999 -9999 -9999 -9999 -9999 -9999 -9999 -9999 -9999 -9999 -9999 -9999 -9999 -9999 -9999 -9999 -9999 -9999 -9999 -9999 -9999 -9999 -9999 -9999 -9999 -9999 -9999 -9999 -9999 -9999 -9999 -9999 -9999 -9999 -9999 -9999 -9999 -9999 -9999 -9999 -9999 -9999 -9999 -9999 -9999 -9999 -9999 -9999 -9999 -9999 -9999 -9999 -9999 -9999 -9999 -9999 -9999 -9999 -9999 -9999 -9999 -9999 -9999 -9999 -9999 -9999 -9999 -9999 -9999 -9999 -9999 -9999 -9999 -9999 -9999 -9999 1.50602409638554 1.50602409638554 -9999 -9999 -9999 -9999 -9999 -9999 -9999 -9999 -9999 -9999 -9999 -9999 -9999 -9999
-9999 -9999 -9999 -9999 -9999 -9999 -9999 -9999 -9999 -9999 -9999 -9999 -9999 -9999 -9999 -9999 -9999 -9999 -9999 -9999 -9999 -9999 -9999 -9999 -9999 -9999 -9999 -9999 -9999 -9999 -9999 -9999 -9999 -9999 -9999 -9999 -9999 -9999 -9999 -9999 -9999 -9999 -9999 -9999 -9999 -9999 -9999 -9999 -9999 -9999 -9999 -9999 -9999 -9999 -9999 -9999 -9999 -9999 -9999 -9999 -9999 -9999 -9999 -9999 -9999 -9999 -9999 -9999 -9999 -9999 -9999 -9999 -9999 -9999 -9999 -9999 -9999 -9999 -9999 -9999 -9999 -9999 -9999 -9999 -9999 -9999 -9999 -9999 -9999 -9999 -9999 -9999 -9999 -9999 -9999 -9999 -9999 -9999 -9999 -9999 -9999 -9999 -9999 -9999 -9999 -9999 -9999 -9999 -9999 -9999 -9999 -9999 -9999 -9999 -9999 -9999 -9999 -9999 -9999 -9999 -9999 -9999 -9999 -9999 -9999 -9999 -9999 -9999 -9999 -9999 -9999 -9999 -9999 -9999 -9999 -9999 -9999 -9999 -9999 -9999 -9999 -9999 -9999 -9999 -9999 -9999 -9999 -9999 -9999 -9999 -9999 -9999 -9999 -9999 -9999 -9999 -9999 -9999 -9999 -9999 -9999 -9999 -9999 -9999 -9999 -9999 -9999 -9999 -9999 -9999 -9999 -9999 -9999 -9999 -9999 -9999 -9999 -9999 -9999 -9999 -9999 -9999 -9999 -9999 -9999 -9999 -9999 -9999 -9999 -9999 -9999 -9999 -9999 -9999 -9999 -9999 -9999 -9999 -9999 -9999 -9999 -9999 -9999 -9999 -9999 -9999 -9999 -9999 -9999 -9999 -9999 -9999 -9999 -9999 -9999 -9999 -9999 -9999 -9999 -9999 -9999 -9999 -9999 -9999 -9999 -9999 -9999 -9999 -9999 -9999 -9999 -9999 -9999 -9999 -9999 -9999 -9999 -9999 -9999 -9999 -9999 -9999 -9999 -9999 -9999 -9999 -9999 -9999 -9999 -9999 -9999 -9999 -9999 -9999 -9999 -9999 -9999 -9999 -9999 -9999 -9999 -9999 -9999 -9999 -9999 -9999 -9999 -9999 -9999 -9999 -9999 -9999 -9999 -9999 -9999 -9999 -9999 -9999 -9999 -9999 -9999 -9999 -9999 -9999 -9999 -9999 -9999 -9999 -9999 -9999 -9999 -9999 -9999 -9999 -9999 -9999 -9999 -9999 -9999 -9999 -9999 -9999 -9999 -9999 -9999 -9999 -9999 -9999 -9999 -9999 -9999 -9999 -9999 -9999 -9999 -9999 -9999 -9999 -9999 -9999 -9999 -9999 -9999 -9999 -9999 -9999 -9999 -9999 -9999 -9999 -9999 -9999 -9999 -9999 -9999 -9999 -9999 -9999 -9999 -9999 -9999 -9999 -9999 -9999 -9999 -9999 -9999 -9999 -9999 -9999 -9999 -9999 -9999 -9999 -9999 -9999 -9999 -9999 -9999 -9999 -9999 -9999 -9999 -9999 -9999 -9999 -9999 -9999 -9999 -9999 -9999 -9999 -9999 -9999 -9999 -9999 -9999 -9999 -9999 -9999 -9999 -9999 -9999 -9999 -9999 -9999 -9999 -9999 -9999 -9999 -9999 -9999 -9999 -9999 -9999 1.50602409638554 1.50602409638554 1.50602409638554 1.50602409638554 1.50602409638554 -9999 -9999 -9999 -9999 -9999 -9999 -9999 -9999 -9999 -9999 0 0 0 0 -9999
-9999 -9999 -9999 -9999 -9999 -9999 -9999 -9999 -9999 -9999 -9999 -9999 -9999 -9999 -9999 -9999 -9999 -9999 -9999 -9999 -9999 -9999 -9999 -9999 -9999 -9999 -9999 -9999 -9999 -9999 -9999 -9999 -9999 -9999 -9999 -9999 -9999 -9999 -9999 -9999 -9999 -9999 -9999 -9999 -9999 -9999 -9999 -9999 -9999 -9999 -9999 -9999 -9999 -9999 -9999 -9999 -9999 -9999 -9999 -9999 -9999 -9999 -9999 -9999 -9999 -9999 -9999 -9999 -9999 -9999 -9999 -9999 -9999 -9999 -9999 -9999 -9999 -9999 -9999 -9999 -9999 -9999 -9999 -9999 -9999 -9999 -9999 -9999 -9999 -9999 -9999 -9999 -9999 -9999 -9999 -9999 -9999 -9999 -9999 -9999 -9999 -9999 -9999 -9999 -9999 -9999 -9999 -9999 -9999 -9999 -9999 -9999 -9999 -9999 -9999 -9999 -9999 -9999 -9999 -9999 -9999 -9999 -9999 -9999 -9999 -9999 -9999 -9999 -9999 -9999 -9999 -9999 -9999 -9999 -9999 -9999 -9999 -9999 -9999 -9999 -9999 -9999 -9999 -9999 -9999 -9999 -9999 -9999 -9999 -9999 -9999 -9999 -9999 -9999 -9999 -9999 -9999 -9999 -9999 -9999 -9999 -9999 -9999 -9999 -9999 -9999 -9999 -9999 -9999 -9999 -9999 -9999 -9999 -9999 -9999 -9999 -9999 -9999 -9999 -9999 -9999 -9999 -9999 -9999 -9999 -9999 -9999 -9999 -9999 -9999 -9999 -9999 -9999 -9999 -9999 -9999 -9999 -9999 -9999 -9999 -9999 -9999 -9999 -9999 -9999 -9999 -9999 -9999 -9999 -9999 -9999 -9999 -9999 -9999 -9999 -9999 -9999 -9999 -9999 -9999 -9999 -9999 -9999 -9999 -9999 -9999 -9999 -9999 -9999 -9999 -9999 -9999 -9999 -9999 -9999 -9999 -9999 -9999 -9999 -9999 -9999 -9999 -9999 -9999 -9999 -9999 -9999 -9999 -9999 -9999 -9999 -9999 -9999 -9999 -9999 -9999 -9999 -9999 -9999 -9999 -9999 -9999 -9999 -9999 -9999 -9999 -9999 -9999 -9999 -9999 -9999 -9999 -9999 -9999 -9999 -9999 -9999 -9999 -9999 -9999 -9999 -9999 -9999 -9999 -9999 -9999 -9999 -9999 -9999 -9999 -9999 -9999 -9999 -9999 -9999 -9999 -9999 -9999 -9999 -9999 -9999 -9999 -9999 -9999 -9999 -9999 -9999 -9999 -9999 -9999 -9999 -9999 -9999 -9999 -9999 -9999 -9999 -9999 -9999 -9999 -9999 -9999 -9999 -9999 -9999 -9999 -9999 -9999 -9999 -9999 -9999 -9999 -9999 -9999 -9999 -9999 -9999 -9999 -9999 -9999 -9999 -9999 -9999 -9999 -9999 -9999 -9999 -9999 -9999 -9999 -9999 -9999 -9999 -9999 -9999 -9999 -9999 -9999 -9999 -9999 -9999 -9999 -9999 -9999 -9999 -9999 -9999 -9999 -9999 -9999 -9999 -9999 -9999 -9999 -9999 -9999 -9999 -9999 -9999 -9999 -9999 -9999 -9999 -9999 -9999 -9999 -9999 -9999 -9999 -9999 -9999 -9999 -9999 -9999 -9999 1.50602409638554 1.50602409638554 1.50602409638554 -9999 -9999 -9999 -9999 -9999 -9999 -9999 1.50602409638554 1.50602409638554 1.50602409638554 1.50602409638554 0 0 0 0 -9999 -9999
-9999 -9999 -9999 -9999 -9999 -9999 -9999 -9999 -9999 -9999 -9999 -9999 -9999 -9999 -9999 -9999 -9999 -9999 -9999 -9999 -9999 -9999 -9999 -9999 -9999 -9999 -9999 -9999 -9999 -9999 -9999 -9999 -9999 -9999 -9999 -9999 -9999 -9999 -9999 -9999 -9999 -9999 -9999 -9999 -9999 -9999 -9999 -9999 -9999 -9999 -9999 -9999 -9999 -9999 -9999 -9999 -9999 -9999 -9999 -9999 -9999 -9999 -9999 -9999 -9999 -9999 -9999 -9999 -9999 -9999 -9999 -9999 -9999 -9999 -9999 -9999 -9999 -9999 -9999 -9999 -9999 -9999 -9999 -9999 -9999 -9999 -9999 -9999 -9999 -9999 -9999 -9999 -9999 -9999 -9999 -9999 -9999 -9999 -9999 -9999 -9999 -9999 -9999 -9999 -9999 -9999 -9999 -9999 -9999 -9999 -9999 -9999 -9999 -9999 -9999 -9999 -9999 -9999 -9999 -9999 -9999 -9999 -9999 -9999 -9999 -9999 -9999 -9999 -9999 -9999 -9999 -9999 -9999 -9999 -9999 -9999 -9999 -9999 -9999 -9999 -9999 -9999 -9999 -9999 -9999 -9999 -9999 -9999 -9999 -9999 -9999 -9999 -9999 -9999 -9999 -9999 -9999 -9999 -9999 -9999 -9999 -9999 -9999 -9999 -9999 -9999 -9999 -9999 -9999 -9999 -9999 -9999 -9999 -9999 -9999 -9999 -9999 -9999 -9999 -9999 -9999 -9999 -9999 -9999 -9999 -9999 -9999 -9999 -9999 -9999 -9999 -9999 -9999 -9999 -9999 -9999 -9999 -9999 -9999 -9999 -9999 -9999 -9999 -9999 -9999 -9999 -9999 -9999 -9999 -9999 -9999 -9999 -9999 -9999 -9999 -9999 -9999 -9999 -9999 -9999 -9999 -9999 -9999 -9999 -9999 -9999 -9999 -9999 -9999 -9999 -9999 -9999 -9999 -9999 -9999 -9999 -9999 -9999 -9999 -9999 -9999 -9999 -9999 -9999 -9999 -9999 -9999 -9999 -9999 -9999 -9999 -9999 -9999 -9999 -9999 -9999 -9999 -9999 -9999 -9999 -9999 -9999 -9999 -9999 -9999 -9999 -9999 -9999 -9999 -9999 -9999 -9999 -9999 -9999 -9999 -9999 -9999 -9999 -9999 -9999 -9999 -9999 -9999 -9999 -9999 -9999 -9999 -9999 -9999 -9999 -9999 -9999 -9999 -9999 -9999 -9999 -9999 -9999 -9999 -9999 -9999 -9999 -9999 -9999 -9999 -9999 -9999 -9999 -9999 -9999 -9999 -9999 -9999 -9999 -9999 -9999 -9999 -9999 -9999 -9999 -9999 -9999 -9999 -9999 -9999 -9999 -9999 -9999 -9999 -9999 -9999 -9999 -9999 -9999 -9999 -9999 -9999 -9999 -9999 -9999 -9999 -9999 -9999 -9999 -9999 -9999 -9999 -9999 -9999 -9999 -9999 -9999 -9999 -9999 -9999 -9999 -9999 -9999 -9999 -9999 -9999 -9999 -9999 -9999 -9999 -9999 -9999 -9999 -9999 -9999 -9999 -9999 -9999 -9999 -9999 -9999 -9999 -9999 -9999 -9999 -9999 -9999 -9999 -9999 -9999 -9999 -9999 -9999 -9999 1.50602409638554 2.9520295202952 1.50602409638554 1.50602409638554 -9999 -9999 -9999 1.50602409638554 -9999 -9999 -9999 -9999 -9999 1.50602409638554 1.50602409638554 1.50602409638554 1.50602409638554 1.50602409638554 1.50602409638554 1.50602409638554 0 0 0 -9999 -9999 -9999
-9999 -9999 -9999 -9999 -9999 -9999 -9999 -9999 -9999 -9999 -9999 -9999 -9999 -9999 -9999 -9999 -9999 -9999 -9999 -9999 -9999 -9999 -9999 -9999 -9999 -9999 -9999 -9999 -9999 -9999 -9999 -9999 -9999 -9999 -9999 -9999 -9999 -9999 -9999 -9999 -9999 -9999 -9999 -9999 -9999 -9999 -9999 -9999 -9999 -9999 -9999 -9999 -9999 -9999 -9999 -9999 -9999 -9999 -9999 -9999 -9999 -9999 -9999 -9999 -9999 -9999 -9999 -9999 -9999 -9999 -9999 -9999 -9999 -9999 -9999 -9999 -9999 -9999 -9999 -9999 -9999 -9999 -9999 -9999 -9999 -9999 -9999 -9999 -9999 -9999 -9999 -9999 -9999 -9999 -9999 -9999 -9999 -9999 -9999 -9999 -9999 -9999 -9999 -9999 -9999 -9999 -9999 -9999 -9999 -9999 -9999 -9999 -9999 -9999 -9999 -9999 -9999 -9999 -9999 -9999 -9999 -9999 -9999 -9999 -9999 -9999 -9999 -9999 -9999 -9999 -9999 -9999 -9999 -9999 -9999 -9999 -9999 -9999 -9999 -9999 -9999 -9999 -9999 -9999 -9999 -9999 -9999 -9999 -9999 -9999 -9999 -9999 -9999 -9999 -9999 -9999 -9999 -9999 -9999 -9999 -9999 -9999 -9999 -9999 -9999 -9999 -9999 -9999 -9999 -9999 -9999 -9999 -9999 -9999 -9999 -9999 -9999 -9999 -9999 -9999 -9999 -9999 -9999 -9999 -9999 -9999 -9999 -9999 -9999 -9999 -9999 -9999 -9999 -9999 -9999 -9999 -9999 -9999 -9999 -9999 -9999 -9999 -9999 -9999 -9999 -9999 -9999 -9999 -9999 -9999 -9999 -9999 -9999 -9999 -9999 -9999 -9999 -9999 -9999 -9999 -9999 -9999 -9999 -9999 -9999 -9999 -9999 -9999 -9999 -9999 -9999 -9999 -9999 -9999 -9999 -9999 -9999 -9999 -9999 -9999 -9999 -9999 -9999 -9999 -9999 -9999 -9999 -9999 -9999 -9999 -9999 -9999 -9999 -9999 -9999 -9999 -9999 -9999 -9999 -9999 -9999 -9999 -9999 -9999 -9999 -9999 -9999 -9999 -9999 -9999 -9999 -9999 -9999 -9999 -9999 -9999 -9999 -9999 -9999 -9999 -9999 -9999 -9999 -9999 -9999 -9999 -9999 -9999 -9999 -9999 -9999 -9999 -9999 -9999 -9999 -9999 -9999 -9999 -9999 -9999 -9999 -9999 -9999 -9999 -9999 -9999 -9999 -9999 -9999 -9999 -9999 -9999 -9999 -9999 -9999 -9999 -9999 -9999 -9999 -9999 -9999 -9999 -9999 -9999 -9999 -9999 -9999 -9999 -9999 -9999 -9999 -9999 -9999 -9999 -9999 -9999 -9999 -9999 -9999 -9999 -9999 -9999 -9999 -9999 -9999 -9999 -9999 -9999 -9999 -9999 -9999 -9999 -9999 -9999 -9999 -9999 -9999 -9999 -9999 -9999 -9999 -9999 -9999 -9999 -9999 -9999 -9999 -9999 -9999 -9999 -9999 -9999 -9999 -9999 -9999 -9999 -9999 -9999 -9999 -9999 -9999 -9999 -9999 -9999 -9999 6.47249190938511 6.47249190938511 2.9520295202952 2.9520295202952 2.9520295202952 2.9520295202952 2.9520295202952 1.50602409638554 1.50602409638554 -9999 -9999 -9999 -9999 -9999 1.50602409638554 1.50602409638554 1.50602409638554 1.50602409638554 1.50602409638554 1.50602409638554 1.50602409638554 -9999 0 0 0 0 0 -9999 -9999 -9999
-9999 -9999 -9999 -9999 -9999 -9999 -9999 -9999 -9999 -9999 -9999 -9999 -9999 -9999 -9999 -9999 -9999 -9999 -9999 -9999 -9999 -9999 -9999 -9999 -9999 -9999 -9999 -9999 -9999 -9999 -9999 -9999 -9999 -9999 -9999 -9999 -9999 -9999 -9999 -9999 -9999 -9999 -9999 -9999 -9999 -9999 -9999 -9999 -9999 -9999 -9999 -9999 -9999 -9999 -9999 -9999 -9999 -9999 -9999 -9999 -9999 -9999 -9999 -9999 -9999 -9999 -9999 -9999 -9999 -9999 -9999 -9999 -9999 -9999 -9999 -9999 -9999 -9999 -9999 -9999 -9999 -9999 -9999 -9999 -9999 -9999 -9999 -9999 -9999 -9999 -9999 -9999 -9999 -9999 -9999 -9999 -9999 -9999 -9999 -9999 -9999 -9999 -9999 -9999 -9999 -9999 -9999 -9999 -9999 -9999 -9999 -9999 -9999 -9999 -9999 -9999 -9999 -9999 -9999 -9999 -9999 -9999 -9999 -9999 -9999 -9999 -9999 -9999 -9999 -9999 -9999 -9999 -9999 -9999 -9999 -9999 -9999 -9999 -9999 -9999 -9999 -9999 -9999 -9999 -9999 -9999 -9999 -9999 -9999 -9999 -9999 -9999 -9999 -9999 -9999 -9999 -9999 -9999 -9999 -9999 -9999 -9999 -9999 -9999 -9999 -9999 -9999 -9999 -9999 -9999 -9999 -9999 -9999 -9999 -9999 -9999 -9999 -9999 -9999 -9999 -9999 -9999 -9999 -9999 -9999 -9999 -9999 -9999 -9999 -9999 -9999 -9999 -9999 -9999 -9999 -9999 -9999 -9999 -9999 -9999 -9999 -9999 -9999 -9999 -9999 -9999 -9999 -9999 -9999 -9999 -9999 -9999 -9999 -9999 -9999 -9999 -9999 -9999 -9999 -9999 -9999 -9999 -9999 -9999 -9999 -9999 -9999 -9999 -9999 -9999 -9999 -9999 -9999 -9999 -9999 -9999 -9999 -9999 -9999 -9999 -9999 -9999 -9999 -9999 -9999 -9999 -9999 -9999 -9999 -9999 -9999 -9999 -9999 -9999 -9999 -9999 -9999 -9999 -9999 -9999 -9999 -9999 -9999 -9999 -9999 -9999 -9999 -9999 -9999 -9999 -9999 -9999 -9999 -9999 -9999 -9999 -9999 -9999 -9999 -9999 -9999 -9999 -9999 -9999 -9999 -9999 -9999 -9999 -9999 -9999 -9999 -9999 -9999 -9999 -9999 -9999 -9999 -9999 -9999 -9999 -9999 -9999 -9999 -9999 -9999 -9999 -9999 -9999 -9999 -9999 -9999 -9999 -9999 -9999 -9999 -9999 -9999 -9999 -9999 -9999 -9999 -9999 -9999 -9999 -9999 -9999 -9999 -9999 -9999 -9999 -9999 -9999 -9999 -9999 -9999 -9999 -9999 -9999 -9999 -9999 -9999 -9999 -9999 -9999 -9999 -9999 -9999 -9999 -9999 -9999 -9999 -9999 -9999 -9999 -9999 -9999 -9999 -9999 -9999 -9999 -9999 -9999 -9999 -9999 -9999 -9999 -9999 -9999 -9999 -9999 -9999 -9999 -9999 -9999 -9999 -9999 -9999 -9999 -9999 -9999 -9999 -9999 6.47249190938511 6.47249190938511 6.47249190938511 6.47249190938511 6.47249190938511 2.9520295202952 2.9520295202952 2.9520295202952 2.9520295202952 2.9520295202952 2.9520295202952 1.50602409638554 1.50602409638554 1.50602409638554 1.50602409638554 2.9520295202952 2.9520295202952 2.9520295202952 2.9520295202952 2.9520295202952 -9999 -9999 -9999 -9999 0 0 0 0 0 0 -9999 -9999 -9999
-9999 -9999 -9999 -9999 -9999 -9999 -9999 -9999 -9999 -9999 -9999 -9999 -9999 -9999 -9999 -9999 -9999 -9999 -9999 -9999 -9999 -9999 -9999 -9999 -9999 -9999 -9999 -9999 -9999 -9999 -9999 -9999 -9999 -9999 -9999 -9999 -9999 -9999 -9999 -9999 -9999 -9999 -9999 -9999 -9999 -9999 -9999 -9999 -9999 -9999 -9999 -9999 -9999 -9999 -9999 -9999 -9999 -9999 -9999 -9999 -9999 -9999 -9999 -9999 -9999 -9999 -9999 -9999 -9999 -9999 -9999 -9999 -9999 -9999 -9999 -9999 -9999 -9999 -9999 -9999 -9999 -9999 -9999 -9999 -9999 -9999 -9999 -9999 -9999 -9999 -9999 -9999 -9999 -9999 -9999 -9999 -9999 -9999 -9999 -9999 -9999 -9999 -9999 -9999 -9999 -9999 -9999 -9999 -9999 -9999 -9999 -9999 -9999 -9999 -9999 -9999 -9999 -9999 -9999 -9999 -9999 -9999 -9999 -9999 -9999 -9999 -9999 -9999 -9999 -9999 -9999 -9999 -9999 -9999 -9999 -9999 -9999 -9999 -9999 -9999 -9999 -9999 -9999 -9999 -9999 -9999 -9999 -9999 -9999 -9999 -9999 -9999 -9999 -9999 -9999 -9999 -9999 -9999 -9999 -9999 -9999 -9999 -9999 -9999 -9999 -9999 -9999 -9999 -9999 -9999 -9999 -9999 -9999 -9999 -9999 -9999 -9999 -9999 -9999 -9999 -9999 -9999 -9999 -9999 -9999 -9999 -9999 -9999 -9999 -9999 -9999 -9999 -9999 -9999 -9999 -9999 -9999 -9999 -9999 -9999 -9999 -9999 -9999 -9999 -9999 -9999 -9999 -9999 -9999 -9999 -9999 -9999 -9999 -9999 -9999 -9999 -9999 -9999 -9999 -9999 -9999 -9999 -9999 -9999 -9999 -9999 -9999 -9999 -9999 -9999 -9999 -9999 -9999 -9999 -9999 -9999 -9999 -9999 -9999 -9999 -9999 -9999 -9999 -9999 -9999 -9999 -9999 -9999 -9999 -9999 -9999 -9999 -9999 -9999 -9999 -9999 -9999 -9999 -9999 -9999 -9999 -9999 -9999 -9999 -9999 -9999 -9999 -9999 -9999 -9999 -9999 -9999 -9999 -9999 -9999 -9999 -9999 -9999 -9999 -9999 -9999 -9999 -9999 -9999 -9999 -9999 -9999 -9999 -9999 -9999 -9999 -9999 -9999 -9999 -9999 -9999 -9999 -9999 -9999 -9999 -9999 -9999 -9999 -9999 -9999 -9999 -9999 -9999 -9999 -9999 -9999 -9999 -9999 -9999 -9999 -9999 -9999 -9999 -9999 -9999 -9999 -9999 -9999 -9999 -9999 -9999 -9999 -9999 -9999 -9999 -9999 -9999 -9999 -9999 -9999 -9999 -9999 -9999 -9999 -9999 -9999 -9999 -9999 -9999 -9999 -9999 -9999 -9999 -9999 -9999 -9999 -9999 -9999 -9999 -9999 -9999 -9999 -9999 -9999 -9999 -9999 -9999 -9999 -9999 -9999 -9999 -9999 -9999 -9999 -9999 -9999 -9999 -9999 -9999 -9999 -9999 -9999 -9999 -9999 6.47249190938511 6.47249190938511 6.47249190938511 6.47249190938511 6.47249190938511 6.47249190938511 6.47249190938511 6.47249190938511 2.9520295202952 2.9520295202952 2.9520295202952 2.9520295202952 2.9520295202952 2.9520295202952 2.9520295202952 2.9520295202952 1.50602409638554 1.50602409638554 2.9520295202952 2.9520295202952 2.9520295202952 -9999 -9999 -9999 -9999 -9999 -9999 0 0 0 0 0 -9999 -9999 -9999 -9999
-9999 -9999 -9999 -9999 -9999 -9999 -9999 -9999 -9999 -9999 -9999 -9999 -9999 -9999 -9999 -9999 -9999 -9999 -9999 -9999 -9999 -9999 -9999 -9999 -9999 -9999 -9999 -9999 -9999 -9999 -9999 -9999 -9999 -9999 -9999 -9999 -9999 -9999 -9999 -9999 -9999 -9999 -9999 -9999 -9999 -9999 -9999 -9999 -9999 -9999 -9999 -9999 -9999 -9999 -9999 -9999 -9999 -9999 -9999 -9999 -9999 -9999 -9999 -9999 -9999 -9999 -9999 -9999 -9999 -9999 -9999 -9999 -9999 -9999 -9999 -9999 -9999 -9999 -9999 -9999 -9999 -9999 -9999 -9999 -9999 -9999 -9999 -9999 -9999 -9999 -9999 -9999 -9999 -9999 -9999 -9999 -9999 -9999 -9999 -9999 -9999 -9999 -9999 -9999 -9999 -9999 -9999 -9999 -9999 -9999 -9999 -9999 -9999 -9999 -9999 -9999 -9999 -9999 -9999 -9999 -9999 -9999 -9999 -9999 -9999 -9999 -9999 -9999 -9999 -9999 -9999 -9999 -9999 -9999 -9999 -9999 -9999 -9999 -9999 -9999 -9999 -9999 -9999 -9999 -9999 -9999 -9999 -9999 -9999 -9999 -9999 -9999 -9999 -9999 -9999 -9999 -9999 -9999 -9999 -9999 -9999 -9999 -9999 -9999 -9999 -9999 -9999 -9999 -9999 -9999 -9999 -9999 -9999 -9999 -9999 -9999 -9999 -9999 -9999 -9999 -9999 -9999 -9999 -9999 -9999 -9999 -9999 -9999 -9999 -9999 -9999 -9999 -9999 -9999 -9999 -9999 -9999 -9999 -9999 -9999 -9999 -9999 -9999 -9999 -9999 -9999 -9999 -9999 -9999 -9999 -9999 -9999 -9999 -9999 -9999 -9999 -9999 -9999 -9999 -9999 -9999 -9999 -9999 -9999 -9999 -9999 -9999 -9999 -9999 -9999 -9999 -9999 -9999 -9999 -9999 -9999 -9999 -9999 -9999 -9999 -9999 -9999 -9999 -9999 -9999 -9999 -9999 -9999 -9999 -9999 -9999 -9999 -9999 -9999 -9999 -9999 -9999 -9999 -9999 -9999 -9999 -9999 -9999 -9999 -9999 -9999 -9999 -9999 -9999 -9999 -9999 -9999 -9999 -9999 -9999 -9999 -9999 -9999 -9999 -9999 -9999 -9999 -9999 -9999 -9999 -9999 -9999 -9999 -9999 -9999 -9999 -9999 -9999 -9999 -9999 -9999 -9999 -9999 -9999 -9999 -9999 -9999 -9999 -9999 -9999 -9999 -9999 -9999 -9999 -9999 -9999 -9999 -9999 -9999 -9999 -9999 -9999 -9999 -9999 -9999 -9999 -9999 -9999 -9999 -9999 -9999 -9999 -9999 -9999 -9999 -9999 -9999 -9999 -9999 -9999 -9999 -9999 -9999 -9999 -9999 -9999 -9999 -9999 -9999 -9999 -9999 -9999 -9999 -9999 -9999 -9999 -9999 -9999 -9999 -9999 -9999 -9999 -9999 -9999 -9999 -9999 -9999 -9999 -9999 -9999 -9999 -9999 -9999 -9999 -9999 -9999 -9999 -9999 -9999 -9999 -9999 -9999 6.47249190938511 6.47249190938511 6.47249190938511 6.47249190938511 6.47249190938511 6.47249190938511 6.47249190938511 6.47249190938511 6.47249190938511 6.47249190938511 2.9520295202952 2.9520295202952 2.9520295202952 2.9520295202952 2.9520295202952 2.9520295202952 2.9520295202952 2.9520295202952 2.9520295202952 2.9520295202952 2.9520295202952 -9999 -9999 -9999 -9999 -9999 -9999 0 0 0 0 0 0 0 -9999 -9999 -9999 -9999
-9999 -9999 -9999 -9999 -9999 -9999 -9999 -9999 -9999 -9999 -9999 -9999 -9999 -9999 -9999 -9999 -9999 -9999 -9999 -9999 -9999 -9999 -9999 -9999 -9999 -9999 -9999 -9999 -9999 -9999 -9999 -9999 -9999 -9999 -9999 -9999 -9999 -9999 -9999 -9999 -9999 -9999 -9999 -9999 -9999 -9999 -9999 -9999 -9999 -9999 -9999 -9999 -9999 -9999 -9999 -9999 -9999 -9999 -9999 -9999 -9999 -9999 -9999 -9999 -9999 -9999 -9999 -9999 -9999 -9999 -9999 -9999 -9999 -9999 -9999 -9999 -9999 -9999 -9999 -9999 -9999 -9999 -9999 -9999 -9999 -9999 -9999 -9999 -9999 -9999 -9999 -9999 -9999 -9999 -9999 -9999 -9999 -9999 -9999 -9999 -9999 -9999 -9999 -9999 -9999 -9999 -9999 -9999 -9999 -9999 -9999 -9999 -9999 -9999 -9999 -9999 -9999 -9999 -9999 -9999 -9999 -9999 -9999 -9999 -9999 -9999 -9999 -9999 -9999 -9999 -9999 -9999 -9999 -9999 -9999 -9999 -9999 -9999 -9999 -9999 -9999 -9999 -9999 -9999 -9999 -9999 -9999 -9999 -9999 -9999 -9999 -9999 -9999 -9999 -9999 -9999 -9999 -9999 -9999 -9999 -9999 -9999 -9999 -9999 -9999 -9999 -9999 -9999 -9999 -9999 -9999 -9999 -9999 -9999 -9999 -9999 -9999 -9999 -9999 -9999 -9999 -9999 -9999 -9999 -9999 -9999 -9999 -9999 -9999 -9999 -9999 -9999 -9999 -9999 -9999 -9999 -9999 -9999 -9999 -9999 -9999 -9999 -9999 -9999 -9999 -9999 -9999 -9999 -9999 -9999 -9999 -9999 -9999 -9999 -9999 -9999 -9999 -9999 -9999 -9999 -9999 -9999 -9999 -9999 -9999 -9999 -9999 -9999 -9999 -9999 -9999 -9999 -9999 -9999 -9999 -9999 -9999 -9999 -9999 -9999 -9999 -9999 -9999 -9999 -9999 -9999 -9999 -9999 -9999 -9999 -9999 -9999 -9999 -9999 -9999 -9999 -9999 -9999 -9999 -9999 -9999 -9999 -9999 -9999 -9999 -9999 -9999 -9999 -9999 -9999 -9999 -9999 -9999 -9999 -9999 -9999 -9999 -9999 -9999 -9999 -9999 -9999 -9999 -9999 -9999 -9999 -9999 -9999 -9999 -9999 -9999 -9999 -9999 -9999 -9999 -9999 -9999 -9999 -9999 -9999 -9999 -9999 -9999 -9999 -9999 -9999 -9999 -9999 -9999 -9999 -9999 -9999 -9999 -9999 -9999 -9999 -9999 -9999 -9999 -9999 -9999 -9999 -9999 -9999 -9999 -9999 -9999 -9999 -9999 -9999 -9999 -9999 -9999 -9999 -9999 -9999 -9999 -9999 -9999 -9999 -9999 -9999 -9999 -9999 -9999 -9999 -9999 -9999 -9999 -9999 -9999 -9999 -9999 -9999 -9999 -9999 -9999 -9999 -9999 -9999 -9999 -9999 -9999 -9999 -9999 -9999 -9999 -9999 -9999 -9999 -9999 -9999 -9999 -9999 -9999 -9999 6.47249190938511 6.47249190938511 6.47249190938511 6.47249190938511 6.47249190938511 6.47249190938511 6.47249190938511 6.47249190938511 6.47249190938511 6.47249190938511 6.47249190938511 2.9520295202952 2.9520295202952 2.9520295202952 2.9520295202952 2.9520295202952 2.9520295202952 2.9520295202952 2.9520295202952 2.9520295202952 2.9520295202952 2.9520295202952 -9999 -9999 -9999 -9999 -9999 0 0 0 0 0 0 0 -9999 -9999 -9999 -9999 -9999
-9999 -9999 -9999 -9999 -9999 -9999 -9999 -9999 -9999 -9999 -9999 -9999 -9999 -9999 -9999 -9999 -9999 -9999 -9999 -9999 -9999 -9999 -9999 -9999 -9999 -9999 -9999 -9999 -9999 -9999 -9999 -9999 -9999 -9999 -9999 -9999 -9999 -9999 -9999 -9999 -9999 -9999 -9999 -9999 -9999 -9999 -9999 -9999 -9999 -9999 -9999 -9999 -9999 -9999 -9999 -9999 -9999 -9999 -9999 -9999 -9999 -9999 -9999 -9999 -9999 -9999 -9999 -9999 -9999 -9999 -9999 -9999 -9999 -9999 -9999 -9999 -9999 -9999 -9999 -9999 -9999 -9999 -9999 -9999 -9999 -9999 -9999 -9999 -9999 -9999 -9999 -9999 -9999 -9999 -9999 -9999 -9999 -9999 -9999 -9999 -9999 -9999 -9999 -9999 -9999 -9999 -9999 -9999 -9999 -9999 -9999 -9999 -9999 -9999 -9999 -9999 -9999 -9999 -9999 -9999 -9999 -9999 -9999 -9999 -9999 -9999 -9999 -9999 -9999 -9999 -9999 -9999 -9999 -9999 -9999 -9999 -9999 -9999 -9999 -9999 -9999 -9999 -9999 -9999 -9999 -9999 -9999 -9999 -9999 -9999 -9999 -9999 -9999 -9999 -9999 -9999 -9999 -9999 -9999 -9999 -9999 -9999 -9999 -9999 -9999 -9999 -9999 -9999 -9999 -9999 -9999 -9999 -9999 -9999 -9999 -9999 -9999 -9999 -9999 -9999 -9999 -9999 -9999 -9999 -9999 -9999 -9999 -9999 -9999 -9999 -9999 -9999 -9999 -9999 -9999 -9999 -9999 -9999 -9999 -9999 -9999 -9999 -9999 -9999 -9999 -9999 -9999 -9999 -9999 -9999 -9999 -9999 -9999 -9999 -9999 -9999 -9999 -9999 -9999 -9999 -9999 -9999 -9999 -9999 -9999 -9999 -9999 -9999 -9999 -9999 -9999 -9999 -9999 -9999 -9999 -9999 -9999 -9999 -9999 -9999 -9999 -9999 -9999 -9999 -9999 -9999 -9999 -9999 -9999 -9999 -9999 -9999 -9999 -9999 -9999 -9999 -9999 -9999 -9999 -9999 -9999 -9999 -9999 -9999 -9999 -9999 -9999 -9999 -9999 -9999 -9999 -9999 -9999 -9999 -9999 -9999 -9999 -9999 -9999 -9999 -9999 -9999 -9999 -9999 -9999 -9999 -9999 -9999 -9999 -9999 -9999 -9999 -9999 -9999 -9999 -9999 -9999 -9999 -9999 -9999 -9999 -9999 -9999 -9999 -9999 -9999 -9999 -9999 -9999 -9999 -9999 -9999 -9999 -9999 -9999 -9999 -9999 -9999 -9999 -9999 -9999 -9999 -9999 -9999 -9999 -9999 -9999 -9999 -9999 -9999 -9999 -9999 -9999 -9999 -9999 -9999 -9999 -9999 -9999 -9999 -9999 -9999 -9999 -9999 -9999 -9999 -9999 -9999 -9999 -9999 -9999 -9999 -9999 -9999 -9999 -9999 -9999 -9999 -9999 -9999 -9999 -9999 -9999 -9999 -9999 -9999 -9999 -9999 -9999 -9999 -9999 -9999 -9999 -9999 -9999 -9999 6.47249190938511 6.47249190938511 6.47249190938511 6.47249190938511 6.47249190938511 6.47249190938511 6.47249190938511 6.47249190938511 6.47249190938511 6.47249190938511 2.9520295202952 2.9520295202952 2.9520295202952 2.9520295202952 2.9520295202952 2.9520295202952 2.9520295202952 2.9520295202952 2.9520295202952 2.9520295202952 2.9520295202952 -9999 -9999 -9999 -9999 -9999 0 0 0 0 0 0 0 0 -9999 -9999 -9999 -9999 -9999
-9999 -9999 -9999 -9999 -9999 -9999 -9999 -9999 -9999 -9999 -9999 -9999 -9999 -9999 -9999 -9999 -9999 -9999 -9999 -9999 -9999 -9999 -9999 -9999 -9999 -9999 -9999 -9999 -9999 -9999 -9999 -9999 -9999 -9999 -9999 -9999 -9999 -9999 -9999 -9999 -9999 -9999 -9999 -9999 -9999 -9999 -9999 -9999 -9999 -9999 -9999 -9999 -9999 -9999 -9999 -9999 -9999 -9999 -9999 -9999 -9999 -9999 -9999 -9999 -9999 -9999 -9999 -9999 -9999 -9999 -9999 -9999 -9999 -9999 -9999 -9999 -9999 -9999 -9999 -9999 -9999 -9999 -9999 -9999 -9999 -9999 -9999 -9999 -9999 -9999 -9999 -9999 -9999 -9999 -9999 -9999 -9999 -9999 -9999 -9999 -9999 -9999 -9999 -9999 -9999 -9999 -9999 -9999 -9999 -9999 -9999 -9999 -9999 -9999 -9999 -9999 -9999 -9999 -9999 -9999 -9999 -9999 -9999 -9999 -9999 -9999 -9999 -9999 -9999 -9999 -9999 -9999 -9999 -9999 -9999 -9999 -9999 -9999 -9999 -9999 -9999 -9999 -9999 -9999 -9999 -9999 -9999 -9999 -9999 -9999 -9999 -9999 -9999 -9999 -9999 -9999 -9999 -9999 -9999 -9999 -9999 -9999 -9999 -9999 -9999 -9999 -9999 -9999 -9999 -9999 -9999 -9999 -9999 -9999 -9999 -9999 -9999 -9999 -9999 -9999 -9999 -9999 -9999 -9999 -9999 -9999 -9999 -9999 -9999 -9999 -9999 -9999 -9999 -9999 -9999 -9999 -9999 -9999 -9999 -9999 -9999 -9999 -9999 -9999 -9999 -9999 -9999 -9999 -9999 -9999 -9999 -9999 -9999 -9999 -9999 -9999 -9999 -9999 -9999 -9999 -9999 -9999 -9999 -9999 -9999 -9999 -9999 -9999 -9999 -9999 -9999 -9999 -9999 -9999 -9999 -9999 -9999 -9999 -9999 -9999 -9999 -9999 -9999 -9999 -9999 -9999 -9999 -9999 -9999 -9999 -9999 -9999 -9999 -9999 -9999 -9999 -9999 -9999 -9999 -9999 -9999 -9999 -9999 -9999 -9999 -9999 -9999 -9999 -9999 -9999 -9999 -9999 -9999 -9999 -9999 -9999 -9999 -9999 -9999 -9999 -9999 -9999 -9999 -9999 -9999 -9999 -9999 -9999 -9999 -9999 -9999 -9999 -9999 -9999 -9999 -9999 -9999 -9999 -9999 -9999 -9999 -9999 -9999 -9999 -9999 -9999 -9999 -9999 -9999 -9999 -9999 -9999 -9999 -9999 -9999 -9999 -9999 -9999 -9999 -9999 -9999 -9999 -9999 -9999 -9999 -9999 -9999 -9999 -9999 -9999 -9999 -9999 -9999 -9999 -9999 -9999 -9999 -9999 -9999 -9999 -9999 -9999 -9999 -9999 -9999 -9999 -9999 -9999 -9999 -9999 -9999 -9999 -9999 -9999 -9999 -9999 -9999 -9999 -9999 -9999 -9999 -9999 -9999 -9999 -9999 -9999 -9999 -9999 -9999 -9999 -9999 -9999 -9999 -9999 -9999 6.47249190938511 6.47249190938511 6.47249190938511 6.47249190938511 6.47249190938511 6.47249190938511 6.47249190938511 6.47249190938511 6.47249190938511 6.47249190938511 6.47249190938511 2.9520295202952 2.9520295202952 2.9520295202952 2.9520295202952 2.9520295202952 2.9520295202952 2.9520295202952 2.9520295202952 2.9520295202952 2.9520295202952 2.9520295202952 -9999 -9999 3.51123595505618 3.51123595505618 0 0 0 0 0 0 0 0 -9999 -9999 -9999 -9999 -9999 -9999
-9999 -9999 -9999 -9999 -9999 -9999 -9999 -9999 -9999 -9999 -9999 -9999 -9999 -9999 -9999 -9999 -9999 -9999 -9999 -9999 -9999 -9999 -9999 -9999 -9999 -9999 -9999 -9999 -9999 -9999 -9999 -9999 -9999 -9999 -9999 -9999 -9999 -9999 -9999 -9999 -9999 -9999 -9999 -9999 -9999 -9999 -9999 -9999 -9999 -9999 -9999 -9999 -9999 -9999 -9999 -9999 -9999 -9999 -9999 -9999 -9999 -9999 -9999 -9999 -9999 -9999 -9999 -9999 -9999 -9999 -9999 -9999 -9999 -9999 -9999 -9999 -9999 -9999 -9999 -9999 -9999 -9999 -9999 -9999 -9999 -9999 -9999 -9999 -9999 -9999 -9999 -9999 -9999 -9999 -9999 -9999 -9999 -9999 -9999 -9999 -9999 -9999 -9999 -9999 -9999 -9999 -9999 -9999 -9999 -9999 -9999 -9999 -9999 -9999 -9999 -9999 -9999 -9999 -9999 -9999 -9999 -9999 -9999 -9999 -9999 -9999 -9999 -9999 -9999 -9999 -9999 -9999 -9999 -9999 -9999 -9999 -9999 -9999 -9999 -9999 -9999 -9999 -9999 -9999 -9999 -9999 -9999 -9999 -9999 -9999 -9999 -9999 -9999 -9999 -9999 -9999 -9999 -9999 -9999 -9999 -9999 -9999 -9999 -9999 -9999 -9999 -9999 -9999 -9999 -9999 -9999 -9999 -9999 -9999 -9999 -9999 -9999 -9999 -9999 -9999 -9999 -9999 -9999 -9999 -9999 -9999 -9999 -9999 -9999 -9999 -9999 -9999 -9999 -9999 -9999 -9999 -9999 -9999 -9999 -9999 -9999 -9999 -9999 -9999 -9999 -9999 -9999 -9999 -9999 -9999 -9999 -9999 -9999 -9999 -9999 -9999 -9999 -9999 -9999 -9999 -9999 -9999 -9999 -9999 -9999 -9999 -9999 -9999 -9999 -9999 -9999 -9999 -9999 -9999 -9999 -9999 -9999 -9999 -9999 -9999 -9999 -9999 -9999 -9999 -9999 -9999 -9999 -9999 -9999 -9999 -9999 -9999 -9999 -9999 -9999 -9999 -9999 -9999 -9999 -9999 -9999 -9999 -9999 -9999 -9999 -9999 -9999 -9999 -9999 -9999 -9999 -9999 -9999 -9999 -9999 -9999 -9999 -9999 -9999 -9999 -9999 -9999 -9999 -9999 -9999 -9999 -9999 -9999 -9999 -9999 -9999 -9999 -9999 -9999 -9999 -9999 -9999 -9999 -9999 -9999 -9999 -9999 -9999 -9999 -9999 -9999 -9999 -9999 -9999 -9999 -9999 -9999 -9999 -9999 -9999 -9999 -9999 -9999 -9999 -9999 -9999 -9999 -9999 -9999 -9999 -9999 -9999 -9999 -9999 -9999 -9999 -9999 -9999 -9999 -9999 -9999 -9999 -9999 -9999 -9999 -9999 -9999 -9999 -9999 -9999 -9999 -9999 -9999 -9999 -9999 -9999 -9999 -9999 -9999 -9999 -9999 -9999 -9999 -9999 -9999 -9999 -9999 -9999 -9999 -9999 -9999 -9999 -9999 -9999 -9999 -9999 -9999 -9999 -9999 6.47249190938511 6.47249190938511 6.47249190938511 6.47249190938511 6.47249190938511 6.47249190938511 6.47249190938511 6.47249190938511 6.47249190938511 6.47249190938511 6.47249190938511 2.9520295202952 2.9520295202952 2.9520295202952 2.9520295202952 2.9520295202952 2.9520295202952 2.9520295202952 2.9520295202952 2.9520295202952 2.9520295202952 2.9520295202952 2.9520295202952 3.51123595505618 3.51123595505618 3.51123595505618 3.51123595505618 0 0 0 0 0 0 -9999 -9999 -9999 -9999 -9999 -9999 -9999 -9999
-9999 -9999 -9999 -9999 -9999 -9999 -9999 -9999 -9999 -9999 -9999 -9999 -9999 -9999 -9999 -9999 -9999 -9999 -9999 -9999 -9999 -9999 -9999 -9999 -9999 -9999 -9999 -9999 -9999 -9999 -9999 -9999 -9999 -9999 -9999 -9999 -9999 -9999 -9999 -9999 -9999 -9999 -9999 -9999 -9999 -9999 -9999 -9999 -9999 -9999 -9999 -9999 -9999 -9999 -9999 -9999 -9999 -9999 -9999 -9999 -9999 -9999 -9999 -9999 -9999 -9999 -9999 -9999 -9999 -9999 -9999 -9999 -9999 -9999 -9999 -9999 -9999 -9999 -9999 -9999 -9999 -9999 -9999 -9999 -9999 -9999 -9999 -9999 -9999 -9999 -9999 -9999 -9999 -9999 -9999 -9999 -9999 -9999 -9999 -9999 -9999 -9999 -9999 -9999 -9999 -9999 -9999 -9999 -9999 -9999 -9999 -9999 -9999 -9999 -9999 -9999 -9999 -9999 -9999 -9999 -9999 -9999 -9999 -9999 -9999 -9999 -9999 -9999 -9999 -9999 -9999 -9999 -9999 -9999 -9999 -9999 -9999 -9999 -9999 -9999 -9999 -9999 -9999 -9999 -9999 -9999 -9999 -9999 -9999 -9999 -9999 -9999 -9999 -9999 -9999 -9999 -9999 -9999 -9999 -9999 -9999 -9999 -9999 -9999 -9999 -9999 -9999 -9999 -9999 -9999 -9999 -9999 -9999 -9999 -9999 -9999 -9999 -9999 -9999 -9999 -9999 -9999 -9999 -9999 -9999 -9999 -9999 -9999 -9999 -9999 -9999 -9999 -9999 -9999 -9999 -9999 -9999 -9999 -9999 -9999 -9999 -9999 -9999 -9999 -9999 -9999 -9999 -9999 -9999 -9999 -9999 -9999 -9999 -9999 -9999 -9999 -9999 -9999 -9999 -9999 -9999 -9999 -9999 -9999 -9999 -9999 -9999 -9999 -9999 -9999 -9999 -9999 -9999 -9999 -9999 -9999 -9999 -9999 -9999 -9999 -9999 -9999 -9999 -9999 -9999 -9999 -9999 -9999 -9999 -9999 -9999 -9999 -9999 -9999 -9999 -9999 -9999 -9999 -9999 -9999 -9999 -9999 -9999 -9999 -9999 -9999 -9999 -9999 -9999 -9999 -9999 -9999 -9999 -9999 -9999 -9999 -9999 -9999 -9999 -9999 -9999 -9999 -9999 -9999 -9999 -9999 -9999 -9999 -9999 -9999 -9999 -9999 -9999 -9999 -9999 -9999 -9999 -9999 -9999 -9999 -9999 -9999 -9999 -9999 -9999 -9999 -9999 -9999 -9999 -9999 -9999 -9999 -9999 -9999 -9999 -9999 -9999 -9999 -9999 -9999 -9999 -9999 -9999 -9999 -9999 -9999 -9999 -9999 -9999 -9999 -9999 -9999 -9999 -9999 -9999 -9999 -9999 -9999 -9999 -9999 -9999 -9999 -9999 -9999 -9999 -9999 -9999 -9999 -9999 -9999 -9999 -9999 -9999 -9999 -9999 -9999 -9999 -9999 -9999 -9999 -9999 -9999 -9999 -9999 -9999 -9999 -9999 -9999 -9999 -9999 -9999 -9999 -9999 6.47249190938511 6.47249190938511 6.47249190938511 6.47249190938511 6.47249190938511 6.47249190938511 6.47249190938511 6.47249190938511 6.47249190938511 6.47249190938511 6.47249190938511 6.47249190938511 2.9520295202952 2.9520295202952 2.9520295202952 2.9520295202952 2.9520295202952 2.9520295202952 2.9520295202952 2.9520295202952 2.9520295202952 2.9520295202952 2.9520295202952 3.51123595505618 3.51123595505618 3.51123595505618 3.51123595505618 3.51123595505618 0 0 0 0 0 0 -9999 -9999 -9999 -9999 -9999 -9999 -9999 -9999
-9999 -9999 -9999 -9999 -9999 -9999 -9999 -9999 -9999 -9999 -9999 -9999 -9999 -9999 -9999 -9999 -9999 -9999 -9999 -9999 -9999 -9999 -9999 -9999 -9999 -9999 -9999 -9999 -9999 -9999 -9999 -9999 -9999 -9999 -9999 -9999 -9999 -9999 -9999 -9999 -9999 -9999 -9999 -9999 -9999 -9999 -9999 -9999 -9999 -9999 -9999 -9999 -9999 -9999 -9999 -9999 -9999 -9999 -9999 -9999 -9999 -9999 -9999 -9999 -9999 -9999 -9999 -9999 -9999 -9999 -9999 -9999 -9999 -9999 -9999 -9999 -9999 -9999 -9999 -9999 -9999 -9999 -9999 -9999 -9999 -9999 -9999 -9999 -9999 -9999 -9999 -9999 -9999 -9999 -9999 -9999 -9999 -9999 -9999 -9999 -9999 -9999 -9999 -9999 -9999 -9999 -9999 -9999 -9999 -9999 -9999 -9999 -9999 -9999 -9999 -9999 -9999 -9999 -9999 -9999 -9999 -9999 -9999 -9999 -9999 -9999 -9999 -9999 -9999 -9999 -9999 -9999 -9999 -9999 -9999 -9999 -9999 -9999 -9999 -9999 -9999 -9999 -9999 -9999 -9999 -9999 -9999 -9999 -9999 -9999 -9999 -9999 -9999 -9999 -9999 -9999 -9999 -9999 -9999 -9999 -9999 -9999 -9999 -9999 -9999 -9999 -9999 -9999 -9999 -9999 -9999 -9999 -9999 -9999 -9999 -9999 -9999 -9999 -9999 -9999 -9999 -9999 -9999 -9999 -9999 -9999 -9999 -9999 -9999 -9999 -9999 -9999 -9999 -9999 -9999 -9999 -9999 -9999 -9999 -9999 -9999 -9999 -9999 -9999 -9999 -9999 -9999 -9999 -9999 -9999 -9999 -9999 -9999 -9999 -9999 -9999 -9999 -9999 -9999 -9999 -9999 -9999 -9999 -9999 -9999 -9999 -9999 -9999 -9999 -9999 -9999 -9999 -9999 -9999 -9999 -9999 -9999 -9999 -9999 -9999 -9999 -9999 -9999 -9999 -9999 -9999 -9999 -9999 -9999 -9999 -9999 -9999 -9999 -9999 -9999 -9999 -9999 -9999 -9999 -9999 -9999 -9999 -9999 -9999 -9999 -9999 -9999 -9999 -9999 -9999 -9999 -9999 -9999 -9999 -9999 -9999 -9999 -9999 -9999 -9999 -9999 -9999 -9999 -9999 -9999 -9999 -9999 -9999 -9999 -9999 -9999 -9999 -9999 -9999 -9999 -9999 -9999 -9999 -9999 -9999 -9999 -9999 -9999 -9999 -9999 -9999 -9999 -9999 -9999 -9999 -9999 -9999 -9999 -9999 -9999 -9999 -9999 -9999 -9999 -9999 -9999 -9999 -9999 -9999 -9999 -9999 -9999 -9999 -9999 -9999 -9999 -9999 -9999 -9999 -9999 -9999 -9999 -9999 -9999 -9999 -9999 -9999 -9999 -9999 -9999 -9999 -9999 -9999 -9999 -9999 -9999 -9999 -9999 -9999 -9999 -9999 -9999 -9999 -9999 -9999 -9999 -9999 -9999 -9999 -9999 -9999 -9999 -9999 -9999 -9999 -9999 -9999 6.47249190938511 6.47249190938511 6.47249190938511 6.47249190938511 6.47249190938511 6.47249190938511 6.47249190938511 6.47249190938511 6.47249190938511 6.47249190938511 6.47249190938511 6.47249190938511 2.9520295202952 2.9520295202952 2.9520295202952 2.9520295202952 2.9520295202952 2.9520295202952 2.9520295202952 2.9520295202952 2.9520295202952 2.9520295202952 2.9520295202952 2.9520295202952 3.51123595505618 3.51123595505618 3.51123595505618 3.51123595505618 3.51123595505618 0 0 0 0 -9999 -9999 -9999 -9999 -9999 -9999 -9999 -9999 -9999 -9999
-9999 -9999 -9999 -9999 -9999 -9999 -9999 -9999 -9999 -9999 -9999 -9999 -9999 -9999 -9999 -9999 -9999 -9999 -9999 -9999 -9999 -9999 -9999 -9999 -9999 -9999 -9999 -9999 -9999 -9999 -9999 -9999 -9999 -9999 -9999 -9999 -9999 -9999 -9999 -9999 -9999 -9999 -9999 -9999 -9999 -9999 -9999 -9999 -9999 -9999 -9999 -9999 -9999 -9999 -9999 -9999 -9999 -9999 -9999 -9999 -9999 -9999 -9999 -9999 -9999 -9999 -9999 -9999 -9999 -9999 -9999 -9999 -9999 -9999 -9999 -9999 -9999 -9999 -9999 -9999 -9999 -9999 -9999 -9999 -9999 -9999 -9999 -9999 -9999 -9999 -9999 -9999 -9999 -9999 -9999 -9999 -9999 -9999 -9999 -9999 -9999 -9999 -9999 -9999 -9999 -9999 -9999 -9999 -9999 -9999 -9999 -9999 -9999 -9999 -9999 -9999 -9999 -9999 -9999 -9999 -9999 -9999 -9999 -9999 -9999 -9999 -9999 -9999 -9999 -9999 -9999 -9999 -9999 -9999 -9999 -9999 -9999 -9999 -9999 -9999 -9999 -9999 -9999 -9999 -9999 -9999 -9999 -9999 -9999 -9999 -9999 -9999 -9999 -9999 -9999 -9999 -9999 -9999 -9999 -9999 -9999 -9999 -9999 -9999 -9999 -9999 -9999 -9999 -9999 -9999 -9999 -9999 -9999 -9999 -9999 -9999 -9999 -9999 -9999 -9999 -9999 -9999 -9999 -9999 -9999 -9999 -9999 -9999 -9999 -9999 -9999 -9999 -9999 -9999 -9999 -9999 -9999 -9999 -9999 -9999 -9999 -9999 -9999 -9999 -9999 -9999 -9999 -9999 -9999 -9999 -9999 -9999 -9999 -9999 -9999 -9999 -9999 -9999 -9999 -9999 -9999 -9999 -9999 -9999 -9999 -9999 -9999 -9999 -9999 -9999 -9999 -9999 -9999 -9999 -9999 -9999 -9999 -9999 -9999 -9999 -9999 -9999 -9999 -9999 -9999 -9999 -9999 -9999 -9999 -9999 -9999 -9999 -9999 -9999 -9999 -9999 -9999 -9999 -9999 -9999 -9999 -9999 -9999 -9999 -9999 -9999 -9999 -9999 -9999 -9999 -9999 -9999 -9999 -9999 -9999 -9999 -9999 -9999 -9999 -9999 -9999 -9999 -9999 -9999 -9999 -9999 -9999 -9999 -9999 -9999 -9999 -9999 -9999 -9999 -9999 -9999 -9999 -9999 -9999 -9999 -9999 -9999 -9999 -9999 -9999 -9999 -9999 -9999 -9999 -9999 -9999 -9999 -9999 -9999 -9999 -9999 -9999 -9999 -9999 -9999 -9999 -9999 -9999 -9999 -9999 -9999 -9999 -9999 -9999 -9999 -9999 -9999 -9999 -9999 -9999 -9999 -9999 -9999 -9999 -9999 -9999 -9999 -9999 -9999 -9999 -9999 -9999 -9999 -9999 -9999 -9999 -9999 -9999 -9999 -9999 -9999 -9999 -9999 -9999 -9999 -9999 -9999 -9999 -9999 -9999 -9999 -9999 -9999 -9999 -9999 -9999 -9999 6.47249190938511 6.47249190938511 6.47249190938511 6.47249190938511 6.47249190938511 6.47249190938511 6.47249190938511 6.47249190938511 6.47249190938511 6.47249190938511 6.47249190938511 6.47249190938511 2.9520295202952 2.9520295202952 2.9520295202952 2.9520295202952 2.9520295202952 2.9520295202952 2.9520295202952 2.9520295202952 2.9520295202952 2.9520295202952 2.9520295202952 3.51123595505618 3.51123595505618 3.51123595505618 3.51123595505618 3.51123595505618 0 0 0 0 -9999 -9999 -9999 -9999 -9999 -9999 -9999 -9999 -9999 -9999 -9999
-9999 -9999 -9999 -9999 -9999 -9999 -9999 -9999 -9999 -9999 -9999 -9999 -9999 -9999 -9999 -9999 -9999 -9999 -9999 -9999 -9999 -9999 -9999 -9999 -9999 -9999 -9999 -9999 -9999 -9999 -9999 -9999 -9999 -9999 -9999 -9999 -9999 -9999 -9999 -9999 -9999 -9999 -9999 -9999 -9999 -9999 -9999 -9999 -9999 -9999 -9999 -9999 -9999 -9999 -9999 -9999 -9999 -9999 -9999 -9999 -9999 -9999 -9999 -9999 -9999 -9999 -9999 -9999 -9999 -9999 -9999 -9999 -9999 -9999 -9999 -9999 -9999 -9999 -9999 -9999 -9999 -9999 -9999 -9999 -9999 -9999 -9999 -9999 -9999 -9999 -9999 -9999 -9999 -9999 -9999 -9999 -9999 -9999 -9999 -9999 -9999 -9999 -9999 -9999 -9999 -9999 -9999 -9999 -9999 -9999 -9999 -9999 -9999 -9999 -9999 -9999 -9999 -9999 -9999 -9999 -9999 -9999 -9999 -9999 -9999 -9999 -9999 -9999 -9999 -9999 -9999 -9999 -9999 -9999 -9999 -9999 -9999 -9999 -9999 -9999 -9999 -9999 -9999 -9999 -9999 -9999 -9999 -9999 -9999 -9999 -9999 -9999 -9999 -9999 -9999 -9999 -9999 -9999 -9999 -9999 -9999 -9999 -9999 -9999 -9999 -9999 -9999 -9999 -9999 -9999 -9999 -9999 -9999 -9999 -9999 -9999 -9999 -9999 -9999 -9999 -9999 -9999 -9999 -9999 -9999 -9999 -9999 -9999 -9999 -9999 -9999 -9999 -9999 -9999 -9999 -9999 -9999 -9999 -9999 -9999 -9999 -9999 -9999 -9999 -9999 -9999 -9999 -9999 -9999 -9999 -9999 -9999 -9999 -9999 -9999 -9999 -9999 -9999 -9999 -9999 -9999 -9999 -9999 -9999 -9999 -9999 -9999 -9999 -9999 -9999 -9999 -9999 -9999 -9999 -9999 -9999 -9999 -9999 -9999 -9999 -9999 -9999 -9999 -9999 -9999 -9999 -9999 -9999 -9999 -9999 -9999 -9999 -9999 -9999 -9999 -9999 -9999 -9999 -9999 -9999 -9999 -9999 -9999 -9999 -9999 -9999 -9999 -9999 -9999 -9999 -9999 -9999 -9999 -9999 -9999 -9999 -9999 -9999 -9999 -9999 -9999 -9999 -9999 -9999 -9999 -9999 -9999 -9999 -9999 -9999 -9999 -9999 -9999 -9999 -9999 -9999 -9999 -9999 -9999 -9999 -9999 -9999 -9999 -9999 -9999 -9999 -9999 -9999 -9999 -9999 -9999 -9999 -9999 -9999 -9999 -9999 -9999 -9999 -9999 -9999 -9999 -9999 -9999 -9999 -9999 -9999 -9999 -9999 -9999 -9999 -9999 -9999 -9999 -9999 -9999 -9999 -9999 -9999 -9999 -9999 -9999 -9999 -9999 -9999 -9999 -9999 -9999 -9999 -9999 -9999 -9999 -9999 -9999 -9999 -9999 -9999 -9999 -9999 -9999 -9999 -9999 -9999 -9999 -9999 -9999 -9999 -9999 -9999 -9999 -9999 -9999 6.47249190938511 6.47249190938511 6.47249190938511 6.47249190938511 6.47249190938511 6.47249190938511 6.47249190938511 6.47249190938511 6.47249190938511 6.47249190938511 6.47249190938511 6.47249190938511 2.9520295202952 2.9520295202952 2.9520295202952 2.9520295202952 2.9520295202952 2.9520295202952 2.9520295202952 2.9520295202952 2.9520295202952 2.9520295202952 2.9520295202952 2.9520295202952 3.51123595505618 3.51123595505618 3.51123595505618 3.51123595505618 3.51123595505618 0 0 0 0 -9999 -9999 -9999 -9999 -9999 -9999 -9999 -9999 -9999 -9999 -9999
-9999 -9999 -9999 -9999 -9999 -9999 -9999 -9999 -9999 -9999 -9999 -9999 -9999 -9999 -9999 -9999 -9999 -9999 -9999 -9999 -9999 -9999 -9999 -9999 -9999 -9999 -9999 -9999 -9999 -9999 -9999 -9999 -9999 -9999 -9999 -9999 -9999 -9999 -9999 -9999 -9999 -9999 -9999 -9999 -9999 -9999 -9999 -9999 -9999 -9999 -9999 -9999 -9999 -9999 -9999 -9999 -9999 -9999 -9999 -9999 -9999 -9999 -9999 -9999 -9999 -9999 -9999 -9999 -9999 -9999 -9999 -9999 -9999 -9999 -9999 -9999 -9999 -9999 -9999 -9999 -9999 -9999 -9999 -9999 -9999 -9999 -9999 -9999 -9999 -9999 -9999 -9999 -9999 -9999 -9999 -9999 -9999 -9999 -9999 -9999 -9999 -9999 -9999 -9999 -9999 -9999 -9999 -9999 -9999 -9999 -9999 -9999 -9999 -9999 -9999 -9999 -9999 -9999 -9999 -9999 -9999 -9999 -9999 -9999 -9999 -9999 -9999 -9999 -9999 -9999 -9999 -9999 -9999 -9999 -9999 -9999 -9999 -9999 -9999 -9999 -9999 -9999 -9999 -9999 -9999 -9999 -9999 -9999 -9999 -9999 -9999 -9999 -9999 -9999 -9999 -9999 -9999 -9999 -9999 -9999 -9999 -9999 -9999 -9999 -9999 -9999 -9999 -9999 -9999 -9999 -9999 -9999 -9999 -9999 -9999 -9999 -9999 -9999 -9999 -9999 -9999 -9999 -9999 -9999 -9999 -9999 -9999 -9999 -9999 -9999 -9999 -9999 -9999 -9999 -9999 -9999 -9999 -9999 -9999 -9999 -9999 -9999 -9999 -9999 -9999 -9999 -9999 -9999 -9999 -9999 -9999 -9999 -9999 -9999 -9999 -9999 -9999 -9999 -9999 -9999 -9999 -9999 -9999 -9999 -9999 -9999 -9999 -9999 -9999 -9999 -9999 -9999 -9999 -9999 -9999 -9999 -9999 -9999 -9999 -9999 -9999 -9999 -9999 -9999 -9999 -9999 -9999 -9999 -9999 -9999 -9999 -9999 -9999 -9999 -9999 -9999 -9999 -9999 -9999 -9999 -9999 -9999 -9999 -9999 -9999 -9999 -9999 -9999 -9999 -9999 -9999 -9999 -9999 -9999 -9999 -9999 -9999 -9999 -9999 -9999 -9999 -9999 -9999 -9999 -9999 -9999 -9999 -9999 -9999 -9999 -9999 -9999 -9999 -9999 -9999 -9999 -9999 -9999 -9999 -9999 -9999 -9999 -9999 -9999 -9999 -9999 -9999 -9999 -9999 -9999 -9999 -9999 -9999 -9999 -9999 -9999 -9999 -9999 -9999 -9999 -9999 -9999 -9999 -9999 -9999 -9999 -9999 -9999 -9999 -9999 -9999 -9999 -9999 -9999 -9999 -9999 -9999 -9999 -9999 -9999 -9999 -9999 -9999 -9999 -9999 -9999 -9999 -9999 -9999 -9999 -9999 -9999 -9999 -9999 -9999 -9999 -9999 -9999 -9999 -9999 -9999 -9999 -9999 -9999 -9999 -9999 -9999 -9999 -9999 -9999 6.47249190938511 6.47249190938511 6.47249190938511 6.47249190938511 6.47249190938511 6.47249190938511 6.47249190938511 6.47249190938511 6.47249190938511 6.47249190938511 6.47249190938511 6.47249190938511 6.47249190938511 2.9520295202952 2.9520295202952 2.9520295202952 2.9520295202952 2.9520295202952 2.9520295202952 2.9520295202952 2.9520295202952 2.9520295202952 2.9520295202952 2.9520295202952 2.9520295202952 3.51123595505618 3.51123595505618 3.51123595505618 3.51123595505618 3.51123595505618 0 0 0 0 -9999 -9999 -9999 -9999 -9999 -9999 -9999 -9999 -9999 -9999 -9999
-9999 -9999 -9999 -9999 -9999 -9999 -9999 -9999 -9999 -9999 -9999 -9999 -9999 -9999 -9999 -9999 -9999 -9999 -9999 -9999 -9999 -9999 -9999 -9999 -9999 -9999 -9999 -9999 -9999 -9999 -9999 -9999 -9999 -9999 -9999 -9999 -9999 -9999 -9999 -9999 -9999 -9999 -9999 -9999 -9999 -9999 -9999 -9999 -9999 -9999 -9999 -9999 -9999 -9999 -9999 -9999 -9999 -9999 -9999 -9999 -9999 -9999 -9999 -9999 -9999 -9999 -9999 -9999 -9999 -9999 -9999 -9999 -9999 -9999 -9999 -9999 -9999 -9999 -9999 -9999 -9999 -9999 -9999 -9999 -9999 -9999 -9999 -9999 -9999 -9999 -9999 -9999 -9999 -9999 -9999 -9999 -9999 -9999 -9999 -9999 -9999 -9999 -9999 -9999 -9999 -9999 -9999 -9999 -9999 -9999 -9999 -9999 -9999 -9999 -9999 -9999 -9999 -9999 -9999 -9999 -9999 -9999 -9999 -9999 -9999 -9999 -9999 -9999 -9999 -9999 -9999 -9999 -9999 -9999 -9999 -9999 -9999 -9999 -9999 -9999 -9999 -9999 -9999 -9999 -9999 -9999 -9999 -9999 -9999 -9999 -9999 -9999 -9999 -9999 -9999 -9999 -9999 -9999 -9999 -9999 -9999 -9999 -9999 -9999 -9999 -9999 -9999 -9999 -9999 -9999 -9999 -9999 -9999 -9999 -9999 -9999 -9999 -9999 -9999 -9999 -9999 -9999 -9999 -9999 -9999 -9999 -9999 -9999 -9999 -9999 -9999 -9999 -9999 -9999 -9999 -9999 -9999 -9999 -9999 -9999 -9999 -9999 -9999 -9999 -9999 -9999 -9999 -9999 -9999 -9999 -9999 -9999 -9999 -9999 -9999 -9999 -9999 -9999 -9999 -9999 -9999 -9999 -9999 -9999 -9999 -9999 -9999 -9999 -9999 -9999 -9999 -9999 -9999 -9999 -9999 -9999 -9999 -9999 -9999 -9999 -9999 -9999 -9999 -9999 -9999 -9999 -9999 -9999 -9999 -9999 -9999 -9999 -9999 -9999 -9999 -9999 -9999 -9999 -9999 -9999 -9999 -9999 -9999 -9999 -9999 -9999 -9999 -9999 -9999 -9999 -9999 -9999 -9999 -9999 -9999 -9999 -9999 -9999 -9999 -9999 -9999 -9999 -9999 -9999 -9999 -9999 -9999 -9999 -9999 -9999 -9999 -9999 -9999 -9999 -9999 -9999 -9999 -9999 -9999 -9999 -9999 -9999 -9999 -9999 -9999 -9999 -9999 -9999 -9999 -9999 -9999 -9999 -9999 -9999 -9999 -9999 -9999 -9999 -9999 -9999 -9999 -9999 -9999 -9999 -9999 -9999 -9999 -9999 -9999 -9999 -9999 -9999 -9999 -9999 -9999 -9999 -9999 -9999 -9999 -9999 -9999 -9999 -9999 -9999 -9999 -9999 -9999 -9999 -9999 -9999 -9999 -9999 -9999 -9999 -9999 -9999 -9999 -9999 -9999 -9999 -9999 -9999 -9999 -9999 -9999 -9999 -9999 -9999 -9999 6.47249190938511 6.47249190938511 6.47249190938511 6.47249190938511 6.47249190938511 6.47249190938511 6.47249190938511 6.47249190938511 6.47249190938511 6.47249190938511 6.47249190938511 6.47249190938511 6.47249190938511 2.9520295202952 2.9520295202952 2.9520295202952 2.9520295202952 2.9520295202952 2.9520295202952 2.9520295202952 2.9520295202952 2.9520295202952 2.9520295202952 2.9520295202952 2.9520295202952 0 0 0 0 0 0 2.85306704707561 0 0 -9999 -9999 -9999 -9999 -9999 -9999 -9999 -9999 -9999 -9999 -9999 -9999
-9999 -9999 -9999 -9999 -9999 -9999 -9999 -9999 -9999 -9999 -9999 -9999 -9999 -9999 -9999 -9999 -9999 -9999 -9999 -9999 -9999 -9999 -9999 -9999 -9999 -9999 -9999 -9999 -9999 -9999 -9999 -9999 -9999 -9999 -9999 -9999 -9999 -9999 -9999 -9999 -9999 -9999 -9999 -9999 -9999 -9999 -9999 -9999 -9999 -9999 -9999 -9999 -9999 -9999 -9999 -9999 -9999 -9999 -9999 -9999 -9999 -9999 -9999 -9999 -9999 -9999 -9999 -9999 -9999 -9999 -9999 -9999 -9999 -9999 -9999 -9999 -9999 -9999 -9999 -9999 -9999 -9999 -9999 -9999 -9999 -9999 -9999 -9999 -9999 -9999 -9999 -9999 -9999 -9999 -9999 -9999 -9999 -9999 -9999 -9999 -9999 -9999 -9999 -9999 -9999 -9999 -9999 -9999 -9999 -9999 -9999 -9999 -9999 -9999 -9999 -9999 -9999 -9999 -9999 -9999 -9999 -9999 -9999 -9999 -9999 -9999 -9999 -9999 -9999 -9999 -9999 -9999 -9999 -9999 -9999 -9999 -9999 -9999 -9999 -9999 -9999 -9999 -9999 -9999 -9999 -9999 -9999 -9999 -9999 -9999 -9999 -9999 -9999 -9999 -9999 -9999 -9999 -9999 -9999 -9999 -9999 -9999 -9999 -9999 -9999 -9999 -9999 -9999 -9999 -9999 -9999 -9999 -9999 -9999 -9999 -9999 -9999 -9999 -9999 -9999 -9999 -9999 -9999 -9999 -9999 -9999 -9999 -9999 -9999 -9999 -9999 -9999 -9999 -9999 -9999 -9999 -9999 -9999 -9999 -9999 -9999 -9999 -9999 -9999 -9999 -9999 -9999 -9999 -9999 -9999 -9999 -9999 -9999 -9999 -9999 -9999 -9999 -9999 -9999 -9999 -9999 -9999 -9999 -9999 -9999 -9999 -9999 -9999 -9999 -9999 -9999 -9999 -9999 -9999 -9999 -9999 -9999 -9999 -9999 -9999 -9999 -9999 -9999 -9999 -9999 -9999 -9999 -9999 -9999 -9999 -9999 -9999 -9999 -9999 -9999 -9999 -9999 -9999 -9999 -9999 -9999 -9999 -9999 -9999 -9999 -9999 -9999 -9999 -9999 -9999 -9999 -9999 -9999 -9999 -9999 -9999 -9999 -9999 -9999 -9999 -9999 -9999 -9999 -9999 -9999 -9999 -9999 -9999 -9999 -9999 -9999 -9999 -9999 -9999 -9999 -9999 -9999 -9999 -9999 -9999 -9999 -9999 -9999 -9999 -9999 -9999 -9999 -9999 -9999 -9999 -9999 -9999 -9999 -9999 -9999 -9999 -9999 -9999 -9999 -9999 -9999 -9999 -9999 -9999 -9999 -9999 -9999 -9999 -9999 -9999 -9999 -9999 -9999 -9999 -9999 -9999 -9999 -9999 -9999 -9999 -9999 -9999 -9999 -9999 -9999 -9999 -9999 -9999 -9999 -9999 -9999 -9999 -9999 -9999 -9999 -9999 -9999 -9999 -9999 -9999 -9999 -9999 -9999 -9999 -9999 -9999 -9999 -9999 6.47249190938511 6.47249190938511 6.47249190938511 6.47249190938511 6.47249190938511 6.47249190938511 6.47249190938511 6.47249190938511 6.47249190938511 6.47249190938511 6.47249190938511 6.47249190938511 6.47249190938511 6.47249190938511 2.9520295202952 2.9520295202952 2.9520295202952 2.9520295202952 2.9520295202952 2.9520295202952 2.9520295202952 2.9520295202952 2.9520295202952 2.9520295202952 2.9520295202952 2.9520295202952 0 0 0 0 0 0 2.85306704707561 2.85306704707561 0 -9999 -9999 -9999 -9999 -9999 -9999 -9999 -9999 -9999 -9999 -9999 -9999
-9999 -9999 -9999 -9999 -9999 -9999 -9999 -9999 -9999 -9999 -9999 -9999 -9999 -9999 -9999 -9999 -9999 -9999 -9999 -9999 -9999 -9999 -9999 -9999 -9999 -9999 -9999 -9999 -9999 -9999 -9999 -9999 -9999 -9999 -9999 -9999 -9999 -9999 -9999 -9999 -9999 -9999 -9999 -9999 -9999 -9999 -9999 -9999 -9999 -9999 -9999 -9999 -9999 -9999 -9999 -9999 -9999 -9999 -9999 -9999 -9999 -9999 -9999 -9999 -9999 -9999 -9999 -9999 -9999 -9999 -9999 -9999 -9999 -9999 -9999 -9999 -9999 -9999 -9999 -9999 -9999 -9999 -9999 -9999 -9999 -9999 -9999 -9999 -9999 -9999 -9999 -9999 -9999 -9999 -9999 -9999 -9999 -9999 -9999 -9999 -9999 -9999 -9999 -9999 -9999 -9999 -9999 -9999 -9999 -9999 -9999 -9999 -9999 -9999 -9999 -9999 -9999 -9999 -9999 -9999 -9999 -9999 -9999 -9999 -9999 -9999 -9999 -9999 -9999 -9999 -9999 -9999 -9999 -9999 -9999 -9999 -9999 -9999 -9999 -9999 -9999 -9999 -9999 -9999 -9999 -9999 -9999 -9999 -9999 -9999 -9999 -9999 -9999 -9999 -9999 -9999 -9999 -9999 -9999 -9999 -9999 -9999 -9999 -9999 -9999 -9999 -9999 -9999 -9999 -9999 -9999 -9999 -9999 -9999 -9999 -9999 -9999 -9999 -9999 -9999 -9999 -9999 -9999 -9999 -9999 -9999 -9999 -9999 -9999 -9999 -9999 -9999 -9999 -9999 -9999 -9999 -9999 -9999 -9999 -9999 -9999 -9999 -9999 -9999 -9999 -9999 -9999 -9999 -9999 -9999 -9999 -9999 -9999 -9999 -9999 -9999 -9999 -9999 -9999 -9999 -9999 -9999 -9999 -9999 -9999 -9999 -9999 -9999 -9999 -9999 -9999 -9999 -9999 -9999 -9999 -9999 -9999 -9999 -9999 -9999 -9999 -9999 -9999 -9999 -9999 -9999 -9999 -9999 -9999 -9999 -9999 -9999 -9999 -9999 -9999 -9999 -9999 -9999 -9999 -9999 -9999 -9999 -9999 -9999 -9999 -9999 -9999 -9999 -9999 -9999 -9999 -9999 -9999 -9999 -9999 -9999 -9999 -9999 -9999 -9999 -9999 -9999 -9999 -9999 -9999 -9999 -9999 -9999 -9999 -9999 -9999 -9999 -9999 -9999 -9999 -9999 -9999 -9999 -9999 -9999 -9999 -9999 -9999 -9999 -9999 -9999 -9999 -9999 -9999 -9999 -9999 -9999 -9999 -9999 -9999 -9999 -9999 -9999 -9999 -9999 -9999 -9999 -9999 -9999 -9999 -9999 -9999 -9999 -9999 -9999 -9999 -9999 -9999 -9999 -9999 -9999 -9999 -9999 -9999 -9999 -9999 -9999 -9999 -9999 -9999 -9999 -9999 -9999 -9999 -9999 -9999 -9999 -9999 -9999 -9999 -9999 -9999 -9999 -9999 -9999 -9999 -9999 -9999 -9999 -9999 -9999 -9999 6.47249190938511 6.47249190938511 6.47249190938511 6.47249190938511 6.47249190938511 6.47249190938511 6.47249190938511 6.47249190938511 6.47249190938511 6.47249190938511 6.47249190938511 6.47249190938511 6.47249190938511 6.47249190938511 2.9520295202952 2.9520295202952 2.9520295202952 2.9520295202952 2.9520295202952 2.9520295202952 2.9520295202952 2.9520295202952 2.9520295202952 2.9520295202952 2.9520295202952 2.9520295202952 2.9520295202952 0 0 0 0 0 0 2.85306704707561 2.85306704707561 0 -9999 -9999 -9999 -9999 -9999 -9999 -9999 -9999 -9999 -9999 -9999 -9999
-9999 -9999 -9999 -9999 -9999 -9999 -9999 -9999 -9999 -9999 -9999 -9999 -9999 -9999 -9999 -9999 -9999 -9999 -9999 -9999 -9999 -9999 -9999 -9999 -9999 -9999 -9999 -9999 -9999 -9999 -9999 -9999 -9999 -9999 -9999 -9999 -9999 -9999 -9999 -9999 -9999 -9999 -9999 -9999 -9999 -9999 -9999 -9999 -9999 -9999 -9999 -9999 -9999 -9999 -9999 -9999 -9999 -9999 -9999 -9999 -9999 -9999 -9999 -9999 -9999 -9999 -9999 -9999 -9999 -9999 -9999 -9999 -9999 -9999 -9999 -9999 -9999 -9999 -9999 -9999 -9999 -9999 -9999 -9999 -9999 -9999 -9999 -9999 -9999 -9999 -9999 -9999 -9999 -9999 -9999 -9999 -9999 -9999 -9999 -9999 -9999 -9999 -9999 -9999 -9999 -9999 -9999 -9999 -9999 -9999 -9999 -9999 -9999 -9999 -9999 -9999 -9999 -9999 -9999 -9999 -9999 -9999 -9999 -9999 -9999 -9999 -9999 -9999 -9999 -9999 -9999 -9999 -9999 -9999 -9999 -9999 -9999 -9999 -9999 -9999 -9999 -9999 -9999 -9999 -9999 -9999 -9999 -9999 -9999 -9999 -9999 -9999 -9999 -9999 -9999 -9999 -9999 -9999 -9999 -9999 -9999 -9999 -9999 -9999 -9999 -9999 -9999 -9999 -9999 -9999 -9999 -9999 -9999 -9999 -9999 -9999 -9999 -9999 -9999 -9999 -9999 -9999 -9999 -9999 -9999 -9999 -9999 -9999 -9999 -9999 -9999 -9999 -9999 -9999 -9999 -9999 -9999 -9999 -9999 -9999 -9999 -9999 -9999 -9999 -9999 -9999 -9999 -9999 -9999 -9999 -9999 -9999 -9999 -9999 -9999 -9999 -9999 -9999 -9999 -9999 -9999 -9999 -9999 -9999 -9999 -9999 -9999 -9999 -9999 -9999 -9999 -9999 -9999 -9999 -9999 -9999 -9999 -9999 -9999 -9999 -9999 -9999 -9999 -9999 -9999 -9999 -9999 -9999 -9999 -9999 -9999 -9999 -9999 -9999 -9999 -9999 -9999 -9999 -9999 -9999 -9999 -9999 -9999 -9999 -9999 -9999 -9999 -9999 -9999 -9999 -9999 -9999 -9999 -9999 -9999 -9999 -9999 -9999 -9999 -9999 -9999 -9999 -9999 -9999 -9999 -9999 -9999 -9999 -9999 -9999 -9999 -9999 -9999 -9999 -9999 -9999 -9999 -9999 -9999 -9999 -9999 -9999 -9999 -9999 -9999 -9999 -9999 -9999 -9999 -9999 -9999 -9999 -9999 -9999 -9999 -9999 -9999 -9999 -9999 -9999 -9999 -9999 -9999 -9999 -9999 -9999 -9999 -9999 -9999 -9999 -9999 -9999 -9999 -9999 -9999 -9999 -9999 -9999 -9999 -9999 -9999 -9999 -9999 -9999 -9999 -9999 -9999 -9999 -9999 -9999 -9999 -9999 -9999 -9999 -9999 -9999 -9999 -9999 -9999 -9999 -9999 -9999 -9999 -9999 -9999 -9999 6.47249190938511 6.47249190938511 6.47249190938511 6.47249190938511 6.47249190938511 6.47249190938511 6.47249190938511 6.47249190938511 6.47249190938511 6.47249190938511 6.47249190938511 6.47249190938511 6.47249190938511 6.47249190938511 6.47249190938511 2.9520295202952 2.9520295202952 2.9520295202952 2.9520295202952 2.9520295202952 2.9520295202952 2.9520295202952 2.9520295202952 2.9520295202952 2.9520295202952 2.9520295202952 2.9520295202952 0 0 0 0 0 0 0 2.85306704707561 0 0 -9999 -9999 -9999 -9999 -9999 -9999 -9999 -9999 -9999 -9999 -9999 -9999
-9999 -9999 -9999 -9999 -9999 -9999 -9999 -9999 -9999 -9999 -9999 -9999 -9999 -9999 -9999 -9999 -9999 -9999 -9999 -9999 -9999 -9999 -9999 -9999 -9999 -9999 -9999 -9999 -9999 -9999 -9999 -9999 -9999 -9999 -9999 -9999 -9999 -9999 -9999 -9999 -9999 -9999 -9999 -9999 -9999 -9999 -9999 -9999 -9999 -9999 -9999 -9999 -9999 -9999 -9999 -9999 -9999 -9999 -9999 -9999 -9999 -9999 -9999 -9999 -9999 -9999 -9999 -9999 -9999 -9999 -9999 -9999 -9999 -9999 -9999 -9999 -9999 -9999 -9999 -9999 -9999 -9999 -9999 -9999 -9999 -9999 -9999 -9999 -9999 -9999 -9999 -9999 -9999 -9999 -9999 -9999 -9999 -9999 -9999 -9999 -9999 -9999 -9999 -9999 -9999 -9999 -9999 -9999 -9999 -9999 -9999 -9999 -9999 -9999 -9999 -9999 -9999 -9999 -9999 -9999 -9999 -9999 -9999 -9999 -9999 -9999 -9999 -9999 -9999 -9999 -9999 -9999 -9999 -9999 -9999 -9999 -9999 -9999 -9999 -9999 -9999 -9999 -9999 -9999 -9999 -9999 -9999 -9999 -9999 -9999 -9999 -9999 -9999 -9999 -9999 -9999 -9999 -9999 -9999 -9999 -9999 -9999 -9999 -9999 -9999 -9999 -9999 -9999 -9999 -9999 -9999 -9999 -9999 -9999 -9999 -9999 -9999 -9999 -9999 -9999 -9999 -9999 -9999 -9999 -9999 -9999 -9999 -9999 -9999 -9999 -9999 -9999 -9999 -9999 -9999 -9999 -9999 -9999 -9999 -9999 -9999 -9999 -9999 -9999 -9999 -9999 -9999 -9999 -9999 -9999 -9999 -9999 -9999 -9999 -9999 -9999 -9999 -9999 -9999 -9999 -9999 -9999 -9999 -9999 -9999 -9999 -9999 -9999 -9999 -9999 -9999 -9999 -9999 -9999 -9999 -9999 -9999 -9999 -9999 -9999 -9999 -9999 -9999 -9999 -9999 -9999 -9999 -9999 -9999 -9999 -9999 -9999 -9999 -9999 -9999 -9999 -9999 -9999 -9999 -9999 -9999 -9999 -9999 -9999 -9999 -9999 -9999 -9999 -9999 -9999 -9999 -9999 -9999 -9999 -9999 -9999 -9999 -9999 -9999 -9999 -9999 -9999 -9999 -9999 -9999 -9999 -9999 -9999 -9999 -9999 -9999 -9999 -9999 -9999 -9999 -9999 -9999 -9999 -9999 -9999 -9999 -9999 -9999 -9999 -9999 -9999 -9999 -9999 -9999 -9999 -9999 -9999 -9999 -9999 -9999 -9999 -9999 -9999 -9999 -9999 -9999 -9999 -9999 -9999 -9999 -9999 -9999 -9999 -9999 -9999 -9999 -9999 -9999 -9999 -9999 -9999 -9999 -9999 -9999 -9999 -9999 -9999 -9999 -9999 -9999 -9999 -9999 -9999 -9999 -9999 -9999 -9999 -9999 -9999 -9999 -9999 -9999 -9999 -9999 -9999 -9999 -9999 -9999 -9999 -9999 -9999 6.47249190938511 6.47249190938511 6.47249190938511 6.47249190938511 6.47249190938511 6.47249190938511 6.47249190938511 6.47249190938511 6.47249190938511 6.47249190938511 6.47249190938511 6.47249190938511 6.47249190938511 6.47249190938511 6.47249190938511 2.9520295202952 2.9520295202952 2.9520295202952 2.9520295202952 2.9520295202952 2.9520295202952 2.9520295202952 2.9520295202952 2.9520295202952 2.9520295202952 2.9520295202952 2.9520295202952 0 0 0 0 0 0 0 2.85306704707561 0 0 -9999 -9999 -9999 -9999 -9999 -9999 -9999 -9999 -9999 -9999 -9999 -9999
-9999 -9999 -9999 -9999 -9999 -9999 -9999 -9999 -9999 -9999 -9999 -9999 -9999 -9999 -9999 -9999 -9999 -9999 -9999 -9999 -9999 -9999 -9999 -9999 -9999 -9999 -9999 -9999 -9999 -9999 -9999 -9999 -9999 -9999 -9999 -9999 -9999 -9999 -9999 -9999 -9999 -9999 -9999 -9999 -9999 -9999 -9999 -9999 -9999 -9999 -9999 -9999 -9999 -9999 -9999 -9999 -9999 -9999 -9999 -9999 -9999 -9999 -9999 -9999 -9999 -9999 -9999 -9999 -9999 -9999 -9999 -9999 -9999 -9999 -9999 -9999 -9999 -9999 -9999 -9999 -9999 -9999 -9999 -9999 -9999 -9999 -9999 -9999 -9999 -9999 -9999 -9999 -9999 -9999 -9999 -9999 -9999 -9999 -9999 -9999 -9999 -9999 -9999 -9999 -9999 -9999 -9999 -9999 -9999 -9999 -9999 -9999 -9999 -9999 -9999 -9999 -9999 -9999 -9999 -9999 -9999 -9999 -9999 -9999 -9999 -9999 -9999 -9999 -9999 -9999 -9999 -9999 -9999 -9999 -9999 -9999 -9999 -9999 -9999 -9999 -9999 -9999 -9999 -9999 -9999 -9999 -9999 -9999 -9999 -9999 -9999 -9999 -9999 -9999 -9999 -9999 -9999 -9999 -9999 -9999 -9999 -9999 -9999 -9999 -9999 -9999 -9999 -9999 -9999 -9999 -9999 -9999 -9999 -9999 -9999 -9999 -9999 -9999 -9999 -9999 -9999 -9999 -9999 -9999 -9999 -9999 -9999 -9999 -9999 -9999 -9999 -9999 -9999 -9999 -9999 -9999 -9999 -9999 -9999 -9999 -9999 -9999 -9999 -9999 -9999 -9999 -9999 -9999 -9999 -9999 -9999 -9999 -9999 -9999 -9999 -9999 -9999 -9999 -9999 -9999 -9999 -9999 -9999 -9999 -9999 -9999 -9999 -9999 -9999 -9999 -9999 -9999 -9999 -9999 -9999 -9999 -9999 -9999 -9999 -9999 -9999 -9999 -9999 -9999 -9999 -9999 -9999 -9999 -9999 -9999 -9999 -9999 -9999 -9999 -9999 -9999 -9999 -9999 -9999 -9999 -9999 -9999 -9999 -9999 -9999 -9999 -9999 -9999 -9999 -9999 -9999 -9999 -9999 -9999 -9999 -9999 -9999 -9999 -9999 -9999 -9999 -9999 -9999 -9999 -9999 -9999 -9999 -9999 -9999 -9999 -9999 -9999 -9999 -9999 -9999 -9999 -9999 -9999 -9999 -9999 -9999 -9999 -9999 -9999 -9999 -9999 -9999 -9999 -9999 -9999 -9999 -9999 -9999 -9999 -9999 -9999 -9999 -9999 -9999 -9999 -9999 -9999 -9999 -9999 -9999 -9999 -9999 -9999 -9999 -9999 -9999 -9999 -9999 -9999 -9999 -9999 -9999 -9999 -9999 -9999 -9999 -9999 -9999 -9999 -9999 -9999 -9999 -9999 -9999 -9999 -9999 -9999 -9999 -9999 -9999 -9999 -9999 -9999 -9999 -9999 -9999 -9999 -9999 -9999 -9999 6.47249190938511 6.47249190938511 6.47249190938511 6.47249190938511 6.47249190938511 6.47249190938511 6.47249190938511 6.47249190938511 6.47249190938511 6.47249190938511 6.47249190938511 6.47249190938511 6.47249190938511 6.47249190938511 6.47249190938511 2.9520295202952 2.9520295202952 2.9520295202952 2.9520295202952 2.9520295202952 2.9520295202952 2.9520295202952 2.9520295202952 2.9520295202952 2.9520295202952 2.9520295202952 2.9520295202952 2.9520295202952 0 0 0 0 0 0 0 2.85306704707561 0 0 -9999 -9999 -9999 -9999 -9999 -9999 -9999 -9999 -9999 -9999 -9999 -9999
-9999 -9999 -9999 -9999 -9999 -9999 -9999 -9999 -9999 -9999 -9999 -9999 -9999 -9999 -9999 -9999 -9999 -9999 -9999 -9999 -9999 -9999 -9999 -9999 -9999 -9999 -9999 -9999 -9999 -9999 -9999 -9999 -9999 -9999 -9999 -9999 -9999 -9999 -9999 -9999 -9999 -9999 -9999 -9999 -9999 -9999 -9999 -9999 -9999 -9999 -9999 -9999 -9999 -9999 -9999 -9999 -9999 -9999 -9999 -9999 -9999 -9999 -9999 -9999 -9999 -9999 -9999 -9999 -9999 -9999 -9999 -9999 -9999 -9999 -9999 -9999 -9999 -9999 -9999 -9999 -9999 -9999 -9999 -9999 -9999 -9999 -9999 -9999 -9999 -9999 -9999 -9999 -9999 -9999 -9999 -9999 -9999 -9999 -9999 -9999 -9999 -9999 -9999 -9999 -9999 -9999 -9999 -9999 -9999 -9999 -9999 -9999 -9999 -9999 -9999 -9999 -9999 -9999 -9999 -9999 -9999 -9999 -9999 -9999 -9999 -9999 -9999 -9999 -9999 -9999 -9999 -9999 -9999 -9999 -9999 -9999 -9999 -9999 -9999 -9999 -9999 -9999 -9999 -9999 -9999 -9999 -9999 -9999 -9999 -9999 -9999 -9999 -9999 -9999 -9999 -9999 -9999 -9999 -9999 -9999 -9999 -9999 -9999 -9999 -9999 -9999 -9999 -9999 -9999 -9999 -9999 -9999 -9999 -9999 -9999 -9999 -9999 -9999 -9999 -9999 -9999 -9999 -9999 -9999 -9999 -9999 -9999 -9999 -9999 -9999 -9999 -9999 -9999 -9999 -9999 -9999 -9999 -9999 -9999 -9999 -9999 -9999 -9999 -9999 -9999 -9999 -9999 -9999 -9999 -9999 -9999 -9999 -9999 -9999 -9999 -9999 -9999 -9999 -9999 -9999 -9999 -9999 -9999 -9999 -9999 -9999 -9999 -9999 -9999 -9999 -9999 -9999 -9999 -9999 -9999 -9999 -9999 -9999 -9999 -9999 -9999 -9999 -9999 -9999 -9999 -9999 -9999 -9999 -9999 -9999 -9999 -9999 -9999 -9999 -9999 -9999 -9999 -9999 -9999 -9999 -9999 -9999 -9999 -9999 -9999 -9999 -9999 -9999 -9999 -9999 -9999 -9999 -9999 -9999 -9999 -9999 -9999 -9999 -9999 -9999 -9999 -9999 -9999 -9999 -9999 -9999 -9999 -9999 -9999 -9999 -9999 -9999 -9999 -9999 -9999 -9999 -9999 -9999 -9999 -9999 -9999 -9999 -9999 -9999 -9999 -9999 -9999 -9999 -9999 -9999 -9999 -9999 -9999 -9999 -9999 -9999 -9999 -9999 -9999 -9999 -9999 -9999 -9999 -9999 -9999 -9999 -9999 -9999 -9999 -9999 -9999 -9999 -9999 -9999 -9999 -9999 -9999 -9999 -9999 -9999 -9999 -9999 -9999 -9999 -9999 -9999 -9999 -9999 -9999 -9999 -9999 -9999 -9999 -9999 -9999 -9999 -9999 -9999 -9999 -9999 -9999 -9999 -9999 6.47249190938511 6.47249190938511 6.47249190938511 6.47249190938511 6.47249190938511 6.47249190938511 6.47249190938511 6.47249190938511 6.47249190938511 6.47249190938511 6.47249190938511 6.47249190938511 6.47249190938511 6.47249190938511 6.47249190938511 6.47249190938511 6.47249190938511 2.9520295202952 2.9520295202952 2.9520295202952 2.9520295202952 2.9520295202952 2.9520295202952 2.9520295202952 2.9520295202952 2.9520295202952 2.9520295202952 2.9520295202952 2.9520295202952 0 0 4.1407867494824 4.1407867494824 0 0 0 0 2.85306704707561 0 0 -9999 -9999 -9999 -9999 -9999 -9999 -9999 -9999 -9999 -9999 -9999 -9999
-9999 -9999 -9999 -9999 -9999 -9999 -9999 -9999 -9999 -9999 -9999 -9999 -9999 -9999 -9999 -9999 -9999 -9999 -9999 -9999 -9999 -9999 -9999 -9999 -9999 -9999 -9999 -9999 -9999 -9999 -9999 -9999 -9999 -9999 -9999 -9999 -9999 -9999 -9999 -9999 -9999 -9999 -9999 -9999 -9999 -9999 -9999 -9999 -9999 -9999 -9999 -9999 -9999 -9999 -9999 -9999 -9999 -9999 -9999 -9999 -9999 -9999 -9999 -9999 -9999 -9999 -9999 -9999 -9999 -9999 -9999 -9999 -9999 -9999 -9999 -9999 -9999 -9999 -9999 -9999 -9999 -9999 -9999 -9999 -9999 -9999 -9999 -9999 -9999 -9999 -9999 -9999 -9999 -9999 -9999 -9999 -9999 -9999 -9999 -9999 -9999 -9999 -9999 -9999 -9999 -9999 -9999 -9999 -9999 -9999 -9999 -9999 -9999 -9999 -9999 -9999 -9999 -9999 -9999 -9999 -9999 -9999 -9999 -9999 -9999 -9999 -9999 -9999 -9999 -9999 -9999 -9999 -9999 -9999 -9999 -9999 -9999 -9999 -9999 -9999 -9999 -9999 -9999 -9999 -9999 -9999 -9999 -9999 -9999 -9999 -9999 -9999 -9999 -9999 -9999 -9999 -9999 -9999 -9999 -9999 -9999 -9999 -9999 -9999 -9999 -9999 -9999 -9999 -9999 -9999 -9999 -9999 -9999 -9999 -9999 -9999 -9999 -9999 -9999 -9999 -9999 -9999 -9999 -9999 -9999 -9999 -9999 -9999 -9999 -9999 -9999 -9999 -9999 -9999 -9999 -9999 -9999 -9999 -9999 -9999 -9999 -9999 -9999 -9999 -9999 -9999 -9999 -9999 -9999 -9999 -9999 -9999 -9999 -9999 -9999 -9999 -9999 -9999 -9999 -9999 -9999 -9999 -9999 -9999 -9999 -9999 -9999 -9999 -9999 -9999 -9999 -9999 -9999 -9999 -9999 -9999 -9999 -9999 -9999 -9999 -9999 -9999 -9999 -9999 -9999 -9999 -9999 -9999 -9999 -9999 -9999 -9999 -9999 -9999 -9999 -9999 -9999 -9999 -9999 -9999 -9999 -9999 -9999 -9999 -9999 -9999 -9999 -9999 -9999 -9999 -9999 -9999 -9999 -9999 -9999 -9999 -9999 -9999 -9999 -9999 -9999 -9999 -9999 -9999 -9999 -9999 -9999 -9999 -9999 -9999 -9999 -9999 -9999 -9999 -9999 -9999 -9999 -9999 -9999 -9999 -9999 -9999 -9999 -9999 -9999 -9999 -9999 -9999 -9999 -9999 -9999 -9999 -9999 -9999 -9999 -9999 -9999 -9999 -9999 -9999 -9999 -9999 -9999 -9999 -9999 -9999 -9999 -9999 -9999 -9999 -9999 -9999 -9999 -9999 -9999 -9999 -9999 -9999 -9999 -9999 -9999 -9999 -9999 -9999 -9999 -9999 -9999 -9999 -9999 -9999 -9999 -9999 -9999 -9999 -9999 -9999 -9999 -9999 -9999 -9999 -9999 6.47249190938511 6.47249190938511 6.47249190938511 6.47249190938511 6.47249190938511 6.47249190938511 6.47249190938511 6.47249190938511 6.47249190938511 6.47249190938511 6.47249190938511 6.47249190938511 6.47249190938511 6.47249190938511 6.47249190938511 6.47249190938511 6.47249190938511 6.47249190938511 2.9520295202952 2.9520295202952 2.9520295202952 2.9520295202952 2.9520295202952 2.9520295202952 2.9520295202952 2.9520295202952 2.9520295202952 0 0 0 0 0 0 4.1407867494824 4.1407867494824 4.1407867494824 0 0 2.85306704707561 2.85306704707561 0 -9999 -9999 -9999 -9999 -9999 -9999 -9999 -9999 -9999 -9999 -9999 -9999 -9999
-9999 -9999 -9999 -9999 -9999 -9999 -9999 -9999 -9999 -9999 -9999 -9999 -9999 -9999 -9999 -9999 -9999 -9999 -9999 -9999 -9999 -9999 -9999 -9999 -9999 -9999 -9999 -9999 -9999 -9999 -9999 -9999 -9999 -9999 -9999 -9999 -9999 -9999 -9999 -9999 -9999 -9999 -9999 -9999 -9999 -9999 -9999 -9999 -9999 -9999 -9999 -9999 -9999 -9999 -9999 -9999 -9999 -9999 -9999 -9999 -9999 -9999 -9999 -9999 -9999 -9999 -9999 -9999 -9999 -9999 -9999 -9999 -9999 -9999 -9999 -9999 -9999 -9999 -9999 -9999 -9999 -9999 -9999 -9999 -9999 -9999 -9999 -9999 -9999 -9999 -9999 -9999 -9999 -9999 -9999 -9999 -9999 -9999 -9999 -9999 -9999 -9999 -9999 -9999 -9999 -9999 -9999 -9999 -9999 -9999 -9999 -9999 -9999 -9999 -9999 -9999 -9999 -9999 -9999 -9999 -9999 -9999 -9999 -9999 -9999 -9999 -9999 -9999 -9999 -9999 -9999 -9999 -9999 -9999 -9999 -9999 -9999 -9999 -9999 -9999 -9999 -9999 -9999 -9999 -9999 -9999 -9999 -9999 -9999 -9999 -9999 -9999 -9999 -9999 -9999 -9999 -9999 -9999 -9999 -9999 -9999 -9999 -9999 -9999 -9999 -9999 -9999 -9999 -9999 -9999 -9999 -9999 -9999 -9999 -9999 -9999 -9999 -9999 -9999 -9999 -9999 -9999 -9999 -9999 -9999 -9999 -9999 -9999 -9999 -9999 -9999 -9999 -9999 -9999 -9999 -9999 -9999 -9999 -9999 -9999 -9999 -9999 -9999 -9999 -9999 -9999 -9999 -9999 -9999 -9999 -9999 -9999 -9999 -9999 -9999 -9999 -9999 -9999 -9999 -9999 -9999 -9999 -9999 -9999 -9999 -9999 -9999 -9999 -9999 -9999 -9999 -9999 -9999 -9999 -9999 -9999 -9999 -9999 -9999 -9999 -9999 -9999 -9999 -9999 -9999 -9999 -9999 -9999 -9999 -9999 -9999 -9999 -9999 -9999 -9999 -9999 -9999 -9999 -9999 -9999 -9999 -9999 -9999 -9999 -9999 -9999 -9999 -9999 -9999 -9999 -9999 -9999 -9999 -9999 -9999 -9999 -9999 -9999 -9999 -9999 -9999 -9999 -9999 -9999 -9999 -9999 -9999 -9999 -9999 -9999 -9999 -9999 -9999 -9999 -9999 -9999 -9999 -9999 -9999 -9999 -9999 -9999 -9999 -9999 -9999 -9999 -9999 -9999 -9999 -9999 -9999 -9999 -9999 -9999 -9999 -9999 -9999 -9999 -9999 -9999 -9999 -9999 -9999 -9999 -9999 -9999 -9999 -9999 -9999 -9999 -9999 -9999 -9999 -9999 -9999 -9999 -9999 -9999 -9999 -9999 -9999 -9999 -9999 -9999 -9999 -9999 -9999 -9999 -9999 -9999 -9999 -9999 -9999 -9999 -9999 -9999 -9999 -9999 -9999 -9999 6.47249190938511 6.47249190938511 6.47249190938511 6.47249190938511 6.47249190938511 6.47249190938511 6.47249190938511 6.47249190938511 6.47249190938511 6.47249190938511 6.47249190938511 6.47249190938511 6.47249190938511 6.47249190938511 6.47249190938511 6.47249190938511 6.47249190938511 6.47249190938511 6.47249190938511 2.9520295202952 2.9520295202952 2.9520295202952 2.9520295202952 0 0 0 0 0 0 0 0 0 0 0 4.1407867494824 4.1407867494824 0 0 0 2.85306704707561 0 0 -9999 -9999 -9999 -9999 -9999 -9999 -9999 -9999 -9999 -9999 -9999 -9999 -9999
-9999 -9999 -9999 -9999 -9999 -9999 -9999 -9999 -9999 -9999 -9999 -9999 -9999 -9999 -9999 -9999 -9999 -9999 -9999 -9999 -9999 -9999 -9999 -9999 -9999 -9999 -9999 -9999 -9999 -9999 -9999 -9999 -9999 -9999 -9999 -9999 -9999 -9999 -9999 -9999 -9999 -9999 -9999 -9999 -9999 -9999 -9999 -9999 -9999 -9999 -9999 -9999 -9999 -9999 -9999 -9999 -9999 -9999 -9999 -9999 -9999 -9999 -9999 -9999 -9999 -9999 -9999 -9999 -9999 -9999 -9999 -9999 -9999 -9999 -9999 -9999 -9999 -9999 -9999 -9999 -9999 -9999 -9999 -9999 -9999 -9999 -9999 -9999 -9999 -9999 -9999 -9999 -9999 -9999 -9999 -9999 -9999 -9999 -9999 -9999 -9999 -9999 -9999 -9999 -9999 -9999 -9999 -9999 -9999 -9999 -9999 -9999 -9999 -9999 -9999 -9999 -9999 -9999 -9999 -9999 -9999 -9999 -9999 -9999 -9999 -9999 -9999 -9999 -9999 -9999 -9999 -9999 -9999 -9999 -9999 -9999 -9999 -9999 -9999 -9999 -9999 -9999 -9999 -9999 -9999 -9999 -9999 -9999 -9999 -9999 -9999 -9999 -9999 -9999 -9999 -9999 -9999 -9999 -9999 -9999 -9999 -9999 -9999 -9999 -9999 -9999 -9999 -9999 -9999 -9999 -9999 -9999 -9999 -9999 -9999 -9999 -9999 -9999 -9999 -9999 -9999 -9999 -9999 -9999 -9999 -9999 -9999 -9999 -9999 -9999 -9999 -9999 -9999 -9999 -9999 -9999 -9999 -9999 -9999 -9999 -9999 -9999 -9999 -9999 -9999 -9999 -9999 -9999 -9999 -9999 -9999 -9999 -9999 -9999 -9999 -9999 -9999 -9999 -9999 -9999 -9999 -9999 -9999 -9999 -9999 -9999 -9999 -9999 -9999 -9999 -9999 -9999 -9999 -9999 -9999 -9999 -9999 -9999 -9999 -9999 -9999 -9999 -9999 -9999 -9999 -9999 -9999 -9999 -9999 -9999 -9999 -9999 -9999 -9999 -9999 -9999 -9999 -9999 -9999 -9999 -9999 -9999 -9999 -9999 -9999 -9999 -9999 -9999 -9999 -9999 -9999 -9999 -9999 -9999 -9999 -9999 -9999 -9999 -9999 -9999 -9999 -9999 -9999 -9999 -9999 -9999 -9999 -9999 -9999 -9999 -9999 -9999 -9999 -9999 -9999 -9999 -9999 -9999 -9999 -9999 -9999 -9999 -9999 -9999 -9999 -9999 -9999 -9999 -9999 -9999 -9999 -9999 -9999 -9999 -9999 -9999 -9999 -9999 -9999 -9999 -9999 -9999 -9999 -9999 -9999 -9999 -9999 -9999 -9999 -9999 -9999 -9999 -9999 -9999 -9999 -9999 -9999 -9999 -9999 -9999 -9999 -9999 -9999 -9999 -9999 -9999 -9999 -9999 -9999 -9999 -9999 -9999 -9999 -9999 -9999 -9999 -9999 -9999 6.47249190938511 2.94117647058824 6.47249190938511 6.47249190938511 6.47249190938511 6.47249190938511 6.47249190938511 6.47249190938511 6.47249190938511 6.47249190938511 6.47249190938511 6.47249190938511 6.47249190938511 6.47249190938511 6.47249190938511 6.47249190938511 6.47249190938511 6.47249190938511 6.47249190938511 6.47249190938511 6.47249190938511 0 0 0 0 0 0 0 0 -9999 -9999 -9999 0 0 0 4.1407867494824 4.1407867494824 4.1407867494824 0 0 0 2.85306704707561 0 0 -9999 -9999 -9999 -9999 -9999 -9999 -9999 -9999 -9999 -9999 -9999 -9999 -9999
-9999 -9999 -9999 -9999 -9999 -9999 -9999 -9999 -9999 -9999 -9999 -9999 -9999 -9999 -9999 -9999 -9999 -9999 -9999 -9999 -9999 -9999 -9999 -9999 -9999 -9999 -9999 -9999 -9999 -9999 -9999 -9999 -9999 -9999 -9999 -9999 -9999 -9999 -9999 -9999 -9999 -9999 -9999 -9999 -9999 -9999 -9999 -9999 -9999 -9999 -9999 -9999 -9999 -9999 -9999 -9999 -9999 -9999 -9999 -9999 -9999 -9999 -9999 -9999 -9999 -9999 -9999 -9999 -9999 -9999 -9999 -9999 -9999 -9999 -9999 -9999 -9999 -9999 -9999 -9999 -9999 -9999 -9999 -9999 -9999 -9999 -9999 -9999 -9999 -9999 -9999 -9999 -9999 -9999 -9999 -9999 -9999 -9999 -9999 -9999 -9999 -9999 -9999 -9999 -9999 -9999 -9999 -9999 -9999 -9999 -9999 -9999 -9999 -9999 -9999 -9999 -9999 -9999 -9999 -9999 -9999 -9999 -9999 -9999 -9999 -9999 -9999 -9999 -9999 -9999 -9999 -9999 -9999 -9999 -9999 -9999 -9999 -9999 -9999 -9999 -9999 -9999 -9999 -9999 -9999 -9999 -9999 -9999 -9999 -9999 -9999 -9999 -9999 -9999 -9999 -9999 -9999 -9999 -9999 -9999 -9999 -9999 -9999 -9999 -9999 -9999 -9999 -9999 -9999 -9999 -9999 -9999 -9999 -9999 -9999 -9999 -9999 -9999 -9999 -9999 -9999 -9999 -9999 -9999 -9999 -9999 -9999 -9999 -9999 -9999 -9999 -9999 -9999 -9999 -9999 -9999 -9999 -9999 -9999 -9999 -9999 -9999 -9999 -9999 -9999 -9999 -9999 -9999 -9999 -9999 -9999 -9999 -9999 -9999 -9999 -9999 -9999 -9999 -9999 -9999 -9999 -9999 -9999 -9999 -9999 -9999 -9999 -9999 -9999 -9999 -9999 -9999 -9999 -9999 -9999 -9999 -9999 -9999 -9999 -9999 -9999 -9999 -9999 -9999 -9999 -9999 -9999 -9999 -9999 -9999 -9999 -9999 -9999 -9999 -9999 -9999 -9999 -9999 -9999 -9999 -9999 -9999 -9999 -9999 -9999 -9999 -9999 -9999 -9999 -9999 -9999 -9999 -9999 -9999 -9999 -9999 -9999 -9999 -9999 -9999 -9999 -9999 -9999 -9999 -9999 -9999 -9999 -9999 -9999 -9999 -9999 -9999 -9999 -9999 -9999 -9999 -9999 -9999 -9999 -9999 -9999 -9999 -9999 -9999 -9999 -9999 -9999 -9999 -9999 -9999 -9999 -9999 -9999 -9999 -9999 -9999 -9999 -9999 -9999 -9999 -9999 -9999 -9999 -9999 -9999 -9999 -9999 -9999 -9999 -9999 -9999 -9999 -9999 -9999 -9999 -9999 -9999 -9999 -9999 -9999 -9999 -9999 -9999 -9999 -9999 -9999 -9999 -9999 -9999 -9999 -9999 -9999 6.47249190938511 2.94117647058824 2.94117647058824 2.94117647058824 2.94117647058824 2.94117647058824 2.94117647058824 2.94117647058824 2.94117647058824 10.1351351351351 10.1351351351351 6.47249190938511 6.47249190938511 6.47249190938511 6.47249190938511 6.47249190938511 6.47249190938511 6.47249190938511 6.47249190938511 6.47249190938511 6.47249190938511 6.47249190938511 6.47249190938511 6.47249190938511 6.47249190938511 6.47249190938511 6.47249190938511 0 0 0 0 0 0 0 0 -9999 -9999 -9999 -9999 0 0 0 0 0 0 0 1.875 2.85306704707561 1.875 2.85306704707561 -9999 -9999 -9999 -9999 -9999 -9999 -9999 -9999 -9999 -9999 -9999 -9999 -9999
-9999 -9999 -9999 -9999 -9999 -9999 -9999 -9999 -9999 -9999 -9999 -9999 -9999 -9999 -9999 -9999 -9999 -9999 -9999 -9999 -9999 -9999 -9999 -9999 -9999 -9999 -9999 -9999 -9999 -9999 -9999 -9999 -9999 -9999 -9999 -9999 -9999 -9999 -9999 -9999 -9999 -9999 -9999 -9999 -9999 -9999 -9999 -9999 -9999 -9999 -9999 -9999 -9999 -9999 -9999 -9999 -9999 -9999 -9999 -9999 -9999 -9999 -9999 -9999 -9999 -9999 -9999 -9999 -9999 -9999 -9999 -9999 -9999 -9999 -9999 -9999 -9999 -9999 -9999 -9999 -9999 -9999 -9999 -9999 -9999 -9999 -9999 -9999 -9999 -9999 -9999 -9999 -9999 -9999 -9999 -9999 -9999 -9999 -9999 -9999 -9999 -9999 -9999 -9999 -9999 -9999 -9999 -9999 -9999 -9999 -9999 -9999 -9999 -9999 -9999 -9999 -9999 -9999 -9999 -9999 -9999 -9999 -9999 -9999 -9999 -9999 -9999 -9999 -9999 -9999 -9999 -9999 -9999 -9999 -9999 -9999 -9999 -9999 -9999 -9999 -9999 -9999 -9999 -9999 -9999 -9999 -9999 -9999 -9999 -9999 -9999 -9999 -9999 -9999 -9999 -9999 -9999 -9999 -9999 -9999 -9999 -9999 -9999 -9999 -9999 -9999 -9999 -9999 -9999 -9999 -9999 -9999 -9999 -9999 -9999 -9999 -9999 -9999 -9999 -9999 -9999 -9999 -9999 -9999 -9999 -9999 -9999 -9999 -9999 -9999 -9999 -9999 -9999 -9999 -9999 -9999 -9999 -9999 -9999 -9999 -9999 -9999 -9999 -9999 -9999 -9999 -9999 -9999 -9999 -9999 -9999 -9999 -9999 -9999 -9999 -9999 -9999 -9999 -9999 -9999 -9999 -9999 -9999 -9999 -9999 -9999 -9999 -9999 -9999 -9999 -9999 -9999 -9999 -9999 -9999 -9999 -9999 -9999 -9999 -9999 -9999 -9999 -9999 -9999 -9999 -9999 -9999 -9999 -9999 -9999 -9999 -9999 -9999 -9999 -9999 -9999 -9999 -9999 -9999 -9999 -9999 -9999 -9999 -9999 -9999 -9999 -9999 -9999 -9999 -9999 -9999 -9999 -9999 -9999 -9999 -9999 -9999 -9999 -9999 -9999 -9999 -9999 -9999 -9999 -9999 -9999 -9999 -9999 -9999 -9999 -9999 -9999 -9999 -9999 -9999 -9999 -9999 -9999 -9999 -9999 -9999 -9999 -9999 -9999 -9999 -9999 -9999 -9999 -9999 -9999 -9999 -9999 -9999 -9999 -9999 -9999 -9999 -9999 -9999 -9999 -9999 -9999 -9999 -9999 -9999 -9999 -9999 -9999 -9999 -9999 -9999 -9999 -9999 -9999 -9999 -9999 -9999 -9999 -9999 -9999 -9999 -9999 -9999 -9999 -9999 -9999 -9999 -9999 -9999 -9999 -9999 2.76243093922652 2.76243093922652 2.76243093922652 2.94117647058824 2.94117647058824 2.94117647058824 2.94117647058824 2.94117647058824 2.94117647058824 2.94117647058824 10.1351351351351 10.1351351351351 10.1351351351351 6.47249190938511 6.47249190938511 6.47249190938511 6.47249190938511 6.47249190938511 6.47249190938511 6.47249190938511 6.47249190938511 6.47249190938511 6.47249190938511 6.47249190938511 6.47249190938511 6.47249190938511 6.47249190938511 6.47249190938511 0 0 0 0 0 0 0 0 0 0 0 0 0 0 0 0 0 0 0 1.875 1.875 1.875 1.875 -9999 -9999 -9999 -9999 -9999 -9999 -9999 -9999 -9999 -9999 -9999 -9999 -9999
-9999 -9999 -9999 -9999 -9999 -9999 -9999 -9999 -9999 -9999 -9999 -9999 -9999 -9999 -9999 -9999 -9999 -9999 -9999 -9999 -9999 -9999 -9999 -9999 -9999 -9999 -9999 -9999 -9999 -9999 -9999 -9999 -9999 -9999 -9999 -9999 -9999 -9999 -9999 -9999 -9999 -9999 -9999 -9999 -9999 -9999 -9999 -9999 -9999 -9999 -9999 -9999 -9999 -9999 -9999 -9999 -9999 -9999 -9999 -9999 -9999 -9999 -9999 -9999 -9999 -9999 -9999 -9999 -9999 -9999 -9999 -9999 -9999 -9999 -9999 -9999 -9999 -9999 -9999 -9999 -9999 -9999 -9999 -9999 -9999 -9999 -9999 -9999 -9999 -9999 -9999 -9999 -9999 -9999 -9999 -9999 -9999 -9999 -9999 -9999 -9999 -9999 -9999 -9999 -9999 -9999 -9999 -9999 -9999 -9999 -9999 -9999 -9999 -9999 -9999 -9999 -9999 -9999 -9999 -9999 -9999 -9999 -9999 -9999 -9999 -9999 -9999 -9999 -9999 -9999 -9999 -9999 -9999 -9999 -9999 -9999 -9999 -9999 -9999 -9999 -9999 -9999 -9999 -9999 -9999 -9999 -9999 -9999 -9999 -9999 -9999 -9999 -9999 -9999 -9999 -9999 -9999 -9999 -9999 -9999 -9999 -9999 -9999 -9999 -9999 -9999 -9999 -9999 -9999 -9999 -9999 -9999 -9999 -9999 -9999 -9999 -9999 -9999 -9999 -9999 -9999 -9999 -9999 -9999 -9999 -9999 -9999 -9999 -9999 -9999 -9999 -9999 -9999 -9999 -9999 -9999 -9999 -9999 -9999 -9999 -9999 -9999 -9999 -9999 -9999 -9999 -9999 -9999 -9999 -9999 -9999 -9999 -9999 -9999 -9999 -9999 -9999 -9999 -9999 -9999 -9999 -9999 -9999 -9999 -9999 -9999 -9999 -9999 -9999 -9999 -9999 -9999 -9999 -9999 -9999 -9999 -9999 -9999 -9999 -9999 -9999 -9999 -9999 -9999 -9999 -9999 -9999 -9999 -9999 -9999 -9999 -9999 -9999 -9999 -9999 -9999 -9999 -9999 -9999 -9999 -9999 -9999 -9999 -9999 -9999 -9999 -9999 -9999 -9999 -9999 -9999 -9999 -9999 -9999 -9999 -9999 -9999 -9999 -9999 -9999 -9999 -9999 -9999 -9999 -9999 -9999 -9999 -9999 -9999 -9999 -9999 -9999 -9999 -9999 -9999 -9999 -9999 -9999 -9999 -9999 -9999 -9999 -9999 -9999 -9999 -9999 -9999 -9999 -9999 -9999 -9999 -9999 -9999 -9999 -9999 -9999 -9999 -9999 -9999 -9999 -9999 -9999 -9999 -9999 -9999 -9999 -9999 -9999 -9999 -9999 -9999 -9999 -9999 -9999 -9999 -9999 -9999 -9999 -9999 -9999 -9999 -9999 -9999 -9999 -9999 -9999 -9999 -9999 -9999 -9999 6.47249190938511 2.76243093922652 2.76243093922652 2.76243093922652 4.76758045292014 2.94117647058824 2.94117647058824 2.94117647058824 2.94117647058824 2.94117647058824 2.94117647058824 10.1351351351351 10.1351351351351 10.1351351351351 6.47249190938511 6.47249190938511 6.47249190938511 6.47249190938511 6.47249190938511 6.47249190938511 6.47249190938511 6.47249190938511 6.47249190938511 6.47249190938511 6.47249190938511 6.47249190938511 6.47249190938511 6.47249190938511 6.47249190938511 0 0 0 0 0 0 0 0 0 0 0 0 0 0 0 0 0 0 0 1.875 1.875 1.875 1.875 -9999 -9999 -9999 -9999 -9999 -9999 -9999 -9999 -9999 -9999 -9999 -9999 -9999
-9999 -9999 -9999 -9999 -9999 -9999 -9999 -9999 -9999 -9999 -9999 -9999 -9999 -9999 -9999 -9999 -9999 -9999 -9999 -9999 -9999 -9999 -9999 -9999 -9999 -9999 -9999 -9999 -9999 -9999 -9999 -9999 -9999 -9999 -9999 -9999 -9999 -9999 -9999 -9999 -9999 -9999 -9999 -9999 -9999 -9999 -9999 -9999 -9999 -9999 -9999 -9999 -9999 -9999 -9999 -9999 -9999 -9999 -9999 -9999 -9999 -9999 -9999 -9999 -9999 -9999 -9999 -9999 -9999 -9999 -9999 -9999 -9999 -9999 -9999 -9999 -9999 -9999 -9999 -9999 -9999 -9999 -9999 -9999 -9999 -9999 -9999 -9999 -9999 -9999 -9999 -9999 -9999 -9999 -9999 -9999 -9999 -9999 -9999 -9999 -9999 -9999 -9999 -9999 -9999 -9999 -9999 -9999 -9999 -9999 -9999 -9999 -9999 -9999 -9999 -9999 -9999 -9999 -9999 -9999 -9999 -9999 -9999 -9999 -9999 -9999 -9999 -9999 -9999 -9999 -9999 -9999 -9999 -9999 -9999 -9999 -9999 -9999 -9999 -9999 -9999 -9999 -9999 -9999 -9999 -9999 -9999 -9999 -9999 -9999 -9999 -9999 -9999 -9999 -9999 -9999 -9999 -9999 -9999 -9999 -9999 -9999 -9999 -9999 -9999 -9999 -9999 -9999 -9999 -9999 -9999 -9999 -9999 -9999 -9999 -9999 -9999 -9999 -9999 -9999 -9999 -9999 -9999 -9999 -9999 -9999 -9999 -9999 -9999 -9999 -9999 -9999 -9999 -9999 -9999 -9999 -9999 -9999 -9999 -9999 -9999 -9999 -9999 -9999 -9999 -9999 -9999 -9999 -9999 -9999 -9999 -9999 -9999 -9999 -9999 -9999 -9999 -9999 -9999 -9999 -9999 -9999 -9999 -9999 -9999 -9999 -9999 -9999 -9999 -9999 -9999 -9999 -9999 -9999 -9999 -9999 -9999 -9999 -9999 -9999 -9999 -9999 -9999 -9999 -9999 -9999 -9999 -9999 -9999 -9999 -9999 -9999 -9999 -9999 -9999 -9999 -9999 -9999 -9999 -9999 -9999 -9999 -9999 -9999 -9999 -9999 -9999 -9999 -9999 -9999 -9999 -9999 -9999 -9999 -9999 -9999 -9999 -9999 -9999 -9999 -9999 -9999 -9999 -9999 -9999 -9999 -9999 -9999 -9999 -9999 -9999 -9999 -9999 -9999 -9999 -9999 -9999 -9999 -9999 -9999 -9999 -9999 -9999 -9999 -9999 -9999 -9999 -9999 -9999 -9999 -9999 -9999 -9999 -9999 -9999 -9999 -9999 -9999 -9999 -9999 -9999 -9999 -9999 -9999 -9999 -9999 -9999 -9999 -9999 -9999 -9999 -9999 -9999 -9999 -9999 -9999 -9999 -9999 -9999 -9999 -9999 -9999 -9999 -9999 -9999 -9999 -9999 -9999 6.47249190938511 6.47249190938511 2.76243093922652 2.76243093922652 4.76758045292014 4.76758045292014 4.76758045292014 4.76758045292014 2.94117647058824 2.94117647058824 2.94117647058824 2.94117647058824 2.94117647058824 2.94117647058824 10.1351351351351 10.1351351351351 6.47249190938511 6.47249190938511 6.47249190938511 6.47249190938511 6.47249190938511 6.47249190938511 6.47249190938511 6.47249190938511 6.47249190938511 6.47249190938511 6.47249190938511 6.47249190938511 6.47249190938511 6.47249190938511 6.47249190938511 3.04878048780488 0 0 0 0 0 0 0 0 0 0 0 0 0 0 0 0 0 0 0 1.875 1.875 1.875 -9999 -9999 -9999 -9999 -9999 -9999 -9999 -9999 -9999 -9999 -9999 -9999 -9999
-9999 -9999 -9999 -9999 -9999 -9999 -9999 -9999 -9999 -9999 -9999 -9999 -9999 -9999 -9999 -9999 -9999 -9999 -9999 -9999 -9999 -9999 -9999 -9999 -9999 -9999 -9999 -9999 -9999 -9999 -9999 -9999 -9999 -9999 -9999 -9999 -9999 -9999 -9999 -9999 -9999 -9999 -9999 -9999 -9999 -9999 -9999 -9999 -9999 -9999 -9999 -9999 -9999 -9999 -9999 -9999 -9999 -9999 -9999 -9999 -9999 -9999 -9999 -9999 -9999 -9999 -9999 -9999 -9999 -9999 -9999 -9999 -9999 -9999 -9999 -9999 -9999 -9999 -9999 -9999 -9999 -9999 -9999 -9999 -9999 -9999 -9999 -9999 -9999 -9999 -9999 -9999 -9999 -9999 -9999 -9999 -9999 -9999 -9999 -9999 -9999 -9999 -9999 -9999 -9999 -9999 -9999 -9999 -9999 -9999 -9999 -9999 -9999 -9999 -9999 -9999 -9999 -9999 -9999 -9999 -9999 -9999 -9999 -9999 -9999 -9999 -9999 -9999 -9999 -9999 -9999 -9999 -9999 -9999 -9999 -9999 -9999 -9999 -9999 -9999 -9999 -9999 -9999 -9999 -9999 -9999 -9999 -9999 -9999 -9999 -9999 -9999 -9999 -9999 -9999 -9999 -9999 -9999 -9999 -9999 -9999 -9999 -9999 -9999 -9999 -9999 -9999 -9999 -9999 -9999 -9999 -9999 -9999 -9999 -9999 -9999 -9999 -9999 -9999 -9999 -9999 -9999 -9999 -9999 -9999 -9999 -9999 -9999 -9999 -9999 -9999 -9999 -9999 -9999 -9999 -9999 -9999 -9999 -9999 -9999 -9999 -9999 -9999 -9999 -9999 -9999 -9999 -9999 -9999 -9999 -9999 -9999 -9999 -9999 -9999 -9999 -9999 -9999 -9999 -9999 -9999 -9999 -9999 -9999 -9999 -9999 -9999 -9999 -9999 -9999 -9999 -9999 -9999 -9999 -9999 -9999 -9999 -9999 -9999 -9999 -9999 -9999 -9999 -9999 -9999 -9999 -9999 -9999 -9999 -9999 -9999 -9999 -9999 -9999 -9999 -9999 -9999 -9999 -9999 -9999 -9999 -9999 -9999 -9999 -9999 -9999 -9999 -9999 -9999 -9999 -9999 -9999 -9999 -9999 -9999 -9999 -9999 -9999 -9999 -9999 -9999 -9999 -9999 -9999 -9999 -9999 -9999 -9999 -9999 -9999 -9999 -9999 -9999 -9999 -9999 -9999 -9999 -9999 -9999 -9999 -9999 -9999 -9999 -9999 -9999 -9999 -9999 -9999 -9999 -9999 -9999 -9999 -9999 -9999 -9999 -9999 -9999 -9999 -9999 -9999 -9999 -9999 -9999 -9999 -9999 -9999 -9999 -9999 -9999 -9999 -9999 -9999 -9999 -9999 -9999 -9999 -9999 -9999 -9999 -9999 -9999 -9999 -9999 -9999 -9999 -9999 -9999 8.00800800800801 8.00800800800801 6.47249190938511 6.47249190938511 4.76758045292014 4.76758045292014 4.76758045292014 4.76758045292014 4.76758045292014 2.94117647058824 2.94117647058824 2.94117647058824 2.94117647058824 2.94117647058824 2.94117647058824 2.94117647058824 10.1351351351351 10.1351351351351 6.47249190938511 6.47249190938511 6.47249190938511 6.47249190938511 6.47249190938511 6.47249190938511 6.47249190938511 6.47249190938511 6.47249190938511 6.47249190938511 6.47249190938511 6.47249190938511 6.47249190938511 6.47249190938511 3.04878048780488 3.04878048780488 0 0 3.04878048780488 3.04878048780488 0 0 0 0 0 0 0 0 0 1.64473684210526 1.64473684210526 1.64473684210526 1.64473684210526 0 1.64473684210526 1.875 1.875 -9999 -9999 -9999 -9999 -9999 -9999 -9999 -9999 -9999 -9999 -9999 -9999 -9999
-9999 -9999 -9999 -9999 -9999 -9999 -9999 -9999 -9999 -9999 -9999 -9999 -9999 -9999 -9999 -9999 -9999 -9999 -9999 -9999 -9999 -9999 -9999 -9999 -9999 -9999 -9999 -9999 -9999 -9999 -9999 -9999 -9999 -9999 -9999 -9999 -9999 -9999 -9999 -9999 -9999 -9999 -9999 -9999 -9999 -9999 -9999 -9999 -9999 -9999 -9999 -9999 -9999 -9999 -9999 -9999 -9999 -9999 -9999 -9999 -9999 -9999 -9999 -9999 -9999 -9999 -9999 -9999 -9999 -9999 -9999 -9999 -9999 -9999 -9999 -9999 -9999 -9999 -9999 -9999 -9999 -9999 -9999 -9999 -9999 -9999 -9999 -9999 -9999 -9999 -9999 -9999 -9999 -9999 -9999 -9999 -9999 -9999 -9999 -9999 -9999 -9999 -9999 -9999 -9999 -9999 -9999 -9999 -9999 -9999 -9999 -9999 -9999 -9999 -9999 -9999 -9999 -9999 -9999 -9999 -9999 -9999 -9999 -9999 -9999 -9999 -9999 -9999 -9999 -9999 -9999 -9999 -9999 -9999 -9999 -9999 -9999 -9999 -9999 -9999 -9999 -9999 -9999 -9999 -9999 -9999 -9999 -9999 -9999 -9999 -9999 -9999 -9999 -9999 -9999 -9999 -9999 -9999 -9999 -9999 -9999 -9999 -9999 -9999 -9999 -9999 -9999 -9999 -9999 -9999 -9999 -9999 -9999 -9999 -9999 -9999 -9999 -9999 -9999 -9999 -9999 -9999 -9999 -9999 -9999 -9999 -9999 -9999 -9999 -9999 -9999 -9999 -9999 -9999 -9999 -9999 -9999 -9999 -9999 -9999 -9999 -9999 -9999 -9999 -9999 -9999 -9999 -9999 -9999 -9999 -9999 -9999 -9999 -9999 -9999 -9999 -9999 -9999 -9999 -9999 -9999 -9999 -9999 -9999 -9999 -9999 -9999 -9999 -9999 -9999 -9999 -9999 -9999 -9999 -9999 -9999 -9999 -9999 -9999 -9999 -9999 -9999 -9999 -9999 -9999 -9999 -9999 -9999 -9999 -9999 -9999 -9999 -9999 -9999 -9999 -9999 -9999 -9999 -9999 -9999 -9999 -9999 -9999 -9999 -9999 -9999 -9999 -9999 -9999 -9999 -9999 -9999 -9999 -9999 -9999 -9999 -9999 -9999 -9999 -9999 -9999 -9999 -9999 -9999 -9999 -9999 -9999 -9999 -9999 -9999 -9999 -9999 -9999 -9999 -9999 -9999 -9999 -9999 -9999 -9999 -9999 -9999 -9999 -9999 -9999 -9999 -9999 -9999 -9999 -9999 -9999 -9999 -9999 -9999 -9999 -9999 -9999 -9999 -9999 -9999 -9999 -9999 -9999 -9999 -9999 -9999 -9999 -9999 -9999 -9999 -9999 -9999 -9999 -9999 -9999 -9999 -9999 -9999 -9999 -9999 -9999 -9999 -9999 -9999 -9999 8.00800800800801 8.00800800800801 8.00800800800801 6.47249190938511 6.47249190938511 3.21543408360129 3.21543408360129 4.76758045292014 4.76758045292014 4.76758045292014 4.76758045292014 4.76758045292014 2.94117647058824 2.94117647058824 2.94117647058824 2.94117647058824 2.94117647058824 2.94117647058824 2.94117647058824 10.1351351351351 10.1351351351351 10.1351351351351 6.47249190938511 6.47249190938511 6.47249190938511 6.47249190938511 6.47249190938511 6.47249190938511 6.47249190938511 6.47249190938511 6.47249190938511 6.47249190938511 6.47249190938511 6.47249190938511 3.04878048780488 3.04878048780488 3.04878048780488 3.04878048780488 3.04878048780488 3.04878048780488 0 0 0 0 0 0 0 0 0 0 1.64473684210526 1.64473684210526 1.64473684210526 1.64473684210526 1.64473684210526 1.875 1.875 -9999 -9999 -9999 -9999 -9999 -9999 -9999 -9999 -9999 -9999 -9999 -9999 -9999
-9999 -9999 -9999 -9999 -9999 -9999 -9999 -9999 -9999 -9999 -9999 -9999 -9999 -9999 -9999 -9999 -9999 -9999 -9999 -9999 -9999 -9999 -9999 -9999 -9999 -9999 -9999 -9999 -9999 -9999 -9999 -9999 -9999 -9999 -9999 -9999 -9999 -9999 -9999 -9999 -9999 -9999 -9999 -9999 -9999 -9999 -9999 -9999 -9999 -9999 -9999 -9999 -9999 -9999 -9999 -9999 -9999 -9999 -9999 -9999 -9999 -9999 -9999 -9999 -9999 -9999 -9999 -9999 -9999 -9999 -9999 -9999 -9999 -9999 -9999 -9999 -9999 -9999 -9999 -9999 -9999 -9999 -9999 -9999 -9999 -9999 -9999 -9999 -9999 -9999 -9999 -9999 -9999 -9999 -9999 -9999 -9999 -9999 -9999 -9999 -9999 -9999 -9999 -9999 -9999 -9999 -9999 -9999 -9999 -9999 -9999 -9999 -9999 -9999 -9999 -9999 -9999 -9999 -9999 -9999 -9999 -9999 -9999 -9999 -9999 -9999 -9999 -9999 -9999 -9999 -9999 -9999 -9999 -9999 -9999 -9999 -9999 -9999 -9999 -9999 -9999 -9999 -9999 -9999 -9999 -9999 -9999 -9999 -9999 -9999 -9999 -9999 -9999 -9999 -9999 -9999 -9999 -9999 -9999 -9999 -9999 -9999 -9999 -9999 -9999 -9999 -9999 -9999 -9999 -9999 -9999 -9999 -9999 -9999 -9999 -9999 -9999 -9999 -9999 -9999 -9999 -9999 -9999 -9999 -9999 -9999 -9999 -9999 -9999 -9999 -9999 -9999 -9999 -9999 -9999 -9999 -9999 -9999 -9999 -9999 -9999 -9999 -9999 -9999 -9999 -9999 -9999 -9999 -9999 -9999 -9999 -9999 -9999 -9999 -9999 -9999 -9999 -9999 -9999 -9999 -9999 -9999 -9999 -9999 -9999 -9999 -9999 -9999 -9999 -9999 -9999 -9999 -9999 -9999 -9999 -9999 -9999 -9999 -9999 -9999 -9999 -9999 -9999 -9999 -9999 -9999 -9999 -9999 -9999 -9999 -9999 -9999 -9999 -9999 -9999 -9999 -9999 -9999 -9999 -9999 -9999 -9999 -9999 -9999 -9999 -9999 -9999 -9999 -9999 -9999 -9999 -9999 -9999 -9999 -9999 -9999 -9999 -9999 -9999 -9999 -9999 -9999 -9999 -9999 -9999 -9999 -9999 -9999 -9999 -9999 -9999 -9999 -9999 -9999 -9999 -9999 -9999 -9999 -9999 -9999 -9999 -9999 -9999 -9999 -9999 -9999 -9999 -9999 -9999 -9999 -9999 -9999 -9999 -9999 -9999 -9999 -9999 -9999 -9999 -9999 -9999 -9999 -9999 -9999 -9999 -9999 -9999 -9999 -9999 -9999 -9999 -9999 -9999 -9999 -9999 -9999 -9999 -9999 -9999 -9999 -9999 -9999 -9999 4.79041916167665 4.79041916167665 8.00800800800801 8.00800800800801 8.00800800800801 3.21543408360129 3.21543408360129 3.21543408360129 14.2857142857143 3.21543408360129 0 0 4.76758045292014 4.76758045292014 4.76758045292014 2.94117647058824 2.94117647058824 2.94117647058824 2.94117647058824 2.94117647058824 2.94117647058824 10.1351351351351 10.1351351351351 3.21543408360129 6.47249190938511 6.47249190938511 6.47249190938511 6.47249190938511 6.47249190938511 6.47249190938511 6.47249190938511 6.47249190938511 6.47249190938511 6.47249190938511 6.47249190938511 6.47249190938511 6.47249190938511 3.04878048780488 3.04878048780488 3.04878048780488 3.04878048780488 0 0 0 0 0 0 0 0 0 0 0 0 0 1.64473684210526 1.64473684210526 0 0 0 -9999 -9999 -9999 -9999 -9999 -9999 -9999 -9999 -9999 -9999 -9999 -9999 -9999
-9999 -9999 -9999 -9999 -9999 -9999 -9999 -9999 -9999 -9999 -9999 -9999 -9999 -9999 -9999 -9999 -9999 -9999 -9999 -9999 -9999 -9999 -9999 -9999 -9999 -9999 -9999 -9999 -9999 -9999 -9999 -9999 -9999 -9999 -9999 -9999 -9999 -9999 -9999 -9999 -9999 -9999 -9999 -9999 -9999 -9999 -9999 -9999 -9999 -9999 -9999 -9999 -9999 -9999 -9999 -9999 -9999 -9999 -9999 -9999 -9999 -9999 -9999 -9999 -9999 -9999 -9999 -9999 -9999 -9999 -9999 -9999 -9999 -9999 -9999 -9999 -9999 -9999 -9999 -9999 -9999 -9999 -9999 -9999 -9999 -9999 -9999 -9999 -9999 -9999 -9999 -9999 -9999 -9999 -9999 -9999 -9999 -9999 -9999 -9999 -9999 -9999 -9999 -9999 -9999 -9999 -9999 -9999 -9999 -9999 -9999 -9999 -9999 -9999 -9999 -9999 -9999 -9999 -9999 -9999 -9999 -9999 -9999 -9999 -9999 -9999 -9999 -9999 -9999 -9999 -9999 -9999 -9999 -9999 -9999 -9999 -9999 -9999 -9999 -9999 -9999 -9999 -9999 -9999 -9999 -9999 -9999 -9999 -9999 -9999 -9999 -9999 -9999 -9999 -9999 -9999 -9999 -9999 -9999 -9999 -9999 -9999 -9999 -9999 -9999 -9999 -9999 -9999 -9999 -9999 -9999 -9999 -9999 -9999 -9999 -9999 -9999 -9999 -9999 -9999 -9999 -9999 -9999 -9999 -9999 -9999 -9999 -9999 -9999 -9999 -9999 -9999 -9999 -9999 -9999 -9999 -9999 -9999 -9999 -9999 -9999 -9999 -9999 -9999 -9999 -9999 -9999 -9999 -9999 -9999 -9999 -9999 -9999 -9999 -9999 -9999 -9999 -9999 -9999 -9999 -9999 -9999 -9999 -9999 -9999 -9999 -9999 -9999 -9999 -9999 -9999 -9999 -9999 -9999 -9999 -9999 -9999 -9999 -9999 -9999 -9999 -9999 -9999 -9999 -9999 -9999 -9999 -9999 -9999 -9999 -9999 -9999 -9999 -9999 -9999 -9999 -9999 -9999 -9999 -9999 -9999 -9999 -9999 -9999 -9999 -9999 -9999 -9999 -9999 -9999 -9999 -9999 -9999 -9999 -9999 -9999 -9999 -9999 -9999 -9999 -9999 -9999 -9999 -9999 -9999 -9999 -9999 -9999 -9999 -9999 -9999 -9999 -9999 -9999 -9999 -9999 -9999 -9999 -9999 -9999 -9999 -9999 -9999 -9999 -9999 -9999 -9999 -9999 -9999 -9999 -9999 -9999 -9999 -9999 -9999 -9999 -9999 -9999 -9999 -9999 -9999 -9999 -9999 -9999 -9999 -9999 -9999 -9999 -9999 -9999 -9999 -9999 -9999 -9999 -9999 -9999 -9999 -9999 -9999 -9999 -9999 4.79041916167665 4.79041916167665 4.79041916167665 4.79041916167665 8.00800800800801 8.00800800800801 8.00800800800801 8.00800800800801 14.2857142857143 14.2857142857143 14.2857142857143 14.2857142857143 3.21543408360129 0 4.76758045292014 4.76758045292014 4.76758045292014 2.94117647058824 2.94117647058824 2.94117647058824 2.94117647058824 2.94117647058824 2.94117647058824 3.21543408360129 3.21543408360129 3.21543408360129 6.47249190938511 6.47249190938511 6.47249190938511 6.47249190938511 6.47249190938511 6.47249190938511 6.47249190938511 6.47249190938511 6.47249190938511 6.47249190938511 6.47249190938511 6.47249190938511 6.47249190938511 3.04878048780488 3.04878048780488 3.04878048780488 0 0 0 0 0 0 0 0 0 0 4.79616306954436 4.79616306954436 4.79616306954436 4.79616306954436 4.79616306954436 4.79616306954436 0 0 0 0 -9999 -9999 -9999 -9999 -9999 -9999 -9999 -9999 -9999 -9999 -9999 -9999
-9999 -9999 -9999 -9999 -9999 -9999 -9999 -9999 -9999 -9999 -9999 -9999 -9999 -9999 -9999 -9999 -9999 -9999 -9999 -9999 -9999 -9999 -9999 -9999 -9999 -9999 -9999 -9999 -9999 -9999 -9999 -9999 -9999 -9999 -9999 -9999 -9999 -9999 -9999 -9999 -9999 -9999 -9999 -9999 -9999 -9999 -9999 -9999 -9999 -9999 -9999 -9999 -9999 -9999 -9999 -9999 -9999 -9999 -9999 -9999 -9999 -9999 -9999 -9999 -9999 -9999 -9999 -9999 -9999 -9999 -9999 -9999 -9999 -9999 -9999 -9999 -9999 -9999 -9999 -9999 -9999 -9999 -9999 -9999 -9999 -9999 -9999 -9999 -9999 -9999 -9999 -9999 -9999 -9999 -9999 -9999 -9999 -9999 -9999 -9999 -9999 -9999 -9999 -9999 -9999 -9999 -9999 -9999 -9999 -9999 -9999 -9999 -9999 -9999 -9999 -9999 -9999 -9999 -9999 -9999 -9999 -9999 -9999 -9999 -9999 -9999 -9999 -9999 -9999 -9999 -9999 -9999 -9999 -9999 -9999 -9999 -9999 -9999 -9999 -9999 -9999 -9999 -9999 -9999 -9999 -9999 -9999 -9999 -9999 -9999 -9999 -9999 -9999 -9999 -9999 -9999 -9999 -9999 -9999 -9999 -9999 -9999 -9999 -9999 -9999 -9999 -9999 -9999 -9999 -9999 -9999 -9999 -9999 -9999 -9999 -9999 -9999 -9999 -9999 -9999 -9999 -9999 -9999 -9999 -9999 -9999 -9999 -9999 -9999 -9999 -9999 -9999 -9999 -9999 -9999 -9999 -9999 -9999 -9999 -9999 -9999 -9999 -9999 -9999 -9999 -9999 -9999 -9999 -9999 -9999 -9999 -9999 -9999 -9999 -9999 -9999 -9999 -9999 -9999 -9999 -9999 -9999 -9999 -9999 -9999 -9999 -9999 -9999 -9999 -9999 -9999 -9999 -9999 -9999 -9999 -9999 -9999 -9999 -9999 -9999 -9999 -9999 -9999 -9999 -9999 -9999 -9999 -9999 -9999 -9999 -9999 -9999 -9999 -9999 -9999 -9999 -9999 -9999 -9999 -9999 -9999 -9999 -9999 -9999 -9999 -9999 -9999 -9999 -9999 -9999 -9999 -9999 -9999 -9999 -9999 -9999 -9999 -9999 -9999 -9999 -9999 -9999 -9999 -9999 -9999 -9999 -9999 -9999 -9999 -9999 -9999 -9999 -9999 -9999 -9999 -9999 -9999 -9999 -9999 -9999 -9999 -9999 -9999 -9999 -9999 -9999 -9999 -9999 -9999 -9999 -9999 -9999 -9999 -9999 -9999 -9999 -9999 -9999 -9999 -9999 -9999 -9999 -9999 -9999 -9999 -9999 -9999 -9999 -9999 -9999 -9999 -9999 -9999 -9999 -9999 -9999 4.79041916167665 4.79041916167665 4.79041916167665 4.79041916167665 4.79041916167665 4.79041916167665 4.79041916167665 4.79041916167665 4.79041916167665 6.91915513474144 8.00800800800801 8.00800800800801 7.57575757575758 7.57575757575758 14.2857142857143 3.21543408360129 3.21543408360129 3.21543408360129 0 4.76758045292014 4.76758045292014 4.76758045292014 4.76758045292014 2.94117647058824 2.94117647058824 2.94117647058824 3.21543408360129 3.21543408360129 3.21543408360129 3.21543408360129 3.21543408360129 3.21543408360129 6.47249190938511 6.47249190938511 6.47249190938511 6.47249190938511 6.47249190938511 6.47249190938511 6.47249190938511 6.47249190938511 6.47249190938511 6.47249190938511 6.47249190938511 3.33778371161549 3.04878048780488 3.33778371161549 3.33778371161549 0 0 0 0 0 0 0 0 0 0 0 0 0 0 0 0 0 0 0 0 -9999 -9999 -9999 -9999 -9999 -9999 -9999 -9999 -9999 -9999 -9999 -9999
-9999 -9999 -9999 -9999 -9999 -9999 -9999 -9999 -9999 -9999 -9999 -9999 -9999 -9999 -9999 -9999 -9999 -9999 -9999 -9999 -9999 -9999 -9999 -9999 -9999 -9999 -9999 -9999 -9999 -9999 -9999 -9999 -9999 -9999 -9999 -9999 -9999 -9999 -9999 -9999 -9999 -9999 -9999 -9999 -9999 -9999 -9999 -9999 -9999 -9999 -9999 -9999 -9999 -9999 -9999 -9999 -9999 -9999 -9999 -9999 -9999 -9999 -9999 -9999 -9999 -9999 -9999 -9999 -9999 -9999 -9999 -9999 -9999 -9999 -9999 -9999 -9999 -9999 -9999 -9999 -9999 -9999 -9999 -9999 -9999 -9999 -9999 -9999 -9999 -9999 -9999 -9999 -9999 -9999 -9999 -9999 -9999 -9999 -9999 -9999 -9999 -9999 -9999 -9999 -9999 -9999 -9999 -9999 -9999 -9999 -9999 -9999 -9999 -9999 -9999 -9999 -9999 -9999 -9999 -9999 -9999 -9999 -9999 -9999 -9999 -9999 -9999 -9999 -9999 -9999 -9999 -9999 -9999 -9999 -9999 -9999 -9999 -9999 -9999 -9999 -9999 -9999 -9999 -9999 -9999 -9999 -9999 -9999 -9999 -9999 -9999 -9999 -9999 -9999 -9999 -9999 -9999 -9999 -9999 -9999 -9999 -9999 -9999 -9999 -9999 -9999 -9999 -9999 -9999 -9999 -9999 -9999 -9999 -9999 -9999 -9999 -9999 -9999 -9999 -9999 -9999 -9999 -9999 -9999 -9999 -9999 -9999 -9999 -9999 -9999 -9999 -9999 -9999 -9999 -9999 -9999 -9999 -9999 -9999 -9999 -9999 -9999 -9999 -9999 -9999 -9999 -9999 -9999 -9999 -9999 -9999 -9999 -9999 -9999 -9999 -9999 -9999 -9999 -9999 -9999 -9999 -9999 -9999 -9999 -9999 -9999 -9999 -9999 -9999 -9999 -9999 -9999 -9999 -9999 -9999 -9999 -9999 -9999 -9999 -9999 -9999 -9999 -9999 -9999 -9999 -9999 -9999 -9999 -9999 -9999 -9999 -9999 -9999 -9999 -9999 -9999 -9999 -9999 -9999 -9999 -9999 -9999 -9999 -9999 -9999 -9999 -9999 -9999 -9999 -9999 -9999 -9999 -9999 -9999 -9999 -9999 -9999 -9999 -9999 -9999 -9999 -9999 -9999 -9999 -9999 -9999 -9999 -9999 -9999 -9999 -9999 -9999 -9999 -9999 -9999 -9999 -9999 -9999 -9999 -9999 -9999 -9999 -9999 -9999 -9999 -9999 -9999 -9999 -9999 -9999 -9999 -9999 -9999 -9999 -9999 -9999 -9999 -9999 -9999 -9999 -9999 -9999 -9999 -9999 -9999 -9999 -9999 -9999 -9999 -9999 -9999 -9999 -9999 -9999 5.94353640416047 5.94353640416047 4.79041916167665 4.79041916167665 4.79041916167665 4.79041916167665 2.8328611898017 4.79041916167665 4.79041916167665 6.91915513474144 6.91915513474144 6.91915513474144 6.91915513474144 5.859375 7.57575757575758 7.57575757575758 7.57575757575758 3.21543408360129 3.21543408360129 3.21543408360129 3.21543408360129 4.76758045292014 4.76758045292014 4.76758045292014 4.76758045292014 4.76758045292014 2.94117647058824 3.21543408360129 3.21543408360129 3.21543408360129 3.21543408360129 3.21543408360129 3.21543408360129 3.21543408360129 3.21543408360129 6.47249190938511 6.47249190938511 6.47249190938511 6.47249190938511 6.47249190938511 6.47249190938511 6.47249190938511 6.47249190938511 3.33778371161549 3.33778371161549 3.33778371161549 3.33778371161549 3.33778371161549 3.33778371161549 0 0 3.33778371161549 0 0 0 0 0 0 0 0 0 0 0 0 0 0 0 0 0 -9999 -9999 -9999 -9999 -9999 -9999 -9999 -9999 -9999 -9999 -9999 -9999
-9999 -9999 -9999 -9999 -9999 -9999 -9999 -9999 -9999 -9999 -9999 -9999 -9999 -9999 -9999 -9999 -9999 -9999 -9999 -9999 -9999 -9999 -9999 -9999 -9999 -9999 -9999 -9999 -9999 -9999 -9999 -9999 -9999 -9999 -9999 -9999 -9999 -9999 -9999 -9999 -9999 -9999 -9999 -9999 -9999 -9999 -9999 -9999 -9999 -9999 -9999 -9999 -9999 -9999 -9999 -9999 -9999 -9999 -9999 -9999 -9999 -9999 -9999 -9999 -9999 -9999 -9999 -9999 -9999 -9999 -9999 -9999 -9999 -9999 -9999 -9999 -9999 -9999 -9999 -9999 -9999 -9999 -9999 -9999 -9999 -9999 -9999 -9999 -9999 -9999 -9999 -9999 -9999 -9999 -9999 -9999 -9999 -9999 -9999 -9999 -9999 -9999 -9999 -9999 -9999 -9999 -9999 -9999 -9999 -9999 -9999 -9999 -9999 -9999 -9999 -9999 -9999 -9999 -9999 -9999 -9999 -9999 -9999 -9999 -9999 -9999 -9999 -9999 -9999 -9999 -9999 -9999 -9999 -9999 -9999 -9999 -9999 -9999 -9999 -9999 -9999 -9999 -9999 -9999 -9999 -9999 -9999 -9999 -9999 -9999 -9999 -9999 -9999 -9999 -9999 -9999 -9999 -9999 -9999 -9999 -9999 -9999 -9999 -9999 -9999 -9999 -9999 -9999 -9999 -9999 -9999 -9999 -9999 -9999 -9999 -9999 -9999 -9999 -9999 -9999 -9999 -9999 -9999 -9999 -9999 -9999 -9999 -9999 -9999 -9999 -9999 -9999 -9999 -9999 -9999 -9999 -9999 -9999 -9999 -9999 -9999 -9999 -9999 -9999 -9999 -9999 -9999 -9999 -9999 -9999 -9999 -9999 -9999 -9999 -9999 -9999 -9999 -9999 -9999 -9999 -9999 -9999 -9999 -9999 -9999 -9999 -9999 -9999 -9999 -9999 -9999 -9999 -9999 -9999 -9999 -9999 -9999 -9999 -9999 -9999 -9999 -9999 -9999 -9999 -9999 -9999 -9999 -9999 -9999 -9999 -9999 -9999 -9999 -9999 -9999 -9999 -9999 -9999 -9999 -9999 -9999 -9999 -9999 -9999 -9999 -9999 -9999 -9999 -9999 -9999 -9999 -9999 -9999 -9999 -9999 -9999 -9999 -9999 -9999 -9999 -9999 -9999 -9999 -9999 -9999 -9999 -9999 -9999 -9999 -9999 -9999 -9999 -9999 -9999 -9999 -9999 -9999 -9999 -9999 -9999 -9999 -9999 -9999 -9999 -9999 -9999 -9999 -9999 -9999 -9999 -9999 -9999 -9999 -9999 -9999 -9999 -9999 -9999 -9999 -9999 -9999 -9999 -9999 -9999 -9999 -9999 -9999 -9999 -9999 -9999 -9999 -9999 -9999 5.94353640416047 5.94353640416047 5.94353640416047 5.94353640416047 4.79041916167665 2.8328611898017 2.8328611898017 2.8328611898017 2.8328611898017 6.91915513474144 6.91915513474144 6.91915513474144 6.91915513474144 6.91915513474144 5.859375 7.57575757575758 5.859375 5.859375 5.859375 5.859375 5.859375 3.21543408360129 3.21543408360129 4.76758045292014 3.21543408360129 3.21543408360129 3.21543408360129 3.21543408360129 3.21543408360129 3.21543408360129 3.21543408360129 3.21543408360129 3.21543408360129 3.21543408360129 3.21543408360129 3.21543408360129 3.21543408360129 6.47249190938511 6.47249190938511 6.47249190938511 6.47249190938511 6.47249190938511 3.33778371161549 3.33778371161549 3.33778371161549 3.33778371161549 3.33778371161549 3.33778371161549 3.33778371161549 3.33778371161549 3.33778371161549 3.33778371161549 3.33778371161549 3.33778371161549 0 0 0 0 0 0 0 0 0 0 0 0 0 0 0 0 0 -9999 -9999 -9999 -9999 -9999 -9999 -9999 -9999 -9999 -9999 -9999
-9999 -9999 -9999 -9999 -9999 -9999 -9999 -9999 -9999 -9999 -9999 -9999 -9999 -9999 -9999 -9999 -9999 -9999 -9999 -9999 -9999 -9999 -9999 -9999 -9999 -9999 -9999 -9999 -9999 -9999 -9999 -9999 -9999 -9999 -9999 -9999 -9999 -9999 -9999 -9999 -9999 -9999 -9999 -9999 -9999 -9999 -9999 -9999 -9999 -9999 -9999 -9999 -9999 -9999 -9999 -9999 -9999 -9999 -9999 -9999 -9999 -9999 -9999 -9999 -9999 -9999 -9999 -9999 -9999 -9999 -9999 -9999 -9999 -9999 -9999 -9999 -9999 -9999 -9999 -9999 -9999 -9999 -9999 -9999 -9999 -9999 -9999 -9999 -9999 -9999 -9999 -9999 -9999 -9999 -9999 -9999 -9999 -9999 -9999 -9999 -9999 -9999 -9999 -9999 -9999 -9999 -9999 -9999 -9999 -9999 -9999 -9999 -9999 -9999 -9999 -9999 -9999 -9999 -9999 -9999 -9999 -9999 -9999 -9999 -9999 -9999 -9999 -9999 -9999 -9999 -9999 -9999 -9999 -9999 -9999 -9999 -9999 -9999 -9999 -9999 -9999 -9999 -9999 -9999 -9999 -9999 -9999 -9999 -9999 -9999 -9999 -9999 -9999 -9999 -9999 -9999 -9999 -9999 -9999 -9999 -9999 -9999 -9999 -9999 -9999 -9999 -9999 -9999 -9999 -9999 -9999 -9999 -9999 -9999 -9999 -9999 -9999 -9999 -9999 -9999 -9999 -9999 -9999 -9999 -9999 -9999 -9999 -9999 -9999 -9999 -9999 -9999 -9999 -9999 -9999 -9999 -9999 -9999 -9999 -9999 -9999 -9999 -9999 -9999 -9999 -9999 -9999 -9999 -9999 -9999 -9999 -9999 -9999 -9999 -9999 -9999 -9999 -9999 -9999 -9999 -9999 -9999 -9999 -9999 -9999 -9999 -9999 -9999 -9999 -9999 -9999 -9999 -9999 -9999 -9999 -9999 -9999 -9999 -9999 -9999 -9999 -9999 -9999 -9999 -9999 -9999 -9999 -9999 -9999 -9999 -9999 -9999 -9999 -9999 -9999 -9999 -9999 -9999 -9999 -9999 -9999 -9999 -9999 -9999 -9999 -9999 -9999 -9999 -9999 -9999 -9999 -9999 -9999 -9999 -9999 -9999 -9999 -9999 -9999 -9999 -9999 -9999 -9999 -9999 -9999 -9999 -9999 -9999 -9999 -9999 -9999 -9999 -9999 -9999 -9999 -9999 -9999 -9999 -9999 -9999 -9999 -9999 -9999 -9999 -9999 -9999 -9999 -9999 -9999 -9999 -9999 -9999 -9999 -9999 -9999 -9999 -9999 -9999 -9999 -9999 -9999 -9999 -9999 -9999 -9999 -9999 -9999 -9999 -9999 -9999 -9999 5.94353640416047 9.05432595573441 5.94353640416047 5.94353640416047 5.94353640416047 11.2994350282486 11.2994350282486 2.8328611898017 2.8328611898017 2.8328611898017 2.8328611898017 2.8328611898017 6.91915513474144 6.91915513474144 6.91915513474144 6.91915513474144 6.91915513474144 5.859375 5.859375 5.859375 5.859375 5.859375 5.859375 5.859375 3.21543408360129 3.21543408360129 3.21543408360129 3.21543408360129 3.21543408360129 3.21543408360129 3.21543408360129 3.21543408360129 3.21543408360129 3.21543408360129 3.21543408360129 3.21543408360129 3.21543408360129 3.21543408360129 3.21543408360129 6.47249190938511 6.47249190938511 6.47249190938511 3.33778371161549 3.33778371161549 3.33778371161549 3.33778371161549 3.33778371161549 3.33778371161549 3.33778371161549 3.33778371161549 3.33778371161549 3.33778371161549 3.33778371161549 3.33778371161549 3.33778371161549 3.33778371161549 0 0 0 0 0 0 0 0 0 0 0 0 0 0 0 0 0 -9999 -9999 -9999 -9999 -9999 -9999 -9999 -9999 -9999 -9999 -9999
-9999 -9999 -9999 -9999 -9999 -9999 -9999 -9999 -9999 -9999 -9999 -9999 -9999 -9999 -9999 -9999 -9999 -9999 -9999 -9999 -9999 -9999 -9999 -9999 -9999 -9999 -9999 -9999 -9999 -9999 -9999 -9999 -9999 -9999 -9999 -9999 -9999 -9999 -9999 -9999 -9999 -9999 -9999 -9999 -9999 -9999 -9999 -9999 -9999 -9999 -9999 -9999 -9999 -9999 -9999 -9999 -9999 -9999 -9999 -9999 -9999 -9999 -9999 -9999 -9999 -9999 -9999 -9999 -9999 -9999 -9999 -9999 -9999 -9999 -9999 -9999 -9999 -9999 -9999 -9999 -9999 -9999 -9999 -9999 -9999 -9999 -9999 -9999 -9999 -9999 -9999 -9999 -9999 -9999 -9999 -9999 -9999 -9999 -9999 -9999 -9999 -9999 -9999 -9999 -9999 -9999 -9999 -9999 -9999 -9999 -9999 -9999 -9999 -9999 -9999 -9999 -9999 -9999 -9999 -9999 -9999 -9999 -9999 -9999 -9999 -9999 -9999 -9999 -9999 -9999 -9999 -9999 -9999 -9999 -9999 -9999 -9999 -9999 -9999 -9999 -9999 -9999 -9999 -9999 -9999 -9999 -9999 -9999 -9999 -9999 -9999 -9999 -9999 -9999 -9999 -9999 -9999 -9999 -9999 -9999 -9999 -9999 -9999 -9999 -9999 -9999 -9999 -9999 -9999 -9999 -9999 -9999 -9999 -9999 -9999 -9999 -9999 -9999 -9999 -9999 -9999 -9999 -9999 -9999 -9999 -9999 -9999 -9999 -9999 -9999 -9999 -9999 -9999 -9999 -9999 -9999 -9999 -9999 -9999 -9999 -9999 -9999 -9999 -9999 -9999 -9999 -9999 -9999 -9999 -9999 -9999 -9999 -9999 -9999 -9999 -9999 -9999 -9999 -9999 -9999 -9999 -9999 -9999 -9999 -9999 -9999 -9999 -9999 -9999 -9999 -9999 -9999 -9999 -9999 -9999 -9999 -9999 -9999 -9999 -9999 -9999 -9999 -9999 -9999 -9999 -9999 -9999 -9999 -9999 -9999 -9999 -9999 -9999 -9999 -9999 -9999 -9999 -9999 -9999 -9999 -9999 -9999 -9999 -9999 -9999 -9999 -9999 -9999 -9999 -9999 -9999 -9999 -9999 -9999 -9999 -9999 -9999 -9999 -9999 -9999 -9999 -9999 -9999 -9999 -9999 -9999 -9999 -9999 -9999 -9999 -9999 -9999 -9999 -9999 -9999 -9999 -9999 -9999 -9999 -9999 -9999 -9999 -9999 -9999 -9999 -9999 -9999 -9999 -9999 -9999 -9999 -9999 -9999 -9999 -9999 -9999 -9999 -9999 -9999 -9999 -9999 -9999 -9999 -9999 -9999 -9999 -9999 -9999 -9999 5.94353640416047 8.62068965517241 8.62068965517241 9.05432595573441 9.05432595573441 11.2994350282486 11.2994350282486 11.2994350282486 11.2994350282486 11.2994350282486 2.8328611898017 2.8328611898017 6.6334991708126 6.6334991708126 6.91915513474144 6.91915513474144 6.91915513474144 6.91915513474144 6.91915513474144 6.91915513474144 5.859375 5.859375 5.859375 5.859375 5.859375 3.21543408360129 3.21543408360129 3.21543408360129 3.21543408360129 3.21543408360129 3.21543408360129 3.21543408360129 3.21543408360129 3.21543408360129 3.21543408360129 3.21543408360129 3.21543408360129 3.21543408360129 3.21543408360129 3.21543408360129 3.21543408360129 3.21543408360129 3.33778371161549 3.33778371161549 3.33778371161549 3.33778371161549 3.33778371161549 3.33778371161549 3.33778371161549 3.33778371161549 3.33778371161549 3.33778371161549 3.33778371161549 3.33778371161549 3.33778371161549 3.33778371161549 3.33778371161549 3.33778371161549 0 0 0 0 0 0 0 0 0 0 0 0 0 0 0 0 0 -9999 -9999 -9999 -9999 -9999 -9999 -9999 -9999 -9999 -9999 -9999
-9999 -9999 -9999 -9999 -9999 -9999 -9999 -9999 -9999 -9999 -9999 -9999 -9999 -9999 -9999 -9999 -9999 -9999 -9999 -9999 -9999 -9999 -9999 -9999 -9999 -9999 -9999 -9999 -9999 -9999 -9999 -9999 -9999 -9999 -9999 -9999 -9999 -9999 -9999 -9999 -9999 -9999 -9999 -9999 -9999 -9999 -9999 -9999 -9999 -9999 -9999 -9999 -9999 -9999 -9999 -9999 -9999 -9999 -9999 -9999 -9999 -9999 -9999 -9999 -9999 -9999 -9999 -9999 -9999 -9999 -9999 -9999 -9999 -9999 -9999 -9999 -9999 -9999 -9999 -9999 -9999 -9999 -9999 -9999 -9999 -9999 -9999 -9999 -9999 -9999 -9999 -9999 -9999 -9999 -9999 -9999 -9999 -9999 -9999 -9999 -9999 -9999 -9999 -9999 -9999 -9999 -9999 -9999 -9999 -9999 -9999 -9999 -9999 -9999 -9999 -9999 -9999 -9999 -9999 -9999 -9999 -9999 -9999 -9999 -9999 -9999 -9999 -9999 -9999 -9999 -9999 -9999 -9999 -9999 -9999 -9999 -9999 -9999 -9999 -9999 -9999 -9999 -9999 -9999 -9999 -9999 -9999 -9999 -9999 -9999 -9999 -9999 -9999 -9999 -9999 -9999 -9999 -9999 -9999 -9999 -9999 -9999 -9999 -9999 -9999 -9999 -9999 -9999 -9999 -9999 -9999 -9999 -9999 -9999 -9999 -9999 -9999 -9999 -9999 -9999 -9999 -9999 -9999 -9999 -9999 -9999 -9999 -9999 -9999 -9999 -9999 -9999 -9999 -9999 -9999 -9999 -9999 -9999 -9999 -9999 -9999 -9999 -9999 -9999 -9999 -9999 -9999 -9999 -9999 -9999 -9999 -9999 -9999 -9999 -9999 -9999 -9999 -9999 -9999 -9999 -9999 -9999 -9999 -9999 -9999 -9999 -9999 -9999 -9999 -9999 -9999 -9999 -9999 -9999 -9999 -9999 -9999 -9999 -9999 -9999 -9999 -9999 -9999 -9999 -9999 -9999 -9999 -9999 -9999 -9999 -9999 -9999 -9999 -9999 -9999 -9999 -9999 -9999 -9999 -9999 -9999 -9999 -9999 -9999 -9999 -9999 -9999 -9999 -9999 -9999 -9999 -9999 -9999 -9999 -9999 -9999 -9999 -9999 -9999 -9999 -9999 -9999 -9999 -9999 -9999 -9999 -9999 -9999 -9999 -9999 -9999 -9999 -9999 -9999 -9999 -9999 -9999 -9999 -9999 -9999 -9999 -9999 -9999 -9999 -9999 -9999 -9999 -9999 -9999 -9999 -9999 -9999 -9999 -9999 -9999 -9999 -9999 -9999 -9999 -9999 -9999 -9999 -9999 -9999 -9999 -9999 -9999 5.94353640416047 9.4876660341556 9.4876660341556 8.62068965517241 8.62068965517241 9.05432595573441 9.05432595573441 9.05432595573441 11.2994350282486 11.2994350282486 11.2994350282486 11.2994350282486 2.65486725663717 6.6334991708126 6.6334991708126 6.6334991708126 6.6334991708126 6.91915513474144 6.91915513474144 6.91915513474144 6.91915513474144 6.91915513474144 5.859375 5.859375 3.21543408360129 3.21543408360129 3.21543408360129 3.21543408360129 3.21543408360129 3.21543408360129 3.21543408360129 3.21543408360129 3.21543408360129 3.21543408360129 3.21543408360129 3.21543408360129 3.21543408360129 3.21543408360129 3.21543408360129 3.21543408360129 3.21543408360129 3.21543408360129 3.33778371161549 3.33778371161549 3.33778371161549 3.33778371161549 3.33778371161549 3.33778371161549 3.33778371161549 3.33778371161549 3.33778371161549 3.33778371161549 3.33778371161549 3.33778371161549 3.33778371161549 3.33778371161549 3.33778371161549 3.33778371161549 3.33778371161549 3.33778371161549 0 0 0 0 0 0 0 0 0 0 0 0 0 3.07219662058372 3.07219662058372 0 0 0 -9999 -9999 -9999 -9999 -9999 -9999 -9999 -9999 -9999 -9999
-9999 -9999 -9999 -9999 -9999 -9999 -9999 -9999 -9999 -9999 -9999 -9999 -9999 -9999 -9999 -9999 -9999 -9999 -9999 -9999 -9999 -9999 -9999 -9999 -9999 -9999 -9999 -9999 -9999 -9999 -9999 -9999 -9999 -9999 -9999 -9999 -9999 -9999 -9999 -9999 -9999 -9999 -9999 -9999 -9999 -9999 -9999 -9999 -9999 -9999 -9999 -9999 -9999 -9999 -9999 -9999 -9999 -9999 -9999 -9999 -9999 -9999 -9999 -9999 -9999 -9999 -9999 -9999 -9999 -9999 -9999 -9999 -9999 -9999 -9999 -9999 -9999 -9999 -9999 -9999 -9999 -9999 -9999 -9999 -9999 -9999 -9999 -9999 -9999 -9999 -9999 -9999 -9999 -9999 -9999 -9999 -9999 -9999 -9999 -9999 -9999 -9999 -9999 -9999 -9999 -9999 -9999 -9999 -9999 -9999 -9999 -9999 -9999 -9999 -9999 -9999 -9999 -9999 -9999 -9999 -9999 -9999 -9999 -9999 -9999 -9999 -9999 -9999 -9999 -9999 -9999 -9999 -9999 -9999 -9999 -9999 -9999 -9999 -9999 -9999 -9999 -9999 -9999 -9999 -9999 -9999 -9999 -9999 -9999 -9999 -9999 -9999 -9999 -9999 -9999 -9999 -9999 -9999 -9999 -9999 -9999 -9999 -9999 -9999 -9999 -9999 -9999 -9999 -9999 -9999 -9999 -9999 -9999 -9999 -9999 -9999 -9999 -9999 -9999 -9999 -9999 -9999 -9999 -9999 -9999 -9999 -9999 -9999 -9999 -9999 -9999 -9999 -9999 -9999 -9999 -9999 -9999 -9999 -9999 -9999 -9999 -9999 -9999 -9999 -9999 -9999 -9999 -9999 -9999 -9999 -9999 -9999 -9999 -9999 -9999 -9999 -9999 -9999 -9999 -9999 -9999 -9999 -9999 -9999 -9999 -9999 -9999 -9999 -9999 -9999 -9999 -9999 -9999 -9999 -9999 -9999 -9999 -9999 -9999 -9999 -9999 -9999 -9999 -9999 -9999 -9999 -9999 -9999 -9999 -9999 -9999 -9999 -9999 -9999 -9999 -9999 -9999 -9999 -9999 -9999 -9999 -9999 -9999 -9999 -9999 -9999 -9999 -9999 -9999 -9999 -9999 -9999 -9999 -9999 -9999 -9999 -9999 -9999 -9999 -9999 -9999 -9999 -9999 -9999 -9999 -9999 -9999 -9999 -9999 -9999 -9999 -9999 -9999 -9999 -9999 -9999 -9999 -9999 -9999 -9999 -9999 -9999 -9999 -9999 -9999 -9999 -9999 -9999 -9999 -9999 -9999 -9999 -9999 -9999 -9999 -9999 -9999 -9999 -9999 -9999 -9999 -9999 -9999 -9999 -9999 -9999 9.4876660341556 9.4876660341556 9.4876660341556 9.4876660341556 8.62068965517241 8.62068965517241 9.05432595573441 9.05432595573441 10.6571936056838 10.6571936056838 10.6571936056838 2.65486725663717 2.65486725663717 2.65486725663717 2.65486725663717 6.6334991708126 6.6334991708126 5.01002004008016 5.01002004008016 6.91915513474144 6.91915513474144 6.91915513474144 6.91915513474144 3.21543408360129 3.21543408360129 3.21543408360129 3.21543408360129 3.21543408360129 3.21543408360129 3.21543408360129 3.21543408360129 3.21543408360129 3.21543408360129 3.21543408360129 3.21543408360129 3.21543408360129 3.21543408360129 3.21543408360129 3.21543408360129 3.21543408360129 3.21543408360129 3.33778371161549 3.33778371161549 3.33778371161549 3.33778371161549 3.33778371161549 3.33778371161549 3.33778371161549 3.33778371161549 3.33778371161549 3.33778371161549 3.33778371161549 3.33778371161549 3.33778371161549 3.33778371161549 3.33778371161549 3.33778371161549 3.33778371161549 3.33778371161549 3.33778371161549 0 0 0 0 0 0 0 0 0 0 0 0 0 0 3.07219662058372 3.07219662058372 3.07219662058372 0 0 -9999 -9999 -9999 -9999 -9999 -9999 -9999 -9999 -9999 -9999
-9999 -9999 -9999 -9999 -9999 -9999 -9999 -9999 -9999 -9999 -9999 -9999 -9999 -9999 -9999 -9999 -9999 -9999 -9999 -9999 -9999 -9999 -9999 -9999 -9999 -9999 -9999 -9999 -9999 -9999 -9999 -9999 -9999 -9999 -9999 -9999 -9999 -9999 -9999 -9999 -9999 -9999 -9999 -9999 -9999 -9999 -9999 -9999 -9999 -9999 -9999 -9999 -9999 -9999 -9999 -9999 -9999 -9999 -9999 -9999 -9999 -9999 -9999 -9999 -9999 -9999 -9999 -9999 -9999 -9999 -9999 -9999 -9999 -9999 -9999 -9999 -9999 -9999 -9999 -9999 -9999 -9999 -9999 -9999 -9999 -9999 -9999 -9999 -9999 -9999 -9999 -9999 -9999 -9999 -9999 -9999 -9999 -9999 -9999 -9999 -9999 -9999 -9999 -9999 -9999 -9999 -9999 -9999 -9999 -9999 -9999 -9999 -9999 -9999 -9999 -9999 -9999 -9999 -9999 -9999 -9999 -9999 -9999 -9999 -9999 -9999 -9999 -9999 -9999 -9999 -9999 -9999 -9999 -9999 -9999 -9999 -9999 -9999 -9999 -9999 -9999 -9999 -9999 -9999 -9999 -9999 -9999 -9999 -9999 -9999 -9999 -9999 -9999 -9999 -9999 -9999 -9999 -9999 -9999 -9999 -9999 -9999 -9999 -9999 -9999 -9999 -9999 -9999 -9999 -9999 -9999 -9999 -9999 -9999 -9999 -9999 -9999 -9999 -9999 -9999 -9999 -9999 -9999 -9999 -9999 -9999 -9999 -9999 -9999 -9999 -9999 -9999 -9999 -9999 -9999 -9999 -9999 -9999 -9999 -9999 -9999 -9999 -9999 -9999 -9999 -9999 -9999 -9999 -9999 -9999 -9999 -9999 -9999 -9999 -9999 -9999 -9999 -9999 -9999 -9999 -9999 -9999 -9999 -9999 -9999 -9999 -9999 -9999 -9999 -9999 -9999 -9999 -9999 -9999 -9999 -9999 -9999 -9999 -9999 -9999 -9999 -9999 -9999 -9999 -9999 -9999 -9999 -9999 -9999 -9999 -9999 -9999 -9999 -9999 -9999 -9999 -9999 -9999 -9999 -9999 -9999 -9999 -9999 -9999 -9999 -9999 -9999 -9999 -9999 -9999 -9999 -9999 -9999 -9999 -9999 -9999 -9999 -9999 -9999 -9999 -9999 -9999 -9999 -9999 -9999 -9999 -9999 -9999 -9999 -9999 -9999 -9999 -9999 -9999 -9999 -9999 -9999 -9999 -9999 -9999 -9999 -9999 -9999 -9999 -9999 -9999 -9999 -9999 -9999 -9999 -9999 -9999 -9999 -9999 -9999 -9999 -9999 -9999 -9999 -9999 -9999 -9999 -9999 -9999 15.3417015341702 7.75193798449612 7.75193798449612 9.4876660341556 9.4876660341556 9.4876660341556 9.4876660341556 9.4876660341556 10.6571936056838 10.6571936056838 10.6571936056838 21.4408233276158 21.4408233276158 21.4408233276158 2.65486725663717 2.65486725663717 2.65486725663717 5.30785562632696 5.01002004008016 5.01002004008016 5.01002004008016 5.01002004008016 6.91915513474144 3.21543408360129 3.21543408360129 3.21543408360129 3.21543408360129 3.21543408360129 3.21543408360129 3.21543408360129 3.21543408360129 3.21543408360129 3.21543408360129 3.21543408360129 3.21543408360129 3.21543408360129 3.21543408360129 3.21543408360129 3.21543408360129 3.21543408360129 3.21543408360129 3.33778371161549 3.33778371161549 3.33778371161549 3.33778371161549 3.33778371161549 3.33778371161549 3.33778371161549 3.33778371161549 3.33778371161549 3.33778371161549 3.33778371161549 3.33778371161549 3.33778371161549 3.33778371161549 3.33778371161549 3.33778371161549 3.33778371161549 3.33778371161549 3.33778371161549 3.33778371161549 3.33778371161549 0 0 0 0 0 0 0 0 0 0 0 0 0 3.07219662058372 3.07219662058372 0 0 0 0 -9999 -9999 -9999 -9999 -9999 -9999 -9999 -9999 -9999 -9999
-9999 -9999 -9999 -9999 -9999 -9999 -9999 -9999 -9999 -9999 -9999 -9999 -9999 -9999 -9999 -9999 -9999 -9999 -9999 -9999 -9999 -9999 -9999 -9999 -9999 -9999 -9999 -9999 -9999 -9999 -9999 -9999 -9999 -9999 -9999 -9999 -9999 -9999 -9999 -9999 -9999 -9999 -9999 -9999 -9999 -9999 -9999 -9999 -9999 -9999 -9999 -9999 -9999 -9999 -9999 -9999 -9999 -9999 -9999 -9999 -9999 -9999 -9999 -9999 -9999 -9999 -9999 -9999 -9999 -9999 -9999 -9999 -9999 -9999 -9999 -9999 -9999 -9999 -9999 -9999 -9999 -9999 -9999 -9999 -9999 -9999 -9999 -9999 -9999 -9999 -9999 -9999 -9999 -9999 -9999 -9999 -9999 -9999 -9999 -9999 -9999 -9999 -9999 -9999 -9999 -9999 -9999 -9999 -9999 -9999 -9999 -9999 -9999 -9999 -9999 -9999 -9999 -9999 -9999 -9999 -9999 -9999 -9999 -9999 -9999 -9999 -9999 -9999 -9999 -9999 -9999 -9999 -9999 -9999 -9999 -9999 -9999 -9999 -9999 -9999 -9999 -9999 -9999 -9999 -9999 -9999 -9999 -9999 -9999 -9999 -9999 -9999 -9999 -9999 -9999 -9999 -9999 -9999 -9999 -9999 -9999 -9999 -9999 -9999 -9999 -9999 -9999 -9999 -9999 -9999 -9999 -9999 -9999 -9999 -9999 -9999 -9999 -9999 -9999 -9999 -9999 -9999 -9999 -9999 -9999 -9999 -9999 -9999 -9999 -9999 -9999 -9999 -9999 -9999 -9999 -9999 -9999 -9999 -9999 -9999 -9999 -9999 -9999 -9999 -9999 -9999 -9999 -9999 -9999 -9999 -9999 -9999 -9999 -9999 -9999 -9999 -9999 -9999 -9999 -9999 -9999 -9999 -9999 -9999 -9999 -9999 -9999 -9999 -9999 -9999 -9999 -9999 -9999 -9999 -9999 -9999 -9999 -9999 -9999 -9999 -9999 -9999 -9999 -9999 -9999 -9999 -9999 -9999 -9999 -9999 -9999 -9999 -9999 -9999 -9999 -9999 -9999 -9999 -9999 -9999 -9999 -9999 -9999 -9999 -9999 -9999 -9999 -9999 -9999 -9999 -9999 -9999 -9999 -9999 -9999 -9999 -9999 -9999 -9999 -9999 -9999 -9999 -9999 -9999 -9999 -9999 -9999 -9999 -9999 -9999 -9999 -9999 -9999 -9999 -9999 -9999 -9999 -9999 -9999 -9999 -9999 -9999 -9999 -9999 -9999 -9999 -9999 -9999 -9999 -9999 -9999 -9999 -9999 -9999 -9999 -9999 -9999 -9999 -9999 -9999 -9999 -9999 15.3417015341702 15.3417015341702 4.08163265306122 4.08163265306122 7.75193798449612 7.75193798449612 9.4876660341556 9.4876660341556 9.4876660341556 9.4876660341556 9.4876660341556 9.4876660341556 10.6571936056838 21.4408233276158 21.4408233276158 21.4408233276158 21.4408233276158 5.30785562632696 5.30785562632696 5.30785562632696 5.30785562632696 5.01002004008016 5.01002004008016 3.21543408360129 3.21543408360129 3.21543408360129 3.21543408360129 3.21543408360129 3.21543408360129 3.21543408360129 3.21543408360129 3.21543408360129 3.21543408360129 3.21543408360129 3.21543408360129 3.21543408360129 3.21543408360129 3.21543408360129 3.21543408360129 3.21543408360129 3.21543408360129 3.33778371161549 3.33778371161549 3.33778371161549 3.33778371161549 3.33778371161549 3.33778371161549 3.33778371161549 3.33778371161549 3.33778371161549 3.33778371161549 3.33778371161549 3.33778371161549 3.33778371161549 3.33778371161549 3.33778371161549 3.33778371161549 3.33778371161549 3.33778371161549 3.33778371161549 3.33778371161549 3.33778371161549 3.33778371161549 0 0 0 0 0 0 0 0 0 0 0 0 0 0 3.07219662058372 3.07219662058372 0 0 0 0 0 -9999 -9999 -9999 -9999 -9999 -9999 -9999 -9999 -9999
-9999 -9999 -9999 -9999 -9999 -9999 -9999 -9999 -9999 -9999 -9999 -9999 -9999 -9999 -9999 -9999 -9999 -9999 -9999 -9999 -9999 -9999 -9999 -9999 -9999 -9999 -9999 -9999 -9999 -9999 -9999 -9999 -9999 -9999 -9999 -9999 -9999 -9999 -9999 -9999 -9999 -9999 -9999 -9999 -9999 -9999 -9999 -9999 -9999 -9999 -9999 -9999 -9999 -9999 -9999 -9999 -9999 -9999 -9999 -9999 -9999 -9999 -9999 -9999 -9999 -9999 -9999 -9999 -9999 -9999 -9999 -9999 -9999 -9999 -9999 -9999 -9999 -9999 -9999 -9999 -9999 -9999 -9999 -9999 -9999 -9999 -9999 -9999 -9999 -9999 -9999 -9999 -9999 -9999 -9999 -9999 -9999 -9999 -9999 -9999 -9999 -9999 -9999 -9999 -9999 -9999 -9999 -9999 -9999 -9999 -9999 -9999 -9999 -9999 -9999 -9999 -9999 -9999 -9999 -9999 -9999 -9999 -9999 -9999 -9999 -9999 -9999 -9999 -9999 -9999 -9999 -9999 -9999 -9999 -9999 -9999 -9999 -9999 -9999 -9999 -9999 -9999 -9999 -9999 -9999 -9999 -9999 -9999 -9999 -9999 -9999 -9999 -9999 -9999 -9999 -9999 -9999 -9999 -9999 -9999 -9999 -9999 -9999 -9999 -9999 -9999 -9999 -9999 -9999 -9999 -9999 -9999 -9999 -9999 -9999 -9999 -9999 -9999 -9999 -9999 -9999 -9999 -9999 -9999 -9999 -9999 -9999 -9999 -9999 -9999 -9999 -9999 -9999 -9999 -9999 -9999 -9999 -9999 -9999 -9999 -9999 -9999 -9999 -9999 -9999 -9999 -9999 -9999 -9999 -9999 -9999 -9999 -9999 -9999 -9999 -9999 -9999 -9999 -9999 -9999 -9999 -9999 -9999 -9999 -9999 -9999 -9999 -9999 -9999 -9999 -9999 -9999 -9999 -9999 -9999 -9999 -9999 -9999 -9999 -9999 -9999 -9999 -9999 -9999 -9999 -9999 -9999 -9999 -9999 -9999 -9999 -9999 -9999 -9999 -9999 -9999 -9999 -9999 -9999 -9999 -9999 -9999 -9999 -9999 -9999 -9999 -9999 -9999 -9999 -9999 -9999 -9999 -9999 -9999 -9999 -9999 -9999 -9999 -9999 -9999 -9999 -9999 -9999 -9999 -9999 -9999 -9999 -9999 -9999 -9999 -9999 -9999 -9999 -9999 -9999 -9999 -9999 -9999 -9999 -9999 -9999 -9999 -9999 -9999 -9999 -9999 -9999 -9999 -9999 -9999 -9999 -9999 -9999 -9999 -9999 -9999 -9999 -9999 -9999 -9999 15.3417015341702 15.3417015341702 18.4804928131417 23.5849056603774 4.08163265306122 4.08163265306122 4.08163265306122 7.75193798449612 7.75193798449612 9.4876660341556 16.2748643761302 16.2748643761302 9.4876660341556 9.4876660341556 16.2748643761302 16.2748643761302 21.4408233276158 11.9047619047619 11.9047619047619 11.9047619047619 11.9047619047619 5.30785562632696 5.30785562632696 5.30785562632696 3.21543408360129 3.21543408360129 3.21543408360129 3.21543408360129 3.21543408360129 3.21543408360129 3.21543408360129 3.21543408360129 3.21543408360129 3.21543408360129 3.21543408360129 3.21543408360129 3.21543408360129 3.21543408360129 3.21543408360129 3.21543408360129 3.21543408360129 3.33778371161549 3.33778371161549 3.33778371161549 3.33778371161549 3.33778371161549 3.33778371161549 3.33778371161549 3.33778371161549 3.33778371161549 3.33778371161549 3.33778371161549 3.33778371161549 3.33778371161549 3.33778371161549 3.33778371161549 3.33778371161549 3.33778371161549 3.33778371161549 3.33778371161549 3.33778371161549 3.33778371161549 3.33778371161549 3.33778371161549 3.33778371161549 0 0 4.84261501210654 4.84261501210654 4.84261501210654 4.84261501210654 6.10820244328098 0 0 0 0 0 0 0 0 3.07219662058372 0 0 0 0 0 -9999 -9999 -9999 -9999 -9999 -9999 -9999 -9999 -9999
-9999 -9999 -9999 -9999 -9999 -9999 -9999 -9999 -9999 -9999 -9999 -9999 -9999 -9999 -9999 -9999 -9999 -9999 -9999 -9999 -9999 -9999 -9999 -9999 -9999 -9999 -9999 -9999 -9999 -9999 -9999 -9999 -9999 -9999 -9999 -9999 -9999 -9999 -9999 -9999 -9999 -9999 -9999 -9999 -9999 -9999 -9999 -9999 -9999 -9999 -9999 -9999 -9999 -9999 -9999 -9999 -9999 -9999 -9999 -9999 -9999 -9999 -9999 -9999 -9999 -9999 -9999 -9999 -9999 -9999 -9999 -9999 -9999 -9999 -9999 -9999 -9999 -9999 -9999 -9999 -9999 -9999 -9999 -9999 -9999 -9999 -9999 -9999 -9999 -9999 -9999 -9999 -9999 -9999 -9999 -9999 -9999 -9999 -9999 -9999 -9999 -9999 -9999 -9999 -9999 -9999 -9999 -9999 -9999 -9999 -9999 -9999 -9999 -9999 -9999 -9999 -9999 -9999 -9999 -9999 -9999 -9999 -9999 -9999 -9999 -9999 -9999 -9999 -9999 -9999 -9999 -9999 -9999 -9999 -9999 -9999 -9999 -9999 -9999 -9999 -9999 -9999 -9999 -9999 -9999 -9999 -9999 -9999 -9999 -9999 -9999 -9999 -9999 -9999 -9999 -9999 -9999 -9999 -9999 -9999 -9999 -9999 -9999 -9999 -9999 -9999 -9999 -9999 -9999 -9999 -9999 -9999 -9999 -9999 -9999 -9999 -9999 -9999 -9999 -9999 -9999 -9999 -9999 -9999 -9999 -9999 -9999 -9999 -9999 -9999 -9999 -9999 -9999 -9999 -9999 -9999 -9999 -9999 -9999 -9999 -9999 -9999 -9999 -9999 -9999 -9999 -9999 -9999 -9999 -9999 -9999 -9999 -9999 -9999 -9999 -9999 -9999 -9999 -9999 -9999 -9999 -9999 -9999 -9999 -9999 -9999 -9999 -9999 -9999 -9999 -9999 -9999 -9999 -9999 -9999 -9999 -9999 -9999 -9999 -9999 -9999 -9999 -9999 -9999 -9999 -9999 -9999 -9999 -9999 -9999 -9999 -9999 -9999 -9999 -9999 -9999 -9999 -9999 -9999 -9999 -9999 -9999 -9999 -9999 -9999 -9999 -9999 -9999 -9999 -9999 -9999 -9999 -9999 -9999 -9999 -9999 -9999 -9999 -9999 -9999 -9999 -9999 -9999 -9999 -9999 -9999 -9999 -9999 -9999 -9999 -9999 -9999 -9999 -9999 -9999 -9999 -9999 -9999 -9999 -9999 -9999 -9999 -9999 -9999 -9999 -9999 -9999 -9999 -9999 -9999 -9999 -9999 -9999 -9999 -9999 -9999 -9999 -9999 -9999 15.3417015341702 18.4804928131417 18.4804928131417 18.4804928131417 18.4804928131417 23.5849056603774 4.08163265306122 7.75193798449612 7.75193798449612 7.75193798449612 11.6845180136319 16.2748643761302 16.2748643761302 16.2748643761302 16.2748643761302 16.2748643761302 16.2748643761302 16.2748643761302 11.9047619047619 11.9047619047619 11.9047619047619 11.9047619047619 5.30785562632696 5.30785562632696 5.30785562632696 5.30785562632696 5.30785562632696 3.21543408360129 3.21543408360129 3.21543408360129 3.21543408360129 3.21543408360129 3.21543408360129 3.21543408360129 3.21543408360129 3.21543408360129 3.21543408360129 3.21543408360129 3.21543408360129 3.21543408360129 3.33778371161549 3.33778371161549 3.33778371161549 3.33778371161549 3.33778371161549 3.33778371161549 3.33778371161549 3.33778371161549 3.33778371161549 3.33778371161549 3.33778371161549 3.33778371161549 3.33778371161549 3.33778371161549 3.33778371161549 3.33778371161549 3.33778371161549 3.33778371161549 3.33778371161549 3.33778371161549 3.33778371161549 3.33778371161549 3.33778371161549 3.33778371161549 3.33778371161549 3.33778371161549 0 3.21199143468951 3.21199143468951 3.21199143468951 3.21199143468951 6.10820244328098 6.10820244328098 0 0 0 0 0 0 0 0 0 0 0 0 0 -9999 -9999 -9999 -9999 -9999 -9999 -9999 -9999 -9999 -9999
-9999 -9999 -9999 -9999 -9999 -9999 -9999 -9999 -9999 -9999 -9999 -9999 -9999 -9999 -9999 -9999 -9999 -9999 -9999 -9999 -9999 -9999 -9999 -9999 -9999 -9999 -9999 -9999 -9999 -9999 -9999 -9999 -9999 -9999 -9999 -9999 -9999 -9999 -9999 -9999 -9999 -9999 -9999 -9999 -9999 -9999 -9999 -9999 -9999 -9999 -9999 -9999 -9999 -9999 -9999 -9999 -9999 -9999 -9999 -9999 -9999 -9999 -9999 -9999 -9999 -9999 -9999 -9999 -9999 -9999 -9999 -9999 -9999 -9999 -9999 -9999 -9999 -9999 -9999 -9999 -9999 -9999 -9999 -9999 -9999 -9999 -9999 -9999 -9999 -9999 -9999 -9999 -9999 -9999 -9999 -9999 -9999 -9999 -9999 -9999 -9999 -9999 -9999 -9999 -9999 -9999 -9999 -9999 -9999 -9999 -9999 -9999 -9999 -9999 -9999 -9999 -9999 -9999 -9999 -9999 -9999 -9999 -9999 -9999 -9999 -9999 -9999 -9999 -9999 -9999 -9999 -9999 -9999 -9999 -9999 -9999 -9999 -9999 -9999 -9999 -9999 -9999 -9999 -9999 -9999 -9999 -9999 -9999 -9999 -9999 -9999 -9999 -9999 -9999 -9999 -9999 -9999 -9999 -9999 -9999 -9999 -9999 -9999 -9999 -9999 -9999 -9999 -9999 -9999 -9999 -9999 -9999 -9999 -9999 -9999 -9999 -9999 -9999 -9999 -9999 -9999 -9999 -9999 -9999 -9999 -9999 -9999 -9999 -9999 -9999 -9999 -9999 -9999 -9999 -9999 -9999 -9999 -9999 -9999 -9999 -9999 -9999 -9999 -9999 -9999 -9999 -9999 -9999 -9999 -9999 -9999 -9999 -9999 -9999 -9999 -9999 -9999 -9999 -9999 -9999 -9999 -9999 -9999 -9999 -9999 -9999 -9999 -9999 -9999 -9999 -9999 -9999 -9999 -9999 -9999 -9999 -9999 -9999 -9999 -9999 -9999 -9999 -9999 -9999 -9999 -9999 -9999 -9999 -9999 -9999 -9999 -9999 -9999 -9999 -9999 -9999 -9999 -9999 -9999 -9999 -9999 -9999 -9999 -9999 -9999 -9999 -9999 -9999 -9999 -9999 -9999 -9999 -9999 -9999 -9999 -9999 -9999 -9999 -9999 -9999 -9999 -9999 -9999 -9999 -9999 -9999 -9999 -9999 -9999 -9999 -9999 -9999 -9999 -9999 -9999 -9999 -9999 -9999 -9999 -9999 -9999 -9999 -9999 -9999 -9999 -9999 -9999 -9999 -9999 -9999 -9999 -9999 -9999 -9999 -9999 -9999 -9999 -9999 15.3417015341702 18.4804928131417 18.4804928131417 18.4804928131417 18.4804928131417 23.5849056603774 23.5849056603774 23.5849056603774 7.75193798449612 7.75193798449612 11.6845180136319 11.6845180136319 11.6845180136319 16.2748643761302 16.2748643761302 16.2748643761302 16.2748643761302 44.5205479452055 44.5205479452055 44.5205479452055 44.5205479452055 44.5205479452055 44.5205479452055 44.5205479452055 5.30785562632696 5.30785562632696 5.30785562632696 5.30785562632696 44.5205479452055 3.21543408360129 3.21543408360129 3.21543408360129 3.21543408360129 3.21543408360129 3.21543408360129 3.21543408360129 3.21543408360129 3.21543408360129 3.21543408360129 0 0 3.33778371161549 3.33778371161549 3.33778371161549 3.33778371161549 3.33778371161549 3.33778371161549 3.33778371161549 3.33778371161549 3.33778371161549 3.33778371161549 3.33778371161549 3.33778371161549 3.33778371161549 3.33778371161549 3.33778371161549 3.33778371161549 3.33778371161549 3.33778371161549 3.33778371161549 3.33778371161549 3.33778371161549 3.33778371161549 3.33778371161549 3.33778371161549 3.33778371161549 0 3.21199143468951 3.21199143468951 3.21199143468951 3.21199143468951 6.10820244328098 6.10820244328098 6.10820244328098 0 0 0 0 0 0 0 0 0 0 0 0 0 -9999 -9999 -9999 -9999 -9999 -9999 -9999 -9999 -9999 -9999
-9999 -9999 -9999 -9999 -9999 -9999 -9999 -9999 -9999 -9999 -9999 -9999 -9999 -9999 -9999 -9999 -9999 -9999 -9999 -9999 -9999 -9999 -9999 -9999 -9999 -9999 -9999 -9999 -9999 -9999 -9999 -9999 -9999 -9999 -9999 -9999 -9999 -9999 -9999 -9999 -9999 -9999 -9999 -9999 -9999 -9999 -9999 -9999 -9999 -9999 -9999 -9999 -9999 -9999 -9999 -9999 -9999 -9999 -9999 -9999 -9999 -9999 -9999 -9999 -9999 -9999 -9999 -9999 -9999 -9999 -9999 -9999 -9999 -9999 -9999 -9999 -9999 -9999 -9999 -9999 -9999 -9999 -9999 -9999 -9999 -9999 -9999 -9999 -9999 -9999 -9999 -9999 -9999 -9999 -9999 -9999 -9999 -9999 -9999 -9999 -9999 -9999 -9999 -9999 -9999 -9999 -9999 -9999 -9999 -9999 -9999 -9999 -9999 -9999 -9999 -9999 -9999 -9999 -9999 -9999 -9999 -9999 -9999 -9999 -9999 -9999 -9999 -9999 -9999 -9999 -9999 -9999 -9999 -9999 -9999 -9999 -9999 -9999 -9999 -9999 -9999 -9999 -9999 -9999 -9999 -9999 -9999 -9999 -9999 -9999 -9999 -9999 -9999 -9999 -9999 -9999 -9999 -9999 -9999 -9999 -9999 -9999 -9999 -9999 -9999 -9999 -9999 -9999 -9999 -9999 -9999 -9999 -9999 -9999 -9999 -9999 -9999 -9999 -9999 -9999 -9999 -9999 -9999 -9999 -9999 -9999 -9999 -9999 -9999 -9999 -9999 -9999 -9999 -9999 -9999 -9999 -9999 -9999 -9999 -9999 -9999 -9999 -9999 -9999 -9999 -9999 -9999 -9999 -9999 -9999 -9999 -9999 -9999 -9999 -9999 -9999 -9999 -9999 -9999 -9999 -9999 -9999 -9999 -9999 -9999 -9999 -9999 -9999 -9999 -9999 -9999 -9999 -9999 -9999 -9999 -9999 -9999 -9999 -9999 -9999 -9999 -9999 -9999 -9999 -9999 -9999 -9999 -9999 -9999 -9999 -9999 -9999 -9999 -9999 -9999 -9999 -9999 -9999 -9999 -9999 -9999 -9999 -9999 -9999 -9999 -9999 -9999 -9999 -9999 -9999 -9999 -9999 -9999 -9999 -9999 -9999 -9999 -9999 -9999 -9999 -9999 -9999 -9999 -9999 -9999 -9999 -9999 -9999 -9999 -9999 -9999 -9999 -9999 -9999 -9999 -9999 -9999 -9999 -9999 -9999 -9999 -9999 -9999 -9999 -9999 -9999 -9999 -9999 -9999 -9999 -9999 -9999 -9999 -9999 -9999 -9999 15.3417015341702 15.3417015341702 15.3417015341702 18.4804928131417 18.4804928131417 18.4804928131417 13.4892086330935 13.4892086330935 23.5849056603774 23.5849056603774 0 11.6845180136319 11.6845180136319 11.6845180136319 11.6845180136319 11.6845180136319 16.2748643761302 44.5205479452055 44.5205479452055 44.5205479452055 44.5205479452055 44.5205479452055 44.5205479452055 44.5205479452055 44.5205479452055 44.5205479452055 44.5205479452055 5.30785562632696 44.5205479452055 44.5205479452055 44.5205479452055 44.5205479452055 3.21543408360129 3.21543408360129 3.21543408360129 3.21543408360129 3.21543408360129 3.21543408360129 3.21543408360129 0 0 0 0 0 0 3.33778371161549 3.33778371161549 3.33778371161549 3.33778371161549 3.33778371161549 3.33778371161549 3.33778371161549 3.33778371161549 3.33778371161549 3.33778371161549 3.33778371161549 3.33778371161549 3.33778371161549 3.33778371161549 3.33778371161549 3.33778371161549 3.33778371161549 3.33778371161549 3.33778371161549 3.33778371161549 3.33778371161549 3.33778371161549 3.33778371161549 0 0 0 3.21199143468951 3.21199143468951 6.10820244328098 6.10820244328098 6.10820244328098 0 0 0 0 0 0 0 0 0 0 0 0 0 -9999 -9999 -9999 -9999 -9999 -9999 -9999 -9999 -9999 -9999
-9999 -9999 -9999 -9999 -9999 -9999 -9999 -9999 -9999 -9999 -9999 -9999 -9999 -9999 -9999 -9999 -9999 -9999 -9999 -9999 -9999 -9999 -9999 -9999 -9999 -9999 -9999 -9999 -9999 -9999 -9999 -9999 -9999 -9999 -9999 -9999 -9999 -9999 -9999 -9999 -9999 -9999 -9999 -9999 -9999 -9999 -9999 -9999 -9999 -9999 -9999 -9999 -9999 -9999 -9999 -9999 -9999 -9999 -9999 -9999 -9999 -9999 -9999 -9999 -9999 -9999 -9999 -9999 -9999 -9999 -9999 -9999 -9999 -9999 -9999 -9999 -9999 -9999 -9999 -9999 -9999 -9999 -9999 -9999 -9999 -9999 -9999 -9999 -9999 -9999 -9999 -9999 -9999 -9999 -9999 -9999 -9999 -9999 -9999 -9999 -9999 -9999 -9999 -9999 -9999 -9999 -9999 -9999 -9999 -9999 -9999 -9999 -9999 -9999 -9999 -9999 -9999 -9999 -9999 -9999 -9999 -9999 -9999 -9999 -9999 -9999 -9999 -9999 -9999 -9999 -9999 -9999 -9999 -9999 -9999 -9999 -9999 -9999 -9999 -9999 -9999 -9999 -9999 -9999 -9999 -9999 -9999 -9999 -9999 -9999 -9999 -9999 -9999 -9999 -9999 -9999 -9999 -9999 -9999 -9999 -9999 -9999 -9999 -9999 -9999 -9999 -9999 -9999 -9999 -9999 -9999 -9999 -9999 -9999 -9999 -9999 -9999 -9999 -9999 -9999 -9999 -9999 -9999 -9999 -9999 -9999 -9999 -9999 -9999 -9999 -9999 -9999 -9999 -9999 -9999 -9999 -9999 -9999 -9999 -9999 -9999 -9999 -9999 -9999 -9999 -9999 -9999 -9999 -9999 -9999 -9999 -9999 -9999 -9999 -9999 -9999 -9999 -9999 -9999 -9999 -9999 -9999 -9999 -9999 -9999 -9999 -9999 -9999 -9999 -9999 -9999 -9999 -9999 -9999 -9999 -9999 -9999 -9999 -9999 -9999 -9999 -9999 -9999 -9999 -9999 -9999 -9999 -9999 -9999 -9999 -9999 -9999 -9999 -9999 -9999 -9999 -9999 -9999 -9999 -9999 -9999 -9999 -9999 -9999 -9999 -9999 -9999 -9999 -9999 -9999 -9999 -9999 -9999 -9999 -9999 -9999 -9999 -9999 -9999 -9999 -9999 -9999 -9999 -9999 -9999 -9999 -9999 -9999 -9999 -9999 -9999 -9999 -9999 -9999 -9999 -9999 -9999 -9999 -9999 -9999 -9999 -9999 -9999 -9999 -9999 -9999 -9999 -9999 -9999 -9999 -9999 -9999 -9999 -9999 -9999 15.3417015341702 15.3417015341702 15.3417015341702 15.3417015341702 15.3417015341702 13.4892086330935 13.4892086330935 13.4892086330935 13.4892086330935 13.4892086330935 0 0 20.8955223880597 11.6845180136319 11.6845180136319 11.6845180136319 13.3570792520036 13.3570792520036 44.5205479452055 44.5205479452055 44.5205479452055 44.5205479452055 44.5205479452055 44.5205479452055 44.5205479452055 44.5205479452055 44.5205479452055 44.5205479452055 44.5205479452055 44.5205479452055 44.5205479452055 44.5205479452055 44.5205479452055 44.5205479452055 3.21543408360129 3.21543408360129 3.21543408360129 3.21543408360129 0 0 0 0 0 0 0 0 0 0 3.33778371161549 3.33778371161549 3.33778371161549 3.33778371161549 3.33778371161549 3.33778371161549 3.33778371161549 3.33778371161549 3.33778371161549 3.33778371161549 3.33778371161549 3.33778371161549 3.33778371161549 3.33778371161549 3.33778371161549 3.33778371161549 3.33778371161549 3.33778371161549 3.33778371161549 3.33778371161549 3.33778371161549 0 0 0 0 0 0 0 0 0 0 0 0 0 0 0 0 0 0 0 0 0 -9999 -9999 -9999 -9999 -9999 -9999 -9999 -9999 -9999 -9999
-9999 -9999 -9999 -9999 -9999 -9999 -9999 -9999 -9999 -9999 -9999 -9999 -9999 -9999 -9999 -9999 -9999 -9999 -9999 -9999 -9999 -9999 -9999 -9999 -9999 -9999 -9999 -9999 -9999 -9999 -9999 -9999 -9999 -9999 -9999 -9999 -9999 -9999 -9999 -9999 -9999 -9999 -9999 -9999 -9999 -9999 -9999 -9999 -9999 -9999 -9999 -9999 -9999 -9999 -9999 -9999 -9999 -9999 -9999 -9999 -9999 -9999 -9999 -9999 -9999 -9999 -9999 -9999 -9999 -9999 -9999 -9999 -9999 -9999 -9999 -9999 -9999 -9999 -9999 -9999 -9999 -9999 -9999 -9999 -9999 -9999 -9999 -9999 -9999 -9999 -9999 -9999 -9999 -9999 -9999 -9999 -9999 -9999 -9999 -9999 -9999 -9999 -9999 -9999 -9999 -9999 -9999 -9999 -9999 -9999 -9999 -9999 -9999 -9999 -9999 -9999 -9999 -9999 -9999 -9999 -9999 -9999 -9999 -9999 -9999 -9999 -9999 -9999 -9999 -9999 -9999 -9999 -9999 -9999 -9999 -9999 -9999 -9999 -9999 -9999 -9999 -9999 -9999 -9999 -9999 -9999 -9999 -9999 -9999 -9999 -9999 -9999 -9999 -9999 -9999 -9999 -9999 -9999 -9999 -9999 -9999 -9999 -9999 -9999 -9999 -9999 -9999 -9999 -9999 -9999 -9999 -9999 -9999 -9999 -9999 -9999 -9999 -9999 -9999 -9999 -9999 -9999 -9999 -9999 -9999 -9999 -9999 -9999 -9999 -9999 -9999 -9999 -9999 -9999 -9999 -9999 -9999 -9999 -9999 -9999 -9999 -9999 -9999 -9999 -9999 -9999 -9999 -9999 -9999 -9999 -9999 -9999 -9999 -9999 -9999 -9999 -9999 -9999 -9999 -9999 -9999 -9999 -9999 -9999 -9999 -9999 -9999 -9999 -9999 -9999 -9999 -9999 -9999 -9999 -9999 -9999 -9999 -9999 -9999 -9999 -9999 -9999 -9999 -9999 -9999 -9999 -9999 -9999 -9999 -9999 -9999 -9999 -9999 -9999 -9999 -9999 -9999 -9999 -9999 -9999 -9999 -9999 -9999 -9999 -9999 -9999 -9999 -9999 -9999 -9999 -9999 -9999 -9999 -9999 -9999 -9999 -9999 -9999 -9999 -9999 -9999 -9999 -9999 -9999 -9999 -9999 -9999 -9999 -9999 -9999 -9999 -9999 -9999 -9999 -9999 -9999 -9999 -9999 -9999 -9999 -9999 -9999 -9999 -9999 -9999 -9999 -9999 19.0562613430127 -9999 19.0562613430127 19.0562613430127 -9999 -9999 15.3417015341702 15.3417015341702 18.8053097345133 15.3417015341702 15.3417015341702 15.3417015341702 15.3417015341702 13.4892086330935 13.4892086330935 13.4892086330935 21.1726384364821 0 20.8955223880597 20.8955223880597 20.8955223880597 20.8955223880597 13.3570792520036 13.3570792520036 13.3570792520036 13.3570792520036 13.3570792520036 44.5205479452055 44.5205479452055 44.5205479452055 44.5205479452055 44.5205479452055 44.5205479452055 44.5205479452055 44.5205479452055 44.5205479452055 44.5205479452055 44.5205479452055 44.5205479452055 44.5205479452055 44.5205479452055 44.5205479452055 44.5205479452055 3.21543408360129 0 0 0 0 0 0 0 0 0 0 0 0 0 0 0 3.33778371161549 3.33778371161549 3.33778371161549 3.33778371161549 3.33778371161549 3.33778371161549 3.33778371161549 3.33778371161549 3.33778371161549 3.33778371161549 3.33778371161549 3.33778371161549 3.33778371161549 3.33778371161549 3.33778371161549 3.33778371161549 3.33778371161549 0 0 0 0 0 0 0 0 0 0 0 0 0 0 0 0 0 0 0 0 0 -9999 -9999 -9999 -9999 -9999 -9999 -9999 -9999 -9999 -9999 -9999
-9999 -9999 -9999 -9999 -9999 -9999 -9999 -9999 -9999 -9999 -9999 -9999 -9999 -9999 -9999 -9999 -9999 -9999 -9999 -9999 -9999 -9999 -9999 -9999 -9999 -9999 -9999 -9999 -9999 -9999 -9999 -9999 -9999 -9999 -9999 -9999 -9999 -9999 -9999 -9999 -9999 -9999 -9999 -9999 -9999 -9999 -9999 -9999 -9999 -9999 -9999 -9999 -9999 -9999 -9999 -9999 -9999 -9999 -9999 -9999 -9999 -9999 -9999 -9999 -9999 -9999 -9999 -9999 -9999 -9999 -9999 -9999 -9999 -9999 -9999 -9999 -9999 -9999 -9999 -9999 -9999 -9999 -9999 -9999 -9999 -9999 -9999 -9999 -9999 -9999 -9999 -9999 -9999 -9999 -9999 -9999 -9999 -9999 -9999 -9999 -9999 -9999 -9999 -9999 -9999 -9999 -9999 -9999 -9999 -9999 -9999 -9999 -9999 -9999 -9999 -9999 -9999 -9999 -9999 -9999 -9999 -9999 -9999 -9999 -9999 -9999 -9999 -9999 -9999 -9999 -9999 -9999 -9999 -9999 -9999 -9999 -9999 -9999 -9999 -9999 -9999 -9999 -9999 -9999 -9999 -9999 -9999 -9999 -9999 -9999 -9999 -9999 -9999 -9999 -9999 -9999 -9999 -9999 -9999 -9999 -9999 -9999 -9999 -9999 -9999 -9999 -9999 -9999 -9999 -9999 -9999 -9999 -9999 -9999 -9999 -9999 -9999 -9999 -9999 -9999 -9999 -9999 -9999 -9999 -9999 -9999 -9999 -9999 -9999 -9999 -9999 -9999 -9999 -9999 -9999 -9999 -9999 -9999 -9999 -9999 -9999 -9999 -9999 -9999 -9999 -9999 -9999 -9999 -9999 -9999 -9999 -9999 -9999 -9999 -9999 -9999 -9999 -9999 -9999 -9999 -9999 -9999 -9999 -9999 -9999 -9999 -9999 -9999 -9999 -9999 -9999 -9999 -9999 -9999 -9999 -9999 -9999 -9999 -9999 -9999 -9999 -9999 -9999 -9999 -9999 -9999 -9999 -9999 -9999 -9999 -9999 -9999 -9999 -9999 -9999 -9999 -9999 -9999 -9999 -9999 -9999 -9999 -9999 -9999 -9999 -9999 -9999 -9999 -9999 -9999 -9999 -9999 -9999 -9999 -9999 -9999 -9999 -9999 -9999 -9999 -9999 -9999 -9999 -9999 -9999 -9999 -9999 -9999 -9999 -9999 -9999 -9999 -9999 -9999 -9999 -9999 -9999 -9999 -9999 -9999 -9999 -9999 -9999 -9999 -9999 -9999 19.0562613430127 19.0562613430127 19.0562613430127 -9999 -9999 -9999 19.0562613430127 23.6220472440945 23.6220472440945 18.8053097345133 18.8053097345133 15.3417015341702 15.3417015341702 18.8053097345133 18.8053097345133 21.1726384364821 21.1726384364821 56.3380281690141 56.3380281690141 20.8955223880597 20.8955223880597 20.8955223880597 20.8955223880597 32.9428989751098 13.3570792520036 13.3570792520036 13.3570792520036 13.4907251264755 13.4907251264755 44.5205479452055 44.5205479452055 44.5205479452055 44.5205479452055 44.5205479452055 44.5205479452055 44.5205479452055 44.5205479452055 44.5205479452055 44.5205479452055 44.5205479452055 44.5205479452055 44.5205479452055 44.5205479452055 0 0 0 0 0 0 0 0 0 0 0 0 0 0 0 0 0 0 0 3.33778371161549 3.33778371161549 3.33778371161549 3.33778371161549 3.33778371161549 3.33778371161549 3.33778371161549 3.33778371161549 3.33778371161549 3.33778371161549 3.33778371161549 3.33778371161549 3.33778371161549 3.33778371161549 3.33778371161549 0 0 0 0 4.0595399188092 4.0595399188092 0 0 0 0 0 0 0 0 0 0 4.53514739229025 4.53514739229025 0 0 0 -9999 -9999 -9999 -9999 -9999 -9999 -9999 -9999 -9999 -9999 -9999
-9999 -9999 -9999 -9999 -9999 -9999 -9999 -9999 -9999 -9999 -9999 -9999 -9999 -9999 -9999 -9999 -9999 -9999 -9999 -9999 -9999 -9999 -9999 -9999 -9999 -9999 -9999 -9999 -9999 -9999 -9999 -9999 -9999 -9999 -9999 -9999 -9999 -9999 -9999 -9999 -9999 -9999 -9999 -9999 -9999 -9999 -9999 -9999 -9999 -9999 -9999 -9999 -9999 -9999 -9999 -9999 -9999 -9999 -9999 -9999 -9999 -9999 -9999 -9999 -9999 -9999 -9999 -9999 -9999 -9999 -9999 -9999 -9999 -9999 -9999 -9999 -9999 -9999 -9999 -9999 -9999 -9999 -9999 -9999 -9999 -9999 -9999 -9999 -9999 -9999 -9999 -9999 -9999 -9999 -9999 -9999 -9999 -9999 -9999 -9999 -9999 -9999 -9999 -9999 -9999 -9999 -9999 -9999 -9999 -9999 -9999 -9999 -9999 -9999 -9999 -9999 -9999 -9999 -9999 -9999 -9999 -9999 -9999 -9999 -9999 -9999 -9999 -9999 -9999 -9999 -9999 -9999 -9999 -9999 -9999 -9999 -9999 -9999 -9999 -9999 -9999 -9999 -9999 -9999 -9999 -9999 -9999 -9999 -9999 -9999 -9999 -9999 -9999 -9999 -9999 -9999 -9999 -9999 -9999 -9999 -9999 -9999 -9999 -9999 -9999 -9999 -9999 -9999 -9999 -9999 -9999 -9999 -9999 -9999 -9999 -9999 -9999 -9999 -9999 -9999 -9999 -9999 -9999 -9999 -9999 -9999 -9999 -9999 -9999 -9999 -9999 -9999 -9999 -9999 -9999 -9999 -9999 -9999 -9999 -9999 -9999 -9999 -9999 -9999 -9999 -9999 -9999 -9999 -9999 -9999 -9999 -9999 -9999 -9999 -9999 -9999 -9999 -9999 -9999 -9999 -9999 -9999 -9999 -9999 -9999 -9999 -9999 -9999 -9999 -9999 -9999 -9999 -9999 -9999 -9999 -9999 -9999 -9999 -9999 -9999 -9999 -9999 -9999 -9999 -9999 -9999 -9999 -9999 -9999 -9999 -9999 -9999 -9999 -9999 -9999 -9999 -9999 -9999 -9999 -9999 -9999 -9999 -9999 -9999 -9999 -9999 -9999 -9999 -9999 -9999 -9999 -9999 -9999 -9999 -9999 -9999 -9999 -9999 -9999 -9999 -9999 -9999 -9999 -9999 -9999 -9999 -9999 -9999 -9999 -9999 -9999 -9999 -9999 -9999 -9999 -9999 -9999 -9999 -9999 -9999 -9999 -9999 -9999 -9999 -9999 19.0562613430127 -9999 -9999 -9999 -9999 -9999 19.0562613430127 4.34782608695652 23.6220472440945 23.6220472440945 23.6220472440945 23.6220472440945 18.8053097345133 18.8053097345133 27.027027027027 27.027027027027 27.027027027027 21.1726384364821 21.1726384364821 56.3380281690141 56.3380281690141 20.8955223880597 20.8955223880597 32.9428989751098 32.9428989751098 32.9428989751098 13.3570792520036 30.3398058252427 13.4907251264755 13.4907251264755 13.4907251264755 44.5205479452055 44.5205479452055 44.5205479452055 44.5205479452055 44.5205479452055 44.5205479452055 44.5205479452055 44.5205479452055 44.5205479452055 44.5205479452055 44.5205479452055 44.5205479452055 0 0 0 0 0 0 0 0 0 0 0 0 0 0 0 0 0 0 0 0 0 0 3.33778371161549 3.33778371161549 3.33778371161549 3.33778371161549 3.33778371161549 3.33778371161549 3.33778371161549 3.33778371161549 3.33778371161549 3.33778371161549 3.33778371161549 3.33778371161549 3.33778371161549 4.34782608695652 4.34782608695652 0 0 4.0595399188092 4.0595399188092 4.0595399188092 4.0595399188092 4.0595399188092 4.0595399188092 4.0595399188092 3.61663652802893 4.53514739229025 4.53514739229025 4.53514739229025 4.53514739229025 4.53514739229025 4.53514739229025 0 0 0 -9999 -9999 -9999 -9999 -9999 -9999 -9999 -9999 -9999 -9999 -9999
-9999 -9999 -9999 -9999 -9999 -9999 -9999 -9999 -9999 -9999 -9999 -9999 -9999 -9999 -9999 -9999 -9999 -9999 -9999 -9999 -9999 -9999 -9999 -9999 -9999 -9999 -9999 -9999 -9999 -9999 -9999 -9999 -9999 -9999 -9999 -9999 -9999 -9999 -9999 -9999 -9999 -9999 -9999 -9999 -9999 -9999 -9999 -9999 -9999 -9999 -9999 -9999 -9999 -9999 -9999 -9999 -9999 -9999 -9999 -9999 -9999 -9999 -9999 -9999 -9999 -9999 -9999 -9999 -9999 -9999 -9999 -9999 -9999 -9999 -9999 -9999 -9999 -9999 -9999 -9999 -9999 -9999 -9999 -9999 -9999 -9999 -9999 -9999 -9999 -9999 -9999 -9999 -9999 -9999 -9999 -9999 -9999 -9999 -9999 -9999 -9999 -9999 -9999 -9999 -9999 -9999 -9999 -9999 -9999 -9999 -9999 -9999 -9999 -9999 -9999 -9999 -9999 -9999 -9999 -9999 -9999 -9999 -9999 -9999 -9999 -9999 -9999 -9999 -9999 -9999 -9999 -9999 -9999 -9999 -9999 -9999 -9999 -9999 -9999 -9999 -9999 -9999 -9999 -9999 -9999 -9999 -9999 -9999 -9999 -9999 -9999 -9999 -9999 -9999 -9999 -9999 -9999 -9999 -9999 -9999 -9999 -9999 -9999 -9999 -9999 -9999 -9999 -9999 -9999 -9999 -9999 -9999 -9999 -9999 -9999 -9999 -9999 -9999 -9999 -9999 -9999 -9999 -9999 -9999 -9999 -9999 -9999 -9999 -9999 -9999 -9999 -9999 -9999 -9999 -9999 -9999 -9999 -9999 -9999 -9999 -9999 -9999 -9999 -9999 -9999 -9999 -9999 -9999 -9999 -9999 -9999 -9999 -9999 -9999 -9999 -9999 -9999 -9999 -9999 -9999 -9999 -9999 -9999 -9999 -9999 -9999 -9999 -9999 -9999 -9999 -9999 -9999 -9999 -9999 -9999 -9999 -9999 -9999 -9999 -9999 -9999 -9999 -9999 -9999 -9999 -9999 -9999 -9999 -9999 -9999 -9999 -9999 -9999 -9999 -9999 -9999 -9999 -9999 -9999 -9999 -9999 -9999 -9999 -9999 -9999 -9999 -9999 -9999 -9999 -9999 -9999 -9999 -9999 -9999 -9999 -9999 -9999 -9999 -9999 -9999 -9999 -9999 -9999 -9999 -9999 -9999 -9999 -9999 -9999 -9999 -9999 -9999 -9999 -9999 -9999 -9999 -9999 -9999 -9999 -9999 -9999 -9999 -9999 -9999 19.0562613430127 19.0562613430127 19.0562613430127 -9999 -9999 -9999 4.34782608695652 4.34782608695652 4.34782608695652 4.34782608695652 23.6220472440945 23.6220472440945 23.6220472440945 23.6220472440945 18.6440677966102 27.027027027027 27.027027027027 27.027027027027 27.027027027027 21.1726384364821 56.3380281690141 56.3380281690141 56.3380281690141 32.9428989751098 32.9428989751098 32.9428989751098 22.6666666666667 30.3398058252427 30.3398058252427 13.4907251264755 13.4907251264755 20.6185567010309 20.6185567010309 44.5205479452055 44.5205479452055 44.5205479452055 44.5205479452055 44.5205479452055 44.5205479452055 44.5205479452055 44.5205479452055 44.5205479452055 0 0 0 0 0 0 0 0 0 0 0 0 0 0 0 0 0 0 0 0 0 0 0 0 0 0 3.33778371161549 3.33778371161549 3.33778371161549 3.33778371161549 3.33778371161549 3.33778371161549 3.33778371161549 3.33778371161549 3.33778371161549 3.33778371161549 4.34782608695652 4.34782608695652 4.34782608695652 4.34782608695652 4.34782608695652 4.0595399188092 4.0595399188092 4.0595399188092 4.0595399188092 4.0595399188092 0 0 3.61663652802893 3.61663652802893 3.61663652802893 0 0 0 0 0 0 0 0 -9999 -9999 -9999 -9999 -9999 -9999 -9999 -9999 -9999 -9999
-9999 -9999 -9999 -9999 -9999 -9999 -9999 -9999 -9999 -9999 -9999 -9999 -9999 -9999 -9999 -9999 -9999 -9999 -9999 -9999 -9999 -9999 -9999 -9999 -9999 -9999 -9999 -9999 -9999 -9999 -9999 -9999 -9999 -9999 -9999 -9999 -9999 -9999 -9999 -9999 -9999 -9999 -9999 -9999 -9999 -9999 -9999 -9999 -9999 -9999 -9999 -9999 -9999 -9999 -9999 -9999 -9999 -9999 -9999 -9999 -9999 -9999 -9999 -9999 -9999 -9999 -9999 -9999 -9999 -9999 -9999 -9999 -9999 -9999 -9999 -9999 -9999 -9999 -9999 -9999 -9999 -9999 -9999 -9999 -9999 -9999 -9999 -9999 -9999 -9999 -9999 -9999 -9999 -9999 -9999 -9999 -9999 -9999 -9999 -9999 -9999 -9999 -9999 -9999 -9999 -9999 -9999 -9999 -9999 -9999 -9999 -9999 -9999 -9999 -9999 -9999 -9999 -9999 -9999 -9999 -9999 -9999 -9999 -9999 -9999 -9999 -9999 -9999 -9999 -9999 -9999 -9999 -9999 -9999 -9999 -9999 -9999 -9999 -9999 -9999 -9999 -9999 -9999 -9999 -9999 -9999 -9999 -9999 -9999 -9999 -9999 -9999 -9999 -9999 -9999 -9999 -9999 -9999 -9999 -9999 -9999 -9999 -9999 -9999 -9999 -9999 -9999 -9999 -9999 -9999 -9999 -9999 -9999 -9999 -9999 -9999 -9999 -9999 -9999 -9999 -9999 -9999 -9999 -9999 -9999 -9999 -9999 -9999 -9999 -9999 -9999 -9999 -9999 -9999 -9999 -9999 -9999 -9999 -9999 -9999 -9999 -9999 -9999 -9999 -9999 -9999 -9999 -9999 -9999 -9999 -9999 -9999 -9999 -9999 -9999 -9999 -9999 -9999 -9999 -9999 -9999 -9999 -9999 -9999 -9999 -9999 -9999 -9999 -9999 -9999 -9999 -9999 -9999 -9999 -9999 -9999 -9999 -9999 -9999 -9999 -9999 -9999 -9999 -9999 -9999 -9999 -9999 -9999 -9999 -9999 -9999 -9999 -9999 -9999 -9999 -9999 -9999 -9999 -9999 -9999 -9999 -9999 -9999 -9999 -9999 -9999 -9999 -9999 -9999 -9999 -9999 -9999 -9999 -9999 -9999 -9999 -9999 -9999 -9999 -9999 -9999 -9999 -9999 -9999 -9999 -9999 -9999 -9999 -9999 -9999 -9999 -9999 -9999 -9999 -9999 -9999 -9999 -9999 -9999 -9999 -9999 -9999 -9999 -9999 -9999 -9999 -9999 -9999 19.0562613430127 19.0562613430127 4.34782608695652 4.34782608695652 4.34782608695652 4.34782608695652 23.6220472440945 23.6220472440945 10.1123595505618 18.6440677966102 18.6440677966102 18.6440677966102 27.027027027027 56.3380281690141 56.3380281690141 56.3380281690141 56.3380281690141 31.6301703163017 31.6301703163017 31.6301703163017 32.9428989751098 22.6666666666667 30.5466237942122 30.5466237942122 30.3398058252427 20.6185567010309 20.6185567010309 20.6185567010309 20.6185567010309 20.6185567010309 44.5205479452055 44.5205479452055 44.5205479452055 44.5205479452055 44.5205479452055 44.5205479452055 44.5205479452055 0 0 0 0 0 0 0 0 0 0 0 0 0 0 0 0 0 0 0 0 0 0 0 0 0 0 0 0 0 3.33778371161549 3.33778371161549 3.33778371161549 3.33778371161549 3.33778371161549 3.33778371161549 3.33778371161549 3.33778371161549 4.34782608695652 4.34782608695652 4.34782608695652 4.34782608695652 4.34782608695652 4.0595399188092 4.0595399188092 4.0595399188092 4.0595399188092 0 0 0 3.61663652802893 3.61663652802893 0 0 0 0 0 0 0 0 0 -9999 -9999 -9999 -9999 -9999 -9999 -9999 -9999 -9999 -9999
-9999 -9999 -9999 -9999 -9999 -9999 -9999 -9999 -9999 -9999 -9999 -9999 -9999 -9999 -9999 -9999 -9999 -9999 -9999 -9999 -9999 -9999 -9999 -9999 -9999 -9999 -9999 -9999 -9999 -9999 -9999 -9999 -9999 -9999 -9999 -9999 -9999 -9999 -9999 -9999 -9999 -9999 -9999 -9999 -9999 -9999 -9999 -9999 -9999 -9999 -9999 -9999 -9999 -9999 -9999 -9999 -9999 -9999 -9999 -9999 -9999 -9999 -9999 -9999 -9999 -9999 -9999 -9999 -9999 -9999 -9999 -9999 -9999 -9999 -9999 -9999 -9999 -9999 -9999 -9999 -9999 -9999 -9999 -9999 -9999 -9999 -9999 -9999 -9999 -9999 -9999 -9999 -9999 -9999 -9999 -9999 -9999 -9999 -9999 -9999 -9999 -9999 -9999 -9999 -9999 -9999 -9999 -9999 -9999 -9999 -9999 -9999 -9999 -9999 -9999 -9999 -9999 -9999 -9999 -9999 -9999 -9999 -9999 -9999 -9999 -9999 -9999 -9999 -9999 -9999 -9999 -9999 -9999 -9999 -9999 -9999 -9999 -9999 -9999 -9999 -9999 -9999 -9999 -9999 -9999 -9999 -9999 -9999 -9999 -9999 -9999 -9999 -9999 -9999 -9999 -9999 -9999 -9999 -9999 -9999 -9999 -9999 -9999 -9999 -9999 -9999 -9999 -9999 -9999 -9999 -9999 -9999 -9999 -9999 -9999 -9999 -9999 -9999 -9999 -9999 -9999 -9999 -9999 -9999 -9999 -9999 -9999 -9999 -9999 -9999 -9999 -9999 -9999 -9999 -9999 -9999 -9999 -9999 -9999 -9999 -9999 -9999 -9999 -9999 -9999 -9999 -9999 -9999 -9999 -9999 -9999 -9999 -9999 -9999 -9999 -9999 -9999 -9999 -9999 -9999 -9999 -9999 -9999 -9999 -9999 -9999 -9999 -9999 -9999 -9999 -9999 -9999 -9999 -9999 -9999 -9999 -9999 -9999 -9999 -9999 -9999 -9999 -9999 -9999 -9999 -9999 -9999 -9999 -9999 -9999 -9999 -9999 -9999 -9999 -9999 -9999 -9999 -9999 -9999 -9999 -9999 -9999 -9999 -9999 -9999 -9999 -9999 -9999 -9999 -9999 -9999 -9999 -9999 -9999 -9999 -9999 -9999 -9999 -9999 -9999 -9999 -9999 -9999 -9999 -9999 -9999 -9999 -9999 -9999 -9999 -9999 -9999 -9999 -9999 -9999 -9999 -9999 -9999 -9999 -9999 -9999 4.03659849300323 -9999 -9999 4.03659849300323 -9999 -9999 19.0562613430127 19.0562613430127 19.0562613430127 4.34782608695652 4.34782608695652 8.31946755407654 8.31946755407654 8.31946755407654 10.1123595505618 10.1123595505618 7.26141078838174 18.6440677966102 18.6440677966102 18.6440677966102 56.3380281690141 56.3380281690141 43.1547619047619 43.1547619047619 56.3380281690141 31.6301703163017 31.6301703163017 23.168908819133 22.6666666666667 30.5466237942122 20.6185567010309 30.3398058252427 30.3398058252427 20.6185567010309 20.6185567010309 20.6185567010309 20.6185567010309 20.6185567010309 44.5205479452055 44.5205479452055 44.5205479452055 44.5205479452055 0 0 0 0 0 0 0 0 0 0 0 0 0 0 0 0 0 0 0 0 0 0 0 0 0 0 0 0 0 0 0 0 0 0 3.33778371161549 3.33778371161549 3.33778371161549 3.33778371161549 3.33778371161549 4.34782608695652 4.34782608695652 4.34782608695652 4.34782608695652 4.34782608695652 4.34782608695652 4.34782608695652 4.34782608695652 4.34782608695652 6.27615062761506 6.27615062761506 3.61663652802893 3.61663652802893 3.61663652802893 0 0 0 0 0 0 0 0 -9999 -9999 -9999 -9999 -9999 -9999 -9999 -9999 -9999 -9999 -9999
-9999 -9999 -9999 -9999 -9999 -9999 -9999 -9999 -9999 -9999 -9999 -9999 -9999 -9999 -9999 -9999 -9999 -9999 -9999 -9999 -9999 -9999 -9999 -9999 -9999 -9999 -9999 -9999 -9999 -9999 -9999 -9999 -9999 -9999 -9999 -9999 -9999 -9999 -9999 -9999 -9999 -9999 -9999 -9999 -9999 -9999 -9999 -9999 -9999 -9999 -9999 -9999 -9999 -9999 -9999 -9999 -9999 -9999 -9999 -9999 -9999 -9999 -9999 -9999 -9999 -9999 -9999 -9999 -9999 -9999 -9999 -9999 -9999 -9999 -9999 -9999 -9999 -9999 -9999 -9999 -9999 -9999 -9999 -9999 -9999 -9999 -9999 -9999 -9999 -9999 -9999 -9999 -9999 -9999 -9999 -9999 -9999 -9999 -9999 -9999 -9999 -9999 -9999 -9999 -9999 -9999 -9999 -9999 -9999 -9999 -9999 -9999 -9999 -9999 -9999 -9999 -9999 -9999 -9999 -9999 -9999 -9999 -9999 -9999 -9999 -9999 -9999 -9999 -9999 -9999 -9999 -9999 -9999 -9999 -9999 -9999 -9999 -9999 -9999 -9999 -9999 -9999 -9999 -9999 -9999 -9999 -9999 -9999 -9999 -9999 -9999 -9999 -9999 -9999 -9999 -9999 -9999 -9999 -9999 -9999 -9999 -9999 -9999 -9999 -9999 -9999 -9999 -9999 -9999 -9999 -9999 -9999 -9999 -9999 -9999 -9999 -9999 -9999 -9999 -9999 -9999 -9999 -9999 -9999 -9999 -9999 -9999 -9999 -9999 -9999 -9999 -9999 -9999 -9999 -9999 -9999 -9999 -9999 -9999 -9999 -9999 -9999 -9999 -9999 -9999 -9999 -9999 -9999 -9999 -9999 -9999 -9999 -9999 -9999 -9999 -9999 -9999 -9999 -9999 -9999 -9999 -9999 -9999 -9999 -9999 -9999 -9999 -9999 -9999 -9999 -9999 -9999 -9999 -9999 -9999 -9999 -9999 -9999 -9999 -9999 -9999 -9999 -9999 -9999 -9999 -9999 -9999 -9999 -9999 -9999 -9999 -9999 -9999 -9999 -9999 -9999 -9999 -9999 -9999 -9999 -9999 -9999 -9999 -9999 -9999 -9999 -9999 -9999 -9999 -9999 -9999 -9999 -9999 -9999 -9999 -9999 -9999 -9999 -9999 -9999 -9999 -9999 -9999 -9999 -9999 -9999 -9999 -9999 -9999 -9999 -9999 -9999 -9999 -9999 -9999 -9999 -9999 -9999 -9999 4.03659849300323 -9999 -9999 4.03659849300323 4.03659849300323 -9999 4.03659849300323 0 0 19.0562613430127 19.0562613430127 19.0562613430127 4.34782608695652 21.1416490486258 21.1416490486258 8.31946755407654 8.31946755407654 0 0 7.26141078838174 7.26141078838174 18.6440677966102 25 25 25 43.1547619047619 43.1547619047619 23.168908819133 23.168908819133 23.168908819133 30.5466237942122 20.6185567010309 20.6185567010309 30.3398058252427 30.3398058252427 20.6185567010309 20.6185567010309 20.6185567010309 20.6185567010309 20.6185567010309 20.6185567010309 44.5205479452055 0 0 0 0 0 0 0 0 0 0 0 0 0 0 0 0 0 0 0 0 0 0 0 0 0 0 0 0 0 0 0 0 0 0 0 0 0 0 0 0 4.34782608695652 4.34782608695652 4.34782608695652 4.34782608695652 4.34782608695652 4.34782608695652 4.34782608695652 4.34782608695652 4.34782608695652 4.34782608695652 6.27615062761506 6.27615062761506 0 0 0 0 0 0 0 0 0 0 -9999 -9999 -9999 -9999 -9999 -9999 -9999 -9999 -9999 -9999 -9999 -9999
-9999 -9999 -9999 -9999 -9999 -9999 -9999 -9999 -9999 -9999 -9999 -9999 -9999 -9999 -9999 -9999 -9999 -9999 -9999 -9999 -9999 -9999 -9999 -9999 -9999 -9999 -9999 -9999 -9999 -9999 -9999 -9999 -9999 -9999 -9999 -9999 -9999 -9999 -9999 -9999 -9999 -9999 -9999 -9999 -9999 -9999 -9999 -9999 -9999 -9999 -9999 -9999 -9999 -9999 -9999 -9999 -9999 -9999 -9999 -9999 -9999 -9999 -9999 -9999 -9999 -9999 -9999 -9999 -9999 -9999 -9999 -9999 -9999 -9999 -9999 -9999 -9999 -9999 -9999 -9999 -9999 -9999 -9999 -9999 -9999 -9999 -9999 -9999 -9999 -9999 -9999 -9999 -9999 -9999 -9999 -9999 -9999 -9999 -9999 -9999 -9999 -9999 -9999 -9999 -9999 -9999 -9999 -9999 -9999 -9999 -9999 -9999 -9999 -9999 -9999 -9999 -9999 -9999 -9999 -9999 -9999 -9999 -9999 -9999 -9999 -9999 -9999 -9999 -9999 -9999 -9999 -9999 -9999 -9999 -9999 -9999 -9999 -9999 -9999 -9999 -9999 -9999 -9999 -9999 -9999 -9999 -9999 -9999 -9999 -9999 -9999 -9999 -9999 -9999 -9999 -9999 -9999 -9999 -9999 -9999 -9999 -9999 -9999 -9999 -9999 -9999 -9999 -9999 -9999 -9999 -9999 -9999 -9999 -9999 -9999 -9999 -9999 -9999 -9999 -9999 -9999 -9999 -9999 -9999 -9999 -9999 -9999 -9999 -9999 -9999 -9999 -9999 -9999 -9999 -9999 -9999 -9999 -9999 -9999 -9999 -9999 -9999 -9999 -9999 -9999 -9999 -9999 -9999 -9999 -9999 -9999 -9999 -9999 -9999 -9999 -9999 -9999 -9999 -9999 -9999 -9999 -9999 -9999 -9999 -9999 -9999 -9999 -9999 -9999 -9999 -9999 -9999 -9999 -9999 -9999 -9999 -9999 -9999 -9999 -9999 -9999 -9999 -9999 -9999 -9999 -9999 -9999 -9999 -9999 -9999 -9999 -9999 -9999 -9999 -9999 -9999 -9999 -9999 -9999 -9999 -9999 -9999 -9999 -9999 -9999 -9999 -9999 -9999 -9999 -9999 -9999 -9999 -9999 -9999 -9999 -9999 -9999 -9999 -9999 -9999 -9999 -9999 -9999 -9999 -9999 -9999 -9999 -9999 -9999 -9999 -9999 -9999 -9999 -9999 -9999 -9999 -9999 -9999 4.03659849300323 4.03659849300323 4.03659849300323 4.03659849300323 4.03659849300323 -9999 4.03659849300323 0 0 0 0 19.0562613430127 22.3097112860892 21.1416490486258 8.31946755407654 8.31946755407654 17.7083333333333 17.7083333333333 8.31946755407654 0 7.26141078838174 14.5278450363196 14.5278450363196 25 25 25 25 26.2054507337526 26.2054507337526 23.168908819133 23.168908819133 23.168908819133 24.7058823529412 20.6185567010309 20.6185567010309 20.6185567010309 20.6185567010309 20.6185567010309 20.6185567010309 20.6185567010309 20.6185567010309 0 0 0 0 0 0 0 0 0 0 0 0 0 0 0 0 0 0 0 0 0 0 0 0 0 0 0 0 0 0 0 0 0 0 0 0 0 0 0 0 0 0 0 0 0 0 0 0 4.34782608695652 4.34782608695652 4.34782608695652 6.27615062761506 6.27615062761506 6.27615062761506 0 0 0 0 0 0 0 0 0 0 -9999 -9999 -9999 -9999 -9999 -9999 -9999 -9999 -9999 -9999 -9999 -9999
-9999 -9999 -9999 -9999 -9999 -9999 -9999 -9999 -9999 -9999 -9999 -9999 -9999 -9999 -9999 -9999 -9999 -9999 -9999 -9999 -9999 -9999 -9999 -9999 -9999 -9999 -9999 -9999 -9999 -9999 -9999 -9999 -9999 -9999 -9999 -9999 -9999 -9999 -9999 -9999 -9999 -9999 -9999 -9999 -9999 -9999 -9999 -9999 -9999 -9999 -9999 -9999 -9999 -9999 -9999 -9999 -9999 -9999 -9999 -9999 -9999 -9999 -9999 -9999 -9999 -9999 -9999 -9999 -9999 -9999 -9999 -9999 -9999 -9999 -9999 -9999 -9999 -9999 -9999 -9999 -9999 -9999 -9999 -9999 -9999 -9999 -9999 -9999 -9999 -9999 -9999 -9999 -9999 -9999 -9999 -9999 -9999 -9999 -9999 -9999 -9999 -9999 -9999 -9999 -9999 -9999 -9999 -9999 -9999 -9999 -9999 -9999 -9999 -9999 -9999 -9999 -9999 -9999 -9999 -9999 -9999 -9999 -9999 -9999 -9999 -9999 -9999 -9999 -9999 -9999 -9999 -9999 -9999 -9999 -9999 -9999 -9999 -9999 -9999 -9999 -9999 -9999 -9999 -9999 -9999 -9999 -9999 -9999 -9999 -9999 -9999 -9999 -9999 -9999 -9999 -9999 -9999 -9999 -9999 -9999 -9999 -9999 -9999 -9999 -9999 -9999 -9999 -9999 -9999 -9999 -9999 -9999 -9999 -9999 -9999 -9999 -9999 -9999 -9999 -9999 -9999 -9999 -9999 -9999 -9999 -9999 -9999 -9999 -9999 -9999 -9999 -9999 -9999 -9999 -9999 -9999 -9999 -9999 -9999 -9999 -9999 -9999 -9999 -9999 -9999 -9999 -9999 -9999 -9999 -9999 -9999 -9999 -9999 -9999 -9999 -9999 -9999 -9999 -9999 -9999 -9999 -9999 -9999 -9999 -9999 -9999 -9999 -9999 -9999 -9999 -9999 -9999 -9999 -9999 -9999 -9999 -9999 -9999 -9999 -9999 -9999 -9999 -9999 -9999 -9999 -9999 -9999 -9999 -9999 -9999 -9999 -9999 -9999 -9999 -9999 -9999 -9999 -9999 -9999 -9999 -9999 -9999 -9999 -9999 -9999 -9999 -9999 -9999 -9999 -9999 -9999 -9999 -9999 -9999 -9999 -9999 -9999 -9999 -9999 -9999 -9999 -9999 -9999 -9999 -9999 -9999 -9999 -9999 -9999 -9999 -9999 -9999 -9999 -9999 -9999 -9999 -9999 -9999 -9999 -9999 -9999 -9999 -9999 27.3348519362187 27.3348519362187 7.27650727650728 0 0 4.83675937122128 4.83675937122128 22.3097112860892 22.3097112860892 21.1416490486258 17.7083333333333 17.7083333333333 17.7083333333333 17.7083333333333 12.9740518962076 0 14.5278450363196 14.5278450363196 14.5278450363196 14.5278450363196 14.5278450363196 26.2054507337526 26.2054507337526 19.6304849884527 19.6304849884527 19.6304849884527 24.7058823529412 24.7058823529412 24.7058823529412 20.6185567010309 20.6185567010309 20.6185567010309 20.6185567010309 20.6185567010309 20.6185567010309 0 0 0 0 0 0 0 0 0 0 0 0 0 0 0 0 0 0 0 0 0 0 0 0 0 0 0 0 0 0 0 0 0 0 0 0 0 0 0 0 0 0 0 0 0 0 0 0 0 0 0 0 0 0 0 0 0 0 0 0 0 0 0 0 -9999 -9999 -9999 -9999 -9999 -9999 -9999 -9999 -9999 -9999 -9999 -9999 -9999
-9999 -9999 -9999 -9999 -9999 -9999 -9999 -9999 -9999 -9999 -9999 -9999 -9999 -9999 -9999 -9999 -9999 -9999 -9999 -9999 -9999 -9999 -9999 -9999 -9999 -9999 -9999 -9999 -9999 -9999 -9999 -9999 -9999 -9999 -9999 -9999 -9999 -9999 -9999 -9999 -9999 -9999 -9999 -9999 -9999 -9999 -9999 -9999 -9999 -9999 -9999 -9999 -9999 -9999 -9999 -9999 -9999 -9999 -9999 -9999 -9999 -9999 -9999 -9999 -9999 -9999 -9999 -9999 -9999 -9999 -9999 -9999 -9999 -9999 -9999 -9999 -9999 -9999 -9999 -9999 -9999 -9999 -9999 -9999 -9999 -9999 -9999 -9999 -9999 -9999 -9999 -9999 -9999 -9999 -9999 -9999 -9999 -9999 -9999 -9999 -9999 -9999 -9999 -9999 -9999 -9999 -9999 -9999 -9999 -9999 -9999 -9999 -9999 -9999 -9999 -9999 -9999 -9999 -9999 -9999 -9999 -9999 -9999 -9999 -9999 -9999 -9999 -9999 -9999 -9999 -9999 -9999 -9999 -9999 -9999 -9999 -9999 -9999 -9999 -9999 -9999 -9999 -9999 -9999 -9999 -9999 -9999 -9999 -9999 -9999 -9999 -9999 -9999 -9999 -9999 -9999 -9999 -9999 -9999 -9999 -9999 -9999 -9999 -9999 -9999 -9999 -9999 -9999 -9999 -9999 -9999 -9999 -9999 -9999 -9999 -9999 -9999 -9999 -9999 -9999 -9999 -9999 -9999 -9999 -9999 -9999 -9999 -9999 -9999 -9999 -9999 -9999 -9999 -9999 -9999 -9999 -9999 -9999 -9999 -9999 -9999 -9999 -9999 -9999 -9999 -9999 -9999 -9999 -9999 -9999 -9999 -9999 -9999 -9999 -9999 -9999 -9999 -9999 -9999 -9999 -9999 -9999 -9999 -9999 -9999 -9999 -9999 -9999 -9999 -9999 -9999 -9999 -9999 -9999 -9999 -9999 -9999 -9999 -9999 -9999 -9999 -9999 -9999 -9999 -9999 -9999 -9999 -9999 -9999 -9999 -9999 -9999 -9999 -9999 -9999 -9999 -9999 -9999 -9999 -9999 -9999 -9999 -9999 -9999 -9999 -9999 -9999 -9999 -9999 -9999 -9999 -9999 -9999 -9999 -9999 -9999 -9999 -9999 -9999 -9999 -9999 -9999 -9999 -9999 -9999 -9999 -9999 -9999 -9999 -9999 -9999 -9999 -9999 -9999 -9999 -9999 -9999 -9999 -9999 -9999 4.03659849300323 4.03659849300323 27.3348519362187 27.3348519362187 27.3348519362187 7.27650727650728 24.232633279483 24.232633279483 4.83675937122128 4.83675937122128 4.83675937122128 22.3097112860892 22.3097112860892 21.1416490486258 17.7083333333333 14.0086206896552 14.0086206896552 12.9740518962076 12.9740518962076 0 14.5278450363196 0 14.5278450363196 19.2 19.2 19.2 26.2054507337526 19.6304849884527 19.2 19.2 19.2 20.6185567010309 20.6185567010309 20.6185567010309 20.6185567010309 20.6185567010309 8.43644544431946 8.43644544431946 8.43644544431946 8.43644544431946 0 0 0 0 0 0 0 0 0 0 0 0 0 0 0 0 0 0 0 0 0 0 0 0 0 0 0 0 0 0 0 0 0 0 0 0 0 0 0 0 0 0 0 0 0 0 0 0 0 0 0 0 0 0 0 0 0 0 0 0 0 0 -9999 -9999 -9999 -9999 -9999 -9999 -9999 -9999 -9999 -9999 -9999 -9999 -9999
-9999 -9999 -9999 -9999 -9999 -9999 -9999 -9999 -9999 -9999 -9999 -9999 -9999 -9999 -9999 -9999 -9999 -9999 -9999 -9999 -9999 -9999 -9999 -9999 -9999 -9999 -9999 -9999 -9999 -9999 -9999 -9999 -9999 -9999 -9999 -9999 -9999 -9999 -9999 -9999 -9999 -9999 -9999 -9999 -9999 -9999 -9999 -9999 -9999 -9999 -9999 -9999 -9999 -9999 -9999 -9999 -9999 -9999 -9999 -9999 -9999 -9999 -9999 -9999 -9999 -9999 -9999 -9999 -9999 -9999 -9999 -9999 -9999 -9999 -9999 -9999 -9999 -9999 -9999 -9999 -9999 -9999 -9999 -9999 -9999 -9999 -9999 -9999 -9999 -9999 -9999 -9999 -9999 -9999 -9999 -9999 -9999 -9999 -9999 -9999 -9999 -9999 -9999 -9999 -9999 -9999 -9999 -9999 -9999 -9999 -9999 -9999 -9999 -9999 -9999 -9999 -9999 -9999 -9999 -9999 -9999 -9999 -9999 -9999 -9999 -9999 -9999 -9999 -9999 -9999 -9999 -9999 -9999 -9999 -9999 -9999 -9999 -9999 -9999 -9999 -9999 -9999 -9999 -9999 -9999 -9999 -9999 -9999 -9999 -9999 -9999 -9999 -9999 -9999 -9999 -9999 -9999 -9999 -9999 -9999 -9999 -9999 -9999 -9999 -9999 -9999 -9999 -9999 -9999 -9999 -9999 -9999 -9999 -9999 -9999 -9999 -9999 -9999 -9999 -9999 -9999 -9999 -9999 -9999 -9999 -9999 -9999 -9999 -9999 -9999 -9999 -9999 -9999 -9999 -9999 -9999 -9999 -9999 -9999 -9999 -9999 -9999 -9999 -9999 -9999 -9999 -9999 -9999 -9999 -9999 -9999 -9999 -9999 -9999 -9999 -9999 -9999 -9999 -9999 -9999 -9999 -9999 -9999 -9999 -9999 -9999 -9999 -9999 -9999 -9999 -9999 -9999 -9999 -9999 -9999 -9999 -9999 -9999 -9999 -9999 -9999 -9999 -9999 -9999 -9999 -9999 -9999 -9999 -9999 -9999 -9999 -9999 -9999 -9999 -9999 -9999 -9999 -9999 -9999 -9999 -9999 -9999 -9999 -9999 -9999 -9999 -9999 -9999 -9999 -9999 -9999 -9999 -9999 -9999 -9999 -9999 -9999 -9999 -9999 -9999 -9999 -9999 -9999 -9999 -9999 -9999 -9999 -9999 -9999 -9999 -9999 -9999 -9999 -9999 -9999 -9999 -9999 -9999 4.03659849300323 4.03659849300323 5.79470198675497 5.79470198675497 27.3348519362187 27.3348519362187 19.3798449612403 43.6046511627907 43.6046511627907 24.232633279483 24.232633279483 4.83675937122128 4.83675937122128 4.83675937122128 22.3097112860892 30.1953818827709 14.0086206896552 14.0086206896552 14.0086206896552 14.0086206896552 12.9740518962076 9.50118764845606 0 26.7686424474187 26.7686424474187 26.7686424474187 26.7686424474187 26.7686424474187 19.2 19.2 19.2 20.6185567010309 20.6185567010309 20.6185567010309 20.6185567010309 20.6185567010309 20.6185567010309 8.43644544431946 8.43644544431946 8.43644544431946 8.43644544431946 8.43644544431946 8.43644544431946 8.43644544431946 0 0 0 0 0 0 0 0 0 0 0 0 0 0 0 0 0 0 0 0 0 0 0 0 0 0 0 0 0 0 0 0 0 0 0 0 0 0 0 0 0 0 0 0 0 0 0 0 0 0 0 0 0 0 0 0 0 0 0 -9999 -9999 -9999 -9999 -9999 -9999 -9999 -9999 -9999 -9999 -9999 -9999 -9999 -9999
-9999 -9999 -9999 -9999 -9999 -9999 -9999 -9999 -9999 -9999 -9999 -9999 -9999 -9999 -9999 -9999 -9999 -9999 -9999 -9999 -9999 -9999 -9999 -9999 -9999 -9999 -9999 -9999 -9999 -9999 -9999 -9999 -9999 -9999 -9999 -9999 -9999 -9999 -9999 -9999 -9999 -9999 -9999 -9999 -9999 -9999 -9999 -9999 -9999 -9999 -9999 -9999 -9999 -9999 -9999 -9999 -9999 -9999 -9999 -9999 -9999 -9999 -9999 -9999 -9999 -9999 -9999 -9999 -9999 -9999 -9999 -9999 -9999 -9999 -9999 -9999 -9999 -9999 -9999 -9999 -9999 -9999 -9999 -9999 -9999 -9999 -9999 -9999 -9999 -9999 -9999 -9999 -9999 -9999 -9999 -9999 -9999 -9999 -9999 -9999 -9999 -9999 -9999 -9999 -9999 -9999 -9999 -9999 -9999 -9999 -9999 -9999 -9999 -9999 -9999 -9999 -9999 -9999 -9999 -9999 -9999 -9999 -9999 -9999 -9999 -9999 -9999 -9999 -9999 -9999 -9999 -9999 -9999 -9999 -9999 -9999 -9999 -9999 -9999 -9999 -9999 -9999 -9999 -9999 -9999 -9999 -9999 -9999 -9999 -9999 -9999 -9999 -9999 -9999 -9999 -9999 -9999 -9999 -9999 -9999 -9999 -9999 -9999 -9999 -9999 -9999 -9999 -9999 -9999 -9999 -9999 -9999 -9999 -9999 -9999 -9999 -9999 -9999 -9999 -9999 -9999 -9999 -9999 -9999 -9999 -9999 -9999 -9999 -9999 -9999 -9999 -9999 -9999 -9999 -9999 -9999 -9999 -9999 -9999 -9999 -9999 -9999 -9999 -9999 -9999 -9999 -9999 -9999 -9999 -9999 -9999 -9999 -9999 -9999 -9999 -9999 -9999 -9999 -9999 -9999 -9999 -9999 -9999 -9999 -9999 -9999 -9999 -9999 -9999 -9999 -9999 -9999 -9999 -9999 -9999 -9999 -9999 -9999 -9999 -9999 -9999 -9999 -9999 -9999 -9999 -9999 -9999 -9999 -9999 -9999 -9999 -9999 -9999 -9999 -9999 -9999 -9999 -9999 -9999 -9999 -9999 -9999 -9999 -9999 -9999 -9999 -9999 -9999 -9999 -9999 -9999 -9999 -9999 -9999 -9999 -9999 -9999 -9999 -9999 -9999 -9999 -9999 -9999 -9999 -9999 -9999 -9999 -9999 -9999 -9999 -9999 -9999 -9999 -9999 -9999 4.03659849300323 4.03659849300323 4.03659849300323 5.79470198675497 5.79470198675497 5.79470198675497 5.79470198675497 5.79470198675497 19.3798449612403 19.3798449612403 42.2163588390501 43.6046511627907 43.6046511627907 24.232633279483 24.232633279483 4.83675937122128 6.16438356164384 6.16438356164384 30.1953818827709 30.1953818827709 14.0086206896552 30.1953818827709 9.50118764845606 9.50118764845606 9.50118764845606 14.8148148148148 26.7686424474187 26.7686424474187 26.7686424474187 26.7686424474187 26.7686424474187 26.7686424474187 20.6185567010309 20.6185567010309 20.6185567010309 20.6185567010309 20.6185567010309 20.6185567010309 8.43644544431946 8.43644544431946 8.43644544431946 8.43644544431946 8.43644544431946 8.43644544431946 8.43644544431946 8.43644544431946 8.43644544431946 8.43644544431946 8.43644544431946 0 0 0 0 0 0 0 0 0 0 0 0 0 0 0 0 0 0 0 0 0 0 0 0 0 0 0 0 0 0 0 0 0 0 0 0 0 0 0 0 0 0 0 0 0 0 0 0 0 0 0 0 0 0 0 0 0 -9999 -9999 -9999 -9999 -9999 -9999 -9999 -9999 -9999 -9999 -9999 -9999 -9999 -9999
-9999 -9999 -9999 -9999 -9999 -9999 -9999 -9999 -9999 -9999 -9999 -9999 -9999 -9999 -9999 -9999 -9999 -9999 -9999 -9999 -9999 -9999 -9999 -9999 -9999 -9999 -9999 -9999 -9999 -9999 -9999 -9999 -9999 -9999 -9999 -9999 -9999 -9999 -9999 -9999 -9999 -9999 -9999 -9999 -9999 -9999 -9999 -9999 -9999 -9999 -9999 -9999 -9999 -9999 -9999 -9999 -9999 -9999 -9999 -9999 -9999 -9999 -9999 -9999 -9999 -9999 -9999 -9999 -9999 -9999 -9999 -9999 -9999 -9999 -9999 -9999 -9999 -9999 -9999 -9999 -9999 -9999 -9999 -9999 -9999 -9999 -9999 -9999 -9999 -9999 -9999 -9999 -9999 -9999 -9999 -9999 -9999 -9999 -9999 -9999 -9999 -9999 -9999 -9999 -9999 -9999 -9999 -9999 -9999 -9999 -9999 -9999 -9999 -9999 -9999 -9999 -9999 -9999 -9999 -9999 -9999 -9999 -9999 -9999 -9999 -9999 -9999 -9999 -9999 -9999 -9999 -9999 -9999 -9999 -9999 -9999 -9999 -9999 -9999 -9999 -9999 -9999 -9999 -9999 -9999 -9999 -9999 -9999 -9999 -9999 -9999 -9999 -9999 -9999 -9999 -9999 -9999 -9999 -9999 -9999 -9999 -9999 -9999 -9999 -9999 -9999 -9999 -9999 -9999 -9999 -9999 -9999 -9999 -9999 -9999 -9999 -9999 -9999 -9999 -9999 -9999 -9999 -9999 -9999 -9999 -9999 -9999 -9999 -9999 -9999 -9999 -9999 -9999 -9999 -9999 -9999 -9999 -9999 -9999 -9999 -9999 -9999 -9999 -9999 -9999 -9999 -9999 -9999 -9999 -9999 -9999 -9999 -9999 -9999 -9999 -9999 -9999 -9999 -9999 -9999 -9999 -9999 -9999 -9999 -9999 -9999 -9999 -9999 -9999 -9999 -9999 -9999 -9999 -9999 -9999 -9999 -9999 -9999 -9999 -9999 -9999 -9999 -9999 -9999 -9999 -9999 -9999 -9999 -9999 -9999 -9999 -9999 -9999 -9999 -9999 -9999 -9999 -9999 -9999 -9999 -9999 -9999 -9999 -9999 -9999 -9999 -9999 -9999 -9999 -9999 -9999 -9999 -9999 -9999 -9999 -9999 -9999 -9999 -9999 -9999 -9999 -9999 -9999 -9999 -9999 -9999 -9999 -9999 -9999 -9999 -9999 -9999 -9999 -9999 -9999 4.03659849300323 5.69259962049336 5.69259962049336 5.79470198675497 5.79470198675497 5.79470198675497 5.79470198675497 -9999 -9999 19.3798449612403 19.3798449612403 42.2163588390501 42.2163588390501 43.6046511627907 11.8715083798883 11.8715083798883 6.16438356164384 6.16438356164384 6.16438356164384 30.1953818827709 30.1953818827709 30.1953818827709 30.1953818827709 9.50118764845606 16.5929203539823 14.8148148148148 14.8148148148148 14.8148148148148 26.7686424474187 26.7686424474187 26.7686424474187 26.7686424474187 20.6185567010309 20.6185567010309 20.6185567010309 20.6185567010309 20.6185567010309 8.43644544431946 8.43644544431946 8.43644544431946 8.43644544431946 8.43644544431946 8.43644544431946 8.43644544431946 8.43644544431946 8.43644544431946 8.43644544431946 8.43644544431946 8.43644544431946 8.43644544431946 8.43644544431946 8.43644544431946 0 0 0 0 0 0 0 0 0 0 0 0 0 0 0 0 0 0 0 0 0 0 0 0 0 0 0 0 0 0 0 0 0 0 0 0 0 0 0 0 0 0 0 0 0 0 0 0 0 0 0 0 -9999 -9999 -9999 -9999 -9999 -9999 -9999 -9999 -9999 -9999 -9999 -9999 -9999 -9999 -9999 -9999
-9999 -9999 -9999 -9999 -9999 -9999 -9999 -9999 -9999 -9999 -9999 -9999 -9999 -9999 -9999 -9999 -9999 -9999 -9999 -9999 -9999 -9999 -9999 -9999 -9999 -9999 -9999 -9999 -9999 -9999 -9999 -9999 -9999 -9999 -9999 -9999 -9999 -9999 -9999 -9999 -9999 -9999 -9999 -9999 -9999 -9999 -9999 -9999 -9999 -9999 -9999 -9999 -9999 -9999 -9999 -9999 -9999 -9999 -9999 -9999 -9999 -9999 -9999 -9999 -9999 -9999 -9999 -9999 -9999 -9999 -9999 -9999 -9999 -9999 -9999 -9999 -9999 -9999 -9999 -9999 -9999 -9999 -9999 -9999 -9999 -9999 -9999 -9999 -9999 -9999 -9999 -9999 -9999 -9999 -9999 -9999 -9999 -9999 -9999 -9999 -9999 -9999 -9999 -9999 -9999 -9999 -9999 -9999 -9999 -9999 -9999 -9999 -9999 -9999 -9999 -9999 -9999 -9999 -9999 -9999 -9999 -9999 -9999 -9999 -9999 -9999 -9999 -9999 -9999 -9999 -9999 -9999 -9999 -9999 -9999 -9999 -9999 -9999 -9999 -9999 -9999 -9999 -9999 -9999 -9999 -9999 -9999 -9999 -9999 -9999 -9999 -9999 -9999 -9999 -9999 -9999 -9999 -9999 -9999 -9999 -9999 -9999 -9999 -9999 -9999 -9999 -9999 -9999 -9999 -9999 -9999 -9999 -9999 -9999 -9999 -9999 -9999 -9999 -9999 -9999 -9999 -9999 -9999 -9999 -9999 -9999 -9999 -9999 -9999 -9999 -9999 -9999 -9999 -9999 -9999 -9999 -9999 -9999 -9999 -9999 -9999 -9999 -9999 -9999 -9999 -9999 -9999 -9999 -9999 -9999 -9999 -9999 -9999 -9999 -9999 -9999 -9999 -9999 -9999 -9999 -9999 -9999 -9999 -9999 -9999 -9999 -9999 -9999 -9999 -9999 -9999 -9999 -9999 -9999 -9999 -9999 -9999 -9999 -9999 -9999 -9999 -9999 -9999 -9999 -9999 -9999 -9999 -9999 -9999 -9999 -9999 -9999 -9999 -9999 -9999 -9999 -9999 -9999 -9999 -9999 -9999 -9999 -9999 -9999 -9999 -9999 -9999 -9999 -9999 -9999 -9999 -9999 -9999 -9999 -9999 -9999 -9999 -9999 -9999 -9999 -9999 -9999 -9999 -9999 -9999 -9999 -9999 -9999 -9999 -9999 -9999 -9999 -9999 -9999 7.17488789237668 -9999 5.69259962049336 5.69259962049336 5.69259962049336 5.79470198675497 5.79470198675497 -9999 -9999 -9999 -9999 19.3798449612403 19.3798449612403 42.2163588390501 42.2163588390501 11.8715083798883 11.8715083798883 11.8715083798883 6.16438356164384 11.8715083798883 11.8715083798883 30.1953818827709 30.1953818827709 30.5164319248826 16.5929203539823 16.5929203539823 16.5929203539823 14.8148148148148 8.83575883575884 8.83575883575884 26.7686424474187 26.7686424474187 26.7686424474187 26.7686424474187 20.6185567010309 20.6185567010309 20.6185567010309 8.43644544431946 8.43644544431946 8.43644544431946 8.43644544431946 8.43644544431946 8.43644544431946 8.43644544431946 8.43644544431946 8.43644544431946 8.43644544431946 8.43644544431946 8.43644544431946 8.43644544431946 8.43644544431946 8.43644544431946 8.43644544431946 8.43644544431946 8.43644544431946 0 0 0 0 0 0 0 0 0 0 0 0 0 0 0 0 0 0 0 0 0 0 0 0 0 0 0 0 0 0 0 0 0 0 0 0 0 0 0 0 0 0 0 0 0 0 0 0 0 -9999 -9999 -9999 -9999 -9999 -9999 -9999 -9999 -9999 -9999 -9999 -9999 -9999 -9999 -9999 -9999 -9999
-9999 -9999 -9999 -9999 -9999 -9999 -9999 -9999 -9999 -9999 -9999 -9999 -9999 -9999 -9999 -9999 -9999 -9999 -9999 -9999 -9999 -9999 -9999 -9999 -9999 -9999 -9999 -9999 -9999 -9999 -9999 -9999 -9999 -9999 -9999 -9999 -9999 -9999 -9999 -9999 -9999 -9999 -9999 -9999 -9999 -9999 -9999 -9999 -9999 -9999 -9999 -9999 -9999 -9999 -9999 -9999 -9999 -9999 -9999 -9999 -9999 -9999 -9999 -9999 -9999 -9999 -9999 -9999 -9999 -9999 -9999 -9999 -9999 -9999 -9999 -9999 -9999 -9999 -9999 -9999 -9999 -9999 -9999 -9999 -9999 -9999 -9999 -9999 -9999 -9999 -9999 -9999 -9999 -9999 -9999 -9999 -9999 -9999 -9999 -9999 -9999 -9999 -9999 -9999 -9999 -9999 -9999 -9999 -9999 -9999 -9999 -9999 -9999 -9999 -9999 -9999 -9999 -9999 -9999 -9999 -9999 -9999 -9999 -9999 -9999 -9999 -9999 -9999 -9999 -9999 -9999 -9999 -9999 -9999 -9999 -9999 -9999 -9999 -9999 -9999 -9999 -9999 -9999 -9999 -9999 -9999 -9999 -9999 -9999 -9999 -9999 -9999 -9999 -9999 -9999 -9999 -9999 -9999 -9999 -9999 -9999 -9999 -9999 -9999 -9999 -9999 -9999 -9999 -9999 -9999 -9999 -9999 -9999 -9999 -9999 -9999 -9999 -9999 -9999 -9999 -9999 -9999 -9999 -9999 -9999 -9999 -9999 -9999 -9999 -9999 -9999 -9999 -9999 -9999 -9999 -9999 -9999 -9999 -9999 -9999 -9999 -9999 -9999 -9999 -9999 -9999 -9999 -9999 -9999 -9999 -9999 -9999 -9999 -9999 -9999 -9999 -9999 -9999 -9999 -9999 -9999 -9999 -9999 -9999 -9999 -9999 -9999 -9999 -9999 -9999 -9999 -9999 -9999 -9999 -9999 -9999 -9999 -9999 -9999 -9999 -9999 -9999 -9999 -9999 -9999 -9999 -9999 -9999 -9999 -9999 -9999 -9999 -9999 -9999 -9999 -9999 -9999 -9999 -9999 -9999 -9999 -9999 -9999 -9999 -9999 -9999 -9999 -9999 -9999 -9999 -9999 -9999 -9999 -9999 -9999 -9999 -9999 -9999 -9999 -9999 -9999 -9999 -9999 -9999 -9999 -9999 -9999 -9999 -9999 -9999 -9999 -9999 7.17488789237668 7.17488789237668 -9999 -9999 -9999 -9999 5.69259962049336 -9999 -9999 -9999 -9999 -9999 -9999 -9999 37.3831775700935 37.3831775700935 42.2163588390501 42.2163588390501 42.2163588390501 28.0797101449275 11.8715083798883 11.8715083798883 11.8715083798883 30.1953818827709 30.5164319248826 30.5164319248826 30.5164319248826 16.5929203539823 16.5929203539823 30.5164319248826 8.83575883575884 8.83575883575884 8.83575883575884 26.7686424474187 26.7686424474187 26.7686424474187 26.7686424474187 8.43644544431946 8.43644544431946 8.43644544431946 8.43644544431946 8.43644544431946 8.43644544431946 8.43644544431946 8.43644544431946 8.43644544431946 8.43644544431946 8.43644544431946 8.43644544431946 8.43644544431946 8.43644544431946 8.43644544431946 8.43644544431946 8.43644544431946 8.43644544431946 8.43644544431946 8.43644544431946 8.43644544431946 8.43644544431946 8.43644544431946 0 0 0 0 0 0 0 0 0 0 0 0 0 0 0 0 0 0 0 0 0 0 0 0 0 0 0 0 0 0 0 0 0 0 0 0 0 0 0 0 0 0 0 0 0 0 0 -9999 -9999 -9999 -9999 -9999 -9999 -9999 -9999 -9999 -9999 -9999 -9999 -9999 -9999 -9999 -9999
-9999 -9999 -9999 -9999 -9999 -9999 -9999 -9999 -9999 -9999 -9999 -9999 -9999 -9999 -9999 -9999 -9999 -9999 -9999 -9999 -9999 -9999 -9999 -9999 -9999 -9999 -9999 -9999 -9999 -9999 -9999 -9999 -9999 -9999 -9999 -9999 -9999 -9999 -9999 -9999 -9999 -9999 -9999 -9999 -9999 -9999 -9999 -9999 -9999 -9999 -9999 -9999 -9999 -9999 -9999 -9999 -9999 -9999 -9999 -9999 -9999 -9999 -9999 -9999 -9999 -9999 -9999 -9999 -9999 -9999 -9999 -9999 -9999 -9999 -9999 -9999 -9999 -9999 -9999 -9999 -9999 -9999 -9999 -9999 -9999 -9999 -9999 -9999 -9999 -9999 -9999 -9999 -9999 -9999 -9999 -9999 -9999 -9999 -9999 -9999 -9999 -9999 -9999 -9999 -9999 -9999 -9999 -9999 -9999 -9999 -9999 -9999 -9999 -9999 -9999 -9999 -9999 -9999 -9999 -9999 -9999 -9999 -9999 -9999 -9999 -9999 -9999 -9999 -9999 -9999 -9999 -9999 -9999 -9999 -9999 -9999 -9999 -9999 -9999 -9999 -9999 -9999 -9999 -9999 -9999 -9999 -9999 -9999 -9999 -9999 -9999 -9999 -9999 -9999 -9999 -9999 -9999 -9999 -9999 -9999 -9999 -9999 -9999 -9999 -9999 -9999 -9999 -9999 -9999 -9999 -9999 -9999 -9999 -9999 -9999 -9999 -9999 -9999 -9999 -9999 -9999 -9999 -9999 -9999 -9999 -9999 -9999 -9999 -9999 -9999 -9999 -9999 -9999 -9999 -9999 -9999 -9999 -9999 -9999 -9999 -9999 -9999 -9999 -9999 -9999 -9999 -9999 -9999 -9999 -9999 -9999 -9999 -9999 -9999 -9999 -9999 -9999 -9999 -9999 -9999 -9999 -9999 -9999 -9999 -9999 -9999 -9999 -9999 -9999 -9999 -9999 -9999 -9999 -9999 -9999 -9999 -9999 -9999 -9999 -9999 -9999 -9999 -9999 -9999 -9999 -9999 -9999 -9999 -9999 -9999 -9999 -9999 -9999 -9999 -9999 -9999 -9999 -9999 -9999 -9999 -9999 -9999 -9999 -9999 -9999 -9999 -9999 -9999 -9999 -9999 -9999 -9999 -9999 -9999 -9999 -9999 -9999 -9999 -9999 -9999 -9999 -9999 -9999 -9999 -9999 -9999 -9999 -9999 -9999 -9999 -9999 7.17488789237668 -9999 -9999 -9999 -9999 -9999 -9999 5.45171339563863 -9999 -9999 -9999 -9999 -9999 -9999 -9999 -9999 37.3831775700935 37.3831775700935 28.0797101449275 28.0797101449275 28.0797101449275 11.8715083798883 11.8715083798883 8.83575883575884 8.83575883575884 30.5164319248826 30.5164319248826 30.5164319248826 30.5164319248826 30.5164319248826 30.5164319248826 8.83575883575884 8.83575883575884 8.83575883575884 8.83575883575884 8.83575883575884 26.7686424474187 8.43644544431946 8.43644544431946 8.43644544431946 8.43644544431946 8.43644544431946 8.43644544431946 8.43644544431946 8.43644544431946 8.43644544431946 8.43644544431946 8.43644544431946 8.43644544431946 8.43644544431946 8.43644544431946 8.43644544431946 8.43644544431946 8.43644544431946 8.43644544431946 8.43644544431946 8.43644544431946 8.43644544431946 8.43644544431946 8.43644544431946 8.43644544431946 8.43644544431946 0 0 0 0 0 0 0 0 0 0 0 0 0 0 0 0 0 0 0 0 0 0 0 0 0 0 0 0 0 0 0 0 0 0 0 0 0 0 0 0 0 0 0 0 -9999 -9999 -9999 -9999 -9999 -9999 -9999 -9999 -9999 -9999 -9999 -9999 -9999 -9999 -9999 -9999 -9999 -9999
-9999 -9999 -9999 -9999 -9999 -9999 -9999 -9999 -9999 -9999 -9999 -9999 -9999 -9999 -9999 -9999 -9999 -9999 -9999 -9999 -9999 -9999 -9999 -9999 -9999 -9999 -9999 -9999 -9999 -9999 -9999 -9999 -9999 -9999 -9999 -9999 -9999 -9999 -9999 -9999 -9999 -9999 -9999 -9999 -9999 -9999 -9999 -9999 -9999 -9999 -9999 -9999 -9999 -9999 -9999 -9999 -9999 -9999 -9999 -9999 -9999 -9999 -9999 -9999 -9999 -9999 -9999 -9999 -9999 -9999 -9999 -9999 -9999 -9999 -9999 -9999 -9999 -9999 -9999 -9999 -9999 -9999 -9999 -9999 -9999 -9999 -9999 -9999 -9999 -9999 -9999 -9999 -9999 -9999 -9999 -9999 -9999 -9999 -9999 -9999 -9999 -9999 -9999 -9999 -9999 -9999 -9999 -9999 -9999 -9999 -9999 -9999 -9999 -9999 -9999 -9999 -9999 -9999 -9999 -9999 -9999 -9999 -9999 -9999 -9999 -9999 -9999 -9999 -9999 -9999 -9999 -9999 -9999 -9999 -9999 -9999 -9999 -9999 -9999 -9999 -9999 -9999 -9999 -9999 -9999 -9999 -9999 -9999 -9999 -9999 -9999 -9999 -9999 -9999 -9999 -9999 -9999 -9999 -9999 -9999 -9999 -9999 -9999 -9999 -9999 -9999 -9999 -9999 -9999 -9999 -9999 -9999 -9999 -9999 -9999 -9999 -9999 -9999 -9999 -9999 -9999 -9999 -9999 -9999 -9999 -9999 -9999 -9999 -9999 -9999 -9999 -9999 -9999 -9999 -9999 -9999 -9999 -9999 -9999 -9999 -9999 -9999 -9999 -9999 -9999 -9999 -9999 -9999 -9999 -9999 -9999 -9999 -9999 -9999 -9999 -9999 -9999 -9999 -9999 -9999 -9999 -9999 -9999 -9999 -9999 -9999 -9999 -9999 -9999 -9999 -9999 -9999 -9999 -9999 -9999 -9999 -9999 -9999 -9999 -9999 -9999 -9999 -9999 -9999 -9999 -9999 -9999 -9999 -9999 -9999 -9999 -9999 -9999 -9999 -9999 -9999 -9999 -9999 -9999 -9999 -9999 -9999 -9999 -9999 -9999 -9999 -9999 -9999 -9999 -9999 -9999 -9999 -9999 -9999 -9999 -9999 -9999 -9999 -9999 -9999 -9999 -9999 -9999 -9999 -9999 -9999 -9999 -9999 -9999 -9999 7.17488789237668 23.2558139534884 0 5.45171339563863 -9999 -9999 5.45171339563863 5.45171339563863 5.45171339563863 5.45171339563863 -9999 -9999 -9999 -9999 -9999 -9999 -9999 -9999 37.3831775700935 37.3831775700935 28.0797101449275 28.0797101449275 8.83575883575884 8.83575883575884 8.83575883575884 8.83575883575884 8.83575883575884 8.83575883575884 8.83575883575884 30.5164319248826 8.83575883575884 8.83575883575884 8.83575883575884 8.83575883575884 8.83575883575884 8.83575883575884 8.83575883575884 8.43644544431946 8.43644544431946 8.43644544431946 8.43644544431946 8.43644544431946 8.43644544431946 8.43644544431946 8.43644544431946 8.43644544431946 8.43644544431946 8.43644544431946 8.43644544431946 8.43644544431946 8.43644544431946 8.43644544431946 8.43644544431946 8.43644544431946 8.43644544431946 8.43644544431946 8.43644544431946 8.43644544431946 8.43644544431946 8.43644544431946 8.43644544431946 8.43644544431946 8.43644544431946 8.43644544431946 0 0 0 0 0 0 0 0 0 0 0 0 0 0 0 0 0 0 0 0 0 0 0 0 0 0 0 0 0 0 0 0 0 0 0 0 0 0 0 0 0 -9999 0 -9999 -9999 -9999 -9999 -9999 -9999 -9999 -9999 -9999 -9999 -9999 -9999 -9999 -9999 -9999 -9999 -9999 -9999
-9999 -9999 -9999 -9999 -9999 -9999 -9999 -9999 -9999 -9999 -9999 -9999 -9999 -9999 -9999 -9999 -9999 -9999 -9999 -9999 -9999 -9999 -9999 -9999 -9999 -9999 -9999 -9999 -9999 -9999 -9999 -9999 -9999 -9999 -9999 -9999 -9999 -9999 -9999 -9999 -9999 -9999 -9999 -9999 -9999 -9999 -9999 -9999 -9999 -9999 -9999 -9999 -9999 -9999 -9999 -9999 -9999 -9999 -9999 -9999 -9999 -9999 -9999 -9999 -9999 -9999 -9999 -9999 -9999 -9999 -9999 -9999 -9999 -9999 -9999 -9999 -9999 -9999 -9999 -9999 -9999 -9999 -9999 -9999 -9999 -9999 -9999 -9999 -9999 -9999 -9999 -9999 -9999 -9999 -9999 -9999 -9999 -9999 -9999 -9999 -9999 -9999 -9999 -9999 -9999 -9999 -9999 -9999 -9999 -9999 -9999 -9999 -9999 -9999 -9999 -9999 -9999 -9999 -9999 -9999 -9999 -9999 -9999 -9999 -9999 -9999 -9999 -9999 -9999 -9999 -9999 -9999 -9999 -9999 -9999 -9999 -9999 -9999 -9999 -9999 -9999 -9999 -9999 -9999 -9999 -9999 -9999 -9999 -9999 -9999 -9999 -9999 -9999 -9999 -9999 -9999 -9999 -9999 -9999 -9999 -9999 -9999 -9999 -9999 -9999 -9999 -9999 -9999 -9999 -9999 -9999 -9999 -9999 -9999 -9999 -9999 -9999 -9999 -9999 -9999 -9999 -9999 -9999 -9999 -9999 -9999 -9999 -9999 -9999 -9999 -9999 -9999 -9999 -9999 -9999 -9999 -9999 -9999 -9999 -9999 -9999 -9999 -9999 -9999 -9999 -9999 -9999 -9999 -9999 -9999 -9999 -9999 -9999 -9999 -9999 -9999 -9999 -9999 -9999 -9999 -9999 -9999 -9999 -9999 -9999 -9999 -9999 -9999 -9999 -9999 -9999 -9999 -9999 -9999 -9999 -9999 -9999 -9999 -9999 -9999 -9999 -9999 -9999 -9999 -9999 -9999 -9999 -9999 -9999 -9999 -9999 -9999 -9999 -9999 -9999 -9999 -9999 -9999 -9999 -9999 -9999 -9999 -9999 -9999 -9999 -9999 -9999 -9999 -9999 -9999 -9999 -9999 -9999 -9999 -9999 -9999 -9999 -9999 -9999 -9999 -9999 -9999 -9999 -9999 -9999 -9999 -9999 -9999 7.17488789237668 23.2558139534884 23.2558139534884 0 0 0 5.45171339563863 5.45171339563863 5.45171339563863 5.45171339563863 5.45171339563863 5.45171339563863 5.45171339563863 -9999 -9999 -9999 -9999 -9999 -9999 -9999 -9999 37.3831775700935 -9999 8.83575883575884 8.83575883575884 8.83575883575884 8.83575883575884 8.83575883575884 8.83575883575884 8.83575883575884 8.83575883575884 8.83575883575884 8.83575883575884 8.83575883575884 8.83575883575884 8.83575883575884 8.83575883575884 8.43644544431946 8.43644544431946 8.43644544431946 8.43644544431946 8.43644544431946 8.43644544431946 8.43644544431946 8.43644544431946 8.43644544431946 8.43644544431946 8.43644544431946 8.43644544431946 8.43644544431946 8.43644544431946 8.43644544431946 8.43644544431946 8.43644544431946 8.43644544431946 8.43644544431946 8.43644544431946 8.43644544431946 8.43644544431946 8.43644544431946 8.43644544431946 8.43644544431946 8.43644544431946 8.43644544431946 8.43644544431946 0 0 0 0 0 0 0 0 0 0 0 0 0 0 0 0 0 0 0 0 0 0 0 0 0 0 0 0 0 0 0 0 0 0 0 0 0 0 0 0 0 -9999 -9999 -9999 -9999 -9999 -9999 -9999 -9999 -9999 -9999 -9999 -9999 -9999 -9999 -9999 -9999 -9999 -9999 -9999 -9999 -9999
-9999 -9999 -9999 -9999 -9999 -9999 -9999 -9999 -9999 -9999 -9999 -9999 -9999 -9999 -9999 -9999 -9999 -9999 -9999 -9999 -9999 -9999 -9999 -9999 -9999 -9999 -9999 -9999 -9999 -9999 -9999 -9999 -9999 -9999 -9999 -9999 -9999 -9999 -9999 -9999 -9999 -9999 -9999 -9999 -9999 -9999 -9999 -9999 -9999 -9999 -9999 -9999 -9999 -9999 -9999 -9999 -9999 -9999 -9999 -9999 -9999 -9999 -9999 -9999 -9999 -9999 -9999 -9999 -9999 -9999 -9999 -9999 -9999 -9999 -9999 -9999 -9999 -9999 -9999 -9999 -9999 -9999 -9999 -9999 -9999 -9999 -9999 -9999 -9999 -9999 -9999 -9999 -9999 -9999 -9999 -9999 -9999 -9999 -9999 -9999 -9999 -9999 -9999 -9999 -9999 -9999 -9999 -9999 -9999 -9999 -9999 -9999 -9999 -9999 -9999 -9999 -9999 -9999 -9999 -9999 -9999 -9999 -9999 -9999 -9999 -9999 -9999 -9999 -9999 -9999 -9999 -9999 -9999 -9999 -9999 -9999 -9999 -9999 -9999 -9999 -9999 -9999 -9999 -9999 -9999 -9999 -9999 -9999 -9999 -9999 -9999 -9999 -9999 -9999 -9999 -9999 -9999 -9999 -9999 -9999 -9999 -9999 -9999 -9999 -9999 -9999 -9999 -9999 -9999 -9999 -9999 -9999 -9999 -9999 -9999 -9999 -9999 -9999 -9999 -9999 -9999 -9999 -9999 -9999 -9999 -9999 -9999 -9999 -9999 -9999 -9999 -9999 -9999 -9999 -9999 -9999 -9999 -9999 -9999 -9999 -9999 -9999 -9999 -9999 -9999 -9999 -9999 -9999 -9999 -9999 -9999 -9999 -9999 -9999 -9999 -9999 -9999 -9999 -9999 -9999 -9999 -9999 -9999 -9999 -9999 -9999 -9999 -9999 -9999 -9999 -9999 -9999 -9999 -9999 -9999 -9999 -9999 -9999 -9999 -9999 -9999 -9999 -9999 -9999 -9999 -9999 -9999 -9999 -9999 -9999 -9999 -9999 -9999 -9999 -9999 -9999 -9999 -9999 -9999 -9999 -9999 -9999 -9999 -9999 -9999 -9999 -9999 -9999 -9999 -9999 -9999 -9999 -9999 -9999 -9999 -9999 -9999 -9999 -9999 -9999 -9999 -9999 -9999 -9999 -9999 -9999 -9999 23.6220472440945 23.6220472440945 23.6220472440945 23.2558139534884 23.2558139534884 0 0 3.01568154402895 12.0967741935484 5.45171339563863 5.45171339563863 5.45171339563863 5.45171339563863 3.8860103626943 3.8860103626943 -9999 -9999 -9999 -9999 -9999 -9999 -9999 -9999 -9999 -9999 8.83575883575884 8.83575883575884 8.83575883575884 8.83575883575884 8.83575883575884 8.83575883575884 8.83575883575884 8.83575883575884 8.83575883575884 8.83575883575884 8.83575883575884 8.83575883575884 8.43644544431946 8.43644544431946 8.43644544431946 8.43644544431946 8.43644544431946 8.43644544431946 8.43644544431946 8.43644544431946 8.43644544431946 8.43644544431946 8.43644544431946 8.43644544431946 8.43644544431946 8.43644544431946 8.43644544431946 8.43644544431946 8.43644544431946 8.43644544431946 8.43644544431946 8.43644544431946 8.43644544431946 8.43644544431946 8.43644544431946 8.43644544431946 8.43644544431946 8.43644544431946 8.43644544431946 8.43644544431946 0 0 0 0 0 0 0 0 0 0 0 0 0 0 0 0 0 0 0 0 0 0 0 0 0 0 0 0 0 0 0 0 0 0 0 0 0 0 0 0 0 0 0 -9999 -9999 -9999 -9999 -9999 -9999 -9999 -9999 -9999 -9999 -9999 -9999 -9999 -9999 -9999 -9999 -9999 -9999 -9999 -9999
-9999 -9999 -9999 -9999 -9999 -9999 -9999 -9999 -9999 -9999 -9999 -9999 -9999 -9999 -9999 -9999 -9999 -9999 -9999 -9999 -9999 -9999 -9999 -9999 -9999 -9999 -9999 -9999 -9999 -9999 -9999 -9999 -9999 -9999 -9999 -9999 -9999 -9999 -9999 -9999 -9999 -9999 -9999 -9999 -9999 -9999 -9999 -9999 -9999 -9999 -9999 -9999 -9999 -9999 -9999 -9999 -9999 -9999 -9999 -9999 -9999 -9999 -9999 -9999 -9999 -9999 -9999 -9999 -9999 -9999 -9999 -9999 -9999 -9999 -9999 -9999 -9999 -9999 -9999 -9999 -9999 -9999 -9999 -9999 -9999 -9999 -9999 -9999 -9999 -9999 -9999 -9999 -9999 -9999 -9999 -9999 -9999 -9999 -9999 -9999 -9999 -9999 -9999 -9999 -9999 -9999 -9999 -9999 -9999 -9999 -9999 -9999 -9999 -9999 -9999 -9999 -9999 -9999 -9999 -9999 -9999 -9999 -9999 -9999 -9999 -9999 -9999 -9999 -9999 -9999 -9999 -9999 -9999 -9999 -9999 -9999 -9999 -9999 -9999 -9999 -9999 -9999 -9999 -9999 -9999 -9999 -9999 -9999 -9999 -9999 -9999 -9999 -9999 -9999 -9999 -9999 -9999 -9999 -9999 -9999 -9999 -9999 -9999 -9999 -9999 -9999 -9999 -9999 -9999 -9999 -9999 -9999 -9999 -9999 -9999 -9999 -9999 -9999 -9999 -9999 -9999 -9999 -9999 -9999 -9999 -9999 -9999 -9999 -9999 -9999 -9999 -9999 -9999 -9999 -9999 -9999 -9999 -9999 -9999 -9999 -9999 -9999 -9999 -9999 -9999 -9999 -9999 -9999 -9999 -9999 -9999 -9999 -9999 -9999 -9999 -9999 -9999 -9999 -9999 -9999 -9999 -9999 -9999 -9999 -9999 -9999 -9999 -9999 -9999 -9999 -9999 -9999 -9999 -9999 -9999 -9999 -9999 -9999 -9999 -9999 -9999 -9999 -9999 -9999 -9999 -9999 -9999 -9999 -9999 -9999 -9999 -9999 -9999 -9999 -9999 -9999 -9999 -9999 -9999 -9999 -9999 -9999 -9999 -9999 -9999 -9999 -9999 -9999 -9999 -9999 -9999 -9999 -9999 -9999 -9999 -9999 -9999 -9999 -9999 -9999 -9999 -9999 -9999 -9999 -9999 -9999 28.2331511839709 28.2331511839709 23.6220472440945 23.6220472440945 23.6220472440945 0 3.01568154402895 0 0 5.49450549450549 12.0967741935484 5.45171339563863 5.45171339563863 3.8860103626943 3.8860103626943 3.8860103626943 3.8860103626943 -9999 -9999 -9999 -9999 -9999 -9999 -9999 -9999 -9999 -9999 8.83575883575884 8.83575883575884 8.83575883575884 8.83575883575884 8.83575883575884 8.83575883575884 8.83575883575884 8.83575883575884 8.83575883575884 8.43644544431946 8.43644544431946 8.43644544431946 8.43644544431946 8.43644544431946 8.43644544431946 8.43644544431946 8.43644544431946 8.43644544431946 8.43644544431946 8.43644544431946 8.43644544431946 8.43644544431946 8.43644544431946 8.43644544431946 8.43644544431946 8.43644544431946 8.43644544431946 8.43644544431946 8.43644544431946 8.43644544431946 8.43644544431946 8.43644544431946 8.43644544431946 8.43644544431946 8.43644544431946 8.43644544431946 8.43644544431946 8.43644544431946 8.43644544431946 0 0 0 0 0 0 0 0 0 0 0 0 0 0 0 0 0 0 0 0 0 0 0 0 0 0 0 0 0 0 0 0 0 0 0 0 0 0 0 0 0 0 -9999 -9999 -9999 -9999 -9999 -9999 -9999 -9999 -9999 -9999 -9999 -9999 -9999 -9999 -9999 -9999 -9999 -9999 -9999 -9999 -9999
-9999 -9999 -9999 -9999 -9999 -9999 -9999 -9999 -9999 -9999 -9999 -9999 -9999 -9999 -9999 -9999 -9999 -9999 -9999 -9999 -9999 -9999 -9999 -9999 -9999 -9999 -9999 -9999 -9999 -9999 -9999 -9999 -9999 -9999 -9999 -9999 -9999 -9999 -9999 -9999 -9999 -9999 -9999 -9999 -9999 -9999 -9999 -9999 -9999 -9999 -9999 -9999 -9999 -9999 -9999 -9999 -9999 -9999 -9999 -9999 -9999 -9999 -9999 -9999 -9999 -9999 -9999 -9999 -9999 -9999 -9999 -9999 -9999 -9999 -9999 -9999 -9999 -9999 -9999 -9999 -9999 -9999 -9999 -9999 -9999 -9999 -9999 -9999 -9999 -9999 -9999 -9999 -9999 -9999 -9999 -9999 -9999 -9999 -9999 -9999 -9999 -9999 -9999 -9999 -9999 -9999 -9999 -9999 -9999 -9999 -9999 -9999 -9999 -9999 -9999 -9999 -9999 -9999 -9999 -9999 -9999 -9999 -9999 -9999 -9999 -9999 -9999 -9999 -9999 -9999 -9999 -9999 -9999 -9999 -9999 -9999 -9999 -9999 -9999 -9999 -9999 -9999 -9999 -9999 -9999 -9999 -9999 -9999 -9999 -9999 -9999 -9999 -9999 -9999 -9999 -9999 -9999 -9999 -9999 -9999 -9999 -9999 -9999 -9999 -9999 -9999 -9999 -9999 -9999 -9999 -9999 -9999 -9999 -9999 -9999 -9999 -9999 -9999 -9999 -9999 -9999 -9999 -9999 -9999 -9999 -9999 -9999 -9999 -9999 -9999 -9999 -9999 -9999 -9999 -9999 -9999 -9999 -9999 -9999 -9999 -9999 -9999 -9999 -9999 -9999 -9999 -9999 -9999 -9999 -9999 -9999 -9999 -9999 -9999 -9999 -9999 -9999 -9999 -9999 -9999 -9999 -9999 -9999 -9999 -9999 -9999 -9999 -9999 -9999 -9999 -9999 -9999 -9999 -9999 -9999 -9999 -9999 -9999 -9999 -9999 -9999 -9999 -9999 -9999 -9999 -9999 -9999 -9999 -9999 -9999 -9999 -9999 -9999 -9999 -9999 -9999 -9999 -9999 -9999 -9999 -9999 -9999 -9999 -9999 -9999 -9999 -9999 -9999 -9999 -9999 -9999 -9999 -9999 -9999 -9999 -9999 -9999 -9999 -9999 -9999 -9999 -9999 -9999 -9999 7.17488789237668 28.2331511839709 28.2331511839709 28.2331511839709 28.2331511839709 23.6220472440945 0 3.28227571115974 0 0 0 0 0 0 3.8860103626943 3.8860103626943 3.8860103626943 3.8860103626943 3.8860103626943 3.8860103626943 -9999 -9999 -9999 -9999 -9999 -9999 -9999 -9999 -9999 -9999 8.83575883575884 8.83575883575884 8.83575883575884 8.83575883575884 8.83575883575884 8.83575883575884 8.83575883575884 8.43644544431946 8.43644544431946 8.43644544431946 8.43644544431946 8.43644544431946 8.43644544431946 8.43644544431946 8.43644544431946 8.43644544431946 8.43644544431946 8.43644544431946 8.43644544431946 8.43644544431946 8.43644544431946 8.43644544431946 8.43644544431946 8.43644544431946 8.43644544431946 8.43644544431946 8.43644544431946 8.43644544431946 8.43644544431946 8.43644544431946 8.43644544431946 8.43644544431946 8.43644544431946 8.43644544431946 8.43644544431946 8.43644544431946 8.43644544431946 0 0 0 0 0 0 0 0 0 0 0 0 0 0 0 0 0 0 0 0 0 0 0 0 0 0 0 0 0 0 0 0 0 0 0 0 0 0 0 0 0 0 -9999 -9999 -9999 -9999 -9999 -9999 -9999 -9999 -9999 -9999 -9999 -9999 -9999 -9999 -9999 -9999 -9999 -9999 -9999 -9999 -9999 -9999
-9999 -9999 -9999 -9999 -9999 -9999 -9999 -9999 -9999 -9999 -9999 -9999 -9999 -9999 -9999 -9999 -9999 -9999 -9999 -9999 -9999 -9999 -9999 -9999 -9999 -9999 -9999 -9999 -9999 -9999 -9999 -9999 -9999 -9999 -9999 -9999 -9999 -9999 -9999 -9999 -9999 -9999 -9999 -9999 -9999 -9999 -9999 -9999 -9999 -9999 -9999 -9999 -9999 -9999 -9999 -9999 -9999 -9999 -9999 -9999 -9999 -9999 -9999 -9999 -9999 -9999 -9999 -9999 -9999 -9999 -9999 -9999 -9999 -9999 -9999 -9999 -9999 -9999 -9999 -9999 -9999 -9999 -9999 -9999 -9999 -9999 -9999 -9999 -9999 -9999 -9999 -9999 -9999 -9999 -9999 -9999 -9999 -9999 -9999 -9999 -9999 -9999 -9999 -9999 -9999 -9999 -9999 -9999 -9999 -9999 -9999 -9999 -9999 -9999 -9999 -9999 -9999 -9999 -9999 -9999 -9999 -9999 -9999 -9999 -9999 -9999 -9999 -9999 -9999 -9999 -9999 -9999 -9999 -9999 -9999 -9999 -9999 -9999 -9999 -9999 -9999 -9999 -9999 -9999 -9999 -9999 -9999 -9999 -9999 -9999 -9999 -9999 -9999 -9999 -9999 -9999 -9999 -9999 -9999 -9999 -9999 -9999 -9999 -9999 -9999 -9999 -9999 -9999 -9999 -9999 -9999 -9999 -9999 -9999 -9999 -9999 -9999 -9999 -9999 -9999 -9999 -9999 -9999 -9999 -9999 -9999 -9999 -9999 -9999 -9999 -9999 -9999 -9999 -9999 -9999 -9999 -9999 -9999 -9999 -9999 -9999 -9999 -9999 -9999 -9999 -9999 -9999 -9999 -9999 -9999 -9999 -9999 -9999 -9999 -9999 -9999 -9999 -9999 -9999 -9999 -9999 -9999 -9999 -9999 -9999 -9999 -9999 -9999 -9999 -9999 -9999 -9999 -9999 -9999 -9999 -9999 -9999 -9999 -9999 -9999 -9999 -9999 -9999 -9999 -9999 -9999 -9999 -9999 -9999 -9999 -9999 -9999 -9999 -9999 -9999 -9999 -9999 -9999 -9999 -9999 -9999 -9999 -9999 -9999 -9999 -9999 -9999 -9999 -9999 -9999 -9999 -9999 -9999 -9999 -9999 -9999 -9999 -9999 -9999 -9999 -9999 -9999 -9999 -9999 13.2827324478178 28.2331511839709 28.2331511839709 28.2331511839709 28.2331511839709 0 7.30688935281837 7.30688935281837 3.28227571115974 0 0 0 0 0 0 3.8860103626943 3.8860103626943 3.8860103626943 7.64818355640535 7.64818355640535 7.64818355640535 7.64818355640535 -9999 -9999 -9999 -9999 -9999 -9999 -9999 -9999 -9999 8.83575883575884 8.83575883575884 8.83575883575884 8.83575883575884 8.43644544431946 8.43644544431946 8.43644544431946 8.43644544431946 8.43644544431946 8.43644544431946 8.43644544431946 8.43644544431946 8.43644544431946 8.43644544431946 8.43644544431946 8.43644544431946 8.43644544431946 8.43644544431946 8.43644544431946 8.43644544431946 8.43644544431946 8.43644544431946 8.43644544431946 8.43644544431946 8.43644544431946 8.43644544431946 8.43644544431946 8.43644544431946 8.43644544431946 8.43644544431946 8.43644544431946 8.43644544431946 8.43644544431946 8.43644544431946 8.43644544431946 0 0 0 0 0 0 0 0 0 0 0 0 0 0 0 0 0 0 0 0 0 0 0 0 0 0 0 0 0 0 0 0 0 0 0 0 0 0 0 0 0 0 0 -9999 -9999 -9999 -9999 -9999 -9999 -9999 -9999 -9999 -9999 -9999 -9999 -9999 -9999 -9999 -9999 -9999 -9999 -9999 -9999 -9999 -9999
-9999 -9999 -9999 -9999 -9999 -9999 -9999 -9999 -9999 -9999 -9999 -9999 -9999 -9999 -9999 -9999 -9999 -9999 -9999 -9999 -9999 -9999 -9999 -9999 -9999 -9999 -9999 -9999 -9999 -9999 -9999 -9999 -9999 -9999 -9999 -9999 -9999 -9999 -9999 -9999 -9999 -9999 -9999 -9999 -9999 -9999 -9999 -9999 -9999 -9999 -9999 -9999 -9999 -9999 -9999 -9999 -9999 -9999 -9999 -9999 -9999 -9999 -9999 -9999 -9999 -9999 -9999 -9999 -9999 -9999 -9999 -9999 -9999 -9999 -9999 -9999 -9999 -9999 -9999 -9999 -9999 -9999 -9999 -9999 -9999 -9999 -9999 -9999 -9999 -9999 -9999 -9999 -9999 -9999 -9999 -9999 -9999 -9999 -9999 -9999 -9999 -9999 -9999 -9999 -9999 -9999 -9999 -9999 -9999 -9999 -9999 -9999 -9999 -9999 -9999 -9999 -9999 -9999 -9999 -9999 -9999 -9999 -9999 -9999 -9999 -9999 -9999 -9999 -9999 -9999 -9999 -9999 -9999 -9999 -9999 -9999 -9999 -9999 -9999 -9999 -9999 -9999 -9999 -9999 -9999 -9999 -9999 -9999 -9999 -9999 -9999 -9999 -9999 -9999 -9999 -9999 -9999 -9999 -9999 -9999 -9999 -9999 -9999 -9999 -9999 -9999 -9999 -9999 -9999 -9999 -9999 -9999 -9999 -9999 -9999 -9999 -9999 -9999 -9999 -9999 -9999 -9999 -9999 -9999 -9999 -9999 -9999 -9999 -9999 -9999 -9999 -9999 -9999 -9999 -9999 -9999 -9999 -9999 -9999 -9999 -9999 -9999 -9999 -9999 -9999 -9999 -9999 -9999 -9999 -9999 -9999 -9999 -9999 -9999 -9999 -9999 -9999 -9999 -9999 -9999 -9999 -9999 -9999 -9999 -9999 -9999 -9999 -9999 -9999 -9999 -9999 -9999 -9999 -9999 -9999 -9999 -9999 -9999 -9999 -9999 -9999 -9999 -9999 -9999 -9999 -9999 -9999 -9999 -9999 -9999 -9999 -9999 -9999 -9999 -9999 -9999 -9999 -9999 -9999 -9999 -9999 -9999 -9999 -9999 -9999 -9999 -9999 -9999 -9999 -9999 -9999 -9999 -9999 -9999 -9999 -9999 -9999 -9999 -9999 -9999 -9999 -9999 -9999 13.2827324478178 13.2827324478178 13.2827324478178 28.2331511839709 28.2331511839709 30.1204819277108 30.1204819277108 5.56438791732909 7.30688935281837 7.30688935281837 5.56438791732909 0 0 0 0 3.8860103626943 3.8860103626943 7.64818355640535 7.64818355640535 7.64818355640535 7.64818355640535 7.64818355640535 7.64818355640535 7.64818355640535 -9999 -9999 -9999 -9999 -9999 -9999 -9999 -9999 -9999 8.83575883575884 8.83575883575884 8.43644544431946 8.43644544431946 8.43644544431946 8.43644544431946 8.43644544431946 8.43644544431946 8.43644544431946 8.43644544431946 8.43644544431946 8.43644544431946 8.43644544431946 8.43644544431946 8.43644544431946 8.43644544431946 8.43644544431946 8.43644544431946 8.43644544431946 8.43644544431946 8.43644544431946 8.43644544431946 8.43644544431946 8.43644544431946 8.43644544431946 8.43644544431946 8.43644544431946 8.43644544431946 8.43644544431946 8.43644544431946 8.43644544431946 8.43644544431946 8.43644544431946 0 0 0 0 0 0 0 0 0 0 0 0 0 0 0 0 0 0 0 0 0 0 0 0 0 0 0 0 0 0 0 0 0 0 0 0 0 0 0 0 0 0 0 -9999 -9999 -9999 -9999 -9999 -9999 -9999 -9999 -9999 -9999 -9999 -9999 -9999 -9999 -9999 -9999 -9999 -9999 -9999 -9999 -9999 -9999 -9999
-9999 -9999 -9999 -9999 -9999 -9999 -9999 -9999 -9999 -9999 -9999 -9999 -9999 -9999 -9999 -9999 -9999 -9999 -9999 -9999 -9999 -9999 -9999 -9999 -9999 -9999 -9999 -9999 -9999 -9999 -9999 -9999 -9999 -9999 -9999 -9999 -9999 -9999 -9999 -9999 -9999 -9999 -9999 -9999 -9999 -9999 -9999 -9999 -9999 -9999 -9999 -9999 -9999 -9999 -9999 -9999 -9999 -9999 -9999 -9999 -9999 -9999 -9999 -9999 -9999 -9999 -9999 -9999 -9999 -9999 -9999 -9999 -9999 -9999 -9999 -9999 -9999 -9999 -9999 -9999 -9999 -9999 -9999 -9999 -9999 -9999 -9999 -9999 -9999 -9999 -9999 -9999 -9999 -9999 -9999 -9999 -9999 -9999 -9999 -9999 -9999 -9999 -9999 -9999 -9999 -9999 -9999 -9999 -9999 -9999 -9999 -9999 -9999 -9999 -9999 -9999 -9999 -9999 -9999 -9999 -9999 -9999 -9999 -9999 -9999 -9999 -9999 -9999 -9999 -9999 -9999 -9999 -9999 -9999 -9999 -9999 -9999 -9999 -9999 -9999 -9999 -9999 -9999 -9999 -9999 -9999 -9999 -9999 -9999 -9999 -9999 -9999 -9999 -9999 -9999 -9999 -9999 -9999 -9999 -9999 -9999 -9999 -9999 -9999 -9999 -9999 -9999 -9999 -9999 -9999 -9999 -9999 -9999 -9999 -9999 -9999 -9999 -9999 -9999 -9999 -9999 -9999 -9999 -9999 -9999 -9999 -9999 -9999 -9999 -9999 -9999 -9999 -9999 -9999 -9999 -9999 -9999 -9999 -9999 -9999 -9999 -9999 -9999 -9999 -9999 -9999 -9999 -9999 -9999 -9999 -9999 -9999 -9999 -9999 -9999 -9999 -9999 -9999 -9999 -9999 -9999 -9999 -9999 -9999 -9999 -9999 -9999 -9999 -9999 -9999 -9999 -9999 -9999 -9999 -9999 -9999 -9999 -9999 -9999 -9999 -9999 -9999 -9999 -9999 -9999 -9999 -9999 -9999 -9999 -9999 -9999 -9999 -9999 -9999 -9999 -9999 -9999 -9999 -9999 -9999 -9999 -9999 -9999 -9999 -9999 -9999 -9999 -9999 -9999 -9999 -9999 -9999 -9999 -9999 -9999 -9999 -9999 -9999 -9999 -9999 -9999 -9999 13.2924335378323 13.2827324478178 13.2827324478178 13.2827324478178 13.2827324478178 28.2331511839709 30.1204819277108 30.1204819277108 30.1204819277108 5.56438791732909 5.56438791732909 5.56438791732909 5.56438791732909 0 0 0 2.40770465489567 2.40770465489567 2.40770465489567 7.64818355640535 7.64818355640535 7.64818355640535 7.64818355640535 6.61157024793388 6.61157024793388 6.61157024793388 -9999 -9999 -9999 -9999 -9999 -9999 -9999 -9999 5.77663671373556 5.77663671373556 8.43644544431946 8.43644544431946 8.43644544431946 8.43644544431946 8.43644544431946 8.43644544431946 8.43644544431946 8.43644544431946 8.43644544431946 8.43644544431946 8.43644544431946 8.43644544431946 8.43644544431946 8.43644544431946 8.43644544431946 8.43644544431946 8.43644544431946 8.43644544431946 8.43644544431946 8.43644544431946 8.43644544431946 8.43644544431946 8.43644544431946 8.43644544431946 8.43644544431946 8.43644544431946 8.43644544431946 8.43644544431946 8.43644544431946 8.43644544431946 0 0 0 0 0 0 0 0 0 0 0 0 0 0 0 0 0 0 0 0 0 0 0 0 0 0 0 0 0 0 0 0 0 0 0 0 0 0 0 0 0 0 0 -9999 -9999 -9999 -9999 -9999 -9999 -9999 -9999 -9999 -9999 -9999 -9999 -9999 -9999 -9999 -9999 -9999 -9999 -9999 -9999 -9999 -9999 -9999 -9999
-9999 -9999 -9999 -9999 -9999 -9999 -9999 -9999 -9999 -9999 -9999 -9999 -9999 -9999 -9999 -9999 -9999 -9999 -9999 -9999 -9999 -9999 -9999 -9999 -9999 -9999 -9999 -9999 -9999 -9999 -9999 -9999 -9999 -9999 -9999 -9999 -9999 -9999 -9999 -9999 -9999 -9999 -9999 -9999 -9999 -9999 -9999 -9999 -9999 -9999 -9999 -9999 -9999 -9999 -9999 -9999 -9999 -9999 -9999 -9999 -9999 -9999 -9999 -9999 -9999 -9999 -9999 -9999 -9999 -9999 -9999 -9999 -9999 -9999 -9999 -9999 -9999 -9999 -9999 -9999 -9999 -9999 -9999 -9999 -9999 -9999 -9999 -9999 -9999 -9999 -9999 -9999 -9999 -9999 -9999 -9999 -9999 -9999 -9999 -9999 -9999 -9999 -9999 -9999 -9999 -9999 -9999 -9999 -9999 -9999 -9999 -9999 -9999 -9999 -9999 -9999 -9999 -9999 -9999 -9999 -9999 -9999 -9999 -9999 -9999 -9999 -9999 -9999 -9999 -9999 -9999 -9999 -9999 -9999 -9999 -9999 -9999 -9999 -9999 -9999 -9999 -9999 -9999 -9999 -9999 -9999 -9999 -9999 -9999 -9999 -9999 -9999 -9999 -9999 -9999 -9999 -9999 -9999 -9999 -9999 -9999 -9999 -9999 -9999 -9999 -9999 -9999 -9999 -9999 -9999 -9999 -9999 -9999 -9999 -9999 -9999 -9999 -9999 -9999 -9999 -9999 -9999 -9999 -9999 -9999 -9999 -9999 -9999 -9999 -9999 -9999 -9999 -9999 -9999 -9999 -9999 -9999 -9999 -9999 -9999 -9999 -9999 -9999 -9999 -9999 -9999 -9999 -9999 -9999 -9999 -9999 -9999 -9999 -9999 -9999 -9999 -9999 -9999 -9999 -9999 -9999 -9999 -9999 -9999 -9999 -9999 -9999 -9999 -9999 -9999 -9999 -9999 -9999 -9999 -9999 -9999 -9999 -9999 -9999 -9999 -9999 -9999 -9999 -9999 -9999 -9999 -9999 -9999 -9999 -9999 -9999 -9999 -9999 -9999 -9999 -9999 -9999 -9999 -9999 -9999 -9999 -9999 -9999 -9999 -9999 -9999 -9999 -9999 -9999 -9999 -9999 -9999 -9999 -9999 -9999 -9999 -9999 -9999 -9999 -9999 -9999 -9999 13.2924335378323 13.2924335378323 13.2924335378323 13.2827324478178 13.2827324478178 13.2827324478178 30.1204819277108 6.62251655629139 6.62251655629139 6.62251655629139 5.56438791732909 5.56438791732909 5.56438791732909 5.56438791732909 15.1245551601424 15.1245551601424 15.1245551601424 19.6629213483146 2.40770465489567 7.46268656716418 7.64818355640535 6.61157024793388 6.61157024793388 6.61157024793388 6.61157024793388 6.61157024793388 -9999 -9999 -9999 -9999 -9999 -9999 -9999 5.77663671373556 5.77663671373556 5.77663671373556 5.77663671373556 8.43644544431946 8.43644544431946 8.43644544431946 8.43644544431946 8.43644544431946 8.43644544431946 8.43644544431946 8.43644544431946 8.43644544431946 8.43644544431946 8.43644544431946 8.43644544431946 8.43644544431946 8.43644544431946 8.43644544431946 8.43644544431946 8.43644544431946 8.43644544431946 8.43644544431946 8.43644544431946 8.43644544431946 8.43644544431946 8.43644544431946 8.43644544431946 8.43644544431946 8.43644544431946 8.43644544431946 8.43644544431946 4.68384074941452 0 0 0 0 0 0 0 0 0 0 0 0 0 0 0 0 3.75234521575985 3.75234521575985 3.75234521575985 3.75234521575985 0 0 0 0 0 0 0 0 0 0 0 0 0 0 0 0 0 0 0 0 0 0 0 -9999 -9999 -9999 -9999 -9999 -9999 -9999 -9999 -9999 -9999 -9999 -9999 -9999 -9999 -9999 -9999 -9999 -9999 -9999 -9999 -9999 -9999 -9999 -9999
-9999 -9999 -9999 -9999 -9999 -9999 -9999 -9999 -9999 -9999 -9999 -9999 -9999 -9999 -9999 -9999 -9999 -9999 -9999 -9999 -9999 -9999 -9999 -9999 -9999 -9999 -9999 -9999 -9999 -9999 -9999 -9999 -9999 -9999 -9999 -9999 -9999 -9999 -9999 -9999 -9999 -9999 -9999 -9999 -9999 -9999 -9999 -9999 -9999 -9999 -9999 -9999 -9999 -9999 -9999 -9999 -9999 -9999 -9999 -9999 -9999 -9999 -9999 -9999 -9999 -9999 -9999 -9999 -9999 -9999 -9999 -9999 -9999 -9999 -9999 -9999 -9999 -9999 -9999 -9999 -9999 -9999 -9999 -9999 -9999 -9999 -9999 -9999 -9999 -9999 -9999 -9999 -9999 -9999 -9999 -9999 -9999 -9999 -9999 -9999 -9999 -9999 -9999 -9999 -9999 -9999 -9999 -9999 -9999 -9999 -9999 -9999 -9999 -9999 -9999 -9999 -9999 -9999 -9999 -9999 -9999 -9999 -9999 -9999 -9999 -9999 -9999 -9999 -9999 -9999 -9999 -9999 -9999 -9999 -9999 -9999 -9999 -9999 -9999 -9999 -9999 -9999 -9999 -9999 -9999 -9999 -9999 -9999 -9999 -9999 -9999 -9999 -9999 -9999 -9999 -9999 -9999 -9999 -9999 -9999 -9999 -9999 -9999 -9999 -9999 -9999 -9999 -9999 -9999 -9999 -9999 -9999 -9999 -9999 -9999 -9999 -9999 -9999 -9999 -9999 -9999 -9999 -9999 -9999 -9999 -9999 -9999 -9999 -9999 -9999 -9999 -9999 -9999 -9999 -9999 -9999 -9999 -9999 -9999 -9999 -9999 -9999 -9999 -9999 -9999 -9999 -9999 -9999 -9999 -9999 -9999 -9999 -9999 -9999 -9999 -9999 -9999 -9999 -9999 -9999 -9999 -9999 -9999 -9999 -9999 -9999 -9999 -9999 -9999 -9999 -9999 -9999 -9999 -9999 -9999 -9999 -9999 -9999 -9999 -9999 -9999 -9999 -9999 -9999 -9999 -9999 -9999 -9999 -9999 -9999 -9999 -9999 -9999 -9999 -9999 -9999 -9999 -9999 -9999 -9999 -9999 -9999 -9999 -9999 -9999 -9999 -9999 -9999 -9999 -9999 -9999 -9999 -9999 -9999 -9999 -9999 -9999 -9999 -9999 -9999 -9999 -9999 13.2924335378323 13.2924335378323 8.66336633663366 8.66336633663366 9.85663082437276 9.85663082437276 9.85663082437276 6.62251655629139 6.62251655629139 6.62251655629139 6.62251655629139 5.56438791732909 10.4602510460251 10.4602510460251 20.3426124197002 19.6629213483146 19.6629213483146 19.6629213483146 7.46268656716418 14.7058823529412 14.7058823529412 0 6.61157024793388 6.61157024793388 6.61157024793388 6.61157024793388 6.61157024793388 -9999 -9999 -9999 -9999 5.77663671373556 5.77663671373556 5.77663671373556 5.77663671373556 5.77663671373556 5.77663671373556 5.77663671373556 5.77663671373556 8.43644544431946 8.43644544431946 8.43644544431946 8.43644544431946 8.43644544431946 8.43644544431946 8.43644544431946 8.43644544431946 8.43644544431946 8.43644544431946 8.43644544431946 8.43644544431946 8.43644544431946 8.43644544431946 8.43644544431946 8.43644544431946 8.43644544431946 8.43644544431946 8.43644544431946 8.43644544431946 8.43644544431946 8.43644544431946 8.43644544431946 8.43644544431946 8.43644544431946 4.68384074941452 4.68384074941452 4.68384074941452 4.68384074941452 0 0 0 0 8.24742268041237 8.24742268041237 8.24742268041237 3.75234521575985 3.75234521575985 3.75234521575985 3.75234521575985 3.75234521575985 3.75234521575985 3.75234521575985 3.75234521575985 3.75234521575985 3.75234521575985 3.75234521575985 3.75234521575985 3.75234521575985 3.75234521575985 3.75234521575985 3.75234521575985 0 0 0 0 0 0 0 0 0 0 0 0 0 0 0 0 0 -9999 -9999 -9999 -9999 -9999 -9999 -9999 -9999 -9999 -9999 -9999 -9999 -9999 -9999 -9999 -9999 -9999 -9999 -9999 -9999 -9999 -9999 -9999 -9999 -9999
-9999 -9999 -9999 -9999 -9999 -9999 -9999 -9999 -9999 -9999 -9999 -9999 -9999 -9999 -9999 -9999 -9999 -9999 -9999 -9999 -9999 -9999 -9999 -9999 -9999 -9999 -9999 -9999 -9999 -9999 -9999 -9999 -9999 -9999 -9999 -9999 -9999 -9999 -9999 -9999 -9999 -9999 -9999 -9999 -9999 -9999 -9999 -9999 -9999 -9999 -9999 -9999 -9999 -9999 -9999 -9999 -9999 -9999 -9999 -9999 -9999 -9999 -9999 -9999 -9999 -9999 -9999 -9999 -9999 -9999 -9999 -9999 -9999 -9999 -9999 -9999 -9999 -9999 -9999 -9999 -9999 -9999 -9999 -9999 -9999 -9999 -9999 -9999 -9999 -9999 -9999 -9999 -9999 -9999 -9999 -9999 -9999 -9999 -9999 -9999 -9999 -9999 -9999 -9999 -9999 -9999 -9999 -9999 -9999 -9999 -9999 -9999 -9999 -9999 -9999 -9999 -9999 -9999 -9999 -9999 -9999 -9999 -9999 -9999 -9999 -9999 -9999 -9999 -9999 -9999 -9999 -9999 -9999 -9999 -9999 -9999 -9999 -9999 -9999 -9999 -9999 -9999 -9999 -9999 -9999 -9999 -9999 -9999 -9999 -9999 -9999 -9999 -9999 -9999 -9999 -9999 -9999 -9999 -9999 -9999 -9999 -9999 -9999 -9999 -9999 -9999 -9999 -9999 -9999 -9999 -9999 -9999 -9999 -9999 -9999 -9999 -9999 -9999 -9999 -9999 -9999 -9999 -9999 -9999 -9999 -9999 -9999 -9999 -9999 -9999 -9999 -9999 -9999 -9999 -9999 -9999 -9999 -9999 -9999 -9999 -9999 -9999 -9999 -9999 -9999 -9999 -9999 -9999 -9999 -9999 -9999 -9999 -9999 -9999 -9999 -9999 -9999 -9999 -9999 -9999 -9999 -9999 -9999 -9999 -9999 -9999 -9999 -9999 -9999 -9999 -9999 -9999 -9999 -9999 -9999 -9999 -9999 -9999 -9999 -9999 -9999 -9999 -9999 -9999 -9999 -9999 -9999 -9999 -9999 -9999 -9999 -9999 -9999 -9999 -9999 -9999 -9999 -9999 -9999 -9999 -9999 -9999 -9999 -9999 -9999 -9999 -9999 -9999 -9999 -9999 -9999 -9999 -9999 -9999 -9999 -9999 -9999 -9999 -9999 -9999 -9999 13.7614678899083 7.8740157480315 13.2924335378323 8.66336633663366 8.66336633663366 9.85663082437276 9.85663082437276 9.85663082437276 9.85663082437276 6.62251655629139 6.62251655629139 18.2481751824818 12.70207852194 12.70207852194 10.4602510460251 10.4602510460251 20.3426124197002 7.46268656716418 14.7058823529412 9.43396226415094 19.1204588910134 19.1204588910134 7.08833151581243 0 6.61157024793388 6.61157024793388 6.61157024793388 6.61157024793388 6.61157024793388 5.77663671373556 5.77663671373556 5.77663671373556 5.77663671373556 5.77663671373556 5.77663671373556 5.77663671373556 5.77663671373556 5.77663671373556 5.77663671373556 5.77663671373556 5.77663671373556 5.77663671373556 5.77663671373556 8.43644544431946 8.43644544431946 8.43644544431946 8.43644544431946 8.43644544431946 8.43644544431946 8.43644544431946 8.43644544431946 8.43644544431946 8.43644544431946 8.43644544431946 8.43644544431946 8.43644544431946 8.43644544431946 8.43644544431946 8.43644544431946 8.43644544431946 8.43644544431946 8.43644544431946 8.43644544431946 8.43644544431946 7.06713780918728 7.06713780918728 7.06713780918728 0 3.75234521575985 3.75234521575985 0 0 8.67888138862102 8.67888138862102 8.67888138862102 3.75234521575985 2.00803212851406 3.75234521575985 3.75234521575985 15.4028436018957 3.75234521575985 3.75234521575985 3.75234521575985 3.75234521575985 3.75234521575985 3.75234521575985 3.75234521575985 3.75234521575985 3.75234521575985 3.75234521575985 3.75234521575985 3.75234521575985 3.75234521575985 7.52688172043011 7.52688172043011 2.9126213592233 2.9126213592233 2.9126213592233 0 0 0 0 0 0 0 0 0 0 0 -9999 -9999 -9999 -9999 -9999 -9999 -9999 -9999 -9999 -9999 -9999 -9999 -9999 -9999 -9999 -9999 -9999 -9999 -9999 -9999 -9999 -9999 -9999 -9999 -9999
-9999 -9999 -9999 -9999 -9999 -9999 -9999 -9999 -9999 -9999 -9999 -9999 -9999 -9999 -9999 -9999 -9999 -9999 -9999 -9999 -9999 -9999 -9999 -9999 -9999 -9999 -9999 -9999 -9999 -9999 -9999 -9999 -9999 -9999 -9999 -9999 -9999 -9999 -9999 -9999 -9999 -9999 -9999 -9999 -9999 -9999 -9999 -9999 -9999 -9999 -9999 -9999 -9999 -9999 -9999 -9999 -9999 -9999 -9999 -9999 -9999 -9999 -9999 -9999 -9999 -9999 -9999 -9999 -9999 -9999 -9999 -9999 -9999 -9999 -9999 -9999 -9999 -9999 -9999 -9999 -9999 -9999 -9999 -9999 -9999 -9999 -9999 -9999 -9999 -9999 -9999 -9999 -9999 -9999 -9999 -9999 -9999 -9999 -9999 -9999 -9999 -9999 -9999 -9999 -9999 -9999 -9999 -9999 -9999 -9999 -9999 -9999 -9999 -9999 -9999 -9999 -9999 -9999 -9999 -9999 -9999 -9999 -9999 -9999 -9999 -9999 -9999 -9999 -9999 -9999 -9999 -9999 -9999 -9999 -9999 -9999 -9999 -9999 -9999 -9999 -9999 -9999 -9999 -9999 -9999 -9999 -9999 -9999 -9999 -9999 -9999 -9999 -9999 -9999 -9999 -9999 -9999 -9999 -9999 -9999 -9999 -9999 -9999 -9999 -9999 -9999 -9999 -9999 -9999 -9999 -9999 -9999 -9999 -9999 -9999 -9999 -9999 -9999 -9999 -9999 -9999 -9999 -9999 -9999 -9999 -9999 -9999 -9999 -9999 -9999 -9999 -9999 -9999 -9999 -9999 -9999 -9999 -9999 -9999 -9999 -9999 -9999 -9999 -9999 -9999 -9999 -9999 -9999 -9999 -9999 -9999 -9999 -9999 -9999 -9999 -9999 -9999 -9999 -9999 -9999 -9999 -9999 -9999 -9999 -9999 -9999 -9999 -9999 -9999 -9999 -9999 -9999 -9999 -9999 -9999 -9999 -9999 -9999 -9999 -9999 -9999 -9999 -9999 -9999 -9999 -9999 -9999 -9999 -9999 -9999 -9999 -9999 -9999 -9999 -9999 -9999 -9999 -9999 -9999 -9999 -9999 -9999 -9999 -9999 -9999 -9999 -9999 -9999 -9999 -9999 -9999 -9999 -9999 -9999 -9999 -9999 -9999 -9999 -9999 -9999 13.7614678899083 13.7614678899083 7.8740157480315 7.8740157480315 8.66336633663366 20.3703703703704 20.3703703703704 14.34034416826 14.34034416826 14.34034416826 14.34034416826 18.2481751824818 18.2481751824818 8.7378640776699 12.70207852194 8.33333333333333 8.33333333333333 10.4602510460251 20.3426124197002 9.43396226415094 9.43396226415094 19.1204588910134 19.1204588910134 19.1204588910134 7.08833151581243 6.61157024793388 6.61157024793388 0 0 0 5.77663671373556 5.77663671373556 5.77663671373556 5.77663671373556 5.77663671373556 5.77663671373556 5.77663671373556 5.77663671373556 5.77663671373556 5.77663671373556 5.77663671373556 5.77663671373556 5.77663671373556 5.77663671373556 5.77663671373556 5.77663671373556 8.43644544431946 8.43644544431946 8.43644544431946 8.43644544431946 8.43644544431946 8.43644544431946 8.43644544431946 8.43644544431946 8.43644544431946 8.43644544431946 8.43644544431946 8.43644544431946 8.43644544431946 8.43644544431946 8.43644544431946 8.43644544431946 8.43644544431946 8.43644544431946 8.43644544431946 7.06713780918728 7.06713780918728 0 0 8.41968911917098 8.41968911917098 3.75234521575985 0 0 0 8.67888138862102 8.67888138862102 8.67888138862102 2.00803212851406 2.00803212851406 4.12087912087912 4.12087912087912 15.4028436018957 15.4028436018957 3.75234521575985 3.75234521575985 3.75234521575985 3.75234521575985 3.75234521575985 3.75234521575985 3.75234521575985 3.75234521575985 3.75234521575985 7.52688172043011 7.52688172043011 2.9126213592233 2.9126213592233 4.02414486921529 4.02414486921529 0 0 0 0 6.6079295154185 6.6079295154185 0 0 0 0 0 -9999 -9999 -9999 -9999 -9999 -9999 -9999 -9999 -9999 -9999 -9999 -9999 -9999 -9999 -9999 -9999 -9999 -9999 -9999 -9999 -9999 -9999 -9999 -9999 -9999
-9999 -9999 -9999 -9999 -9999 -9999 -9999 -9999 -9999 -9999 -9999 -9999 -9999 -9999 -9999 -9999 -9999 -9999 -9999 -9999 -9999 -9999 -9999 -9999 -9999 -9999 -9999 -9999 -9999 -9999 -9999 -9999 -9999 -9999 -9999 -9999 -9999 -9999 -9999 -9999 -9999 -9999 -9999 -9999 -9999 -9999 -9999 -9999 -9999 -9999 -9999 -9999 -9999 -9999 -9999 -9999 -9999 -9999 -9999 -9999 -9999 -9999 -9999 -9999 -9999 -9999 -9999 -9999 -9999 -9999 -9999 -9999 -9999 -9999 -9999 -9999 -9999 -9999 -9999 -9999 -9999 -9999 -9999 -9999 -9999 -9999 -9999 -9999 -9999 -9999 -9999 -9999 -9999 -9999 -9999 -9999 -9999 -9999 -9999 -9999 -9999 -9999 -9999 -9999 -9999 -9999 -9999 -9999 -9999 -9999 -9999 -9999 -9999 -9999 -9999 -9999 -9999 -9999 -9999 -9999 -9999 -9999 -9999 -9999 -9999 -9999 -9999 -9999 -9999 -9999 -9999 -9999 -9999 -9999 -9999 -9999 -9999 -9999 -9999 -9999 -9999 -9999 -9999 -9999 -9999 -9999 -9999 -9999 -9999 -9999 -9999 -9999 -9999 -9999 -9999 -9999 -9999 -9999 -9999 -9999 -9999 -9999 -9999 -9999 -9999 -9999 -9999 -9999 -9999 -9999 -9999 -9999 -9999 -9999 -9999 -9999 -9999 -9999 -9999 -9999 -9999 -9999 -9999 -9999 -9999 -9999 -9999 -9999 -9999 -9999 -9999 -9999 -9999 -9999 -9999 -9999 -9999 -9999 -9999 -9999 -9999 -9999 -9999 -9999 -9999 -9999 -9999 -9999 -9999 -9999 -9999 -9999 -9999 -9999 -9999 -9999 -9999 -9999 -9999 -9999 -9999 -9999 -9999 -9999 -9999 -9999 -9999 -9999 -9999 -9999 -9999 -9999 -9999 -9999 -9999 -9999 -9999 -9999 -9999 -9999 -9999 -9999 -9999 -9999 -9999 -9999 -9999 -9999 -9999 -9999 -9999 -9999 -9999 -9999 -9999 -9999 -9999 -9999 -9999 -9999 -9999 -9999 -9999 -9999 -9999 -9999 -9999 -9999 -9999 -9999 -9999 -9999 -9999 -9999 -9999 -9999 -9999 -9999 -9999 -9999 13.7614678899083 13.7614678899083 13.7614678899083 7.8740157480315 7.8740157480315 20.3703703703704 14.34034416826 14.34034416826 14.34034416826 14.34034416826 13.4892086330935 13.4892086330935 18.2481751824818 8.7378640776699 8.7378640776699 8.33333333333333 18.8470066518847 10.4602510460251 10.4602510460251 10.4602510460251 0 0 7.08833151581243 7.08833151581243 0 0 12.6050420168067 12.6050420168067 0 12.6050420168067 12.6050420168067 5.77663671373556 5.77663671373556 5.77663671373556 5.77663671373556 5.77663671373556 5.77663671373556 5.77663671373556 5.77663671373556 5.77663671373556 5.77663671373556 5.77663671373556 5.77663671373556 5.77663671373556 5.77663671373556 5.77663671373556 8.43644544431946 8.43644544431946 8.43644544431946 8.43644544431946 8.43644544431946 8.43644544431946 8.43644544431946 8.43644544431946 8.43644544431946 8.43644544431946 8.43644544431946 8.43644544431946 8.43644544431946 8.43644544431946 8.43644544431946 8.43644544431946 8.43644544431946 8.43644544431946 3.47222222222222 3.47222222222222 1.89393939393939 0 0 0 8.41968911917098 8.41968911917098 8.41968911917098 0 0 0 9.07590759075908 8.67888138862102 2.00803212851406 2.00803212851406 4.12087912087912 4.12087912087912 15.4028436018957 15.4028436018957 13.3928571428571 13.3928571428571 3.75234521575985 3.33889816360601 3.33889816360601 3.33889816360601 3.75234521575985 3.75234521575985 3.75234521575985 11.6279069767442 11.6279069767442 4.02414486921529 4.02414486921529 4.02414486921529 0 0 0 0 6.6079295154185 6.6079295154185 6.16197183098592 6.16197183098592 6.16197183098592 0 0 -9999 -9999 -9999 -9999 -9999 -9999 -9999 -9999 -9999 -9999 -9999 -9999 -9999 -9999 -9999 -9999 -9999 -9999 -9999 -9999 -9999 -9999 -9999 -9999 -9999 -9999
-9999 -9999 -9999 -9999 -9999 -9999 -9999 -9999 -9999 -9999 -9999 -9999 -9999 -9999 -9999 -9999 -9999 -9999 -9999 -9999 -9999 -9999 -9999 -9999 -9999 -9999 -9999 -9999 -9999 -9999 -9999 -9999 -9999 -9999 -9999 -9999 -9999 -9999 -9999 -9999 -9999 -9999 -9999 -9999 -9999 -9999 -9999 -9999 -9999 -9999 -9999 -9999 -9999 -9999 -9999 -9999 -9999 -9999 -9999 -9999 -9999 -9999 -9999 -9999 -9999 -9999 -9999 -9999 -9999 -9999 -9999 -9999 -9999 -9999 -9999 -9999 -9999 -9999 -9999 -9999 -9999 -9999 -9999 -9999 -9999 -9999 -9999 -9999 -9999 -9999 -9999 -9999 -9999 -9999 -9999 -9999 -9999 -9999 -9999 -9999 -9999 -9999 -9999 -9999 -9999 -9999 -9999 -9999 -9999 -9999 -9999 -9999 -9999 -9999 -9999 -9999 -9999 -9999 -9999 -9999 -9999 -9999 -9999 -9999 -9999 -9999 -9999 -9999 -9999 -9999 -9999 -9999 -9999 -9999 -9999 -9999 -9999 -9999 -9999 -9999 -9999 -9999 -9999 -9999 -9999 -9999 -9999 -9999 -9999 -9999 -9999 -9999 -9999 -9999 -9999 -9999 -9999 -9999 -9999 -9999 -9999 -9999 -9999 -9999 -9999 -9999 -9999 -9999 -9999 -9999 -9999 -9999 -9999 -9999 -9999 -9999 -9999 -9999 -9999 -9999 -9999 -9999 -9999 -9999 -9999 -9999 -9999 -9999 -9999 -9999 -9999 -9999 -9999 -9999 -9999 -9999 -9999 -9999 -9999 -9999 -9999 -9999 -9999 -9999 -9999 -9999 -9999 -9999 -9999 -9999 -9999 -9999 -9999 -9999 -9999 -9999 -9999 -9999 -9999 -9999 -9999 -9999 -9999 -9999 -9999 -9999 -9999 -9999 -9999 -9999 -9999 -9999 -9999 -9999 -9999 -9999 -9999 -9999 -9999 -9999 -9999 -9999 -9999 -9999 -9999 -9999 -9999 -9999 -9999 -9999 -9999 -9999 -9999 -9999 -9999 -9999 -9999 -9999 -9999 -9999 -9999 -9999 -9999 -9999 -9999 -9999 -9999 -9999 -9999 -9999 -9999 -9999 -9999 -9999 -9999 -9999 -9999 -9999 -9999 13.7614678899083 6.43776824034335 13.7614678899083 6.30252100840336 6.30252100840336 6.30252100840336 6.30252100840336 20.3703703703704 14.34034416826 14.34034416826 10.8459869848156 13.4892086330935 10.8459869848156 13.4892086330935 12.8552097428958 8.7378640776699 12.8552097428958 18.8470066518847 18.8470066518847 3.2 3.2 3.2 0 0 0 0 12.6050420168067 12.6050420168067 12.6050420168067 12.6050420168067 12.6050420168067 12.6050420168067 12.6050420168067 12.6050420168067 12.6050420168067 5.77663671373556 5.77663671373556 5.77663671373556 5.77663671373556 5.77663671373556 5.77663671373556 5.77663671373556 5.77663671373556 5.77663671373556 5.77663671373556 5.77663671373556 5.77663671373556 8.43644544431946 8.43644544431946 8.43644544431946 8.43644544431946 8.43644544431946 8.43644544431946 8.43644544431946 8.43644544431946 8.43644544431946 8.43644544431946 8.43644544431946 8.43644544431946 8.43644544431946 8.43644544431946 8.43644544431946 8.43644544431946 8.43644544431946 3.47222222222222 3.47222222222222 3.47222222222222 1.89393939393939 1.89393939393939 1.89393939393939 0 0 8.41968911917098 5.88865096359743 5.88865096359743 5.88865096359743 9.07590759075908 9.07590759075908 9.07590759075908 9.07590759075908 8.67888138862102 8.67888138862102 0 0 0 0 13.3928571428571 0 3.33889816360601 0 3.33889816360601 2.98210735586481 2.98210735586481 11.6279069767442 11.6279069767442 11.6279069767442 0 8.06451612903226 10.2230483271375 10.2230483271375 0 2.06825232678387 2.06825232678387 6.6079295154185 2.06825232678387 0 0 0 0 0 -9999 -9999 -9999 -9999 -9999 -9999 -9999 -9999 -9999 -9999 -9999 -9999 -9999 -9999 -9999 -9999 -9999 -9999 -9999 -9999 -9999 -9999 -9999 -9999 -9999 -9999
-9999 -9999 -9999 -9999 -9999 -9999 -9999 -9999 -9999 -9999 -9999 -9999 -9999 -9999 -9999 -9999 -9999 -9999 -9999 -9999 -9999 -9999 -9999 -9999 -9999 -9999 -9999 -9999 -9999 -9999 -9999 -9999 -9999 -9999 -9999 -9999 -9999 -9999 -9999 -9999 -9999 -9999 -9999 -9999 -9999 -9999 -9999 -9999 -9999 -9999 -9999 -9999 -9999 -9999 -9999 -9999 -9999 -9999 -9999 -9999 -9999 -9999 -9999 -9999 -9999 -9999 -9999 -9999 -9999 -9999 -9999 -9999 -9999 -9999 -9999 -9999 -9999 -9999 -9999 -9999 -9999 -9999 -9999 -9999 -9999 -9999 -9999 -9999 -9999 -9999 -9999 -9999 -9999 -9999 -9999 -9999 -9999 -9999 -9999 -9999 -9999 -9999 -9999 -9999 -9999 -9999 -9999 -9999 -9999 -9999 -9999 -9999 -9999 -9999 -9999 -9999 -9999 -9999 -9999 -9999 -9999 -9999 -9999 -9999 -9999 -9999 -9999 -9999 -9999 -9999 -9999 -9999 -9999 -9999 -9999 -9999 -9999 -9999 -9999 -9999 -9999 -9999 -9999 -9999 -9999 -9999 -9999 -9999 -9999 -9999 -9999 -9999 -9999 -9999 -9999 -9999 -9999 -9999 -9999 -9999 -9999 -9999 -9999 -9999 -9999 -9999 -9999 -9999 -9999 -9999 -9999 -9999 -9999 -9999 -9999 -9999 -9999 -9999 -9999 -9999 -9999 -9999 -9999 -9999 -9999 -9999 -9999 -9999 -9999 -9999 -9999 -9999 -9999 -9999 -9999 -9999 -9999 -9999 -9999 -9999 -9999 -9999 -9999 -9999 -9999 -9999 -9999 -9999 -9999 -9999 -9999 -9999 -9999 -9999 -9999 -9999 -9999 -9999 -9999 -9999 -9999 -9999 -9999 -9999 -9999 -9999 -9999 -9999 -9999 -9999 -9999 -9999 -9999 -9999 -9999 -9999 -9999 -9999 -9999 -9999 -9999 -9999 -9999 -9999 -9999 -9999 -9999 -9999 -9999 -9999 -9999 -9999 -9999 -9999 -9999 -9999 -9999 -9999 -9999 -9999 -9999 -9999 -9999 -9999 -9999 -9999 -9999 -9999 -9999 -9999 -9999 -9999 -9999 -9999 -9999 -9999 -9999 -9999 0 13.7614678899083 6.43776824034335 6.43776824034335 13.7614678899083 6.30252100840336 3.58166189111748 3.58166189111748 3.58166189111748 20.3703703703704 20.3703703703704 20.3703703703704 10.8459869848156 10.8459869848156 10.2040816326531 10.2040816326531 12.8552097428958 12.8552097428958 12.8552097428958 3.2 0 0 0 0 0 0 12.6050420168067 12.6050420168067 12.6050420168067 12.6050420168067 12.6050420168067 12.6050420168067 12.6050420168067 12.6050420168067 12.6050420168067 12.6050420168067 12.6050420168067 12.6050420168067 5.77663671373556 5.77663671373556 5.77663671373556 5.77663671373556 5.77663671373556 5.77663671373556 5.77663671373556 5.77663671373556 5.77663671373556 9.77835723598435 12.5 12.5 12.5 17.4563591022444 17.4563591022444 8.43644544431946 8.43644544431946 8.43644544431946 8.43644544431946 8.43644544431946 8.43644544431946 8.43644544431946 8.43644544431946 8.43644544431946 8.43644544431946 8.43644544431946 3.47222222222222 3.80710659898477 3.80710659898477 3.47222222222222 1.89393939393939 1.89393939393939 1.89393939393939 28.0898876404494 28.0898876404494 9.21273031825796 9.21273031825796 9.21273031825796 5.88865096359743 5.88865096359743 5.88865096359743 5.88865096359743 3.69458128078818 3.69458128078818 8.67888138862102 3.94736842105263 0 0 0 0 0 0 0 7.78210116731517 2.98210735586481 3.62976406533575 3.62976406533575 0 0 8.06451612903226 8.06451612903226 8.06451612903226 8.06451612903226 2.06825232678387 2.06825232678387 2.06825232678387 2.06825232678387 0 0 0 0 0 -9999 -9999 -9999 -9999 -9999 -9999 -9999 -9999 -9999 -9999 -9999 -9999 -9999 -9999 -9999 -9999 -9999 -9999 -9999 -9999 -9999 -9999 -9999 -9999 -9999 -9999 -9999
-9999 -9999 -9999 -9999 -9999 -9999 -9999 -9999 -9999 -9999 -9999 -9999 -9999 -9999 -9999 -9999 -9999 -9999 -9999 -9999 -9999 -9999 -9999 -9999 -9999 -9999 -9999 -9999 -9999 -9999 -9999 -9999 -9999 -9999 -9999 -9999 -9999 -9999 -9999 -9999 -9999 -9999 -9999 -9999 -9999 -9999 -9999 -9999 -9999 -9999 -9999 -9999 -9999 -9999 -9999 -9999 -9999 -9999 -9999 -9999 -9999 -9999 -9999 -9999 -9999 -9999 -9999 -9999 -9999 -9999 -9999 -9999 -9999 -9999 -9999 -9999 -9999 -9999 -9999 -9999 -9999 -9999 -9999 -9999 -9999 -9999 -9999 -9999 -9999 -9999 -9999 -9999 -9999 -9999 -9999 -9999 -9999 -9999 -9999 -9999 -9999 -9999 -9999 -9999 -9999 -9999 -9999 -9999 -9999 -9999 -9999 -9999 -9999 -9999 -9999 -9999 -9999 -9999 -9999 -9999 -9999 -9999 -9999 -9999 -9999 -9999 -9999 -9999 -9999 -9999 -9999 -9999 -9999 -9999 -9999 -9999 -9999 -9999 -9999 -9999 -9999 -9999 -9999 -9999 -9999 -9999 -9999 -9999 -9999 -9999 -9999 -9999 -9999 -9999 -9999 -9999 -9999 -9999 -9999 -9999 -9999 -9999 -9999 -9999 -9999 -9999 -9999 -9999 -9999 -9999 -9999 -9999 -9999 -9999 -9999 -9999 -9999 -9999 -9999 -9999 -9999 -9999 -9999 -9999 -9999 -9999 -9999 -9999 -9999 -9999 -9999 -9999 -9999 -9999 -9999 -9999 -9999 -9999 -9999 -9999 -9999 -9999 -9999 -9999 -9999 -9999 -9999 -9999 -9999 -9999 -9999 -9999 -9999 -9999 -9999 -9999 -9999 -9999 -9999 -9999 -9999 -9999 -9999 -9999 -9999 -9999 -9999 -9999 -9999 -9999 -9999 -9999 -9999 -9999 -9999 -9999 -9999 -9999 -9999 -9999 -9999 -9999 -9999 -9999 -9999 -9999 -9999 -9999 -9999 -9999 -9999 -9999 -9999 -9999 -9999 -9999 -9999 -9999 -9999 -9999 -9999 -9999 -9999 -9999 -9999 -9999 -9999 -9999 -9999 -9999 -9999 -9999 -9999 -9999 -9999 -9999 -9999 -9999 0 0 6.43776824034335 6.43776824034335 6.43776824034335 3.58166189111748 3.58166189111748 3.58166189111748 3.58166189111748 6.23885918003565 20.3703703703704 20.3703703703704 20.3703703703704 20.3703703703704 3.11203319502075 3.11203319502075 3.11203319502075 0 0 0 0 0 0 0 0 12.6050420168067 12.6050420168067 12.6050420168067 12.6050420168067 12.6050420168067 12.6050420168067 12.6050420168067 12.6050420168067 12.6050420168067 12.6050420168067 12.6050420168067 12.6050420168067 12.6050420168067 12.6050420168067 7.36842105263158 5.77663671373556 5.77663671373556 5.77663671373556 5.77663671373556 5.77663671373556 9.77835723598435 9.77835723598435 9.77835723598435 9.77835723598435 9.77835723598435 14.5502645502645 14.5502645502645 17.4563591022444 17.4563591022444 8.43644544431946 8.43644544431946 8.43644544431946 8.43644544431946 13.2547864506627 8.43644544431946 8.43644544431946 8.43644544431946 8.43644544431946 3.47222222222222 3.47222222222222 3.80710659898477 3.80710659898477 3.80710659898477 1.89393939393939 1.89393939393939 28.0898876404494 28.0898876404494 28.0898876404494 9.21273031825796 9.21273031825796 9.21273031825796 9.21273031825796 9.21273031825796 9.21273031825796 0 0 0 10.5519480519481 3.94736842105263 3.94736842105263 8.89679715302491 0 0 0 7.78210116731517 7.78210116731517 7.78210116731517 7.78210116731517 3.62976406533575 3.62976406533575 9.765625 9.765625 9.765625 9.765625 10.6382978723404 8.06451612903226 2.06825232678387 2.06825232678387 2.06825232678387 2.06825232678387 0 0 0 0 0 -9999 -9999 -9999 -9999 -9999 -9999 -9999 -9999 -9999 -9999 -9999 -9999 -9999 -9999 -9999 -9999 -9999 -9999 -9999 -9999 -9999 -9999 -9999 -9999 -9999 -9999 -9999
-9999 -9999 -9999 -9999 -9999 -9999 -9999 -9999 -9999 -9999 -9999 -9999 -9999 -9999 -9999 -9999 -9999 -9999 -9999 -9999 -9999 -9999 -9999 -9999 -9999 -9999 -9999 -9999 -9999 -9999 -9999 -9999 -9999 -9999 -9999 -9999 -9999 -9999 -9999 -9999 -9999 -9999 -9999 -9999 -9999 -9999 -9999 -9999 -9999 -9999 -9999 -9999 -9999 -9999 -9999 -9999 -9999 -9999 -9999 -9999 -9999 -9999 -9999 -9999 -9999 -9999 -9999 -9999 -9999 -9999 -9999 -9999 -9999 -9999 -9999 -9999 -9999 -9999 -9999 -9999 -9999 -9999 -9999 -9999 -9999 -9999 -9999 -9999 -9999 -9999 -9999 -9999 -9999 -9999 -9999 -9999 -9999 -9999 -9999 -9999 -9999 -9999 -9999 -9999 -9999 -9999 -9999 -9999 -9999 -9999 -9999 -9999 -9999 -9999 -9999 -9999 -9999 -9999 -9999 -9999 -9999 -9999 -9999 -9999 -9999 -9999 -9999 -9999 -9999 -9999 -9999 -9999 -9999 -9999 -9999 -9999 -9999 -9999 -9999 -9999 -9999 -9999 -9999 -9999 -9999 -9999 -9999 -9999 -9999 -9999 -9999 -9999 -9999 -9999 -9999 -9999 -9999 -9999 -9999 -9999 -9999 -9999 -9999 -9999 -9999 -9999 -9999 -9999 -9999 -9999 -9999 -9999 -9999 -9999 -9999 -9999 -9999 -9999 -9999 -9999 -9999 -9999 -9999 -9999 -9999 -9999 -9999 -9999 -9999 -9999 -9999 -9999 -9999 -9999 -9999 -9999 -9999 -9999 -9999 -9999 -9999 -9999 -9999 -9999 -9999 -9999 -9999 -9999 -9999 -9999 -9999 -9999 -9999 -9999 -9999 -9999 -9999 -9999 -9999 -9999 -9999 -9999 -9999 -9999 -9999 -9999 -9999 -9999 -9999 -9999 -9999 -9999 -9999 -9999 -9999 -9999 -9999 -9999 -9999 -9999 -9999 -9999 -9999 -9999 -9999 -9999 -9999 -9999 -9999 -9999 -9999 -9999 -9999 -9999 -9999 -9999 -9999 -9999 -9999 -9999 -9999 -9999 -9999 -9999 -9999 -9999 -9999 -9999 -9999 -9999 -9999 -9999 -9999 -9999 -9999 -9999 -9999 0 0 0 1.73611111111111 6.43776824034335 9.64912280701754 9.64912280701754 3.58166189111748 6.23885918003565 6.23885918003565 6.23885918003565 6.23885918003565 20.3703703703704 20.3703703703704 20.3703703703704 7.56302521008403 7.56302521008403 7.56302521008403 7.56302521008403 7.56302521008403 0 0 0 0 0 12.6050420168067 12.6050420168067 12.6050420168067 12.6050420168067 12.6050420168067 12.6050420168067 12.6050420168067 12.6050420168067 12.6050420168067 12.6050420168067 12.6050420168067 12.6050420168067 7.36842105263158 7.36842105263158 7.36842105263158 7.36842105263158 7.36842105263158 7.36842105263158 5.77663671373556 5.13698630136986 5.13698630136986 5.13698630136986 5.13698630136986 5.13698630136986 9.77835723598435 9.77835723598435 14.5502645502645 14.5502645502645 14.5502645502645 8.43644544431946 8.43644544431946 8.43644544431946 8.43644544431946 13.2547864506627 13.2547864506627 13.2547864506627 8.43644544431946 8.43644544431946 8.43644544431946 3.47222222222222 3.47222222222222 7.95228628230616 17.2413793103448 3.80710659898477 9.02255639097744 9.02255639097744 9.02255639097744 9.02255639097744 28.0898876404494 4.81927710843374 4.81927710843374 4.81927710843374 16.1290322580645 16.1290322580645 16.1290322580645 0 0 3.35570469798658 3.35570469798658 10.5519480519481 10.5519480519481 8.89679715302491 8.89679715302491 8.89679715302491 3.7037037037037 3.7037037037037 3.7037037037037 3.7037037037037 6.09756097560976 6.09756097560976 6.09756097560976 6.09756097560976 6.09756097560976 6.09756097560976 10.6382978723404 10.6382978723404 5.69105691056911 2.06825232678387 2.06825232678387 2.06825232678387 6.38297872340426 6.38297872340426 0 0 0 -9999 -9999 -9999 -9999 -9999 -9999 -9999 -9999 -9999 -9999 -9999 -9999 -9999 -9999 -9999 -9999 -9999 -9999 -9999 -9999 -9999 -9999 -9999 -9999 -9999 -9999 -9999 -9999
-9999 -9999 -9999 -9999 -9999 -9999 -9999 -9999 -9999 -9999 -9999 -9999 -9999 -9999 -9999 -9999 -9999 -9999 -9999 -9999 -9999 -9999 -9999 -9999 -9999 -9999 -9999 -9999 -9999 -9999 -9999 -9999 -9999 -9999 -9999 -9999 -9999 -9999 -9999 -9999 -9999 -9999 -9999 -9999 -9999 -9999 -9999 -9999 -9999 -9999 -9999 -9999 -9999 -9999 -9999 -9999 -9999 -9999 -9999 -9999 -9999 -9999 -9999 -9999 -9999 -9999 -9999 -9999 -9999 -9999 -9999 -9999 -9999 -9999 -9999 -9999 -9999 -9999 -9999 -9999 -9999 -9999 -9999 -9999 -9999 -9999 -9999 -9999 -9999 -9999 -9999 -9999 -9999 -9999 -9999 -9999 -9999 -9999 -9999 -9999 -9999 -9999 -9999 -9999 -9999 -9999 -9999 -9999 -9999 -9999 -9999 -9999 -9999 -9999 -9999 -9999 -9999 -9999 -9999 -9999 -9999 -9999 -9999 -9999 -9999 -9999 -9999 -9999 -9999 -9999 -9999 -9999 -9999 -9999 -9999 -9999 -9999 -9999 -9999 -9999 -9999 -9999 -9999 -9999 -9999 -9999 -9999 -9999 -9999 -9999 -9999 -9999 -9999 -9999 -9999 -9999 -9999 -9999 -9999 -9999 -9999 -9999 -9999 -9999 -9999 -9999 -9999 -9999 -9999 -9999 -9999 -9999 -9999 -9999 -9999 -9999 -9999 -9999 -9999 -9999 -9999 -9999 -9999 -9999 -9999 -9999 -9999 -9999 -9999 -9999 -9999 -9999 -9999 -9999 -9999 -9999 -9999 -9999 -9999 -9999 -9999 -9999 -9999 -9999 -9999 -9999 -9999 -9999 -9999 -9999 -9999 -9999 -9999 -9999 -9999 -9999 -9999 -9999 -9999 -9999 -9999 -9999 -9999 -9999 -9999 -9999 -9999 -9999 -9999 -9999 -9999 -9999 -9999 -9999 -9999 -9999 -9999 -9999 -9999 -9999 -9999 -9999 -9999 -9999 -9999 -9999 -9999 -9999 -9999 -9999 -9999 -9999 -9999 -9999 -9999 -9999 -9999 -9999 -9999 -9999 -9999 -9999 -9999 -9999 -9999 -9999 -9999 -9999 -9999 -9999 -9999 -9999 -9999 -9999 -9999 -9999 -9999 6.86813186813187 6.86813186813187 1.73611111111111 1.73611111111111 1.73611111111111 9.64912280701754 9.64912280701754 9.64912280701754 6.23885918003565 6.23885918003565 6.23885918003565 6.23885918003565 2.76752767527675 21.6450216450216 21.6450216450216 15.0684931506849 15.0684931506849 10.4166666666667 10.4166666666667 10.4166666666667 7.56302521008403 0 0 0 0 12.6050420168067 12.6050420168067 12.6050420168067 12.6050420168067 12.6050420168067 12.6050420168067 12.6050420168067 12.6050420168067 12.6050420168067 12.6050420168067 12.6050420168067 7.36842105263158 7.36842105263158 7.36842105263158 7.36842105263158 7.36842105263158 7.36842105263158 7.36842105263158 7.36842105263158 7.36842105263158 7.36842105263158 5.13698630136986 5.13698630136986 5.13698630136986 5.13698630136986 24.4215938303342 24.4215938303342 24.4215938303342 5.94227504244482 5.94227504244482 8.43644544431946 8.43644544431946 -9999 13.2547864506627 13.2547864506627 13.2547864506627 13.2547864506627 13.2547864506627 15.3609831029186 15.3609831029186 3.47222222222222 3.47222222222222 17.2413793103448 17.2413793103448 7.90305584826133 10.221465076661 10.221465076661 10.221465076661 6.55021834061135 6.55021834061135 4.81927710843374 16.1290322580645 16.1290322580645 2.34192037470726 7.07070707070707 7.07070707070707 0 7.07070707070707 7.07070707070707 3.35570469798658 3.35570469798658 10.5519480519481 8.89679715302491 8.89679715302491 12.0967741935484 3.7037037037037 12.0967741935484 3.7037037037037 5.64334085778781 5.64334085778781 5.64334085778781 6.09756097560976 6.09756097560976 6.09756097560976 10.6382978723404 10.6382978723404 5.69105691056911 5.69105691056911 0 2.06825232678387 6.38297872340426 6.38297872340426 3.06278713629403 3.06278713629403 0 -9999 -9999 -9999 -9999 -9999 -9999 -9999 -9999 -9999 -9999 -9999 -9999 -9999 -9999 -9999 -9999 -9999 -9999 -9999 -9999 -9999 -9999 -9999 -9999 -9999 -9999 -9999 -9999
-9999 -9999 -9999 -9999 -9999 -9999 -9999 -9999 -9999 -9999 -9999 -9999 -9999 -9999 -9999 -9999 -9999 -9999 -9999 -9999 -9999 -9999 -9999 -9999 -9999 -9999 -9999 -9999 -9999 -9999 -9999 -9999 -9999 -9999 -9999 -9999 -9999 -9999 -9999 -9999 -9999 -9999 -9999 -9999 -9999 -9999 -9999 -9999 -9999 -9999 -9999 -9999 -9999 -9999 -9999 -9999 -9999 -9999 -9999 -9999 -9999 -9999 -9999 -9999 -9999 -9999 -9999 -9999 -9999 -9999 -9999 -9999 -9999 -9999 -9999 -9999 -9999 -9999 -9999 -9999 -9999 -9999 -9999 -9999 -9999 -9999 -9999 -9999 -9999 -9999 -9999 -9999 -9999 -9999 -9999 -9999 -9999 -9999 -9999 -9999 -9999 -9999 -9999 -9999 -9999 -9999 -9999 -9999 -9999 -9999 -9999 -9999 -9999 -9999 -9999 -9999 -9999 -9999 -9999 -9999 -9999 -9999 -9999 -9999 -9999 -9999 -9999 -9999 -9999 -9999 -9999 -9999 -9999 -9999 -9999 -9999 -9999 -9999 -9999 -9999 -9999 -9999 -9999 -9999 -9999 -9999 -9999 -9999 -9999 -9999 -9999 -9999 -9999 -9999 -9999 -9999 -9999 -9999 -9999 -9999 -9999 -9999 -9999 -9999 -9999 -9999 -9999 -9999 -9999 -9999 -9999 -9999 -9999 -9999 -9999 -9999 -9999 -9999 -9999 -9999 -9999 -9999 -9999 -9999 -9999 -9999 -9999 -9999 -9999 -9999 -9999 -9999 -9999 -9999 -9999 -9999 -9999 -9999 -9999 -9999 -9999 -9999 -9999 -9999 -9999 -9999 -9999 -9999 -9999 -9999 -9999 -9999 -9999 -9999 -9999 -9999 -9999 -9999 -9999 -9999 -9999 -9999 -9999 -9999 -9999 -9999 -9999 -9999 -9999 -9999 -9999 -9999 -9999 -9999 -9999 -9999 -9999 -9999 -9999 -9999 -9999 -9999 -9999 -9999 -9999 -9999 -9999 -9999 -9999 -9999 -9999 -9999 -9999 -9999 -9999 -9999 -9999 -9999 -9999 -9999 -9999 -9999 -9999 -9999 -9999 -9999 -9999 -9999 -9999 -9999 -9999 -9999 -9999 -9999 -9999 -9999 0 6.86813186813187 6.86813186813187 1.73611111111111 1.73611111111111 5.32859680284192 5.32859680284192 9.64912280701754 9.64912280701754 9.64912280701754 0 7.35294117647059 2.76752767527675 2.76752767527675 2.76752767527675 15.0684931506849 15.0684931506849 15.0684931506849 15.0684931506849 10.4166666666667 6.36363636363636 6.36363636363636 6.36363636363636 0 0 12.6050420168067 12.6050420168067 12.6050420168067 12.6050420168067 12.6050420168067 12.6050420168067 12.6050420168067 12.6050420168067 12.6050420168067 12.6050420168067 19.3726937269373 7.36842105263158 7.36842105263158 7.36842105263158 7.36842105263158 7.36842105263158 7.36842105263158 7.36842105263158 7.36842105263158 7.36842105263158 7.36842105263158 7.36842105263158 7.36842105263158 13.7551581843191 5.13698630136986 9.4017094017094 9.4017094017094 9.4017094017094 24.4215938303342 5.94227504244482 5.94227504244482 5.94227504244482 -9999 -9999 -9999 13.2547864506627 13.2547864506627 13.2547864506627 15.3609831029186 15.3609831029186 15.3609831029186 15.3609831029186 15.3609831029186 3.47222222222222 3.47222222222222 10.221465076661 10.221465076661 10.221465076661 7.90305584826133 6.55021834061135 6.55021834061135 6.55021834061135 2.34192037470726 2.34192037470726 2.34192037470726 7.07070707070707 7.07070707070707 7.07070707070707 4.47570332480818 4.47570332480818 4.47570332480818 4.47570332480818 10.5519480519481 3.71287128712871 12.0967741935484 12.0967741935484 12.0967741935484 12.0967741935484 3.73134328358209 3.73134328358209 0 5.64334085778781 0 0 0 6.09756097560976 5.69105691056911 5.69105691056911 0 0 0 0 3.06278713629403 3.06278713629403 3.06278713629403 0 -9999 -9999 -9999 -9999 -9999 -9999 -9999 -9999 -9999 -9999 -9999 -9999 -9999 -9999 -9999 -9999 -9999 -9999 -9999 -9999 -9999 -9999 -9999 -9999 -9999 -9999 -9999 -9999
-9999 -9999 -9999 -9999 -9999 -9999 -9999 -9999 -9999 -9999 -9999 -9999 -9999 -9999 -9999 -9999 -9999 -9999 -9999 -9999 -9999 -9999 -9999 -9999 -9999 -9999 -9999 -9999 -9999 -9999 -9999 -9999 -9999 -9999 -9999 -9999 -9999 -9999 -9999 -9999 -9999 -9999 -9999 -9999 -9999 -9999 -9999 -9999 -9999 -9999 -9999 -9999 -9999 -9999 -9999 -9999 -9999 -9999 -9999 -9999 -9999 -9999 -9999 -9999 -9999 -9999 -9999 -9999 -9999 -9999 -9999 -9999 -9999 -9999 -9999 -9999 -9999 -9999 -9999 -9999 -9999 -9999 -9999 -9999 -9999 -9999 -9999 -9999 -9999 -9999 -9999 -9999 -9999 -9999 -9999 -9999 -9999 -9999 -9999 -9999 -9999 -9999 -9999 -9999 -9999 -9999 -9999 -9999 -9999 -9999 -9999 -9999 -9999 -9999 -9999 -9999 -9999 -9999 -9999 -9999 -9999 -9999 -9999 -9999 -9999 -9999 -9999 -9999 -9999 -9999 -9999 -9999 -9999 -9999 -9999 -9999 -9999 -9999 -9999 -9999 -9999 -9999 -9999 -9999 -9999 -9999 -9999 -9999 -9999 -9999 -9999 -9999 -9999 -9999 -9999 -9999 -9999 -9999 -9999 -9999 -9999 -9999 -9999 -9999 -9999 -9999 -9999 -9999 -9999 -9999 -9999 -9999 -9999 -9999 -9999 -9999 -9999 -9999 -9999 -9999 -9999 -9999 -9999 -9999 -9999 -9999 -9999 -9999 -9999 -9999 -9999 -9999 -9999 -9999 -9999 -9999 -9999 -9999 -9999 -9999 -9999 -9999 -9999 -9999 -9999 -9999 -9999 -9999 -9999 -9999 -9999 -9999 -9999 -9999 -9999 -9999 -9999 -9999 -9999 -9999 -9999 -9999 -9999 -9999 -9999 -9999 -9999 -9999 -9999 -9999 -9999 -9999 -9999 -9999 -9999 -9999 -9999 -9999 -9999 -9999 -9999 -9999 -9999 -9999 -9999 -9999 -9999 -9999 -9999 -9999 -9999 -9999 -9999 -9999 -9999 -9999 -9999 -9999 -9999 -9999 -9999 -9999 -9999 -9999 -9999 -9999 -9999 -9999 -9999 -9999 -9999 -9999 -9999 -9999 -9999 -9999 0 0 0 1.73611111111111 1.73611111111111 5.32859680284192 5.32859680284192 0 0 0 10.6609808102345 7.35294117647059 7.35294117647059 2.76752767527675 6.94444444444444 6.94444444444444 15.0684931506849 15.0684931506849 10.5932203389831 10.5932203389831 6.36363636363636 6.36363636363636 6.36363636363636 6.36363636363636 12.6050420168067 12.6050420168067 12.6050420168067 12.6050420168067 12.6050420168067 12.6050420168067 12.6050420168067 12.6050420168067 12.6050420168067 12.6050420168067 12.6050420168067 19.3726937269373 19.3726937269373 19.3726937269373 7.36842105263158 7.36842105263158 7.36842105263158 7.36842105263158 7.36842105263158 7.36842105263158 7.36842105263158 7.36842105263158 7.36842105263158 13.7551581843191 13.7551581843191 13.7551581843191 13.7551581843191 9.4017094017094 9.4017094017094 12.924071082391 12.924071082391 12.924071082391 10.5401844532279 -9999 -9999 13.2547864506627 13.2547864506627 13.2547864506627 15.3609831029186 15.3609831029186 15.3609831029186 15.3609831029186 15.3609831029186 15.3609831029186 15.3609831029186 15.3609831029186 10.221465076661 10.221465076661 10.221465076661 10.221465076661 6.55021834061135 6.55021834061135 7.4468085106383 7.4468085106383 2.34192037470726 2.34192037470726 7.07070707070707 7.07070707070707 4.47570332480818 7.07070707070707 7.07070707070707 7.07070707070707 4.47570332480818 3.71287128712871 0 0 0 0 3.73134328358209 3.73134328358209 3.73134328358209 3.73134328358209 3.73134328358209 0 0 2.30061349693252 0 0 0 1.55038759689922 0 0 0 0 0 0 0 -9999 -9999 -9999 -9999 -9999 -9999 -9999 -9999 -9999 -9999 -9999 -9999 -9999 -9999 -9999 -9999 -9999 -9999 -9999 -9999 -9999 -9999 -9999 -9999 -9999 -9999 -9999 -9999
-9999 -9999 -9999 -9999 -9999 -9999 -9999 -9999 -9999 -9999 -9999 -9999 -9999 -9999 -9999 -9999 -9999 -9999 -9999 -9999 -9999 -9999 -9999 -9999 -9999 -9999 -9999 -9999 -9999 -9999 -9999 -9999 -9999 -9999 -9999 -9999 -9999 -9999 -9999 -9999 -9999 -9999 -9999 -9999 -9999 -9999 -9999 -9999 -9999 -9999 -9999 -9999 -9999 -9999 -9999 -9999 -9999 -9999 -9999 -9999 -9999 -9999 -9999 -9999 -9999 -9999 -9999 -9999 -9999 -9999 -9999 -9999 -9999 -9999 -9999 -9999 -9999 -9999 -9999 -9999 -9999 -9999 -9999 -9999 -9999 -9999 -9999 -9999 -9999 -9999 -9999 -9999 -9999 -9999 -9999 -9999 -9999 -9999 -9999 -9999 -9999 -9999 -9999 -9999 -9999 -9999 -9999 -9999 -9999 -9999 -9999 -9999 -9999 -9999 -9999 -9999 -9999 -9999 -9999 -9999 -9999 -9999 -9999 -9999 -9999 -9999 -9999 -9999 -9999 -9999 -9999 -9999 -9999 -9999 -9999 -9999 -9999 -9999 -9999 -9999 -9999 -9999 -9999 -9999 -9999 -9999 -9999 -9999 -9999 -9999 -9999 -9999 -9999 -9999 -9999 -9999 -9999 -9999 -9999 -9999 -9999 -9999 -9999 -9999 -9999 -9999 -9999 -9999 -9999 -9999 -9999 -9999 -9999 -9999 -9999 -9999 -9999 -9999 -9999 -9999 -9999 -9999 -9999 -9999 -9999 -9999 -9999 -9999 -9999 -9999 -9999 -9999 -9999 -9999 -9999 -9999 -9999 -9999 -9999 -9999 -9999 -9999 -9999 -9999 -9999 -9999 -9999 -9999 -9999 -9999 -9999 -9999 -9999 -9999 -9999 -9999 -9999 -9999 -9999 -9999 -9999 -9999 -9999 -9999 -9999 -9999 -9999 -9999 -9999 -9999 -9999 -9999 -9999 -9999 -9999 -9999 -9999 -9999 -9999 -9999 -9999 -9999 -9999 -9999 -9999 -9999 -9999 -9999 -9999 -9999 -9999 -9999 -9999 -9999 -9999 -9999 -9999 -9999 -9999 -9999 -9999 -9999 -9999 -9999 -9999 -9999 -9999 -9999 -9999 -9999 -9999 -9999 -9999 -9999 -9999 -9999 0 0 0 0 1.73611111111111 0 0 0 7 10.6609808102345 10.6609808102345 10.6609808102345 0 0 6.94444444444444 6.94444444444444 10.5932203389831 10.5932203389831 6.36363636363636 6.36363636363636 6.36363636363636 6.36363636363636 6.36363636363636 31.5904139433551 31.5904139433551 12.6050420168067 12.6050420168067 19.1218130311615 19.1218130311615 19.1218130311615 12.6050420168067 12.6050420168067 12.8617363344051 16.1904761904762 12.6050420168067 12.6050420168067 26.3852242744063 31.4685314685315 31.4685314685315 31.4685314685315 7.36842105263158 7.36842105263158 13.0718954248366 13.0718954248366 13.0718954248366 13.0718954248366 13.7551581843191 13.7551581843191 13.7551581843191 13.7551581843191 13.7551581843191 13.7551581843191 13.7551581843191 13.7551581843191 12.924071082391 9.35828877005348 10.5401844532279 10.5401844532279 10.5401844532279 -9999 -9999 15.3609831029186 15.3609831029186 15.3609831029186 15.3609831029186 15.3609831029186 15.3609831029186 15.3609831029186 15.3609831029186 15.3609831029186 15.3609831029186 15.3609831029186 10.221465076661 6.55021834061135 6.55021834061135 6.55021834061135 7.4468085106383 7.4468085106383 7.4468085106383 7.4468085106383 7.07070707070707 7.07070707070707 4.47570332480818 4.47570332480818 4.47570332480818 4.47570332480818 3.71287128712871 3.71287128712871 3.71287128712871 3.71287128712871 3.71287128712871 3.71287128712871 5.48245614035088 5.48245614035088 4.75285171102662 4.75285171102662 0 0 2.30061349693252 2.30061349693252 2.30061349693252 2.30061349693252 1.55038759689922 1.55038759689922 0 0 0 0 0 0 0 -9999 -9999 -9999 -9999 -9999 -9999 -9999 -9999 -9999 -9999 -9999 -9999 -9999 -9999 -9999 -9999 -9999 -9999 -9999 -9999 -9999 -9999 -9999 -9999 -9999 -9999 -9999 -9999
-9999 -9999 -9999 -9999 -9999 -9999 -9999 -9999 -9999 -9999 -9999 -9999 -9999 -9999 -9999 -9999 -9999 -9999 -9999 -9999 -9999 -9999 -9999 -9999 -9999 -9999 -9999 -9999 -9999 -9999 -9999 -9999 -9999 -9999 -9999 -9999 -9999 -9999 -9999 -9999 -9999 -9999 -9999 -9999 -9999 -9999 -9999 -9999 -9999 -9999 -9999 -9999 -9999 -9999 -9999 -9999 -9999 -9999 -9999 -9999 -9999 -9999 -9999 -9999 -9999 -9999 -9999 -9999 -9999 -9999 -9999 -9999 -9999 -9999 -9999 -9999 -9999 -9999 -9999 -9999 -9999 -9999 -9999 -9999 -9999 -9999 -9999 -9999 -9999 -9999 -9999 -9999 -9999 -9999 -9999 -9999 -9999 -9999 -9999 -9999 -9999 -9999 -9999 -9999 -9999 -9999 -9999 -9999 -9999 -9999 -9999 -9999 -9999 -9999 -9999 -9999 -9999 -9999 -9999 -9999 -9999 -9999 -9999 -9999 -9999 -9999 -9999 -9999 -9999 -9999 -9999 -9999 -9999 -9999 -9999 -9999 -9999 -9999 -9999 -9999 -9999 -9999 -9999 -9999 -9999 -9999 -9999 -9999 -9999 -9999 -9999 -9999 -9999 -9999 -9999 -9999 -9999 -9999 -9999 -9999 -9999 -9999 -9999 -9999 -9999 -9999 -9999 -9999 -9999 -9999 -9999 -9999 -9999 -9999 -9999 -9999 -9999 -9999 -9999 -9999 -9999 -9999 -9999 -9999 -9999 -9999 -9999 -9999 -9999 -9999 -9999 -9999 -9999 -9999 -9999 -9999 -9999 -9999 -9999 -9999 -9999 -9999 -9999 -9999 -9999 -9999 -9999 -9999 -9999 -9999 -9999 -9999 -9999 -9999 -9999 -9999 -9999 -9999 -9999 -9999 -9999 -9999 -9999 -9999 -9999 -9999 -9999 -9999 -9999 -9999 -9999 -9999 -9999 -9999 -9999 -9999 -9999 -9999 -9999 -9999 -9999 -9999 -9999 -9999 -9999 -9999 -9999 -9999 -9999 -9999 -9999 -9999 -9999 -9999 -9999 -9999 -9999 -9999 -9999 -9999 -9999 -9999 -9999 -9999 -9999 -9999 -9999 -9999 -9999 -9999 -9999 -9999 -9999 -9999 -9999 0 0 0 0 6.76246830092984 6.76246830092984 0 0 7 7 7 0 0 0 0 8.73362445414847 10.5932203389831 10.5932203389831 10.5932203389831 6.36363636363636 6.36363636363636 6.36363636363636 6.36363636363636 31.5904139433551 31.5904139433551 31.5904139433551 31.5904139433551 19.1218130311615 19.1218130311615 19.1218130311615 19.1218130311615 12.8617363344051 16.1904761904762 10.4602510460251 10.4602510460251 10.4602510460251 10.4602510460251 26.3852242744063 16.4835164835165 16.4835164835165 31.4685314685315 31.4685314685315 13.0718954248366 13.0718954248366 13.0718954248366 13.0718954248366 13.7551581843191 13.7551581843191 13.7551581843191 13.7551581843191 13.7551581843191 13.7551581843191 13.7551581843191 13.7551581843191 13.7551581843191 13.7551581843191 13.7551581843191 9.35828877005348 9.35828877005348 10.5401844532279 10.5401844532279 15.3609831029186 15.3609831029186 15.3609831029186 15.3609831029186 15.3609831029186 15.3609831029186 15.3609831029186 15.3609831029186 15.3609831029186 15.3609831029186 15.3609831029186 15.3609831029186 15.3609831029186 15.3609831029186 7.4468085106383 7.4468085106383 7.4468085106383 7.4468085106383 7.4468085106383 6.73854447439353 6.73854447439353 6.73854447439353 4.47570332480818 4.47570332480818 4.47570332480818 4.47570332480818 3.71287128712871 3.71287128712871 3.71287128712871 3.71287128712871 3.71287128712871 0 5.48245614035088 5.48245614035088 4.75285171102662 4.75285171102662 4.75285171102662 4.75285171102662 4.75285171102662 2.30061349693252 2.30061349693252 1.55038759689922 1.55038759689922 1.55038759689922 0 0 0 0 0 0 0 -9999 -9999 -9999 -9999 -9999 -9999 -9999 -9999 -9999 -9999 -9999 -9999 -9999 -9999 -9999 -9999 -9999 -9999 -9999 -9999 -9999 -9999 -9999 -9999 -9999 -9999 -9999 -9999
-9999 -9999 -9999 -9999 -9999 -9999 -9999 -9999 -9999 -9999 -9999 -9999 -9999 -9999 -9999 -9999 -9999 -9999 -9999 -9999 -9999 -9999 -9999 -9999 -9999 -9999 -9999 -9999 -9999 -9999 -9999 -9999 -9999 -9999 -9999 -9999 -9999 -9999 -9999 -9999 -9999 -9999 -9999 -9999 -9999 -9999 -9999 -9999 -9999 -9999 -9999 -9999 -9999 -9999 -9999 -9999 -9999 -9999 -9999 -9999 -9999 -9999 -9999 -9999 -9999 -9999 -9999 -9999 -9999 -9999 -9999 -9999 -9999 -9999 -9999 -9999 -9999 -9999 -9999 -9999 -9999 -9999 -9999 -9999 -9999 -9999 -9999 -9999 -9999 -9999 -9999 -9999 -9999 -9999 -9999 -9999 -9999 -9999 -9999 -9999 -9999 -9999 -9999 -9999 -9999 -9999 -9999 -9999 -9999 -9999 -9999 -9999 -9999 -9999 -9999 -9999 -9999 -9999 -9999 -9999 -9999 -9999 -9999 -9999 -9999 -9999 -9999 -9999 -9999 -9999 -9999 -9999 -9999 -9999 -9999 -9999 -9999 -9999 -9999 -9999 -9999 -9999 -9999 -9999 -9999 -9999 -9999 -9999 -9999 -9999 -9999 -9999 -9999 -9999 -9999 -9999 -9999 -9999 -9999 -9999 -9999 -9999 -9999 -9999 -9999 -9999 -9999 -9999 -9999 -9999 -9999 -9999 -9999 -9999 -9999 -9999 -9999 -9999 -9999 -9999 -9999 -9999 -9999 -9999 -9999 -9999 -9999 -9999 -9999 -9999 -9999 -9999 -9999 -9999 -9999 -9999 -9999 -9999 -9999 -9999 -9999 -9999 -9999 -9999 -9999 -9999 -9999 -9999 -9999 -9999 -9999 -9999 -9999 -9999 -9999 -9999 -9999 -9999 -9999 -9999 -9999 -9999 -9999 -9999 -9999 -9999 -9999 -9999 -9999 -9999 -9999 -9999 -9999 -9999 -9999 -9999 -9999 -9999 -9999 -9999 -9999 -9999 -9999 -9999 -9999 -9999 -9999 -9999 -9999 -9999 -9999 -9999 -9999 -9999 -9999 -9999 -9999 -9999 -9999 -9999 -9999 -9999 -9999 -9999 -9999 -9999 -9999 -9999 -9999 -9999 -9999 -9999 -9999 -9999 0 0 0 0 0 6.76246830092984 6.76246830092984 6.76246830092984 0 0 2.65017667844523 2.65017667844523 2.65017667844523 0 8.73362445414847 8.73362445414847 8.73362445414847 8.73362445414847 13.6986301369863 6.36363636363636 6.36363636363636 6.36363636363636 6.36363636363636 31.5904139433551 31.5904139433551 31.5904139433551 31.5904139433551 31.5904139433551 31.5904139433551 19.1218130311615 19.1218130311615 19.1218130311615 20.9125475285171 20.9125475285171 12.8617363344051 16.1904761904762 16.1904761904762 10.4602510460251 16.4835164835165 8.54700854700855 8.54700854700855 8.54700854700855 7.79510022271715 13.0718954248366 13.0718954248366 13.0718954248366 13.7551581843191 13.7551581843191 13.7551581843191 13.7551581843191 13.7551581843191 13.7551581843191 13.7551581843191 13.7551581843191 13.7551581843191 13.7551581843191 13.7551581843191 13.7551581843191 13.7551581843191 13.7551581843191 10.5401844532279 15.3609831029186 15.3609831029186 15.3609831029186 15.3609831029186 15.3609831029186 15.3609831029186 15.3609831029186 15.3609831029186 15.3609831029186 15.3609831029186 15.3609831029186 7.96265788028556 7.96265788028556 15.3609831029186 15.3609831029186 15.3609831029186 15.3609831029186 7.4468085106383 7.4468085106383 6.73854447439353 6.73854447439353 6.73854447439353 6.73854447439353 4.47570332480818 4.47570332480818 4.47570332480818 3.71287128712871 3.71287128712871 3.71287128712871 3.71287128712871 3.71287128712871 3.71287128712871 3.52112676056338 0 0 0 5.48245614035088 5.48245614035088 3.01204819277108 3.01204819277108 0 0 0 1.55038759689922 7.35294117647059 7.35294117647059 0 0 0 0 0 0 -9999 -9999 -9999 -9999 -9999 -9999 -9999 -9999 -9999 -9999 -9999 -9999 -9999 -9999 -9999 -9999 -9999 -9999 -9999 -9999 -9999 -9999 -9999 -9999 -9999 -9999 -9999 -9999
-9999 -9999 -9999 -9999 -9999 -9999 -9999 -9999 -9999 -9999 -9999 -9999 -9999 -9999 -9999 -9999 -9999 -9999 -9999 -9999 -9999 -9999 -9999 -9999 -9999 -9999 -9999 -9999 -9999 -9999 -9999 -9999 -9999 -9999 -9999 -9999 -9999 -9999 -9999 -9999 -9999 -9999 -9999 -9999 -9999 -9999 -9999 -9999 -9999 -9999 -9999 -9999 -9999 -9999 -9999 -9999 -9999 -9999 -9999 -9999 -9999 -9999 -9999 -9999 -9999 -9999 -9999 -9999 -9999 -9999 -9999 -9999 -9999 -9999 -9999 -9999 -9999 -9999 -9999 -9999 -9999 -9999 -9999 -9999 -9999 -9999 -9999 -9999 -9999 -9999 -9999 -9999 -9999 -9999 -9999 -9999 -9999 -9999 -9999 -9999 -9999 -9999 -9999 -9999 -9999 -9999 -9999 -9999 -9999 -9999 -9999 -9999 -9999 -9999 -9999 -9999 -9999 -9999 -9999 -9999 -9999 -9999 -9999 -9999 -9999 -9999 -9999 -9999 -9999 -9999 -9999 -9999 -9999 -9999 -9999 -9999 -9999 -9999 -9999 -9999 -9999 -9999 -9999 -9999 -9999 -9999 -9999 -9999 -9999 -9999 -9999 -9999 -9999 -9999 -9999 -9999 -9999 -9999 -9999 -9999 -9999 -9999 -9999 -9999 -9999 -9999 -9999 -9999 -9999 -9999 -9999 -9999 -9999 -9999 -9999 -9999 -9999 -9999 -9999 -9999 -9999 -9999 -9999 -9999 -9999 -9999 -9999 -9999 -9999 -9999 -9999 -9999 -9999 -9999 -9999 -9999 -9999 -9999 -9999 -9999 -9999 -9999 -9999 -9999 -9999 -9999 -9999 -9999 -9999 -9999 -9999 -9999 -9999 -9999 -9999 -9999 -9999 -9999 -9999 -9999 -9999 -9999 -9999 -9999 -9999 -9999 -9999 -9999 -9999 -9999 -9999 -9999 -9999 -9999 -9999 -9999 -9999 -9999 -9999 -9999 -9999 -9999 -9999 -9999 -9999 -9999 -9999 -9999 -9999 -9999 -9999 -9999 -9999 -9999 -9999 -9999 -9999 -9999 -9999 -9999 -9999 -9999 -9999 -9999 -9999 -9999 -9999 -9999 -9999 -9999 -9999 -9999 -9999 -9999 -9999 4.3010752688172 0 1.61290322580645 1.61290322580645 0 6.76246830092984 6.76246830092984 6.76246830092984 6.76246830092984 2.65017667844523 2.65017667844523 0 0 8.73362445414847 8.73362445414847 8.73362445414847 13.6986301369863 13.6986301369863 13.6986301369863 6.36363636363636 6.36363636363636 6.36363636363636 -9999 31.5904139433551 31.5904139433551 31.5904139433551 31.5904139433551 31.5904139433551 31.5904139433551 19.1218130311615 19.1218130311615 20.9125475285171 20.9125475285171 12.8617363344051 22.3752151462995 22.3752151462995 22.3752151462995 22.3752151462995 22.3752151462995 8.54700854700855 7.79510022271715 13.0718954248366 22.5102319236016 22.5102319236016 22.5102319236016 16.2721893491124 16.2721893491124 13.7551581843191 13.7551581843191 13.7551581843191 13.7551581843191 13.7551581843191 13.7551581843191 13.7551581843191 13.7551581843191 13.7551581843191 13.7551581843191 13.7551581843191 13.7551581843191 42.1195652173913 42.1195652173913 42.1195652173913 15.7657657657658 15.3609831029186 15.3609831029186 15.3609831029186 15.3609831029186 10.5988341282459 15.3609831029186 15.3609831029186 15.3609831029186 7.96265788028556 7.96265788028556 7.96265788028556 0 15.3609831029186 15.3609831029186 15.3609831029186 15.3609831029186 17.921146953405 6.73854447439353 6.73854447439353 6.73854447439353 4.47570332480818 4.47570332480818 4.27350427350427 4.27350427350427 4.27350427350427 4.27350427350427 4.27350427350427 3.71287128712871 3.52112676056338 0 0 0 3.01204819277108 3.01204819277108 3.01204819277108 3.01204819277108 3.01204819277108 3.01204819277108 2.58732212160414 0 2.58732212160414 7.35294117647059 7.35294117647059 7.35294117647059 2.64084507042254 2.64084507042254 0 0 0 0 -9999 -9999 -9999 -9999 -9999 -9999 -9999 -9999 -9999 -9999 -9999 -9999 -9999 -9999 -9999 -9999 -9999 -9999 -9999 -9999 -9999 -9999 -9999 -9999 -9999 -9999 -9999
-9999 -9999 -9999 -9999 -9999 -9999 -9999 -9999 -9999 -9999 -9999 -9999 -9999 -9999 -9999 -9999 -9999 -9999 -9999 -9999 -9999 -9999 -9999 -9999 -9999 -9999 -9999 -9999 -9999 -9999 -9999 -9999 -9999 -9999 -9999 -9999 -9999 -9999 -9999 -9999 -9999 -9999 -9999 -9999 -9999 -9999 -9999 -9999 -9999 -9999 -9999 -9999 -9999 -9999 -9999 -9999 -9999 -9999 -9999 -9999 -9999 -9999 -9999 -9999 -9999 -9999 -9999 -9999 -9999 -9999 -9999 -9999 -9999 -9999 -9999 -9999 -9999 -9999 -9999 -9999 -9999 -9999 -9999 -9999 -9999 -9999 -9999 -9999 -9999 -9999 -9999 -9999 -9999 -9999 -9999 -9999 -9999 -9999 -9999 -9999 -9999 -9999 -9999 -9999 -9999 -9999 -9999 -9999 -9999 -9999 -9999 -9999 -9999 -9999 -9999 -9999 -9999 -9999 -9999 -9999 -9999 -9999 -9999 -9999 -9999 -9999 -9999 -9999 -9999 -9999 -9999 -9999 -9999 -9999 -9999 -9999 -9999 -9999 -9999 -9999 -9999 -9999 -9999 -9999 -9999 -9999 -9999 -9999 -9999 -9999 -9999 -9999 -9999 -9999 -9999 -9999 -9999 -9999 -9999 -9999 -9999 -9999 -9999 -9999 -9999 -9999 -9999 -9999 -9999 -9999 -9999 -9999 -9999 -9999 -9999 -9999 -9999 -9999 -9999 -9999 -9999 -9999 -9999 -9999 -9999 -9999 -9999 -9999 -9999 -9999 -9999 -9999 -9999 -9999 -9999 -9999 -9999 -9999 -9999 -9999 -9999 -9999 -9999 -9999 -9999 -9999 -9999 -9999 -9999 -9999 -9999 -9999 -9999 -9999 -9999 -9999 -9999 -9999 -9999 -9999 -9999 -9999 -9999 -9999 -9999 -9999 -9999 -9999 -9999 -9999 -9999 -9999 -9999 -9999 -9999 -9999 -9999 -9999 -9999 -9999 -9999 -9999 -9999 -9999 -9999 -9999 -9999 -9999 -9999 -9999 -9999 -9999 -9999 -9999 -9999 -9999 -9999 -9999 -9999 -9999 -9999 -9999 -9999 -9999 -9999 -9999 -9999 -9999 -9999 -9999 -9999 -9999 -9999 -9999 4.3010752688172 4.3010752688172 4.3010752688172 1.61290322580645 1.61290322580645 1.61290322580645 8.88529886914378 6.76246830092984 6.76246830092984 6.76246830092984 6.76246830092984 5.70342205323194 0 0 0 7.10227272727273 7.10227272727273 13.6986301369863 13.6986301369863 13.6986301369863 13.6986301369863 6.36363636363636 -9999 -9999 -9999 -9999 23.5294117647059 31.5904139433551 31.5904139433551 31.5904139433551 31.5904139433551 9.68523002421307 19.1218130311615 19.1218130311615 22.3752151462995 22.3752151462995 22.3752151462995 22.3752151462995 22.3752151462995 22.3752151462995 22.3752151462995 22.3752151462995 18.75 18.75 22.5102319236016 16.2721893491124 16.2721893491124 35.8255451713396 35.8255451713396 35.8255451713396 13.7551581843191 13.7551581843191 13.7551581843191 13.7551581843191 13.7551581843191 13.7551581843191 13.7551581843191 13.7551581843191 13.7551581843191 42.1195652173913 42.1195652173913 42.1195652173913 42.1195652173913 15.7657657657658 20.7253886010363 20.7253886010363 15.7657657657658 15.3609831029186 10.5988341282459 10.5988341282459 10.5988341282459 13.1195335276968 13.1195335276968 7.96265788028556 7.96265788028556 0 2.27790432801822 2.27790432801822 15.3609831029186 0 0 17.921146953405 17.921146953405 4.47570332480818 4.47570332480818 4.47570332480818 4.27350427350427 4.27350427350427 4.27350427350427 4.27350427350427 4.27350427350427 3.52112676056338 3.52112676056338 3.52112676056338 3.52112676056338 3.52112676056338 10.0401606425703 3.01204819277108 3.01204819277108 3.01204819277108 10.0401606425703 10.0401606425703 0 2.58732212160414 0 0 0 0 0 2.64084507042254 2.64084507042254 0 0 0 -9999 -9999 -9999 -9999 -9999 -9999 -9999 -9999 -9999 -9999 -9999 -9999 -9999 -9999 -9999 -9999 -9999 -9999 -9999 -9999 -9999 -9999 -9999 -9999 -9999 -9999 -9999
-9999 -9999 -9999 -9999 -9999 -9999 -9999 -9999 -9999 -9999 -9999 -9999 -9999 -9999 -9999 -9999 -9999 -9999 -9999 -9999 -9999 -9999 -9999 -9999 -9999 -9999 -9999 -9999 -9999 -9999 -9999 -9999 -9999 -9999 -9999 -9999 -9999 -9999 -9999 -9999 -9999 -9999 -9999 -9999 -9999 -9999 -9999 -9999 -9999 -9999 -9999 -9999 -9999 -9999 -9999 -9999 -9999 -9999 -9999 -9999 -9999 -9999 -9999 -9999 -9999 -9999 -9999 -9999 -9999 -9999 -9999 -9999 -9999 -9999 -9999 -9999 -9999 -9999 -9999 -9999 -9999 -9999 -9999 -9999 -9999 -9999 -9999 -9999 -9999 -9999 -9999 -9999 -9999 -9999 -9999 -9999 -9999 -9999 -9999 -9999 -9999 -9999 -9999 -9999 -9999 -9999 -9999 -9999 -9999 -9999 -9999 -9999 -9999 -9999 -9999 -9999 -9999 -9999 -9999 -9999 -9999 -9999 -9999 -9999 -9999 -9999 -9999 -9999 -9999 -9999 -9999 -9999 -9999 -9999 -9999 -9999 -9999 -9999 -9999 -9999 -9999 -9999 -9999 -9999 -9999 -9999 -9999 -9999 -9999 -9999 -9999 -9999 -9999 -9999 -9999 -9999 -9999 -9999 -9999 -9999 -9999 -9999 -9999 -9999 -9999 -9999 -9999 -9999 -9999 -9999 -9999 -9999 -9999 -9999 -9999 -9999 -9999 -9999 -9999 -9999 -9999 -9999 -9999 -9999 -9999 -9999 -9999 -9999 -9999 -9999 -9999 -9999 -9999 -9999 -9999 -9999 -9999 -9999 -9999 -9999 -9999 -9999 -9999 -9999 -9999 -9999 -9999 -9999 -9999 -9999 -9999 -9999 -9999 -9999 -9999 -9999 -9999 -9999 -9999 -9999 -9999 -9999 -9999 -9999 -9999 -9999 -9999 -9999 -9999 -9999 -9999 -9999 -9999 -9999 -9999 -9999 -9999 -9999 -9999 -9999 -9999 -9999 -9999 -9999 -9999 -9999 -9999 -9999 -9999 -9999 -9999 -9999 -9999 -9999 -9999 -9999 -9999 -9999 -9999 -9999 -9999 -9999 -9999 -9999 -9999 -9999 -9999 -9999 -9999 -9999 -9999 -9999 25.4988913525499 25.4988913525499 4.3010752688172 4.3010752688172 4.43262411347518 4.43262411347518 8.88529886914378 8.88529886914378 8.88529886914378 8.88529886914378 5.70342205323194 5.70342205323194 5.70342205323194 5.70342205323194 5.70342205323194 0 0 0 7.10227272727273 13.6986301369863 13.6986301369863 13.6986301369863 13.6986301369863 -9999 -9999 -9999 -9999 -9999 23.5294117647059 23.5294117647059 23.5294117647059 31.5904139433551 31.5904139433551 9.68523002421307 9.68523002421307 9.68523002421307 9.68523002421307 22.3752151462995 22.3752151462995 22.3752151462995 22.3752151462995 22.3752151462995 32.4786324786325 32.4786324786325 32.4786324786325 18.75 20.2020202020202 20.2020202020202 26.9058295964126 26.9058295964126 35.8255451713396 13.7551581843191 13.7551581843191 14.7392290249433 16.4543524416136 16.4543524416136 13.7551581843191 13.7551581843191 13.7551581843191 42.1195652173913 42.1195652173913 42.1195652173913 42.1195652173913 42.1195652173913 42.1195652173913 42.1195652173913 15.7657657657658 20.7253886010363 15.7657657657658 8.70406189555126 8.70406189555126 8.70406189555126 10.5988341282459 10.5988341282459 13.1195335276968 13.1195335276968 0 0 2.27790432801822 2.27790432801822 2.27790432801822 2.27790432801822 17.921146953405 21.4681440443213 21.4681440443213 21.4681440443213 9.46643717728055 9.46643717728055 4.27350427350427 4.27350427350427 4.27350427350427 4.27350427350427 4.27350427350427 3.52112676056338 3.52112676056338 3.52112676056338 0 0 0 10.0401606425703 10.0401606425703 10.0401606425703 10.0401606425703 0 2.58732212160414 2.58732212160414 0 0 0 0 4.69798657718121 4.69798657718121 4.22297297297297 4.22297297297297 0 0 -9999 -9999 -9999 -9999 -9999 -9999 -9999 -9999 -9999 -9999 -9999 -9999 -9999 -9999 -9999 -9999 -9999 -9999 -9999 -9999 -9999 -9999 -9999 -9999 -9999 -9999 -9999
-9999 -9999 -9999 -9999 -9999 -9999 -9999 -9999 -9999 -9999 -9999 -9999 -9999 -9999 -9999 -9999 -9999 -9999 -9999 -9999 -9999 -9999 -9999 -9999 -9999 -9999 -9999 -9999 -9999 -9999 -9999 -9999 -9999 -9999 -9999 -9999 -9999 -9999 -9999 -9999 -9999 -9999 -9999 -9999 -9999 -9999 -9999 -9999 -9999 -9999 -9999 -9999 -9999 -9999 -9999 -9999 -9999 -9999 -9999 -9999 -9999 -9999 -9999 -9999 -9999 -9999 -9999 -9999 -9999 -9999 -9999 -9999 -9999 -9999 -9999 -9999 -9999 -9999 -9999 -9999 -9999 -9999 -9999 -9999 -9999 -9999 -9999 -9999 -9999 -9999 -9999 -9999 -9999 -9999 -9999 -9999 -9999 -9999 -9999 -9999 -9999 -9999 -9999 -9999 -9999 -9999 -9999 -9999 -9999 -9999 -9999 -9999 -9999 -9999 -9999 -9999 -9999 -9999 -9999 -9999 -9999 -9999 -9999 -9999 -9999 -9999 -9999 -9999 -9999 -9999 -9999 -9999 -9999 -9999 -9999 -9999 -9999 -9999 -9999 -9999 -9999 -9999 -9999 -9999 -9999 -9999 -9999 -9999 -9999 -9999 -9999 -9999 -9999 -9999 -9999 -9999 -9999 -9999 -9999 -9999 -9999 -9999 -9999 -9999 -9999 -9999 -9999 -9999 -9999 -9999 -9999 -9999 -9999 -9999 -9999 -9999 -9999 -9999 -9999 -9999 -9999 -9999 -9999 -9999 -9999 -9999 -9999 -9999 -9999 -9999 -9999 -9999 -9999 -9999 -9999 -9999 -9999 -9999 -9999 -9999 -9999 -9999 -9999 -9999 -9999 -9999 -9999 -9999 -9999 -9999 -9999 -9999 -9999 -9999 -9999 -9999 -9999 -9999 -9999 -9999 -9999 -9999 -9999 -9999 -9999 -9999 -9999 -9999 -9999 -9999 -9999 -9999 -9999 -9999 -9999 -9999 -9999 -9999 -9999 -9999 -9999 -9999 -9999 -9999 -9999 -9999 -9999 -9999 -9999 -9999 -9999 -9999 -9999 -9999 -9999 -9999 -9999 -9999 -9999 -9999 -9999 -9999 -9999 -9999 -9999 -9999 -9999 -9999 -9999 -9999 -9999 -9999 11.0565110565111 25.4988913525499 25.4988913525499 7.45156482861401 4.43262411347518 4.43262411347518 4.43262411347518 8.88529886914378 11.1464968152866 11.1464968152866 11.1464968152866 5.70342205323194 5.70342205323194 6.71140939597315 6.71140939597315 4.0983606557377 0 11.2262521588946 11.2262521588946 13.6986301369863 13.6986301369863 13.6986301369863 -9999 -9999 -9999 -9999 -9999 28.4697508896797 28.4697508896797 23.5294117647059 23.5294117647059 33.5753176043557 33.5753176043557 33.5753176043557 33.5753176043557 33.5753176043557 9.68523002421307 9.68523002421307 22.3752151462995 22.3752151462995 22.3752151462995 22.3752151462995 32.4786324786325 33.5917312661499 33.5917312661499 32.4786324786325 20.2020202020202 26.9058295964126 26.9058295964126 26.9058295964126 26.9058295964126 14.7392290249433 14.7392290249433 16.4543524416136 16.4543524416136 16.4543524416136 16.4543524416136 16.4543524416136 42.1195652173913 42.1195652173913 42.1195652173913 42.1195652173913 42.1195652173913 42.1195652173913 42.1195652173913 42.1195652173913 15.7657657657658 15.7657657657658 33.9506172839506 33.9506172839506 23.1023102310231 23.1023102310231 23.9520958083832 23.9520958083832 23.9520958083832 0 0 0 0 9.06735751295337 5.31914893617021 17.921146953405 17.921146953405 17.921146953405 9.46643717728055 9.46643717728055 9.46643717728055 9.46643717728055 9.46643717728055 9.46643717728055 9.46643717728055 9.46643717728055 0 3.52112676056338 3.52112676056338 3.52112676056338 0 0 0 0 10.0401606425703 10.0401606425703 10.0401606425703 2.58732212160414 2.58732212160414 0 0 0 0 0 0 4.22297297297297 4.22297297297297 4.22297297297297 0 0 0 -9999 -9999 -9999 -9999 -9999 -9999 -9999 -9999 -9999 -9999 -9999 -9999 -9999 -9999 -9999 -9999 -9999 -9999 -9999 -9999 -9999 -9999 -9999 -9999 -9999 -9999
-9999 -9999 -9999 -9999 -9999 -9999 -9999 -9999 -9999 -9999 -9999 -9999 -9999 -9999 -9999 -9999 -9999 -9999 -9999 -9999 -9999 -9999 -9999 -9999 -9999 -9999 -9999 -9999 -9999 -9999 -9999 -9999 -9999 -9999 -9999 -9999 -9999 -9999 -9999 -9999 -9999 -9999 -9999 -9999 -9999 -9999 -9999 -9999 -9999 -9999 -9999 -9999 -9999 -9999 -9999 -9999 -9999 -9999 -9999 -9999 -9999 -9999 -9999 -9999 -9999 -9999 -9999 -9999 -9999 -9999 -9999 -9999 -9999 -9999 -9999 -9999 -9999 -9999 -9999 -9999 -9999 -9999 -9999 -9999 -9999 -9999 -9999 -9999 -9999 -9999 -9999 -9999 -9999 -9999 -9999 -9999 -9999 -9999 -9999 -9999 -9999 -9999 -9999 -9999 -9999 -9999 -9999 -9999 -9999 -9999 -9999 -9999 -9999 -9999 -9999 -9999 -9999 -9999 -9999 -9999 -9999 -9999 -9999 -9999 -9999 -9999 -9999 -9999 -9999 -9999 -9999 -9999 -9999 -9999 -9999 -9999 -9999 -9999 -9999 -9999 -9999 -9999 -9999 -9999 -9999 -9999 -9999 -9999 -9999 -9999 -9999 -9999 -9999 -9999 -9999 -9999 -9999 -9999 -9999 -9999 -9999 -9999 -9999 -9999 -9999 -9999 -9999 -9999 -9999 -9999 -9999 -9999 -9999 -9999 -9999 -9999 -9999 -9999 -9999 -9999 -9999 -9999 -9999 -9999 -9999 -9999 -9999 -9999 -9999 -9999 -9999 -9999 -9999 -9999 -9999 -9999 -9999 -9999 -9999 -9999 -9999 -9999 -9999 -9999 -9999 -9999 -9999 -9999 -9999 -9999 -9999 -9999 -9999 -9999 -9999 -9999 -9999 -9999 -9999 -9999 -9999 -9999 -9999 -9999 -9999 -9999 -9999 -9999 -9999 -9999 -9999 -9999 -9999 -9999 -9999 -9999 -9999 -9999 -9999 -9999 -9999 -9999 -9999 -9999 -9999 -9999 -9999 -9999 -9999 -9999 -9999 -9999 -9999 -9999 -9999 -9999 -9999 -9999 -9999 -9999 -9999 -9999 -9999 -9999 -9999 -9999 -9999 -9999 -9999 -9999 -9999 11.0565110565111 11.0565110565111 11.0565110565111 2.52525252525253 7.45156482861401 7.45156482861401 4.43262411347518 0 0 11.1464968152866 11.1464968152866 11.1464968152866 7.98722044728434 6.71140939597315 6.71140939597315 6.71140939597315 11.2262521588946 11.2262521588946 11.2262521588946 11.2262521588946 11.2262521588946 13.6986301369863 33.003300330033 -9999 -9999 -9999 -9999 -9999 -9999 28.4697508896797 28.4697508896797 25.7801899592944 33.5753176043557 33.5753176043557 33.5753176043557 33.5753176043557 33.5753176043557 33.5753176043557 9.92555831265509 9.68523002421307 11.2107623318386 11.2107623318386 32.4786324786325 33.5917312661499 33.5917312661499 33.5917312661499 33.5917312661499 26.9058295964126 26.9058295964126 26.9058295964126 26.9058295964126 26.9058295964126 26.9058295964126 16.4543524416136 16.4543524416136 16.4543524416136 16.4543524416136 16.4543524416136 23.4375 23.4375 23.4375 23.4375 42.1195652173913 42.1195652173913 42.1195652173913 42.1195652173913 42.1195652173913 15.7657657657658 15.7657657657658 5 33.9506172839506 33.9506172839506 23.9520958083832 23.9520958083832 5 5 0 0 0 0 9.06735751295337 0 5.31914893617021 5.31914893617021 9.46643717728055 9.46643717728055 9.46643717728055 9.46643717728055 9.46643717728055 9.46643717728055 9.46643717728055 9.46643717728055 9.46643717728055 -9999 -9999 -9999 -9999 -9999 0 0 0 0 0 0 0 0 4.99001996007984 4.99001996007984 0 0 0 0 0 0 0 0 0 0 -9999 -9999 -9999 -9999 -9999 -9999 -9999 -9999 -9999 -9999 -9999 -9999 -9999 -9999 -9999 -9999 -9999 -9999 -9999 -9999 -9999 -9999 -9999 -9999 -9999 -9999
-9999 -9999 -9999 -9999 -9999 -9999 -9999 -9999 -9999 -9999 -9999 -9999 -9999 -9999 -9999 -9999 -9999 -9999 -9999 -9999 -9999 -9999 -9999 -9999 -9999 -9999 -9999 -9999 -9999 -9999 -9999 -9999 -9999 -9999 -9999 -9999 -9999 -9999 -9999 -9999 -9999 -9999 -9999 -9999 -9999 -9999 -9999 -9999 -9999 -9999 -9999 -9999 -9999 -9999 -9999 -9999 -9999 -9999 -9999 -9999 -9999 -9999 -9999 -9999 -9999 -9999 -9999 -9999 -9999 -9999 -9999 -9999 -9999 -9999 -9999 -9999 -9999 -9999 -9999 -9999 -9999 -9999 -9999 -9999 -9999 -9999 -9999 -9999 -9999 -9999 -9999 -9999 -9999 -9999 -9999 -9999 -9999 -9999 -9999 -9999 -9999 -9999 -9999 -9999 -9999 -9999 -9999 -9999 -9999 -9999 -9999 -9999 -9999 -9999 -9999 -9999 -9999 -9999 -9999 -9999 -9999 -9999 -9999 -9999 -9999 -9999 -9999 -9999 -9999 -9999 -9999 -9999 -9999 -9999 -9999 -9999 -9999 -9999 -9999 -9999 -9999 -9999 -9999 -9999 -9999 -9999 -9999 -9999 -9999 -9999 -9999 -9999 -9999 -9999 -9999 -9999 -9999 -9999 -9999 -9999 -9999 -9999 -9999 -9999 -9999 -9999 -9999 -9999 -9999 -9999 -9999 -9999 -9999 -9999 -9999 -9999 -9999 -9999 -9999 -9999 -9999 -9999 -9999 -9999 -9999 -9999 -9999 -9999 -9999 -9999 -9999 -9999 -9999 -9999 -9999 -9999 -9999 -9999 -9999 -9999 -9999 -9999 -9999 -9999 -9999 -9999 -9999 -9999 -9999 -9999 -9999 -9999 -9999 -9999 -9999 -9999 -9999 -9999 -9999 -9999 -9999 -9999 -9999 -9999 -9999 -9999 -9999 -9999 -9999 -9999 -9999 -9999 -9999 -9999 -9999 -9999 -9999 -9999 -9999 -9999 -9999 -9999 -9999 -9999 -9999 -9999 -9999 -9999 -9999 -9999 -9999 -9999 -9999 -9999 -9999 -9999 -9999 -9999 -9999 -9999 -9999 -9999 -9999 -9999 -9999 -9999 -9999 -9999 -9999 -9999 5.52486187845304 5.52486187845304 11.0565110565111 2.52525252525253 2.52525252525253 2.52525252525253 7.45156482861401 7.45156482861401 0 0 0 7.98722044728434 7.98722044728434 7.98722044728434 7.98722044728434 9.21658986175115 9.21658986175115 11.2262521588946 11.2262521588946 11.2262521588946 11.2262521588946 11.2262521588946 33.003300330033 33.003300330033 33.003300330033 33.003300330033 -9999 -9999 -9999 -9999 -9999 -9999 25.7801899592944 25.7801899592944 25.7801899592944 33.5753176043557 33.5753176043557 14.5985401459854 14.5985401459854 9.92555831265509 9.92555831265509 9.68523002421307 11.2107623318386 11.2107623318386 11.2107623318386 33.5917312661499 33.5917312661499 33.596837944664 33.596837944664 26.9058295964126 26.9058295964126 26.9058295964126 26.9058295964126 26.9058295964126 16.4543524416136 16.4543524416136 16.4543524416136 23.4375 23.4375 23.4375 0 0 18.7393526405451 18.7393526405451 18.7393526405451 19.8412698412698 42.1195652173913 42.1195652173913 42.1195652173913 5 5 5 5 5 5 5 0 0 0 0 0 0 0 0 0 9.46643717728055 9.46643717728055 9.46643717728055 9.46643717728055 9.46643717728055 9.46643717728055 9.46643717728055 9.46643717728055 -9999 -9999 -9999 -9999 -9999 -9999 -9999 -9999 -9999 0 0 0 0 4.99001996007984 4.99001996007984 4.99001996007984 0 0 0 0 0 0 0 0 0 0 0 0 -9999 -9999 -9999 -9999 -9999 -9999 -9999 -9999 -9999 -9999 -9999 -9999 -9999 -9999 -9999 -9999 -9999 -9999 -9999 -9999 -9999 -9999 -9999 -9999
-9999 -9999 -9999 -9999 -9999 -9999 -9999 -9999 -9999 -9999 -9999 -9999 -9999 -9999 -9999 -9999 -9999 -9999 -9999 -9999 -9999 -9999 -9999 -9999 -9999 -9999 -9999 -9999 -9999 -9999 -9999 -9999 -9999 -9999 -9999 -9999 -9999 -9999 -9999 -9999 -9999 -9999 -9999 -9999 -9999 -9999 -9999 -9999 -9999 -9999 -9999 -9999 -9999 -9999 -9999 -9999 -9999 -9999 -9999 -9999 -9999 -9999 -9999 -9999 -9999 -9999 -9999 -9999 -9999 -9999 -9999 -9999 -9999 -9999 -9999 -9999 -9999 -9999 -9999 -9999 -9999 -9999 -9999 -9999 -9999 -9999 -9999 -9999 -9999 -9999 -9999 -9999 -9999 -9999 -9999 -9999 -9999 -9999 -9999 -9999 -9999 -9999 -9999 -9999 -9999 -9999 -9999 -9999 -9999 -9999 -9999 -9999 -9999 -9999 -9999 -9999 -9999 -9999 -9999 -9999 -9999 -9999 -9999 -9999 -9999 -9999 -9999 -9999 -9999 -9999 -9999 -9999 -9999 -9999 -9999 -9999 -9999 -9999 -9999 -9999 -9999 -9999 -9999 -9999 -9999 -9999 -9999 -9999 -9999 -9999 -9999 -9999 -9999 -9999 -9999 -9999 -9999 -9999 -9999 -9999 -9999 -9999 -9999 -9999 -9999 -9999 -9999 -9999 -9999 -9999 -9999 -9999 -9999 -9999 -9999 -9999 -9999 -9999 -9999 -9999 -9999 -9999 -9999 -9999 -9999 -9999 -9999 -9999 -9999 -9999 -9999 -9999 -9999 -9999 -9999 -9999 -9999 -9999 -9999 -9999 -9999 -9999 -9999 -9999 -9999 -9999 -9999 -9999 -9999 -9999 -9999 -9999 -9999 -9999 -9999 -9999 -9999 -9999 -9999 -9999 -9999 -9999 -9999 -9999 -9999 -9999 -9999 -9999 -9999 -9999 -9999 -9999 -9999 -9999 -9999 -9999 -9999 -9999 -9999 -9999 -9999 -9999 -9999 -9999 -9999 -9999 -9999 -9999 -9999 -9999 -9999 -9999 -9999 -9999 -9999 -9999 -9999 -9999 -9999 -9999 -9999 -9999 -9999 -9999 -9999 -9999 -9999 -9999 -9999 -9999 5.52486187845304 5.52486187845304 1.73310225303293 1.73310225303293 2.52525252525253 2.52525252525253 5.46448087431694 7.05645161290323 0 0 0 3.47826086956522 6.8649885583524 6.8649885583524 6.8649885583524 9.21658986175115 9.21658986175115 9.21658986175115 11.2262521588946 11.2262521588946 11.2262521588946 11.2262521588946 33.003300330033 33.003300330033 33.003300330033 33.003300330033 33.003300330033 33.003300330033 -9999 -9999 -9999 15.3061224489796 7.90861159929701 19.9704142011834 19.9704142011834 14.5985401459854 14.5985401459854 14.5985401459854 9.92555831265509 9.92555831265509 20.7920792079208 9.92555831265509 9.92555831265509 11.2107623318386 11.2107623318386 11.2107623318386 33.596837944664 33.596837944664 33.596837944664 33.596837944664 33.596837944664 29.4117647058824 26.9058295964126 16.4543524416136 16.4543524416136 16.4543524416136 16.4543524416136 23.4375 23.4375 23.4375 0 18.7393526405451 15.180265654649 13.4961439588689 13.4961439588689 19.8412698412698 19.8412698412698 42.1195652173913 42.1195652173913 23.0326295585413 15.9090909090909 5 5 5 5 0 0 0 0 0 0 2.55754475703325 2.55754475703325 2.55754475703325 2.55754475703325 2.55754475703325 2.55754475703325 2.55754475703325 9.46643717728055 9.46643717728055 9.46643717728055 9.46643717728055 9.46643717728055 -9999 -9999 -9999 -9999 -9999 -9999 -9999 -9999 -9999 -9999 5.46448087431694 0 0 0 0 0 0 0 0 0 0 0 0 0 0 0 0 0 -9999 -9999 -9999 -9999 -9999 -9999 -9999 -9999 -9999 -9999 -9999 -9999 -9999 -9999 -9999 -9999 -9999 -9999 -9999 -9999 -9999 -9999 -9999 -9999
-9999 -9999 -9999 -9999 -9999 -9999 -9999 -9999 -9999 -9999 -9999 -9999 -9999 -9999 -9999 -9999 -9999 -9999 -9999 -9999 -9999 -9999 -9999 -9999 -9999 -9999 -9999 -9999 -9999 -9999 -9999 -9999 -9999 -9999 -9999 -9999 -9999 -9999 -9999 -9999 -9999 -9999 -9999 -9999 -9999 -9999 -9999 -9999 -9999 -9999 -9999 -9999 -9999 -9999 -9999 -9999 -9999 -9999 -9999 -9999 -9999 -9999 -9999 -9999 -9999 -9999 -9999 -9999 -9999 -9999 -9999 -9999 -9999 -9999 -9999 -9999 -9999 -9999 -9999 -9999 -9999 -9999 -9999 -9999 -9999 -9999 -9999 -9999 -9999 -9999 -9999 -9999 -9999 -9999 -9999 -9999 -9999 -9999 -9999 -9999 -9999 -9999 -9999 -9999 -9999 -9999 -9999 -9999 -9999 -9999 -9999 -9999 -9999 -9999 -9999 -9999 -9999 -9999 -9999 -9999 -9999 -9999 -9999 -9999 -9999 -9999 -9999 -9999 -9999 -9999 -9999 -9999 -9999 -9999 -9999 -9999 -9999 -9999 -9999 -9999 -9999 -9999 -9999 -9999 -9999 -9999 -9999 -9999 -9999 -9999 -9999 -9999 -9999 -9999 -9999 -9999 -9999 -9999 -9999 -9999 -9999 -9999 -9999 -9999 -9999 -9999 -9999 -9999 -9999 -9999 -9999 -9999 -9999 -9999 -9999 -9999 -9999 -9999 -9999 -9999 -9999 -9999 -9999 -9999 -9999 -9999 -9999 -9999 -9999 -9999 -9999 -9999 -9999 -9999 -9999 -9999 -9999 -9999 -9999 -9999 -9999 -9999 -9999 -9999 -9999 -9999 -9999 -9999 -9999 -9999 -9999 -9999 -9999 -9999 -9999 -9999 -9999 -9999 -9999 -9999 -9999 -9999 -9999 -9999 -9999 -9999 -9999 -9999 -9999 -9999 -9999 -9999 -9999 -9999 -9999 -9999 -9999 -9999 -9999 -9999 -9999 -9999 -9999 -9999 -9999 -9999 -9999 -9999 -9999 -9999 -9999 -9999 -9999 -9999 -9999 -9999 -9999 -9999 -9999 -9999 -9999 -9999 -9999 -9999 -9999 -9999 -9999 -9999 -9999 3.33333333333333 5.52486187845304 5.52486187845304 7.61772853185596 1.73310225303293 1.73310225303293 5.46448087431694 5.46448087431694 5.46448087431694 7.05645161290323 3.73134328358209 3.47826086956522 3.47826086956522 3.47826086956522 6.8649885583524 6.8649885583524 6.8649885583524 0 0 11.2262521588946 11.2262521588946 11.2262521588946 33.003300330033 33.003300330033 33.003300330033 33.003300330033 33.003300330033 33.003300330033 33.003300330033 33.003300330033 33.003300330033 7.90861159929701 7.90861159929701 19.9704142011834 19.9704142011834 14.5985401459854 14.5985401459854 14.5985401459854 20.7920792079208 20.7920792079208 20.7920792079208 20.7920792079208 20.7920792079208 20.7920792079208 22.271714922049 11.2107623318386 11.2107623318386 17.2413793103448 33.596837944664 33.596837944664 33.596837944664 29.4117647058824 29.4117647058824 15.8562367864693 15.8562367864693 15.8562367864693 15.8562367864693 23.4375 23.4375 23.4375 11.1940298507463 15.180265654649 15.180265654649 13.4961439588689 13.4961439588689 13.4961439588689 10.5691056910569 10.5691056910569 42.1195652173913 42.1195652173913 42.1195652173913 23.0326295585413 15.9090909090909 15.9090909090909 15.9090909090909 5.62851782363977 0 0 0 0 0 0 2.55754475703325 2.55754475703325 2.55754475703325 2.55754475703325 2.55754475703325 2.55754475703325 2.55754475703325 2.55754475703325 2.55754475703325 2.55754475703325 2.55754475703325 -9999 -9999 -9999 -9999 -9999 -9999 -9999 -9999 -9999 -9999 -9999 5.46448087431694 5.46448087431694 0 0 0 0 0 0 0 0 0 0 0 0 0 0 0 0 -9999 -9999 -9999 -9999 -9999 -9999 -9999 -9999 -9999 -9999 -9999 -9999 -9999 -9999 -9999 -9999 -9999 -9999 -9999 -9999 -9999 -9999 -9999 -9999
-9999 -9999 -9999 -9999 -9999 -9999 -9999 -9999 -9999 -9999 -9999 -9999 -9999 -9999 -9999 -9999 -9999 -9999 -9999 -9999 -9999 -9999 -9999 -9999 -9999 -9999 -9999 -9999 -9999 -9999 -9999 -9999 -9999 -9999 -9999 -9999 -9999 -9999 -9999 -9999 -9999 -9999 -9999 -9999 -9999 -9999 -9999 -9999 -9999 -9999 -9999 -9999 -9999 -9999 -9999 -9999 -9999 -9999 -9999 -9999 -9999 -9999 -9999 -9999 -9999 -9999 -9999 -9999 -9999 -9999 -9999 -9999 -9999 -9999 -9999 -9999 -9999 -9999 -9999 -9999 -9999 -9999 -9999 -9999 -9999 -9999 -9999 -9999 -9999 -9999 -9999 -9999 -9999 -9999 -9999 -9999 -9999 -9999 -9999 -9999 -9999 -9999 -9999 -9999 -9999 -9999 -9999 -9999 -9999 -9999 -9999 -9999 -9999 -9999 -9999 -9999 -9999 -9999 -9999 -9999 -9999 -9999 -9999 -9999 -9999 -9999 -9999 -9999 -9999 -9999 -9999 -9999 -9999 -9999 -9999 -9999 -9999 -9999 -9999 -9999 -9999 -9999 -9999 -9999 -9999 -9999 -9999 -9999 -9999 -9999 -9999 -9999 -9999 -9999 -9999 -9999 -9999 -9999 -9999 -9999 -9999 -9999 -9999 -9999 -9999 -9999 -9999 -9999 -9999 -9999 -9999 -9999 -9999 -9999 -9999 -9999 -9999 -9999 -9999 -9999 -9999 -9999 -9999 -9999 -9999 -9999 -9999 -9999 -9999 -9999 -9999 -9999 -9999 -9999 -9999 -9999 -9999 -9999 -9999 -9999 -9999 -9999 -9999 -9999 -9999 -9999 -9999 -9999 -9999 -9999 -9999 -9999 -9999 -9999 -9999 -9999 -9999 -9999 -9999 -9999 -9999 -9999 -9999 -9999 -9999 -9999 -9999 -9999 -9999 -9999 -9999 -9999 -9999 -9999 -9999 -9999 -9999 -9999 -9999 -9999 -9999 -9999 -9999 -9999 -9999 -9999 -9999 -9999 -9999 -9999 -9999 -9999 -9999 -9999 -9999 -9999 -9999 -9999 -9999 -9999 -9999 -9999 -9999 -9999 -9999 -9999 -9999 -9999 4.65549348230912 3.33333333333333 3.33333333333333 2.0746887966805 7.61772853185596 7.61772853185596 1.73310225303293 1.73310225303293 5.46448087431694 9.7629009762901 9.7629009762901 9.7629009762901 3.73134328358209 3.47826086956522 0 0 6.8649885583524 6.8649885583524 0 0 11.2262521588946 11.2262521588946 33.003300330033 33.003300330033 33.003300330033 33.003300330033 33.003300330033 33.003300330033 33.003300330033 33.003300330033 33.003300330033 19.3861066235864 9.75975975975976 9.75975975975976 9.75975975975976 14.5985401459854 14.5985401459854 14.5985401459854 14.5985401459854 29.9625468164794 29.9625468164794 29.9625468164794 22.271714922049 22.271714922049 22.271714922049 22.271714922049 13.4589502018843 17.2413793103448 17.2413793103448 17.2413793103448 17.2413793103448 33.596837944664 29.4117647058824 29.4117647058824 29.4117647058824 15.8562367864693 15.8562367864693 22.3509933774834 22.3509933774834 23.4375 11.1940298507463 11.1940298507463 26.2626262626263 26.2626262626263 26.2626262626263 26.2626262626263 10.5691056910569 10.5691056910569 10.5691056910569 10.5691056910569 42.1195652173913 14.344262295082 14.344262295082 23.0326295585413 5.62851782363977 5.62851782363977 11.1876075731497 11.1876075731497 0 15.4975530179445 15.4975530179445 15.4975530179445 2.55754475703325 2.55754475703325 2.55754475703325 2.55754475703325 2.55754475703325 2.55754475703325 2.55754475703325 2.55754475703325 2.55754475703325 2.55754475703325 2.55754475703325 -9999 -9999 -9999 -9999 -9999 -9999 -9999 -9999 -9999 -9999 -9999 -9999 5.46448087431694 5.46448087431694 0 0 0 0 0 0 0 0 0 0 0 0 0 0 0 0 -9999 -9999 -9999 -9999 -9999 -9999 -9999 -9999 -9999 -9999 -9999 -9999 -9999 -9999 -9999 -9999 -9999 -9999 -9999 -9999 -9999 -9999 -9999 -9999
-9999 -9999 -9999 -9999 -9999 -9999 -9999 -9999 -9999 -9999 -9999 -9999 -9999 -9999 -9999 -9999 -9999 -9999 -9999 -9999 -9999 -9999 -9999 -9999 -9999 -9999 -9999 -9999 -9999 -9999 -9999 -9999 -9999 -9999 -9999 -9999 -9999 -9999 -9999 -9999 -9999 -9999 -9999 -9999 -9999 -9999 -9999 -9999 -9999 -9999 -9999 -9999 -9999 -9999 -9999 -9999 -9999 -9999 -9999 -9999 -9999 -9999 -9999 -9999 -9999 -9999 -9999 -9999 -9999 -9999 -9999 -9999 -9999 -9999 -9999 -9999 -9999 -9999 -9999 -9999 -9999 -9999 -9999 -9999 -9999 -9999 -9999 -9999 -9999 -9999 -9999 -9999 -9999 -9999 -9999 -9999 -9999 -9999 -9999 -9999 -9999 -9999 -9999 -9999 -9999 -9999 -9999 -9999 -9999 -9999 -9999 -9999 -9999 -9999 -9999 -9999 -9999 -9999 -9999 -9999 -9999 -9999 -9999 -9999 -9999 -9999 -9999 -9999 -9999 -9999 -9999 -9999 -9999 -9999 -9999 -9999 -9999 -9999 -9999 -9999 -9999 -9999 -9999 -9999 -9999 -9999 -9999 -9999 -9999 -9999 -9999 -9999 -9999 -9999 -9999 -9999 -9999 -9999 -9999 -9999 -9999 -9999 -9999 -9999 -9999 -9999 -9999 -9999 -9999 -9999 -9999 -9999 -9999 -9999 -9999 -9999 -9999 -9999 -9999 -9999 -9999 -9999 -9999 -9999 -9999 -9999 -9999 -9999 -9999 -9999 -9999 -9999 -9999 -9999 -9999 -9999 -9999 -9999 -9999 -9999 -9999 -9999 -9999 -9999 -9999 -9999 -9999 -9999 -9999 -9999 -9999 -9999 -9999 -9999 -9999 -9999 -9999 -9999 -9999 -9999 -9999 -9999 -9999 -9999 -9999 -9999 -9999 -9999 -9999 -9999 -9999 -9999 -9999 -9999 -9999 -9999 -9999 -9999 -9999 -9999 -9999 -9999 -9999 -9999 -9999 -9999 -9999 -9999 -9999 -9999 -9999 -9999 -9999 -9999 -9999 -9999 -9999 -9999 -9999 -9999 -9999 -9999 -9999 -9999 -9999 -9999 -9999 4.65549348230912 4.65549348230912 4.58715596330275 3.33333333333333 2.0746887966805 2.0746887966805 7.61772853185596 7.61772853185596 6.79611650485437 6.79611650485437 9.7629009762901 9.7629009762901 9.7629009762901 11.437908496732 11.437908496732 11.437908496732 0 0 6.8649885583524 6.8649885583524 11.2262521588946 11.2262521588946 33.003300330033 33.003300330033 33.003300330033 33.003300330033 33.003300330033 33.003300330033 20.0534759358289 33.003300330033 33.003300330033 19.3861066235864 19.3861066235864 19.3861066235864 19.3861066235864 9.75975975975976 13.8888888888889 13.8888888888889 14.5985401459854 14.5985401459854 29.9625468164794 23.8970588235294 23.8970588235294 23.8970588235294 13.4589502018843 13.4589502018843 13.4589502018843 13.4589502018843 13.4589502018843 17.2413793103448 17.2413793103448 17.2413793103448 17.2413793103448 17.2413793103448 15.8562367864693 15.8562367864693 15.8562367864693 22.3509933774834 22.3509933774834 22.3509933774834 22.3509933774834 4.85436893203883 8.58369098712446 8.58369098712446 8.58369098712446 26.2626262626263 10.5691056910569 10.5691056910569 10.5691056910569 10.5691056910569 17.725258493353 31.8681318681319 31.8681318681319 31.8681318681319 31.8681318681319 5.62851782363977 5.62851782363977 11.1876075731497 11.1876075731497 11.1876075731497 15.4975530179445 11.400651465798 4.84261501210654 2.84090909090909 4.84261501210654 5.52486187845304 2.55754475703325 2.55754475703325 2.55754475703325 2.55754475703325 2.55754475703325 2.55754475703325 2.55754475703325 2.55754475703325 -9999 -9999 -9999 -9999 -9999 -9999 -9999 -9999 -9999 -9999 -9999 -9999 5.46448087431694 0 0 0 0 0 0 0 0 0 0 0 0 0 0 0 0 0 -9999 -9999 -9999 -9999 -9999 -9999 -9999 -9999 -9999 -9999 -9999 -9999 -9999 -9999 -9999 -9999 -9999 -9999 -9999 -9999 -9999 -9999 -9999 -9999
-9999 -9999 -9999 -9999 -9999 -9999 -9999 -9999 -9999 -9999 -9999 -9999 -9999 -9999 -9999 -9999 -9999 -9999 -9999 -9999 -9999 -9999 -9999 -9999 -9999 -9999 -9999 -9999 -9999 -9999 -9999 -9999 -9999 -9999 -9999 -9999 -9999 -9999 -9999 -9999 -9999 -9999 -9999 -9999 -9999 -9999 -9999 -9999 -9999 -9999 -9999 -9999 -9999 -9999 -9999 -9999 -9999 -9999 -9999 -9999 -9999 -9999 -9999 -9999 -9999 -9999 -9999 -9999 -9999 -9999 -9999 -9999 -9999 -9999 -9999 -9999 -9999 -9999 -9999 -9999 -9999 -9999 -9999 -9999 -9999 -9999 -9999 -9999 -9999 -9999 -9999 -9999 -9999 -9999 -9999 -9999 -9999 -9999 -9999 -9999 -9999 -9999 -9999 -9999 -9999 -9999 -9999 -9999 -9999 -9999 -9999 -9999 -9999 -9999 -9999 -9999 -9999 -9999 -9999 -9999 -9999 -9999 -9999 -9999 -9999 -9999 -9999 -9999 -9999 -9999 -9999 -9999 -9999 -9999 -9999 -9999 -9999 -9999 -9999 -9999 -9999 -9999 -9999 -9999 -9999 -9999 -9999 -9999 -9999 -9999 -9999 -9999 -9999 -9999 -9999 -9999 -9999 -9999 -9999 -9999 -9999 -9999 -9999 -9999 -9999 -9999 -9999 -9999 -9999 -9999 -9999 -9999 -9999 -9999 -9999 -9999 -9999 -9999 -9999 -9999 -9999 -9999 -9999 -9999 -9999 -9999 -9999 -9999 -9999 -9999 -9999 -9999 -9999 -9999 -9999 -9999 -9999 -9999 -9999 -9999 -9999 -9999 -9999 -9999 -9999 -9999 -9999 -9999 -9999 -9999 -9999 -9999 -9999 -9999 -9999 -9999 -9999 -9999 -9999 -9999 -9999 -9999 -9999 -9999 -9999 -9999 -9999 -9999 -9999 -9999 -9999 -9999 -9999 -9999 -9999 -9999 -9999 -9999 -9999 -9999 -9999 -9999 -9999 -9999 -9999 -9999 -9999 -9999 -9999 -9999 -9999 -9999 -9999 -9999 -9999 -9999 -9999 -9999 -9999 -9999 -9999 -9999 -9999 -9999 -9999 6.16016427104723 -9999 4.65549348230912 0 4.58715596330275 4.58715596330275 2.0746887966805 2.0746887966805 5.21739130434783 5.21739130434783 6.79611650485437 6.79611650485437 6.79611650485437 23.4234234234234 0 0 11.437908496732 11.437908496732 20.1149425287356 20.1149425287356 20.1149425287356 6.8649885583524 6.8649885583524 33.003300330033 1.34770889487871 1.34770889487871 1.34770889487871 33.003300330033 20.1219512195122 20.0534759358289 20.0534759358289 20.0534759358289 15.850144092219 13.9186295503212 16.6051660516605 16.6051660516605 16.6051660516605 13.8888888888889 13.8888888888889 13.8888888888889 13.8888888888889 27.5938189845475 23.8970588235294 23.8970588235294 13.4589502018843 13.4589502018843 13.4589502018843 13.4589502018843 13.4589502018843 24.6305418719212 16.728624535316 16.728624535316 17.2413793103448 17.2413793103448 17.2413793103448 17.2413793103448 17.2413793103448 17.2413793103448 14.5739910313901 22.3509933774834 19.5007800312012 19.5007800312012 19.5007800312012 8.58369098712446 9.72222222222222 9.72222222222222 11.3835376532399 11.3835376532399 11.3835376532399 10.5691056910569 10.5691056910569 8.29383886255924 8.29383886255924 17.725258493353 31.8681318681319 31.8681318681319 7.60719225449516 7.60719225449516 8.29875518672199 10.3950103950104 10.3950103950104 10.3950103950104 15.4975530179445 11.400651465798 4.84261501210654 2.84090909090909 5.52486187845304 5.52486187845304 6.2111801242236 2.55754475703325 14.4927536231884 2.55754475703325 2.55754475703325 2.55754475703325 2.55754475703325 -9999 -9999 -9999 -9999 -9999 -9999 -9999 -9999 -9999 -9999 -9999 -9999 5.46448087431694 5.46448087431694 0 0 0 0 0 0 0 0 0 0 0 0 0 0 -9999 -9999 -9999 -9999 -9999 -9999 -9999 -9999 -9999 -9999 -9999 -9999 -9999 -9999 -9999 -9999 -9999 -9999 -9999 -9999 -9999 -9999 -9999 -9999 -9999 -9999 -9999
-9999 -9999 -9999 -9999 -9999 -9999 -9999 -9999 -9999 -9999 -9999 -9999 -9999 -9999 -9999 -9999 -9999 -9999 -9999 -9999 -9999 -9999 -9999 -9999 -9999 -9999 -9999 -9999 -9999 -9999 -9999 -9999 -9999 -9999 -9999 -9999 -9999 -9999 -9999 -9999 -9999 -9999 -9999 -9999 -9999 -9999 -9999 -9999 -9999 -9999 -9999 -9999 -9999 -9999 -9999 -9999 -9999 -9999 -9999 -9999 -9999 -9999 -9999 -9999 -9999 -9999 -9999 -9999 -9999 -9999 -9999 -9999 -9999 -9999 -9999 -9999 -9999 -9999 -9999 -9999 -9999 -9999 -9999 -9999 -9999 -9999 -9999 -9999 -9999 -9999 -9999 -9999 -9999 -9999 -9999 -9999 -9999 -9999 -9999 -9999 -9999 -9999 -9999 -9999 -9999 -9999 -9999 -9999 -9999 -9999 -9999 -9999 -9999 -9999 -9999 -9999 -9999 -9999 -9999 -9999 -9999 -9999 -9999 -9999 -9999 -9999 -9999 -9999 -9999 -9999 -9999 -9999 -9999 -9999 -9999 -9999 -9999 -9999 -9999 -9999 -9999 -9999 -9999 -9999 -9999 -9999 -9999 -9999 -9999 -9999 -9999 -9999 -9999 -9999 -9999 -9999 -9999 -9999 -9999 -9999 -9999 -9999 -9999 -9999 -9999 -9999 -9999 -9999 -9999 -9999 -9999 -9999 -9999 -9999 -9999 -9999 -9999 -9999 -9999 -9999 -9999 -9999 -9999 -9999 -9999 -9999 -9999 -9999 -9999 -9999 -9999 -9999 -9999 -9999 -9999 -9999 -9999 -9999 -9999 -9999 -9999 -9999 -9999 -9999 -9999 -9999 -9999 -9999 -9999 -9999 -9999 -9999 -9999 -9999 -9999 -9999 -9999 -9999 -9999 -9999 -9999 -9999 -9999 -9999 -9999 -9999 -9999 -9999 -9999 -9999 -9999 -9999 -9999 -9999 -9999 -9999 -9999 -9999 -9999 -9999 -9999 -9999 -9999 -9999 -9999 -9999 -9999 -9999 -9999 -9999 -9999 -9999 -9999 -9999 -9999 -9999 -9999 -9999 -9999 -9999 -9999 -9999 -9999 -9999 -9999 -9999 -9999 4.65549348230912 4.65549348230912 1.76991150442478 7.23589001447178 2.0746887966805 5.21739130434783 5.21739130434783 5.21739130434783 5.21739130434783 6.79611650485437 23.4234234234234 23.4234234234234 23.4234234234234 0 4.85436893203883 4.85436893203883 20.1149425287356 20.1149425287356 20.1149425287356 20.1149425287356 33.003300330033 1.34770889487871 1.34770889487871 1.34770889487871 1.34770889487871 13.5782747603834 20.1219512195122 20.1219512195122 20.0534759358289 21.3675213675214 21.3675213675214 21.3675213675214 15.850144092219 13.9186295503212 16.6051660516605 13.8888888888889 13.8888888888889 13.8888888888889 27.5938189845475 27.5938189845475 6.87285223367698 6.87285223367698 13.4589502018843 13.4589502018843 13.4589502018843 13.4589502018843 30.7125307125307 20.5357142857143 20.5357142857143 24.6305418719212 16.728624535316 16.728624535316 17.2413793103448 17.2413793103448 17.2413793103448 14.5739910313901 14.5739910313901 14.5739910313901 14.5739910313901 19.5007800312012 19.5007800312012 8.58369098712446 8.58369098712446 8.58369098712446 19.3798449612403 19.3798449612403 19.3798449612403 19.3798449612403 8.29383886255924 8.29383886255924 17.725258493353 13.671875 13.671875 13.671875 7.60719225449516 18.1297709923664 8.29875518672199 8.29875518672199 14.4927536231884 14.4927536231884 14.4927536231884 2.84090909090909 2.84090909090909 5.52486187845304 5.52486187845304 6.2111801242236 6.2111801242236 6.2111801242236 14.4927536231884 14.4927536231884 14.4927536231884 2.55754475703325 2.55754475703325 -9999 -9999 -9999 -9999 -9999 -9999 -9999 -9999 -9999 -9999 -9999 5.46448087431694 5.46448087431694 0 0 0 0 0 0 0 0 0 0 0 0 0 0 -9999 -9999 -9999 -9999 -9999 -9999 -9999 -9999 -9999 -9999 -9999 -9999 -9999 -9999 -9999 -9999 -9999 -9999 -9999 -9999 -9999 -9999 -9999 -9999 -9999 -9999 -9999 -9999
-9999 -9999 -9999 -9999 -9999 -9999 -9999 -9999 -9999 -9999 -9999 -9999 -9999 -9999 -9999 -9999 -9999 -9999 -9999 -9999 -9999 -9999 -9999 -9999 -9999 -9999 -9999 -9999 -9999 -9999 -9999 -9999 -9999 -9999 -9999 -9999 -9999 -9999 -9999 -9999 -9999 -9999 -9999 -9999 -9999 -9999 -9999 -9999 -9999 -9999 -9999 -9999 -9999 -9999 -9999 -9999 -9999 -9999 -9999 -9999 -9999 -9999 -9999 -9999 -9999 -9999 -9999 -9999 -9999 -9999 -9999 -9999 -9999 -9999 -9999 -9999 -9999 -9999 -9999 -9999 -9999 -9999 -9999 -9999 -9999 -9999 -9999 -9999 -9999 -9999 -9999 -9999 -9999 -9999 -9999 -9999 -9999 -9999 -9999 -9999 -9999 -9999 -9999 -9999 -9999 -9999 -9999 -9999 -9999 -9999 -9999 -9999 -9999 -9999 -9999 -9999 -9999 -9999 -9999 -9999 -9999 -9999 -9999 -9999 -9999 -9999 -9999 -9999 -9999 -9999 -9999 -9999 -9999 -9999 -9999 -9999 -9999 -9999 -9999 -9999 -9999 -9999 -9999 -9999 -9999 -9999 -9999 -9999 -9999 -9999 -9999 -9999 -9999 -9999 -9999 -9999 -9999 -9999 -9999 -9999 -9999 -9999 -9999 -9999 -9999 -9999 -9999 -9999 -9999 -9999 -9999 -9999 -9999 -9999 -9999 -9999 -9999 -9999 -9999 -9999 -9999 -9999 -9999 -9999 -9999 -9999 -9999 -9999 -9999 -9999 -9999 -9999 -9999 -9999 -9999 -9999 -9999 -9999 -9999 -9999 -9999 -9999 -9999 -9999 -9999 -9999 -9999 -9999 -9999 -9999 -9999 -9999 -9999 -9999 -9999 -9999 -9999 -9999 -9999 -9999 -9999 -9999 -9999 -9999 -9999 -9999 -9999 -9999 -9999 -9999 -9999 -9999 -9999 -9999 -9999 -9999 -9999 -9999 -9999 -9999 -9999 -9999 -9999 -9999 -9999 -9999 -9999 -9999 -9999 -9999 -9999 -9999 -9999 -9999 -9999 -9999 -9999 -9999 -9999 -9999 -9999 -9999 -9999 -9999 -9999 -9999 8.38926174496644 8.38926174496644 10.3383458646617 1.76991150442478 7.23589001447178 7.23589001447178 7.23589001447178 7.23589001447178 5.21739130434783 7.74526678141136 7.74526678141136 7.74526678141136 23.4234234234234 5.39568345323741 5.39568345323741 4.85436893203883 4.85436893203883 4.85436893203883 20.1149425287356 20.1149425287356 20.1149425287356 10.590015128593 10.590015128593 1.34770889487871 1.6750418760469 0 0 13.5782747603834 6.22406639004149 20.1219512195122 20.1219512195122 20.1219512195122 14.4 21.3675213675214 20.0698080279232 20.0698080279232 40.6032482598608 40.6032482598608 40.6032482598608 27.5938189845475 6.87285223367698 6.87285223367698 6.87285223367698 13.4589502018843 20.671834625323 20.671834625323 30.7125307125307 30.7125307125307 20.5357142857143 20.5357142857143 21.4424951267057 21.4424951267057 6.75675675675676 6.75675675675676 6.75675675675676 14.5739910313901 14.5739910313901 14.5739910313901 14.5739910313901 14.5739910313901 25.5623721881391 25.5623721881391 32.1888412017167 32.1888412017167 8.56164383561644 8.56164383561644 8.56164383561644 24.7524752475248 24.7524752475248 18.3333333333333 8.29383886255924 8.29383886255924 13.671875 13.671875 7.60719225449516 7.60719225449516 18.1297709923664 8.29875518672199 8.29875518672199 8.29875518672199 14.4927536231884 2.84090909090909 2.84090909090909 2.84090909090909 2.84090909090909 2.84090909090909 6.2111801242236 6.2111801242236 14.4927536231884 14.4927536231884 14.4927536231884 14.4927536231884 14.4927536231884 17.9794520547945 17.9794520547945 -9999 -9999 -9999 -9999 -9999 -9999 -9999 -9999 -9999 5.46448087431694 5.46448087431694 5.46448087431694 0 0 0 0 0 0 0 0 0 0 0 0 0 -9999 -9999 -9999 -9999 -9999 -9999 -9999 -9999 -9999 -9999 -9999 -9999 -9999 -9999 -9999 -9999 -9999 -9999 -9999 -9999 -9999 -9999 -9999 -9999 -9999 -9999 -9999 -9999 -9999
-9999 -9999 -9999 -9999 -9999 -9999 -9999 -9999 -9999 -9999 -9999 -9999 -9999 -9999 -9999 -9999 -9999 -9999 -9999 -9999 -9999 -9999 -9999 -9999 -9999 -9999 -9999 -9999 -9999 -9999 -9999 -9999 -9999 -9999 -9999 -9999 -9999 -9999 -9999 -9999 -9999 -9999 -9999 -9999 -9999 -9999 -9999 -9999 -9999 -9999 -9999 -9999 -9999 -9999 -9999 -9999 -9999 -9999 -9999 -9999 -9999 -9999 -9999 -9999 -9999 -9999 -9999 -9999 -9999 -9999 -9999 -9999 -9999 -9999 -9999 -9999 -9999 -9999 -9999 -9999 -9999 -9999 -9999 -9999 -9999 -9999 -9999 -9999 -9999 -9999 -9999 -9999 -9999 -9999 -9999 -9999 -9999 -9999 -9999 -9999 -9999 -9999 -9999 -9999 -9999 -9999 -9999 -9999 -9999 -9999 -9999 -9999 -9999 -9999 -9999 -9999 -9999 -9999 -9999 -9999 -9999 -9999 -9999 -9999 -9999 -9999 -9999 -9999 -9999 -9999 -9999 -9999 -9999 -9999 -9999 -9999 -9999 -9999 -9999 -9999 -9999 -9999 -9999 -9999 -9999 -9999 -9999 -9999 -9999 -9999 -9999 -9999 -9999 -9999 -9999 -9999 -9999 -9999 -9999 -9999 -9999 -9999 -9999 -9999 -9999 -9999 -9999 -9999 -9999 -9999 -9999 -9999 -9999 -9999 -9999 -9999 -9999 -9999 -9999 -9999 -9999 -9999 -9999 -9999 -9999 -9999 -9999 -9999 -9999 -9999 -9999 -9999 -9999 -9999 -9999 -9999 -9999 -9999 -9999 -9999 -9999 -9999 -9999 -9999 -9999 -9999 -9999 -9999 -9999 -9999 -9999 -9999 -9999 -9999 -9999 -9999 -9999 -9999 -9999 -9999 -9999 -9999 -9999 -9999 -9999 -9999 -9999 -9999 -9999 -9999 -9999 -9999 -9999 -9999 -9999 -9999 -9999 -9999 -9999 -9999 -9999 -9999 -9999 -9999 -9999 -9999 -9999 -9999 -9999 -9999 -9999 -9999 -9999 -9999 -9999 -9999 -9999 -9999 -9999 -9999 -9999 -9999 -9999 -9999 -9999 8.38926174496644 8.38926174496644 8.38926174496644 8.38926174496644 10.3383458646617 10.3383458646617 7.23589001447178 7.23589001447178 7.23589001447178 6.05652759084791 7.74526678141136 7.74526678141136 7.74526678141136 10.4384133611691 13.2978723404255 5.39568345323741 5.39568345323741 20.1149425287356 20.1149425287356 20.1149425287356 20.1149425287356 10.590015128593 10.590015128593 10.590015128593 10.590015128593 10.590015128593 0 3.73831775700935 3.73831775700935 0 10.7084019769358 6.22406639004149 6.22406639004149 14.4 14.4 20.0698080279232 20.7852193995381 20.7852193995381 40.6032482598608 40.6032482598608 5.64971751412429 5.64971751412429 8.73362445414847 6.87285223367698 6.87285223367698 12.037037037037 20.671834625323 20.671834625323 37.6940133037694 20.5357142857143 20.5357142857143 21.4424951267057 21.4424951267057 6.75675675675676 6.75675675675676 20.4301075268817 20 20.4301075268817 20.4301075268817 25.5623721881391 25.5623721881391 25.5623721881391 25.5623721881391 32.1888412017167 32.1888412017167 32.1888412017167 32.1888412017167 8.56164383561644 12.6404494382022 12.6404494382022 18.3333333333333 18.3333333333333 7.5885328836425 7.5885328836425 7.60719225449516 7.60719225449516 18.1297709923664 18.1297709923664 18.1297709923664 7.8740157480315 7.8740157480315 7.8740157480315 2.84090909090909 2.84090909090909 2.84090909090909 2.84090909090909 2.84090909090909 5.35714285714286 5.35714285714286 5.35714285714286 3.80952380952381 14.4927536231884 14.4927536231884 17.9794520547945 17.9794520547945 17.9794520547945 17.9794520547945 7.77934936350778 7.77934936350778 -9999 -9999 -9999 -9999 -9999 5.46448087431694 5.46448087431694 5.46448087431694 0 0 0 0 0 0 0 0 0 0 0 0 0 -9999 -9999 -9999 -9999 -9999 -9999 -9999 -9999 -9999 -9999 -9999 -9999 -9999 -9999 -9999 -9999 -9999 -9999 -9999 -9999 -9999 -9999 -9999 -9999 -9999 -9999 -9999 -9999 -9999 -9999
-9999 -9999 -9999 -9999 -9999 -9999 -9999 -9999 -9999 -9999 -9999 -9999 -9999 -9999 -9999 -9999 -9999 -9999 -9999 -9999 -9999 -9999 -9999 -9999 -9999 -9999 -9999 -9999 -9999 -9999 -9999 -9999 -9999 -9999 -9999 -9999 -9999 -9999 -9999 -9999 -9999 -9999 -9999 -9999 -9999 -9999 -9999 -9999 -9999 -9999 -9999 -9999 -9999 -9999 -9999 -9999 -9999 -9999 -9999 -9999 -9999 -9999 -9999 -9999 -9999 -9999 -9999 -9999 -9999 -9999 -9999 -9999 -9999 -9999 -9999 -9999 -9999 -9999 -9999 -9999 -9999 -9999 -9999 -9999 -9999 -9999 -9999 -9999 -9999 -9999 -9999 -9999 -9999 -9999 -9999 -9999 -9999 -9999 -9999 -9999 -9999 -9999 -9999 -9999 -9999 -9999 -9999 -9999 -9999 -9999 -9999 -9999 -9999 -9999 -9999 -9999 -9999 -9999 -9999 -9999 -9999 -9999 -9999 -9999 -9999 -9999 -9999 -9999 -9999 -9999 -9999 -9999 -9999 -9999 -9999 -9999 -9999 -9999 -9999 -9999 -9999 -9999 -9999 -9999 -9999 -9999 -9999 -9999 -9999 -9999 -9999 -9999 -9999 -9999 -9999 -9999 -9999 -9999 -9999 -9999 -9999 -9999 -9999 -9999 -9999 -9999 -9999 -9999 -9999 -9999 -9999 -9999 -9999 -9999 -9999 -9999 -9999 -9999 -9999 -9999 -9999 -9999 -9999 -9999 -9999 -9999 -9999 -9999 -9999 -9999 -9999 -9999 -9999 -9999 -9999 -9999 -9999 -9999 -9999 -9999 -9999 -9999 -9999 -9999 -9999 -9999 -9999 -9999 -9999 -9999 -9999 -9999 -9999 -9999 -9999 -9999 -9999 -9999 -9999 -9999 -9999 -9999 -9999 -9999 -9999 -9999 -9999 -9999 -9999 -9999 -9999 -9999 -9999 -9999 -9999 -9999 -9999 -9999 -9999 -9999 -9999 -9999 -9999 -9999 -9999 -9999 -9999 -9999 -9999 -9999 -9999 -9999 -9999 -9999 -9999 -9999 -9999 -9999 -9999 -9999 -9999 6.16016427104723 -9999 -9999 8.38926174496644 8.38926174496644 24.6710526315789 24.6710526315789 8.38926174496644 10.3383458646617 10.3383458646617 10.3383458646617 7.09219858156028 7.09219858156028 6.05652759084791 6.05652759084791 6.05652759084791 7.86163522012579 10.4384133611691 10.4384133611691 13.2978723404255 0 20.1149425287356 20.1149425287356 20.1149425287356 10.590015128593 10.590015128593 10.590015128593 10.590015128593 10.590015128593 10.590015128593 10.590015128593 6.44329896907216 6.44329896907216 0 10.7084019769358 10.7084019769358 2.04081632653061 2.04081632653061 2.04081632653061 21.1693548387097 20.7852193995381 20.7852193995381 17.3913043478261 17.3913043478261 14.1955835962145 20.2020202020202 8.73362445414847 8.73362445414847 12.037037037037 12.037037037037 12.037037037037 37.6940133037694 37.6940133037694 37.6940133037694 37.6940133037694 21.4424951267057 6.75675675675676 6.75675675675676 20.4301075268817 20 20 20 25.5623721881391 25.5623721881391 25.5623721881391 25.5623721881391 21.2314225053079 21.2314225053079 21.2314225053079 32.1888412017167 8.56164383561644 12.6404494382022 12.6404494382022 12.6404494382022 12.6404494382022 12.6404494382022 6.38297872340426 7.5885328836425 7.5885328836425 7.5885328836425 18.1297709923664 18.1297709923664 18.1297709923664 18.1297709923664 18.1297709923664 13.4874759152216 13.4874759152216 13.4874759152216 2.40963855421687 2.84090909090909 5.35714285714286 5.35714285714286 5.35714285714286 0 3.80952380952381 3.80952380952381 3.80952380952381 17.9794520547945 17.9794520547945 17.9794520547945 17.9794520547945 7.77934936350778 7.77934936350778 7.77934936350778 7.77934936350778 8.04597701149425 -9999 -9999 5.46448087431694 5.46448087431694 5.46448087431694 0 0 0 0 0 0 0 0 0 0 0 0 -9999 -9999 -9999 -9999 -9999 -9999 -9999 -9999 -9999 -9999 -9999 -9999 -9999 -9999 -9999 -9999 -9999 -9999 -9999 -9999 -9999 -9999 -9999 -9999 -9999 -9999 -9999 -9999 -9999 -9999 -9999
-9999 -9999 -9999 -9999 -9999 -9999 -9999 -9999 -9999 -9999 -9999 -9999 -9999 -9999 -9999 -9999 -9999 -9999 -9999 -9999 -9999 -9999 -9999 -9999 -9999 -9999 -9999 -9999 -9999 -9999 -9999 -9999 -9999 -9999 -9999 -9999 -9999 -9999 -9999 -9999 -9999 -9999 -9999 -9999 -9999 -9999 -9999 -9999 -9999 -9999 -9999 -9999 -9999 -9999 -9999 -9999 -9999 -9999 -9999 -9999 -9999 -9999 -9999 -9999 -9999 -9999 -9999 -9999 -9999 -9999 -9999 -9999 -9999 -9999 -9999 -9999 -9999 -9999 -9999 -9999 -9999 -9999 -9999 -9999 -9999 -9999 -9999 -9999 -9999 -9999 -9999 -9999 -9999 -9999 -9999 -9999 -9999 -9999 -9999 -9999 -9999 -9999 -9999 -9999 -9999 -9999 -9999 -9999 -9999 -9999 -9999 -9999 -9999 -9999 -9999 -9999 -9999 -9999 -9999 -9999 -9999 -9999 -9999 -9999 -9999 -9999 -9999 -9999 -9999 -9999 -9999 -9999 -9999 -9999 -9999 -9999 -9999 -9999 -9999 -9999 -9999 -9999 -9999 -9999 -9999 -9999 -9999 -9999 -9999 -9999 -9999 -9999 -9999 -9999 -9999 -9999 -9999 -9999 -9999 -9999 -9999 -9999 -9999 -9999 -9999 -9999 -9999 -9999 -9999 -9999 -9999 -9999 -9999 -9999 -9999 -9999 -9999 -9999 -9999 -9999 -9999 -9999 -9999 -9999 -9999 -9999 -9999 -9999 -9999 -9999 -9999 -9999 -9999 -9999 -9999 -9999 -9999 -9999 -9999 -9999 -9999 -9999 -9999 -9999 -9999 -9999 -9999 -9999 -9999 -9999 -9999 -9999 -9999 -9999 -9999 -9999 -9999 -9999 -9999 -9999 -9999 -9999 -9999 -9999 -9999 -9999 -9999 -9999 -9999 -9999 -9999 -9999 -9999 -9999 -9999 -9999 -9999 -9999 -9999 -9999 -9999 -9999 -9999 -9999 -9999 -9999 -9999 -9999 -9999 -9999 -9999 -9999 -9999 -9999 -9999 -9999 -9999 -9999 -9999 -9999 -9999 6.16016427104723 -9999 8.38926174496644 8.38926174496644 8.38926174496644 24.6710526315789 24.6710526315789 3.76506024096386 3.76506024096386 3.76506024096386 10.3383458646617 7.09219858156028 7.09219858156028 7.09219858156028 28.6561264822134 7.86163522012579 7.86163522012579 7.86163522012579 10.4384133611691 13.2978723404255 13.2978723404255 0 20.1149425287356 10.590015128593 10.590015128593 10.590015128593 10.590015128593 10.590015128593 10.590015128593 10.590015128593 6.44329896907216 6.44329896907216 6.44329896907216 6.44329896907216 6.44329896907216 0 0 0 12.4434389140271 12.4434389140271 12.4434389140271 17.3913043478261 12.6582278481013 12.6582278481013 39.5256916996047 39.5256916996047 20.2020202020202 12.037037037037 12.037037037037 12.037037037037 15.0316455696203 15.0316455696203 37.6940133037694 37.6940133037694 16.4383561643836 16.4383561643836 16.4383561643836 6.75675675675676 20.4301075268817 9.42350332594235 20.4301075268817 33.5570469798658 33.5570469798658 33.5570469798658 25.5623721881391 25.5623721881391 19.7472353870458 19.7472353870458 21.2314225053079 19.7472353870458 9.41780821917808 10.6382978723404 10.6382978723404 10.6382978723404 10.6382978723404 6.38297872340426 6.38297872340426 6.38297872340426 6.38297872340426 13.5135135135135 13.5135135135135 9.95575221238938 9.95575221238938 9.95575221238938 7.91855203619909 7.91855203619909 7.91855203619909 7.91855203619909 2.40963855421687 7.91855203619909 2.40963855421687 8.274231678487 5.35714285714286 0 0 0 -9999 8.70253164556962 16.0550458715596 16.0550458715596 6.65557404326123 6.65557404326123 1.90839694656489 1.90839694656489 3.1104199066874 8.04597701149425 3.1104199066874 5.46448087431694 5.46448087431694 5.46448087431694 5.46448087431694 -9999 -9999 0 0 0 0 0 0 0 0 0 0 -9999 -9999 -9999 -9999 -9999 -9999 -9999 -9999 -9999 -9999 -9999 -9999 -9999 -9999 -9999 -9999 -9999 -9999 -9999 -9999 -9999 -9999 -9999 -9999 -9999 -9999 -9999 -9999 -9999 -9999 -9999
-9999 -9999 -9999 -9999 -9999 -9999 -9999 -9999 -9999 -9999 -9999 -9999 -9999 -9999 -9999 -9999 -9999 -9999 -9999 -9999 -9999 -9999 -9999 -9999 -9999 -9999 -9999 -9999 -9999 -9999 -9999 -9999 -9999 -9999 -9999 -9999 -9999 -9999 -9999 -9999 -9999 -9999 -9999 -9999 -9999 -9999 -9999 -9999 -9999 -9999 -9999 -9999 -9999 -9999 -9999 -9999 -9999 -9999 -9999 -9999 -9999 -9999 -9999 -9999 -9999 -9999 -9999 -9999 -9999 -9999 -9999 -9999 -9999 -9999 -9999 -9999 -9999 -9999 -9999 -9999 -9999 -9999 -9999 -9999 -9999 -9999 -9999 -9999 -9999 -9999 -9999 -9999 -9999 -9999 -9999 -9999 -9999 -9999 -9999 -9999 -9999 -9999 -9999 -9999 -9999 -9999 -9999 -9999 -9999 -9999 -9999 -9999 -9999 -9999 -9999 -9999 -9999 -9999 -9999 -9999 -9999 -9999 -9999 -9999 -9999 -9999 -9999 -9999 -9999 -9999 -9999 -9999 -9999 -9999 -9999 -9999 -9999 -9999 -9999 -9999 -9999 -9999 -9999 -9999 -9999 -9999 -9999 -9999 -9999 -9999 -9999 -9999 -9999 -9999 -9999 -9999 -9999 -9999 -9999 -9999 -9999 -9999 -9999 -9999 -9999 -9999 -9999 -9999 -9999 -9999 -9999 -9999 -9999 -9999 -9999 -9999 -9999 -9999 -9999 -9999 -9999 -9999 -9999 -9999 -9999 -9999 -9999 -9999 -9999 -9999 -9999 -9999 -9999 -9999 -9999 -9999 -9999 -9999 -9999 -9999 -9999 -9999 -9999 -9999 -9999 -9999 -9999 -9999 -9999 -9999 -9999 -9999 -9999 -9999 -9999 -9999 -9999 -9999 -9999 -9999 -9999 -9999 -9999 -9999 -9999 -9999 -9999 -9999 -9999 -9999 -9999 -9999 -9999 -9999 -9999 -9999 -9999 -9999 -9999 -9999 -9999 -9999 -9999 -9999 -9999 -9999 -9999 -9999 -9999 -9999 -9999 -9999 -9999 -9999 -9999 -9999 -9999 -9999 -9999 -9999 6.16016427104723 -9999 6.16016427104723 6.16016427104723 8.38926174496644 8.38926174496644 8.38926174496644 6.44122383252818 6.44122383252818 6.44122383252818 3.76506024096386 3.76506024096386 3.76506024096386 7.09219858156028 3.51493848857645 3.51493848857645 28.6561264822134 28.6561264822134 28.6561264822134 13.2978723404255 13.2978723404255 13.2978723404255 13.2978723404255 10.590015128593 10.590015128593 10.590015128593 10.590015128593 10.590015128593 10.590015128593 10.590015128593 6.44329896907216 6.44329896907216 6.44329896907216 6.44329896907216 6.44329896907216 6.44329896907216 6.44329896907216 6.44329896907216 12.4434389140271 12.4434389140271 12.4434389140271 0 0 0 12.6582278481013 33.3333333333333 33.3333333333333 33.3333333333333 12.037037037037 12.037037037037 15.0316455696203 15.025041736227 15.025041736227 15.0316455696203 16.4383561643836 16.4383561643836 16.4383561643836 16.4383561643836 19.0058479532164 19.0058479532164 9.42350332594235 9.42350332594235 9.42350332594235 9.42350332594235 9.42350332594235 9.42350332594235 22.075055187638 22.075055187638 22.075055187638 19.7472353870458 19.7472353870458 9.41780821917808 6.89655172413793 6.89655172413793 6.89655172413793 10.6382978723404 6.38297872340426 6.38297872340426 6.38297872340426 13.5135135135135 13.5135135135135 9.95575221238938 9.95575221238938 9.95575221238938 9.95575221238938 -9999 -9999 7.91855203619909 7.91855203619909 7.91855203619909 7.91855203619909 8.274231678487 8.274231678487 0 0 0 0 -9999 -9999 -9999 8.70253164556962 8.70253164556962 11.2866817155756 11.2866817155756 3.1104199066874 3.1104199066874 3.1104199066874 5.46448087431694 5.46448087431694 5.46448087431694 5.46448087431694 -9999 -9999 -9999 -9999 -9999 -9999 0 0 0 0 0 0 -9999 -9999 -9999 -9999 -9999 -9999 -9999 -9999 -9999 -9999 -9999 -9999 -9999 -9999 -9999 -9999 -9999 -9999 -9999 -9999 -9999 -9999 -9999 -9999 -9999 -9999 -9999 -9999 -9999 -9999 -9999 -9999
-9999 -9999 -9999 -9999 -9999 -9999 -9999 -9999 -9999 -9999 -9999 -9999 -9999 -9999 -9999 -9999 -9999 -9999 -9999 -9999 -9999 -9999 -9999 -9999 -9999 -9999 -9999 -9999 -9999 -9999 -9999 -9999 -9999 -9999 -9999 -9999 -9999 -9999 -9999 -9999 -9999 -9999 -9999 -9999 -9999 -9999 -9999 -9999 -9999 -9999 -9999 -9999 -9999 -9999 -9999 -9999 -9999 -9999 -9999 -9999 -9999 -9999 -9999 -9999 -9999 -9999 -9999 -9999 -9999 -9999 -9999 -9999 -9999 -9999 -9999 -9999 -9999 -9999 -9999 -9999 -9999 -9999 -9999 -9999 -9999 -9999 -9999 -9999 -9999 -9999 -9999 -9999 -9999 -9999 -9999 -9999 -9999 -9999 -9999 -9999 -9999 -9999 -9999 -9999 -9999 -9999 -9999 -9999 -9999 -9999 -9999 -9999 -9999 -9999 -9999 -9999 -9999 -9999 -9999 -9999 -9999 -9999 -9999 -9999 -9999 -9999 -9999 -9999 -9999 -9999 -9999 -9999 -9999 -9999 -9999 -9999 -9999 -9999 -9999 -9999 -9999 -9999 -9999 -9999 -9999 -9999 -9999 -9999 -9999 -9999 -9999 -9999 -9999 -9999 -9999 -9999 -9999 -9999 -9999 -9999 -9999 -9999 -9999 -9999 -9999 -9999 -9999 -9999 -9999 -9999 -9999 -9999 -9999 -9999 -9999 -9999 -9999 -9999 -9999 -9999 -9999 -9999 -9999 -9999 -9999 -9999 -9999 -9999 -9999 -9999 -9999 -9999 -9999 -9999 -9999 -9999 -9999 -9999 -9999 -9999 -9999 -9999 -9999 -9999 -9999 -9999 -9999 -9999 -9999 -9999 -9999 -9999 -9999 -9999 -9999 -9999 -9999 -9999 -9999 -9999 -9999 -9999 -9999 -9999 -9999 -9999 -9999 -9999 -9999 -9999 -9999 -9999 -9999 -9999 -9999 -9999 -9999 -9999 -9999 -9999 -9999 -9999 -9999 -9999 -9999 -9999 -9999 -9999 -9999 -9999 -9999 -9999 -9999 -9999 -9999 -9999 -9999 -9999 -9999 6.16016427104723 6.16016427104723 -9999 6.16016427104723 6.16016427104723 0 0 0 6.44122383252818 6.44122383252818 6.44122383252818 8.02139037433155 8.02139037433155 3.76506024096386 3.51493848857645 3.51493848857645 3.51493848857645 3.51493848857645 3.51493848857645 28.6561264822134 28.6561264822134 39.3401015228426 13.2978723404255 10.590015128593 10.590015128593 10.590015128593 10.590015128593 0 0 0 6.44329896907216 6.44329896907216 6.44329896907216 6.44329896907216 6.44329896907216 6.44329896907216 6.44329896907216 6.44329896907216 4.07166123778502 4.07166123778502 4.07166123778502 4.07166123778502 3.64298724954463 3.64298724954463 0 0 0 0 20.1465201465201 20.1465201465201 20.1465201465201 20.1465201465201 15.025041736227 15.0316455696203 16.4383561643836 16.4383561643836 16.4383561643836 16.4383561643836 9.25925925925926 9.25925925925926 9.25925925925926 19.0058479532164 19.0058479532164 19.0058479532164 9.42350332594235 9.42350332594235 9.42350332594235 1.53609831029186 1.53609831029186 22.075055187638 22.075055187638 9.41780821917808 9.41780821917808 2.19619326500732 2.19619326500732 6.89655172413793 13.8888888888889 13.8888888888889 13.8888888888889 6.38297872340426 7.25952813067151 7.25952813067151 7.25952813067151 9.95575221238938 9.95575221238938 -9999 -9999 -9999 -9999 7.91855203619909 11.1788617886179 11.1788617886179 8.274231678487 8.274231678487 0 0 0 4.35729847494553 4.35729847494553 4.35729847494553 -9999 -9999 -9999 -9999 11.2866817155756 3.1104199066874 3.1104199066874 3.1104199066874 5.46448087431694 5.46448087431694 5.46448087431694 5.46448087431694 -9999 -9999 -9999 -9999 -9999 -9999 -9999 -9999 -9999 0 0 -9999 -9999 -9999 -9999 -9999 -9999 -9999 -9999 -9999 -9999 -9999 -9999 -9999 -9999 -9999 -9999 -9999 -9999 -9999 -9999 -9999 -9999 -9999 -9999 -9999 -9999 -9999 -9999 -9999 -9999 -9999 -9999 -9999
-9999 -9999 -9999 -9999 -9999 -9999 -9999 -9999 -9999 -9999 -9999 -9999 -9999 -9999 -9999 -9999 -9999 -9999 -9999 -9999 -9999 -9999 -9999 -9999 -9999 -9999 -9999 -9999 -9999 -9999 -9999 -9999 -9999 -9999 -9999 -9999 -9999 -9999 -9999 -9999 -9999 -9999 -9999 -9999 -9999 -9999 -9999 -9999 -9999 -9999 -9999 -9999 -9999 -9999 -9999 -9999 -9999 -9999 -9999 -9999 -9999 -9999 -9999 -9999 -9999 -9999 -9999 -9999 -9999 -9999 -9999 -9999 -9999 -9999 -9999 -9999 -9999 -9999 -9999 -9999 -9999 -9999 -9999 -9999 -9999 -9999 -9999 -9999 -9999 -9999 -9999 -9999 -9999 -9999 -9999 -9999 -9999 -9999 -9999 -9999 -9999 -9999 -9999 -9999 -9999 -9999 -9999 -9999 -9999 -9999 -9999 -9999 -9999 -9999 -9999 -9999 -9999 -9999 -9999 -9999 -9999 -9999 -9999 -9999 -9999 -9999 -9999 -9999 -9999 -9999 -9999 -9999 -9999 -9999 -9999 -9999 -9999 -9999 -9999 -9999 -9999 -9999 -9999 -9999 -9999 -9999 -9999 -9999 -9999 -9999 -9999 -9999 -9999 -9999 -9999 -9999 -9999 -9999 -9999 -9999 -9999 -9999 -9999 -9999 -9999 -9999 -9999 -9999 -9999 -9999 -9999 -9999 -9999 -9999 -9999 -9999 -9999 -9999 -9999 -9999 -9999 -9999 -9999 -9999 -9999 -9999 -9999 -9999 -9999 -9999 -9999 -9999 -9999 -9999 -9999 -9999 -9999 -9999 -9999 -9999 -9999 -9999 -9999 -9999 -9999 -9999 -9999 -9999 -9999 -9999 -9999 -9999 -9999 -9999 -9999 -9999 -9999 -9999 -9999 -9999 -9999 -9999 -9999 -9999 -9999 -9999 -9999 -9999 -9999 -9999 -9999 -9999 -9999 -9999 -9999 -9999 -9999 -9999 -9999 -9999 -9999 -9999 -9999 -9999 -9999 -9999 -9999 -9999 -9999 -9999 -9999 -9999 -9999 -9999 -9999 -9999 -9999 -9999 6.16016427104723 6.16016427104723 6.16016427104723 6.16016427104723 6.16016427104723 6.16016427104723 0 0 5.47445255474453 5.47445255474453 5.47445255474453 4.90998363338789 8.02139037433155 8.02139037433155 10.0250626566416 3.51493848857645 3.51493848857645 3.51493848857645 3.51493848857645 3.51493848857645 3.51493848857645 39.3401015228426 39.3401015228426 39.3401015228426 21.1416490486258 10.590015128593 10.590015128593 5.94227504244482 18.4426229508197 18.4426229508197 6.44329896907216 6.44329896907216 6.44329896907216 6.44329896907216 6.44329896907216 6.44329896907216 6.44329896907216 6.44329896907216 4.07166123778502 4.07166123778502 4.07166123778502 4.07166123778502 4.07166123778502 4.07166123778502 4.07166123778502 3.64298724954463 0 0 15.426497277677 15.426497277677 7.7574047954866 20.1465201465201 15.025041736227 15.025041736227 16.4383561643836 16.4383561643836 16.4383561643836 16.4383561643836 17.5438596491228 17.5438596491228 17.5438596491228 9.25925925925926 9.25925925925926 9.25925925925926 9.42350332594235 9.42350332594235 9.42350332594235 12.5136017410228 12.5136017410228 12.5136017410228 1.53609831029186 2.19619326500732 2.19619326500732 2.19619326500732 2.19619326500732 2.19619326500732 5.63607085346216 5.63607085346216 5.63607085346216 13.8888888888889 12.2399020807834 12.2399020807834 12.2399020807834 7.25952813067151 7.25952813067151 -9999 -9999 -9999 -9999 -9999 -9999 -9999 11.1788617886179 11.1788617886179 10.9060402684564 10.9060402684564 10.9060402684564 5.76036866359447 4.35729847494553 4.35729847494553 6.59630606860158 6.59630606860158 7.89473684210526 7.89473684210526 -9999 3.1104199066874 3.1104199066874 3.1104199066874 5.46448087431694 5.46448087431694 5.46448087431694 5.46448087431694 -9999 -9999 -9999 -9999 -9999 -9999 -9999 -9999 -9999 -9999 -9999 -9999 -9999 -9999 -9999 -9999 -9999 -9999 -9999 -9999 -9999 -9999 -9999 -9999 -9999 -9999 -9999 -9999 -9999 -9999 -9999 -9999 -9999 -9999 -9999 -9999 -9999 -9999 -9999 -9999 -9999 -9999 -9999 -9999 -9999
-9999 -9999 -9999 -9999 -9999 -9999 -9999 -9999 -9999 -9999 -9999 -9999 -9999 -9999 -9999 -9999 -9999 -9999 -9999 -9999 -9999 -9999 -9999 -9999 -9999 -9999 -9999 -9999 -9999 -9999 -9999 -9999 -9999 -9999 -9999 -9999 -9999 -9999 -9999 -9999 -9999 -9999 -9999 -9999 -9999 -9999 -9999 -9999 -9999 -9999 -9999 -9999 -9999 -9999 -9999 -9999 -9999 -9999 -9999 -9999 -9999 -9999 -9999 -9999 -9999 -9999 -9999 -9999 -9999 -9999 -9999 -9999 -9999 -9999 -9999 -9999 -9999 -9999 -9999 -9999 -9999 -9999 -9999 -9999 -9999 -9999 -9999 -9999 -9999 -9999 -9999 -9999 -9999 -9999 -9999 -9999 -9999 -9999 -9999 -9999 -9999 -9999 -9999 -9999 -9999 -9999 -9999 -9999 -9999 -9999 -9999 -9999 -9999 -9999 -9999 -9999 -9999 -9999 -9999 -9999 -9999 -9999 -9999 -9999 -9999 -9999 -9999 -9999 -9999 -9999 -9999 -9999 -9999 -9999 -9999 -9999 -9999 -9999 -9999 -9999 -9999 -9999 -9999 -9999 -9999 -9999 -9999 -9999 -9999 -9999 -9999 -9999 -9999 -9999 -9999 -9999 -9999 -9999 -9999 -9999 -9999 -9999 -9999 -9999 -9999 -9999 -9999 -9999 -9999 -9999 -9999 -9999 -9999 -9999 -9999 -9999 -9999 -9999 -9999 -9999 -9999 -9999 -9999 -9999 -9999 -9999 -9999 -9999 -9999 -9999 -9999 -9999 -9999 -9999 -9999 -9999 -9999 -9999 -9999 -9999 -9999 -9999 -9999 -9999 -9999 -9999 -9999 -9999 -9999 -9999 -9999 -9999 -9999 -9999 -9999 -9999 -9999 -9999 -9999 -9999 -9999 -9999 -9999 -9999 -9999 -9999 -9999 -9999 -9999 -9999 -9999 -9999 -9999 -9999 -9999 -9999 -9999 -9999 -9999 -9999 -9999 -9999 -9999 -9999 -9999 -9999 -9999 -9999 -9999 -9999 -9999 -9999 -9999 -9999 -9999 -9999 -9999 6.16016427104723 6.16016427104723 6.16016427104723 6.16016427104723 6.16016427104723 2.57731958762887 7.18685831622177 7.18685831622177 18.4659090909091 18.4659090909091 5.47445255474453 4.90998363338789 4.90998363338789 4.90998363338789 4.90998363338789 10.0250626566416 10.0250626566416 10.0250626566416 3.51493848857645 3.51493848857645 3.51493848857645 11.5452930728242 11.5452930728242 11.5452930728242 21.1416490486258 21.1416490486258 21.1416490486258 15.1209677419355 10.590015128593 18.4426229508197 18.4426229508197 11.744966442953 6.17283950617284 6.17283950617284 6.44329896907216 6.44329896907216 6.44329896907216 6.44329896907216 4.07166123778502 4.07166123778502 4.07166123778502 4.07166123778502 4.07166123778502 4.07166123778502 4.07166123778502 4.07166123778502 4.07166123778502 4.07166123778502 5.8411214953271 5.8411214953271 5.8411214953271 7.7574047954866 7.7574047954866 7.7574047954866 16.4383561643836 16.4383561643836 16.4383561643836 16.4383561643836 17.5438596491228 17.5438596491228 17.5438596491228 17.5438596491228 17.5438596491228 17.5438596491228 8.75 9.25925925925926 9.25925925925926 12.5136017410228 10.9664153529815 12.5136017410228 12.5136017410228 2.19619326500732 2.19619326500732 2.19619326500732 2.19619326500732 2.19619326500732 5.63607085346216 5.63607085346216 5.63607085346216 5.63607085346216 7.6219512195122 7.6219512195122 7.6219512195122 12.2399020807834 6.71641791044776 6.71641791044776 3.90625 -9999 -9999 -9999 -9999 -9999 -9999 -9999 -9999 -9999 10.9060402684564 10.9060402684564 5.76036866359447 5.76036866359447 5.76036866359447 0 6.59630606860158 7.89473684210526 7.89473684210526 2.2883295194508 2.2883295194508 2.2883295194508 3.1104199066874 5.46448087431694 5.46448087431694 5.46448087431694 5.46448087431694 -9999 -9999 -9999 -9999 -9999 -9999 -9999 -9999 -9999 -9999 -9999 -9999 -9999 -9999 -9999 -9999 -9999 -9999 -9999 -9999 -9999 -9999 -9999 -9999 -9999 -9999 -9999 -9999 -9999 -9999 -9999 -9999 -9999 -9999 -9999 -9999 -9999 -9999 -9999 -9999 -9999 -9999 -9999 -9999 -9999
-9999 -9999 -9999 -9999 -9999 -9999 -9999 -9999 -9999 -9999 -9999 -9999 -9999 -9999 -9999 -9999 -9999 -9999 -9999 -9999 -9999 -9999 -9999 -9999 -9999 -9999 -9999 -9999 -9999 -9999 -9999 -9999 -9999 -9999 -9999 -9999 -9999 -9999 -9999 -9999 -9999 -9999 -9999 -9999 -9999 -9999 -9999 -9999 -9999 -9999 -9999 -9999 -9999 -9999 -9999 -9999 -9999 -9999 -9999 -9999 -9999 -9999 -9999 -9999 -9999 -9999 -9999 -9999 -9999 -9999 -9999 -9999 -9999 -9999 -9999 -9999 -9999 -9999 -9999 -9999 -9999 -9999 -9999 -9999 -9999 -9999 -9999 -9999 -9999 -9999 -9999 -9999 -9999 -9999 -9999 -9999 -9999 -9999 -9999 -9999 -9999 -9999 -9999 -9999 -9999 -9999 -9999 -9999 -9999 -9999 -9999 -9999 -9999 -9999 -9999 -9999 -9999 -9999 -9999 -9999 -9999 -9999 -9999 -9999 -9999 -9999 -9999 -9999 -9999 -9999 -9999 -9999 -9999 -9999 -9999 -9999 -9999 -9999 -9999 -9999 -9999 -9999 -9999 -9999 -9999 -9999 -9999 -9999 -9999 -9999 -9999 -9999 -9999 -9999 -9999 -9999 -9999 -9999 -9999 -9999 -9999 -9999 -9999 -9999 -9999 -9999 -9999 -9999 -9999 -9999 -9999 -9999 -9999 -9999 -9999 -9999 -9999 -9999 -9999 -9999 -9999 -9999 -9999 -9999 -9999 -9999 -9999 -9999 -9999 -9999 -9999 -9999 -9999 -9999 -9999 -9999 -9999 -9999 -9999 -9999 -9999 -9999 -9999 -9999 -9999 -9999 -9999 -9999 -9999 -9999 -9999 -9999 -9999 -9999 -9999 -9999 -9999 -9999 -9999 -9999 -9999 -9999 -9999 -9999 -9999 -9999 -9999 -9999 -9999 -9999 -9999 -9999 -9999 -9999 -9999 -9999 -9999 -9999 -9999 -9999 -9999 -9999 -9999 -9999 -9999 -9999 -9999 -9999 -9999 -9999 -9999 -9999 -9999 -9999 -9999 -9999 -9999 -9999 -9999 6.16016427104723 6.16016427104723 6.16016427104723 2.57731958762887 2.57731958762887 7.18685831622177 18.4659090909091 18.4659090909091 18.4659090909091 4.90998363338789 4.90998363338789 4.90998363338789 9.8314606741573 9.8314606741573 9.8314606741573 11.4942528735632 11.4942528735632 3.51493848857645 11.4942528735632 11.5452930728242 11.5452930728242 3.44036697247706 3.44036697247706 21.1416490486258 15.1209677419355 15.1209677419355 15.1209677419355 15.1209677419355 0 0 11.744966442953 8.72093023255814 6.44329896907216 6.44329896907216 6.44329896907216 4.07166123778502 4.07166123778502 4.07166123778502 4.07166123778502 4.07166123778502 4.07166123778502 4.07166123778502 4.07166123778502 4.07166123778502 4.07166123778502 4.07166123778502 4.07166123778502 4.07166123778502 5.8411214953271 5.8411214953271 5.8411214953271 7.7574047954866 16.4383561643836 16.4383561643836 16.4383561643836 17.5438596491228 17.5438596491228 17.5438596491228 17.5438596491228 17.5438596491228 17.5438596491228 8.75 8.75 17.5438596491228 9.25925925925926 10.9664153529815 10.9664153529815 10.9664153529815 13.8376383763838 13.8376383763838 13.8376383763838 13.8376383763838 2.19619326500732 8.97666068222621 8.97666068222621 8.97666068222621 5.63607085346216 5.31914893617021 5.31914893617021 5.31914893617021 7.6219512195122 6.71641791044776 6.71641791044776 3.90625 3.90625 3.90625 -9999 -9999 -9999 -9999 -9999 -9999 -9999 -9999 -9999 1.53061224489796 1.53061224489796 5.76036866359447 1.53061224489796 0 0 0 0 9.34579439252336 9.34579439252336 2.2883295194508 5.46448087431694 5.46448087431694 5.46448087431694 5.46448087431694 -9999 -9999 -9999 -9999 -9999 -9999 -9999 -9999 -9999 -9999 -9999 -9999 -9999 -9999 -9999 -9999 -9999 -9999 -9999 -9999 -9999 -9999 -9999 -9999 -9999 -9999 -9999 -9999 -9999 -9999 -9999 -9999 -9999 -9999 -9999 -9999 -9999 -9999 -9999 -9999 -9999 -9999 -9999 -9999 -9999 -9999
-9999 -9999 -9999 -9999 -9999 -9999 -9999 -9999 -9999 -9999 -9999 -9999 -9999 -9999 -9999 -9999 -9999 -9999 -9999 -9999 -9999 -9999 -9999 -9999 -9999 -9999 -9999 -9999 -9999 -9999 -9999 -9999 -9999 -9999 -9999 -9999 -9999 -9999 -9999 -9999 -9999 -9999 -9999 -9999 -9999 -9999 -9999 -9999 -9999 -9999 -9999 -9999 -9999 -9999 -9999 -9999 -9999 -9999 -9999 -9999 -9999 -9999 -9999 -9999 -9999 -9999 -9999 -9999 -9999 -9999 -9999 -9999 -9999 -9999 -9999 -9999 -9999 -9999 -9999 -9999 -9999 -9999 -9999 -9999 -9999 -9999 -9999 -9999 -9999 -9999 -9999 -9999 -9999 -9999 -9999 -9999 -9999 -9999 -9999 -9999 -9999 -9999 -9999 -9999 -9999 -9999 -9999 -9999 -9999 -9999 -9999 -9999 -9999 -9999 -9999 -9999 -9999 -9999 -9999 -9999 -9999 -9999 -9999 -9999 -9999 -9999 -9999 -9999 -9999 -9999 -9999 -9999 -9999 -9999 -9999 -9999 -9999 -9999 -9999 -9999 -9999 -9999 -9999 -9999 -9999 -9999 -9999 -9999 -9999 -9999 -9999 -9999 -9999 -9999 -9999 -9999 -9999 -9999 -9999 -9999 -9999 -9999 -9999 -9999 -9999 -9999 -9999 -9999 -9999 -9999 -9999 -9999 -9999 -9999 -9999 -9999 -9999 -9999 -9999 -9999 -9999 -9999 -9999 -9999 -9999 -9999 -9999 -9999 -9999 -9999 -9999 -9999 -9999 -9999 -9999 -9999 -9999 -9999 -9999 -9999 -9999 -9999 -9999 -9999 -9999 -9999 -9999 -9999 -9999 -9999 -9999 -9999 -9999 -9999 -9999 -9999 -9999 -9999 -9999 -9999 -9999 -9999 -9999 -9999 -9999 -9999 -9999 -9999 -9999 -9999 -9999 -9999 -9999 -9999 -9999 -9999 -9999 -9999 -9999 -9999 -9999 -9999 -9999 -9999 -9999 -9999 -9999 -9999 -9999 -9999 -9999 -9999 -9999 -9999 -9999 -9999 -9999 -9999 -9999 -9999 -9999 2.57731958762887 2.57731958762887 2.57731958762887 3.85356454720617 3.85356454720617 3.85356454720617 9.61538461538462 9.61538461538462 9.61538461538462 26.525198938992 26.525198938992 26.525198938992 14.4628099173554 10.4602510460251 10.4602510460251 10.4602510460251 11.4942528735632 11.4942528735632 3.44036697247706 3.44036697247706 3.44036697247706 15.1209677419355 15.1209677419355 15.1209677419355 15.1209677419355 8.98587933247754 8.98587933247754 8.98587933247754 0 0 0 8.72093023255814 4.07166123778502 4.07166123778502 4.07166123778502 4.07166123778502 4.07166123778502 4.07166123778502 4.07166123778502 4.07166123778502 4.07166123778502 4.07166123778502 4.07166123778502 4.07166123778502 4.07166123778502 4.07166123778502 4.07166123778502 4.07166123778502 4.07166123778502 0 0 0 17.5438596491228 17.5438596491228 17.5438596491228 7.55939524838013 7.55939524838013 7.55939524838013 17.5438596491228 17.5438596491228 17.5438596491228 17.5438596491228 10.9664153529815 10.9664153529815 10.9664153529815 13.8539042821159 13.8539042821159 13.8539042821159 13.8539042821159 13.8376383763838 5.32859680284192 5.32859680284192 5.32859680284192 8.97666068222621 9.46142649199418 9.46142649199418 9.46142649199418 5.31914893617021 6.71641791044776 6.71641791044776 6.71641791044776 3.90625 3.90625 3.90625 -9999 -9999 3.90625 3.90625 3.90625 -9999 -9999 -9999 1.53061224489796 1.53061224489796 1.53061224489796 1.53061224489796 1.53061224489796 1.53061224489796 1.53061224489796 1.53061224489796 0 0 9.34579439252336 0 0 0 5.46448087431694 2.41935483870968 -9999 -9999 -9999 -9999 -9999 -9999 -9999 -9999 -9999 -9999 -9999 -9999 -9999 -9999 -9999 -9999 -9999 -9999 -9999 -9999 -9999 -9999 -9999 -9999 -9999 -9999 -9999 -9999 -9999 -9999 -9999 -9999 -9999 -9999 -9999 -9999 -9999 -9999 -9999 -9999 -9999 -9999 -9999 -9999 -9999 -9999
-9999 -9999 -9999 -9999 -9999 -9999 -9999 -9999 -9999 -9999 -9999 -9999 -9999 -9999 -9999 -9999 -9999 -9999 -9999 -9999 -9999 -9999 -9999 -9999 -9999 -9999 -9999 -9999 -9999 -9999 -9999 -9999 -9999 -9999 -9999 -9999 -9999 -9999 -9999 -9999 -9999 -9999 -9999 -9999 -9999 -9999 -9999 -9999 -9999 -9999 -9999 -9999 -9999 -9999 -9999 -9999 -9999 -9999 -9999 -9999 -9999 -9999 -9999 -9999 -9999 -9999 -9999 -9999 -9999 -9999 -9999 -9999 -9999 -9999 -9999 -9999 -9999 -9999 -9999 -9999 -9999 -9999 -9999 -9999 -9999 -9999 -9999 -9999 -9999 -9999 -9999 -9999 -9999 -9999 -9999 -9999 -9999 -9999 -9999 -9999 -9999 -9999 -9999 -9999 -9999 -9999 -9999 -9999 -9999 -9999 -9999 -9999 -9999 -9999 -9999 -9999 -9999 -9999 -9999 -9999 -9999 -9999 -9999 -9999 -9999 -9999 -9999 -9999 -9999 -9999 -9999 -9999 -9999 -9999 -9999 -9999 -9999 -9999 -9999 -9999 -9999 -9999 -9999 -9999 -9999 -9999 -9999 -9999 -9999 -9999 -9999 -9999 -9999 -9999 -9999 -9999 -9999 -9999 -9999 -9999 -9999 -9999 -9999 -9999 -9999 -9999 -9999 -9999 -9999 -9999 -9999 -9999 -9999 -9999 -9999 -9999 -9999 -9999 -9999 -9999 -9999 -9999 -9999 -9999 -9999 -9999 -9999 -9999 -9999 -9999 -9999 -9999 -9999 -9999 -9999 -9999 -9999 -9999 -9999 -9999 -9999 -9999 -9999 -9999 -9999 -9999 -9999 -9999 -9999 -9999 -9999 -9999 -9999 -9999 -9999 -9999 -9999 -9999 -9999 -9999 -9999 -9999 -9999 -9999 -9999 -9999 -9999 -9999 -9999 -9999 -9999 -9999 -9999 -9999 -9999 -9999 -9999 -9999 -9999 -9999 -9999 -9999 -9999 -9999 -9999 -9999 -9999 -9999 -9999 -9999 -9999 -9999 -9999 -9999 -9999 -9999 -9999 -9999 -9999 -9999 0 0 4.42477876106195 2.57731958762887 3.85356454720617 3.85356454720617 3.85356454720617 9.61538461538462 9.61538461538462 17.4757281553398 17.4757281553398 26.525198938992 14.4628099173554 14.4628099173554 14.4628099173554 14.4628099173554 10.4602510460251 10.4602510460251 7.04225352112676 7.04225352112676 7.04225352112676 3.44036697247706 15.1209677419355 15.1209677419355 15.1209677419355 16.4556962025316 16.4556962025316 0 18.4563758389262 6.90846286701209 6.90846286701209 6.90846286701209 7.75193798449612 7.75193798449612 7.75193798449612 18.0360721442886 18.0360721442886 4.07166123778502 4.07166123778502 4.07166123778502 4.07166123778502 4.07166123778502 4.07166123778502 4.07166123778502 4.07166123778502 4.07166123778502 4.07166123778502 4.07166123778502 4.07166123778502 5.12820512820513 0 0 0 0 0 17.5438596491228 18.5810810810811 18.5810810810811 18.5810810810811 18.5810810810811 18.5810810810811 18.5810810810811 25.7048092868988 25.7048092868988 10.9664153529815 13.8539042821159 13.8539042821159 13.8539042821159 13.8539042821159 13.8539042821159 3.55871886120996 3.55871886120996 3.55871886120996 5.32859680284192 3.02571860816944 3.02571860816944 3.02571860816944 9.46142649199418 9.46142649199418 6.71641791044776 6.71641791044776 3.90625 3.90625 3.90625 3.90625 -9999 3.90625 3.90625 3.90625 3.90625 3.90625 3.90625 3.90625 1.53061224489796 1.53061224489796 1.53061224489796 1.53061224489796 1.53061224489796 1.53061224489796 1.53061224489796 0 0 0 0 15.5902004454343 15.5902004454343 15.5902004454343 15.5902004454343 2.41935483870968 0 0 2.41935483870968 -9999 -9999 -9999 -9999 -9999 -9999 -9999 -9999 -9999 -9999 -9999 -9999 -9999 -9999 -9999 -9999 -9999 -9999 -9999 -9999 -9999 -9999 -9999 -9999 -9999 -9999 -9999 -9999 -9999 -9999 -9999 -9999 -9999 -9999 -9999 -9999 -9999 -9999 -9999 -9999 -9999 -9999 -9999
-9999 -9999 -9999 -9999 -9999 -9999 -9999 -9999 -9999 -9999 -9999 -9999 -9999 -9999 -9999 -9999 -9999 -9999 -9999 -9999 -9999 -9999 -9999 -9999 -9999 -9999 -9999 -9999 -9999 -9999 -9999 -9999 -9999 -9999 -9999 -9999 -9999 -9999 -9999 -9999 -9999 -9999 -9999 -9999 -9999 -9999 -9999 -9999 -9999 -9999 -9999 -9999 -9999 -9999 -9999 -9999 -9999 -9999 -9999 -9999 -9999 -9999 -9999 -9999 -9999 -9999 -9999 -9999 -9999 -9999 -9999 -9999 -9999 -9999 -9999 -9999 -9999 -9999 -9999 -9999 -9999 -9999 -9999 -9999 -9999 -9999 -9999 -9999 -9999 -9999 -9999 -9999 -9999 -9999 -9999 -9999 -9999 -9999 -9999 -9999 -9999 -9999 -9999 -9999 -9999 -9999 -9999 -9999 -9999 -9999 -9999 -9999 -9999 -9999 -9999 -9999 -9999 -9999 -9999 -9999 -9999 -9999 -9999 -9999 -9999 -9999 -9999 -9999 -9999 -9999 -9999 -9999 -9999 -9999 -9999 -9999 -9999 -9999 -9999 -9999 -9999 -9999 -9999 -9999 -9999 -9999 -9999 -9999 -9999 -9999 -9999 -9999 -9999 -9999 -9999 -9999 -9999 -9999 -9999 -9999 -9999 -9999 -9999 -9999 -9999 -9999 -9999 -9999 -9999 -9999 -9999 -9999 -9999 -9999 -9999 -9999 -9999 -9999 -9999 -9999 -9999 -9999 -9999 -9999 -9999 -9999 -9999 -9999 -9999 -9999 -9999 -9999 -9999 -9999 -9999 -9999 -9999 -9999 -9999 -9999 -9999 -9999 -9999 -9999 -9999 -9999 -9999 -9999 -9999 -9999 -9999 -9999 -9999 -9999 -9999 -9999 -9999 -9999 -9999 -9999 -9999 -9999 -9999 -9999 -9999 -9999 -9999 -9999 -9999 -9999 -9999 -9999 -9999 -9999 -9999 -9999 -9999 -9999 -9999 -9999 -9999 -9999 -9999 -9999 -9999 -9999 -9999 -9999 -9999 -9999 -9999 -9999 -9999 -9999 -9999 -9999 -9999 -9999 -9999 -9999 0 0 4.42477876106195 0 0 3.85356454720617 9.61538461538462 9.61538461538462 0 17.4757281553398 17.4757281553398 8.78734622144112 14.4628099173554 14.4628099173554 14.4628099173554 10.4602510460251 10.4602510460251 13.347022587269 21.8914185639229 21.8914185639229 7.04225352112676 7.04225352112676 27.6785714285714 27.6785714285714 10.3806228373702 15.9817351598174 0 18.1818181818182 18.4563758389262 18.4563758389262 18.4563758389262 5.40540540540541 5.40540540540541 5.40540540540541 4.23728813559322 0 0 4.23728813559322 4.07166123778502 4.07166123778502 4.07166123778502 4.07166123778502 4.07166123778502 4.07166123778502 4.07166123778502 4.07166123778502 4.07166123778502 4.07166123778502 4.77099236641221 5.12820512820513 5.12820512820513 24.7093023255814 24.7093023255814 24.7093023255814 0 2.62697022767075 2.62697022767075 18.5810810810811 18.5810810810811 18.5810810810811 18.5810810810811 25.7048092868988 25.7048092868988 25.7048092868988 25.7048092868988 13.8539042821159 8.69565217391304 13.8539042821159 13.8539042821159 3.55871886120996 3.55871886120996 0 3.55871886120996 3.55871886120996 3.53107344632768 3.53107344632768 3.02571860816944 3.02571860816944 3.02571860816944 3.02571860816944 3.90625 3.90625 3.90625 3.90625 3.90625 3.90625 3.90625 3.90625 3.90625 3.90625 3.90625 3.90625 1.53061224489796 1.53061224489796 1.53061224489796 1.53061224489796 1.53061224489796 1.53061224489796 1.53061224489796 1.53061224489796 0 0 0 15.5902004454343 15.5902004454343 15.5902004454343 15.5902004454343 2.41935483870968 2.41935483870968 2.41935483870968 2.41935483870968 2.41935483870968 2.41935483870968 0 0 0 0 -9999 -9999 -9999 -9999 -9999 -9999 -9999 -9999 -9999 -9999 -9999 -9999 -9999 -9999 -9999 -9999 -9999 -9999 -9999 -9999 -9999 -9999 -9999 -9999 -9999 -9999 -9999 -9999 -9999 -9999 -9999 -9999 -9999 -9999 -9999 -9999 -9999 -9999
-9999 -9999 -9999 -9999 -9999 -9999 -9999 -9999 -9999 -9999 -9999 -9999 -9999 -9999 -9999 -9999 -9999 -9999 -9999 -9999 -9999 -9999 -9999 -9999 -9999 -9999 -9999 -9999 -9999 -9999 -9999 -9999 -9999 -9999 -9999 -9999 -9999 -9999 -9999 -9999 -9999 -9999 -9999 -9999 -9999 -9999 -9999 -9999 -9999 -9999 -9999 -9999 -9999 -9999 -9999 -9999 -9999 -9999 -9999 -9999 -9999 -9999 -9999 -9999 -9999 -9999 -9999 -9999 -9999 -9999 -9999 -9999 -9999 -9999 -9999 -9999 -9999 -9999 -9999 -9999 -9999 -9999 -9999 -9999 -9999 -9999 -9999 -9999 -9999 -9999 -9999 -9999 -9999 -9999 -9999 -9999 -9999 -9999 -9999 -9999 -9999 -9999 -9999 -9999 -9999 -9999 -9999 -9999 -9999 -9999 -9999 -9999 -9999 -9999 -9999 -9999 -9999 -9999 -9999 -9999 -9999 -9999 -9999 -9999 -9999 -9999 -9999 -9999 -9999 -9999 -9999 -9999 -9999 -9999 -9999 -9999 -9999 -9999 -9999 -9999 -9999 -9999 -9999 -9999 -9999 -9999 -9999 -9999 -9999 -9999 -9999 -9999 -9999 -9999 -9999 -9999 -9999 -9999 -9999 -9999 -9999 -9999 -9999 -9999 -9999 -9999 -9999 -9999 -9999 -9999 -9999 -9999 -9999 -9999 -9999 -9999 -9999 -9999 -9999 -9999 -9999 -9999 -9999 -9999 -9999 -9999 -9999 -9999 -9999 -9999 -9999 -9999 -9999 -9999 -9999 -9999 -9999 -9999 -9999 -9999 -9999 -9999 -9999 -9999 -9999 -9999 -9999 -9999 -9999 -9999 -9999 -9999 -9999 -9999 -9999 -9999 -9999 -9999 -9999 -9999 -9999 -9999 -9999 -9999 -9999 -9999 -9999 -9999 -9999 -9999 -9999 -9999 -9999 -9999 -9999 -9999 -9999 -9999 -9999 -9999 -9999 -9999 -9999 -9999 -9999 -9999 -9999 -9999 -9999 -9999 -9999 -9999 -9999 -9999 -9999 -9999 -9999 -9999 -9999 0 0 0 4.42477876106195 0 0 0 0 0 0 0 0 8.78734622144112 8.78734622144112 8.78734622144112 15.4109589041096 15.4109589041096 10.4602510460251 13.347022587269 13.347022587269 21.8914185639229 21.8914185639229 27.6785714285714 27.6785714285714 10.3806228373702 10.3806228373702 10.3806228373702 10.3806228373702 10.3806228373702 18.1818181818182 18.1818181818182 8.70147255689424 16.4092664092664 16.4092664092664 0 0 0 4.23728813559322 4.23728813559322 16.3297045101089 4.07166123778502 4.07166123778502 4.07166123778502 4.07166123778502 4.07166123778502 4.07166123778502 4.07166123778502 4.07166123778502 4.77099236641221 4.77099236641221 4.77099236641221 4.77099236641221 24.7093023255814 24.7093023255814 24.7093023255814 24.7093023255814 2.62697022767075 2.62697022767075 2.95508274231678 2.95508274231678 2.95508274231678 25.7048092868988 25.7048092868988 25.7048092868988 25.7048092868988 -9999 -9999 8.69565217391304 8.69565217391304 8.69565217391304 3.57142857142857 0 0 0 3.53107344632768 3.53107344632768 3.53107344632768 3.53107344632768 3.53107344632768 3.53107344632768 -9999 -9999 -9999 -9999 3.90625 3.90625 3.90625 3.90625 3.90625 3.90625 3.90625 3.90625 -9999 1.53061224489796 1.53061224489796 1.53061224489796 1.53061224489796 1.53061224489796 1.53061224489796 1.53061224489796 0 0 0 0 15.5902004454343 15.5902004454343 15.5902004454343 15.5902004454343 2.41935483870968 2.41935483870968 2.41935483870968 2.41935483870968 2.41935483870968 2.41935483870968 2.41935483870968 2.41935483870968 2.41935483870968 -9999 -9999 -9999 -9999 -9999 -9999 -9999 -9999 -9999 -9999 -9999 -9999 -9999 -9999 -9999 -9999 -9999 -9999 -9999 -9999 -9999 -9999 -9999 -9999 -9999 -9999 -9999 -9999 -9999 -9999 -9999 -9999 -9999 -9999 -9999 -9999 -9999 -9999 -9999
-9999 -9999 -9999 -9999 -9999 -9999 -9999 -9999 -9999 -9999 -9999 -9999 -9999 -9999 -9999 -9999 -9999 -9999 -9999 -9999 -9999 -9999 -9999 -9999 -9999 -9999 -9999 -9999 -9999 -9999 -9999 -9999 -9999 -9999 -9999 -9999 -9999 -9999 -9999 -9999 -9999 -9999 -9999 -9999 -9999 -9999 -9999 -9999 -9999 -9999 -9999 -9999 -9999 -9999 -9999 -9999 -9999 -9999 -9999 -9999 -9999 -9999 -9999 -9999 -9999 -9999 -9999 -9999 -9999 -9999 -9999 -9999 -9999 -9999 -9999 -9999 -9999 -9999 -9999 -9999 -9999 -9999 -9999 -9999 -9999 -9999 -9999 -9999 -9999 -9999 -9999 -9999 -9999 -9999 -9999 -9999 -9999 -9999 -9999 -9999 -9999 -9999 -9999 -9999 -9999 -9999 -9999 -9999 -9999 -9999 -9999 -9999 -9999 -9999 -9999 -9999 -9999 -9999 -9999 -9999 -9999 -9999 -9999 -9999 -9999 -9999 -9999 -9999 -9999 -9999 -9999 -9999 -9999 -9999 -9999 -9999 -9999 -9999 -9999 -9999 -9999 -9999 -9999 -9999 -9999 -9999 -9999 -9999 -9999 -9999 -9999 -9999 -9999 -9999 -9999 -9999 -9999 -9999 -9999 -9999 -9999 -9999 -9999 -9999 -9999 -9999 -9999 -9999 -9999 -9999 -9999 -9999 -9999 -9999 -9999 -9999 -9999 -9999 -9999 -9999 -9999 -9999 -9999 -9999 -9999 -9999 -9999 -9999 -9999 -9999 -9999 -9999 -9999 -9999 -9999 -9999 -9999 -9999 -9999 -9999 -9999 -9999 -9999 -9999 -9999 -9999 -9999 -9999 -9999 -9999 -9999 -9999 -9999 -9999 -9999 -9999 -9999 -9999 -9999 -9999 -9999 -9999 -9999 -9999 -9999 -9999 -9999 -9999 -9999 -9999 -9999 -9999 -9999 -9999 -9999 -9999 -9999 -9999 -9999 -9999 -9999 -9999 -9999 -9999 -9999 -9999 -9999 -9999 -9999 -9999 -9999 -9999 -9999 -9999 -9999 -9999 -9999 -9999 -9999 0 0 0 0 4.95049504950495 14.9006622516556 0 0 0 0 0 8.78734622144112 8.78734622144112 8.78734622144112 15.4109589041096 15.4109589041096 15.4109589041096 27.6785714285714 13.347022587269 27.6785714285714 27.6785714285714 27.6785714285714 27.6785714285714 10.3806228373702 10.3806228373702 10.3806228373702 10.3806228373702 10.3806228373702 10.3806228373702 10.3806228373702 8.70147255689424 8.70147255689424 8.70147255689424 8.70147255689424 0 0 0 8.70147255689424 8.70147255689424 4.23728813559322 4.23728813559322 16.3297045101089 9.56022944550669 9.56022944550669 4.07166123778502 4.07166123778502 4.07166123778502 6.02409638554217 6.02409638554217 4.77099236641221 4.77099236641221 4.77099236641221 4.77099236641221 4.77099236641221 24.7093023255814 24.7093023255814 24.7093023255814 2.95508274231678 2.95508274231678 2.95508274231678 2.95508274231678 2.95508274231678 2.95508274231678 25.7048092868988 -9999 3.87596899224806 3.87596899224806 16.7714884696017 -9999 8.53242320819113 5.77367205542725 5.77367205542725 3.57142857142857 3.53107344632768 3.53107344632768 3.53107344632768 3.53107344632768 3.53107344632768 3.53107344632768 -9999 -9999 -9999 -9999 -9999 -9999 -9999 -9999 3.90625 3.90625 3.90625 3.90625 3.90625 -9999 -9999 -9999 -9999 1.53061224489796 1.53061224489796 1.53061224489796 1.53061224489796 1.53061224489796 1.53061224489796 1.53061224489796 15.5902004454343 15.5902004454343 15.5902004454343 15.5902004454343 2.41935483870968 2.41935483870968 2.41935483870968 2.41935483870968 2.41935483870968 2.41935483870968 2.41935483870968 2.41935483870968 2.41935483870968 2.41935483870968 -9999 -9999 -9999 -9999 -9999 -9999 -9999 -9999 -9999 -9999 -9999 -9999 -9999 -9999 -9999 -9999 -9999 -9999 -9999 -9999 -9999 -9999 -9999 -9999 -9999 -9999 -9999 -9999 -9999 -9999 -9999 -9999 -9999 -9999 -9999 -9999 -9999 -9999 -9999
-9999 -9999 -9999 -9999 -9999 -9999 -9999 -9999 -9999 -9999 -9999 -9999 -9999 -9999 -9999 -9999 -9999 -9999 -9999 -9999 -9999 -9999 -9999 -9999 -9999 -9999 -9999 -9999 -9999 -9999 -9999 -9999 -9999 -9999 -9999 -9999 -9999 -9999 -9999 -9999 -9999 -9999 -9999 -9999 -9999 -9999 -9999 -9999 -9999 -9999 -9999 -9999 -9999 -9999 -9999 -9999 -9999 -9999 -9999 -9999 -9999 -9999 -9999 -9999 -9999 -9999 -9999 -9999 -9999 -9999 -9999 -9999 -9999 -9999 -9999 -9999 -9999 -9999 -9999 -9999 -9999 -9999 -9999 -9999 -9999 -9999 -9999 -9999 -9999 -9999 -9999 -9999 -9999 -9999 -9999 -9999 -9999 -9999 -9999 -9999 -9999 -9999 -9999 -9999 -9999 -9999 -9999 -9999 -9999 -9999 -9999 -9999 -9999 -9999 -9999 -9999 -9999 -9999 -9999 -9999 -9999 -9999 -9999 -9999 -9999 -9999 -9999 -9999 -9999 -9999 -9999 -9999 -9999 -9999 -9999 -9999 -9999 -9999 -9999 -9999 -9999 -9999 -9999 -9999 -9999 -9999 -9999 -9999 -9999 -9999 -9999 -9999 -9999 -9999 -9999 -9999 -9999 -9999 -9999 -9999 -9999 -9999 -9999 -9999 -9999 -9999 -9999 -9999 -9999 -9999 -9999 -9999 -9999 -9999 -9999 -9999 -9999 -9999 -9999 -9999 -9999 -9999 -9999 -9999 -9999 -9999 -9999 -9999 -9999 -9999 -9999 -9999 -9999 -9999 -9999 -9999 -9999 -9999 -9999 -9999 -9999 -9999 -9999 -9999 -9999 -9999 -9999 -9999 -9999 -9999 -9999 -9999 -9999 -9999 -9999 -9999 -9999 -9999 -9999 -9999 -9999 -9999 -9999 -9999 -9999 -9999 -9999 -9999 -9999 -9999 -9999 -9999 -9999 -9999 -9999 -9999 -9999 -9999 -9999 -9999 -9999 -9999 -9999 -9999 -9999 -9999 -9999 -9999 -9999 -9999 -9999 -9999 -9999 -9999 -9999 -9999 -9999 -9999 -9999 0 0 0 4.95049504950495 4.95049504950495 14.9006622516556 14.9006622516556 14.9006622516556 5.17241379310345 0 3.79266750948167 3.79266750948167 3.79266750948167 2.32198142414861 15.4109589041096 15.4109589041096 27.6785714285714 27.6785714285714 27.6785714285714 27.6785714285714 27.6785714285714 27.6785714285714 10.3806228373702 10.3806228373702 10.3806228373702 10.3806228373702 10.3806228373702 10.3806228373702 10.3806228373702 8.70147255689424 8.70147255689424 8.70147255689424 8.70147255689424 8.70147255689424 8.70147255689424 8.70147255689424 8.70147255689424 8.70147255689424 8.70147255689424 7.85854616895874 7.85854616895874 7.85854616895874 9.56022944550669 9.56022944550669 9.56022944550669 9.56022944550669 6.02409638554217 6.02409638554217 6.02409638554217 6.02409638554217 8.83652430044183 4.77099236641221 4.77099236641221 12.2511485451761 12.2511485451761 12.2511485451761 2.95508274231678 2.95508274231678 2.95508274231678 5.10855683269476 5.10855683269476 5.10855683269476 2.95508274231678 2.95508274231678 4.76947535771065 4.76947535771065 3.87596899224806 3.87596899224806 5.88235294117647 5.88235294117647 5.88235294117647 5.88235294117647 13.6010362694301 13.6010362694301 3.53107344632768 3.53107344632768 11.7474302496329 11.7474302496329 -9999 -9999 -9999 -9999 -9999 -9999 -9999 -9999 -9999 -9999 -9999 -9999 3.90625 -9999 -9999 -9999 -9999 -9999 -9999 -9999 -9999 1.53061224489796 1.53061224489796 1.53061224489796 15.5902004454343 15.5902004454343 15.5902004454343 15.5902004454343 15.5902004454343 2.41935483870968 2.41935483870968 2.41935483870968 2.41935483870968 2.41935483870968 2.41935483870968 2.41935483870968 2.41935483870968 2.41935483870968 2.41935483870968 -9999 -9999 -9999 -9999 -9999 -9999 -9999 -9999 -9999 -9999 -9999 -9999 -9999 -9999 -9999 -9999 -9999 -9999 -9999 -9999 -9999 -9999 -9999 -9999 -9999 -9999 -9999 -9999 -9999 -9999 -9999 -9999 -9999 -9999 -9999 -9999 -9999 -9999 -9999
-9999 -9999 -9999 -9999 -9999 -9999 -9999 -9999 -9999 -9999 -9999 -9999 -9999 -9999 -9999 -9999 -9999 -9999 -9999 -9999 -9999 -9999 -9999 -9999 -9999 -9999 -9999 -9999 -9999 -9999 -9999 -9999 -9999 -9999 -9999 -9999 -9999 -9999 -9999 -9999 -9999 -9999 -9999 -9999 -9999 -9999 -9999 -9999 -9999 -9999 -9999 -9999 -9999 -9999 -9999 -9999 -9999 -9999 -9999 -9999 -9999 -9999 -9999 -9999 -9999 -9999 -9999 -9999 -9999 -9999 -9999 -9999 -9999 -9999 -9999 -9999 -9999 -9999 -9999 -9999 -9999 -9999 -9999 -9999 -9999 -9999 -9999 -9999 -9999 -9999 -9999 -9999 -9999 -9999 -9999 -9999 -9999 -9999 -9999 -9999 -9999 -9999 -9999 -9999 -9999 -9999 -9999 -9999 -9999 -9999 -9999 -9999 -9999 -9999 -9999 -9999 -9999 -9999 -9999 -9999 -9999 -9999 -9999 -9999 -9999 -9999 -9999 -9999 -9999 -9999 -9999 -9999 -9999 -9999 -9999 -9999 -9999 -9999 -9999 -9999 -9999 -9999 -9999 -9999 -9999 -9999 -9999 -9999 -9999 -9999 -9999 -9999 -9999 -9999 -9999 -9999 -9999 -9999 -9999 -9999 -9999 -9999 -9999 -9999 -9999 -9999 -9999 -9999 -9999 -9999 -9999 -9999 -9999 -9999 -9999 -9999 -9999 -9999 -9999 -9999 -9999 -9999 -9999 -9999 -9999 -9999 -9999 -9999 -9999 -9999 -9999 -9999 -9999 -9999 -9999 -9999 -9999 -9999 -9999 -9999 -9999 -9999 -9999 -9999 -9999 -9999 -9999 -9999 -9999 -9999 -9999 -9999 -9999 -9999 -9999 -9999 -9999 -9999 -9999 -9999 -9999 -9999 -9999 -9999 -9999 -9999 -9999 -9999 -9999 -9999 -9999 -9999 -9999 -9999 -9999 -9999 -9999 -9999 -9999 -9999 -9999 -9999 -9999 -9999 -9999 -9999 -9999 -9999 -9999 -9999 -9999 -9999 -9999 -9999 -9999 -9999 -9999 -9999 -9999 0 0 3.52941176470588 3.52941176470588 3.73134328358209 3.73134328358209 3.73134328358209 5.17241379310345 5.17241379310345 5.17241379310345 5.17241379310345 3.79266750948167 3.79266750948167 2.32198142414861 2.32198142414861 7.38916256157635 27.6785714285714 27.6785714285714 27.6785714285714 27.6785714285714 27.6785714285714 27.6785714285714 10.3806228373702 10.3806228373702 10.3806228373702 10.3806228373702 10.3806228373702 10.3806228373702 8.70147255689424 8.70147255689424 8.70147255689424 8.70147255689424 8.70147255689424 8.70147255689424 8.70147255689424 8.70147255689424 8.70147255689424 8.70147255689424 8.70147255689424 10.221465076661 10.221465076661 7.85854616895874 10.4895104895105 10.4895104895105 9.56022944550669 0 0 0 6.02409638554217 6.02409638554217 8.83652430044183 8.83652430044183 15.7232704402516 12.2511485451761 15.7232704402516 12.2511485451761 12.1107266435986 12.1107266435986 7.65696784073507 5.10855683269476 5.10855683269476 5.10855683269476 5.10855683269476 4.80769230769231 4.80769230769231 4.76947535771065 4.76947535771065 5.00500500500501 5.00500500500501 5.00500500500501 5.00500500500501 2.71739130434783 2.71739130434783 13.6010362694301 13.6010362694301 13.6010362694301 13.6010362694301 -9999 -9999 -9999 -9999 -9999 -9999 -9999 -9999 -9999 -9999 -9999 -9999 -9999 -9999 -9999 -9999 -9999 -9999 -9999 -9999 -9999 -9999 -9999 -9999 -9999 15.5902004454343 15.5902004454343 15.5902004454343 15.5902004454343 2.41935483870968 2.41935483870968 2.41935483870968 2.41935483870968 2.41935483870968 2.41935483870968 2.41935483870968 2.41935483870968 2.41935483870968 2.41935483870968 -9999 -9999 -9999 -9999 -9999 -9999 -9999 -9999 -9999 -9999 -9999 -9999 -9999 -9999 -9999 -9999 -9999 -9999 -9999 -9999 -9999 -9999 -9999 -9999 -9999 -9999 -9999 -9999 -9999 -9999 -9999 -9999 -9999 -9999 -9999 -9999 -9999 -9999 -9999 -9999
-9999 -9999 -9999 -9999 -9999 -9999 -9999 -9999 -9999 -9999 -9999 -9999 -9999 -9999 -9999 -9999 -9999 -9999 -9999 -9999 -9999 -9999 -9999 -9999 -9999 -9999 -9999 -9999 -9999 -9999 -9999 -9999 -9999 -9999 -9999 -9999 -9999 -9999 -9999 -9999 -9999 -9999 -9999 -9999 -9999 -9999 -9999 -9999 -9999 -9999 -9999 -9999 -9999 -9999 -9999 -9999 -9999 -9999 -9999 -9999 -9999 -9999 -9999 -9999 -9999 -9999 -9999 -9999 -9999 -9999 -9999 -9999 -9999 -9999 -9999 -9999 -9999 -9999 -9999 -9999 -9999 -9999 -9999 -9999 -9999 -9999 -9999 -9999 -9999 -9999 -9999 -9999 -9999 -9999 -9999 -9999 -9999 -9999 -9999 -9999 -9999 -9999 -9999 -9999 -9999 -9999 -9999 -9999 -9999 -9999 -9999 -9999 -9999 -9999 -9999 -9999 -9999 -9999 -9999 -9999 -9999 -9999 -9999 -9999 -9999 -9999 -9999 -9999 -9999 -9999 -9999 -9999 -9999 -9999 -9999 -9999 -9999 -9999 -9999 -9999 -9999 -9999 -9999 -9999 -9999 -9999 -9999 -9999 -9999 -9999 -9999 -9999 -9999 -9999 -9999 -9999 -9999 -9999 -9999 -9999 -9999 -9999 -9999 -9999 -9999 -9999 -9999 -9999 -9999 -9999 -9999 -9999 -9999 -9999 -9999 -9999 -9999 -9999 -9999 -9999 -9999 -9999 -9999 -9999 -9999 -9999 -9999 -9999 -9999 -9999 -9999 -9999 -9999 -9999 -9999 -9999 -9999 -9999 -9999 -9999 -9999 -9999 -9999 -9999 -9999 -9999 -9999 -9999 -9999 -9999 -9999 -9999 -9999 -9999 -9999 -9999 -9999 -9999 -9999 -9999 -9999 -9999 -9999 -9999 -9999 -9999 -9999 -9999 -9999 -9999 -9999 -9999 -9999 -9999 -9999 -9999 -9999 -9999 -9999 -9999 -9999 -9999 -9999 -9999 -9999 -9999 -9999 -9999 -9999 -9999 -9999 -9999 -9999 -9999 -9999 -9999 7.38007380073801 7.38007380073801 7.38007380073801 7.38007380073801 7.38007380073801 3.52941176470588 3.73134328358209 3.73134328358209 3.73134328358209 9.24608819345661 9.24608819345661 9.24608819345661 5.17241379310345 5.17241379310345 0 0 2.32198142414861 2.32198142414861 7.38916256157635 7.38916256157635 7.38916256157635 27.6785714285714 27.6785714285714 27.6785714285714 10.3806228373702 10.3806228373702 10.3806228373702 10.3806228373702 10.3806228373702 10.3806228373702 8.70147255689424 8.70147255689424 8.70147255689424 8.70147255689424 8.70147255689424 8.70147255689424 8.70147255689424 8.70147255689424 8.70147255689424 8.70147255689424 8.70147255689424 8.70147255689424 8.70147255689424 10.221465076661 10.221465076661 10.221465076661 10.4895104895105 10.4895104895105 0 0 0 12.4282982791587 12.4282982791587 6.02409638554217 15.7232704402516 15.7232704402516 15.7232704402516 15.7232704402516 19.1637630662021 19.1637630662021 12.1107266435986 7.65696784073507 7.65696784073507 7.65696784073507 5.10855683269476 4.12371134020619 10.1351351351351 10.1351351351351 10.1351351351351 0 0 5.00500500500501 5.00500500500501 9.02777777777778 9.02777777777778 2.71739130434783 2.71739130434783 6.23885918003565 6.23885918003565 -9999 -9999 -9999 -9999 -9999 -9999 -9999 -9999 -9999 -9999 -9999 -9999 -9999 -9999 -9999 -9999 -9999 -9999 -9999 -9999 -9999 -9999 -9999 -9999 -9999 1.3531799729364 1.3531799729364 1.3531799729364 1.3531799729364 15.5902004454343 2.41935483870968 2.41935483870968 2.41935483870968 2.41935483870968 2.41935483870968 2.41935483870968 2.41935483870968 2.41935483870968 2.41935483870968 2.41935483870968 -9999 -9999 -9999 -9999 -9999 -9999 -9999 -9999 -9999 -9999 -9999 -9999 -9999 -9999 -9999 -9999 -9999 -9999 -9999 -9999 -9999 -9999 -9999 -9999 -9999 -9999 -9999 -9999 -9999 -9999 -9999 -9999 -9999 -9999 -9999 -9999 -9999 -9999 -9999 -9999
-9999 -9999 -9999 -9999 -9999 -9999 -9999 -9999 -9999 -9999 -9999 -9999 -9999 -9999 -9999 -9999 -9999 -9999 -9999 -9999 -9999 -9999 -9999 -9999 -9999 -9999 -9999 -9999 -9999 -9999 -9999 -9999 -9999 -9999 -9999 -9999 -9999 -9999 -9999 -9999 -9999 -9999 -9999 -9999 -9999 -9999 -9999 -9999 -9999 -9999 -9999 -9999 -9999 -9999 -9999 -9999 -9999 -9999 -9999 -9999 -9999 -9999 -9999 -9999 -9999 -9999 -9999 -9999 -9999 -9999 -9999 -9999 -9999 -9999 -9999 -9999 -9999 -9999 -9999 -9999 -9999 -9999 -9999 -9999 -9999 -9999 -9999 -9999 -9999 -9999 -9999 -9999 -9999 -9999 -9999 -9999 -9999 -9999 -9999 -9999 -9999 -9999 -9999 -9999 -9999 -9999 -9999 -9999 -9999 -9999 -9999 -9999 -9999 -9999 -9999 -9999 -9999 -9999 -9999 -9999 -9999 -9999 -9999 -9999 -9999 -9999 -9999 -9999 -9999 -9999 -9999 -9999 -9999 -9999 -9999 -9999 -9999 -9999 -9999 -9999 -9999 -9999 -9999 -9999 -9999 -9999 -9999 -9999 -9999 -9999 -9999 -9999 -9999 -9999 -9999 -9999 -9999 -9999 -9999 -9999 -9999 -9999 -9999 -9999 -9999 -9999 -9999 -9999 -9999 -9999 -9999 -9999 -9999 -9999 -9999 -9999 -9999 -9999 -9999 -9999 -9999 -9999 -9999 -9999 -9999 -9999 -9999 -9999 -9999 -9999 -9999 -9999 -9999 -9999 -9999 -9999 -9999 -9999 -9999 -9999 -9999 -9999 -9999 -9999 -9999 -9999 -9999 -9999 -9999 -9999 -9999 -9999 -9999 -9999 -9999 -9999 -9999 -9999 -9999 -9999 -9999 -9999 -9999 -9999 -9999 -9999 -9999 -9999 -9999 -9999 -9999 -9999 -9999 -9999 -9999 -9999 -9999 -9999 -9999 -9999 -9999 -9999 -9999 -9999 -9999 -9999 -9999 -9999 -9999 -9999 -9999 -9999 -9999 -9999 7.38007380073801 7.38007380073801 7.38007380073801 6.36363636363636 3.0241935483871 3.0241935483871 1.72711571675302 1.72711571675302 1.72711571675302 1.72711571675302 1.72711571675302 9.24608819345661 9.24608819345661 9.24608819345661 9.24608819345661 9.24608819345661 0 0 2.32198142414861 7.38916256157635 7.38916256157635 7.38916256157635 17.632241813602 5.10204081632653 17.632241813602 17.632241813602 10.3806228373702 10.3806228373702 10.3806228373702 10.3806228373702 10.3806228373702 8.70147255689424 8.70147255689424 8.70147255689424 8.70147255689424 8.70147255689424 8.70147255689424 8.70147255689424 8.70147255689424 8.70147255689424 8.70147255689424 8.70147255689424 8.70147255689424 8.70147255689424 8.70147255689424 10.221465076661 10.221465076661 10.221465076661 10.221465076661 0 0 0 0 0 12.4282982791587 12.4282982791587 15.7232704402516 15.7232704402516 15.7232704402516 6.84931506849315 19.1637630662021 19.1637630662021 9.67741935483871 9.67741935483871 7.65696784073507 0 4.12371134020619 4.12371134020619 4.12371134020619 4.12371134020619 9.15492957746479 9.15492957746479 3.50467289719626 3.50467289719626 8.26149425287356 8.26149425287356 8.26149425287356 9.02777777777778 9.02777777777778 6.23885918003565 6.23885918003565 -9999 -9999 -9999 -9999 -9999 -9999 -9999 -9999 -9999 -9999 -9999 -9999 -9999 -9999 -9999 -9999 -9999 -9999 -9999 -9999 -9999 -9999 0 -9999 -9999 1.3531799729364 1.3531799729364 1.3531799729364 1.3531799729364 -9999 -9999 -9999 2.41935483870968 2.41935483870968 2.41935483870968 2.41935483870968 2.41935483870968 2.41935483870968 2.41935483870968 -9999 -9999 -9999 -9999 -9999 -9999 -9999 -9999 -9999 -9999 -9999 -9999 -9999 -9999 -9999 -9999 -9999 -9999 -9999 -9999 -9999 -9999 -9999 -9999 -9999 -9999 -9999 -9999 -9999 -9999 -9999 -9999 -9999 -9999 -9999 -9999 -9999 -9999 -9999 -9999 -9999
-9999 -9999 -9999 -9999 -9999 -9999 -9999 -9999 -9999 -9999 -9999 -9999 -9999 -9999 -9999 -9999 -9999 -9999 -9999 -9999 -9999 -9999 -9999 -9999 -9999 -9999 -9999 -9999 -9999 -9999 -9999 -9999 -9999 -9999 -9999 -9999 -9999 -9999 -9999 -9999 -9999 -9999 -9999 -9999 -9999 -9999 -9999 -9999 -9999 -9999 -9999 -9999 -9999 -9999 -9999 -9999 -9999 -9999 -9999 -9999 -9999 -9999 -9999 -9999 -9999 -9999 -9999 -9999 -9999 -9999 -9999 -9999 -9999 -9999 -9999 -9999 -9999 -9999 -9999 -9999 -9999 -9999 -9999 -9999 -9999 -9999 -9999 -9999 -9999 -9999 -9999 -9999 -9999 -9999 -9999 -9999 -9999 -9999 -9999 -9999 -9999 -9999 -9999 -9999 -9999 -9999 -9999 -9999 -9999 -9999 -9999 -9999 -9999 -9999 -9999 -9999 -9999 -9999 -9999 -9999 -9999 -9999 -9999 -9999 -9999 -9999 -9999 -9999 -9999 -9999 -9999 -9999 -9999 -9999 -9999 -9999 -9999 -9999 -9999 -9999 -9999 -9999 -9999 -9999 -9999 -9999 -9999 -9999 -9999 -9999 -9999 -9999 -9999 -9999 -9999 -9999 -9999 -9999 -9999 -9999 -9999 -9999 -9999 -9999 -9999 -9999 -9999 -9999 -9999 -9999 -9999 -9999 -9999 -9999 -9999 -9999 -9999 -9999 -9999 -9999 -9999 -9999 -9999 -9999 -9999 -9999 -9999 -9999 -9999 -9999 -9999 -9999 -9999 -9999 -9999 -9999 -9999 -9999 -9999 -9999 -9999 -9999 -9999 -9999 -9999 -9999 -9999 -9999 -9999 -9999 -9999 -9999 -9999 -9999 -9999 -9999 -9999 -9999 -9999 -9999 -9999 -9999 -9999 -9999 -9999 -9999 -9999 -9999 -9999 -9999 -9999 -9999 -9999 -9999 -9999 -9999 -9999 -9999 -9999 -9999 -9999 -9999 -9999 -9999 -9999 -9999 -9999 -9999 -9999 -9999 -9999 -9999 -9999 7.38007380073801 7.38007380073801 7.38007380073801 7.38007380073801 6.36363636363636 6.36363636363636 6.36363636363636 6.36363636363636 5.87084148727984 5.87084148727984 1.72711571675302 3.21199143468951 3.21199143468951 3.21199143468951 11.472275334608 9.24608819345661 9.24608819345661 9.24608819345661 9.24608819345661 7.38916256157635 7.38916256157635 7.38916256157635 5.10204081632653 5.10204081632653 5.10204081632653 5.10204081632653 6.77200902934537 6.77200902934537 6.77200902934537 10.3806228373702 10.3806228373702 8.70147255689424 8.70147255689424 8.70147255689424 8.70147255689424 8.70147255689424 8.70147255689424 8.70147255689424 8.70147255689424 8.70147255689424 8.70147255689424 8.70147255689424 8.70147255689424 8.70147255689424 8.70147255689424 8.70147255689424 8.70147255689424 8.70147255689424 8.70147255689424 3.18471337579618 0 0 18.3150183150183 10.9819121447028 10.9819121447028 10.9819121447028 10.9819121447028 2.97029702970297 2.97029702970297 0 6.84931506849315 6.84931506849315 2.50836120401338 9.67741935483871 9.67741935483871 4.89510489510489 4.12371134020619 4.12371134020619 4.12371134020619 4.12371134020619 9.15492957746479 9.15492957746479 9.15492957746479 9.15492957746479 9.15492957746479 8.26149425287356 8.26149425287356 8.26149425287356 15.5239327296248 15.5239327296248 15.5239327296248 -9999 -9999 -9999 -9999 -9999 -9999 -9999 -9999 -9999 -9999 -9999 -9999 -9999 -9999 -9999 -9999 -9999 -9999 -9999 -9999 -9999 -9999 6.23441396508728 0 0 1.3531799729364 1.3531799729364 1.3531799729364 1.3531799729364 1.3531799729364 -9999 -9999 -9999 -9999 -9999 -9999 2.41935483870968 2.41935483870968 2.41935483870968 2.41935483870968 -9999 -9999 -9999 -9999 -9999 -9999 -9999 -9999 -9999 -9999 -9999 -9999 -9999 -9999 -9999 -9999 -9999 -9999 -9999 -9999 -9999 -9999 -9999 -9999 -9999 -9999 -9999 -9999 -9999 -9999 -9999 -9999 -9999 -9999 -9999 -9999 -9999 -9999 -9999 -9999 -9999
-9999 -9999 -9999 -9999 -9999 -9999 -9999 -9999 -9999 -9999 -9999 -9999 -9999 -9999 -9999 -9999 -9999 -9999 -9999 -9999 -9999 -9999 -9999 -9999 -9999 -9999 -9999 -9999 -9999 -9999 -9999 -9999 -9999 -9999 -9999 -9999 -9999 -9999 -9999 -9999 -9999 -9999 -9999 -9999 -9999 -9999 -9999 -9999 -9999 -9999 -9999 -9999 -9999 -9999 -9999 -9999 -9999 -9999 -9999 -9999 -9999 -9999 -9999 -9999 -9999 -9999 -9999 -9999 -9999 -9999 -9999 -9999 -9999 -9999 -9999 -9999 -9999 -9999 -9999 -9999 -9999 -9999 -9999 -9999 -9999 -9999 -9999 -9999 -9999 -9999 -9999 -9999 -9999 -9999 -9999 -9999 -9999 -9999 -9999 -9999 -9999 -9999 -9999 -9999 -9999 -9999 -9999 -9999 -9999 -9999 -9999 -9999 -9999 -9999 -9999 -9999 -9999 -9999 -9999 -9999 -9999 -9999 -9999 -9999 -9999 -9999 -9999 -9999 -9999 -9999 -9999 -9999 -9999 -9999 -9999 -9999 -9999 -9999 -9999 -9999 -9999 -9999 -9999 -9999 -9999 -9999 -9999 -9999 -9999 -9999 -9999 -9999 -9999 -9999 -9999 -9999 -9999 -9999 -9999 -9999 -9999 -9999 -9999 -9999 -9999 -9999 -9999 -9999 -9999 -9999 -9999 -9999 -9999 -9999 -9999 -9999 -9999 -9999 -9999 -9999 -9999 -9999 -9999 -9999 -9999 -9999 -9999 -9999 -9999 -9999 -9999 -9999 -9999 -9999 -9999 -9999 -9999 -9999 -9999 -9999 -9999 -9999 -9999 -9999 -9999 -9999 -9999 -9999 -9999 -9999 -9999 -9999 -9999 -9999 -9999 -9999 -9999 -9999 -9999 -9999 -9999 -9999 -9999 -9999 -9999 -9999 -9999 -9999 -9999 -9999 -9999 -9999 -9999 -9999 -9999 -9999 -9999 -9999 -9999 -9999 -9999 -9999 -9999 -9999 -9999 -9999 -9999 -9999 -9999 -9999 -9999 -9999 6.52741514360313 7.38007380073801 7.38007380073801 7.38007380073801 0 2.77264325323475 0 0 6.36363636363636 5.87084148727984 5.87084148727984 5.87084148727984 3.21199143468951 3.21199143468951 3.21199143468951 11.472275334608 11.472275334608 11.472275334608 11.472275334608 11.472275334608 7.38916256157635 7.38916256157635 0 0 0 0 3.15789473684211 6.77200902934537 6.77200902934537 0 0 0 8.70147255689424 8.70147255689424 8.70147255689424 8.70147255689424 8.70147255689424 8.70147255689424 8.70147255689424 8.70147255689424 8.70147255689424 8.70147255689424 8.70147255689424 8.70147255689424 8.70147255689424 8.70147255689424 8.70147255689424 8.70147255689424 8.70147255689424 17.2413793103448 3.18471337579618 3.18471337579618 3.18471337579618 18.3150183150183 18.3150183150183 18.3150183150183 10.9819121447028 10.9819121447028 10.9819121447028 10.9819121447028 2.97029702970297 2.97029702970297 0 0 2.50836120401338 4.89510489510489 4.89510489510489 10.2459016393443 4.12371134020619 4.12371134020619 4.12371134020619 9.15492957746479 9.15492957746479 9.15492957746479 9.15492957746479 8.26149425287356 8.26149425287356 8.26149425287356 8.26149425287356 2.78164116828929 15.5239327296248 3.81679389312977 3.81679389312977 3.81679389312977 0 -9999 -9999 -9999 -9999 -9999 -9999 -9999 -9999 -9999 -9999 -9999 -9999 -9999 -9999 -9999 -9999 -9999 -9999 2.32018561484919 6.23441396508728 6.23441396508728 6.23441396508728 1.3531799729364 1.3531799729364 1.3531799729364 1.3531799729364 -9999 -9999 -9999 -9999 -9999 -9999 -9999 0 0 0 -9999 -9999 -9999 -9999 -9999 -9999 -9999 -9999 -9999 -9999 -9999 -9999 -9999 -9999 -9999 -9999 -9999 -9999 -9999 -9999 -9999 -9999 -9999 -9999 -9999 -9999 -9999 -9999 -9999 -9999 -9999 -9999 -9999 -9999 -9999 -9999 -9999 -9999 -9999 -9999 -9999 -9999
-9999 -9999 -9999 -9999 -9999 -9999 -9999 -9999 -9999 -9999 -9999 -9999 -9999 -9999 -9999 -9999 -9999 -9999 -9999 -9999 -9999 -9999 -9999 -9999 -9999 -9999 -9999 -9999 -9999 -9999 -9999 -9999 -9999 -9999 -9999 -9999 -9999 -9999 -9999 -9999 -9999 -9999 -9999 -9999 -9999 -9999 -9999 -9999 -9999 -9999 -9999 -9999 -9999 -9999 -9999 -9999 -9999 -9999 -9999 -9999 -9999 -9999 -9999 -9999 -9999 -9999 -9999 -9999 -9999 -9999 -9999 -9999 -9999 -9999 -9999 -9999 -9999 -9999 -9999 -9999 -9999 -9999 -9999 -9999 -9999 -9999 -9999 -9999 -9999 -9999 -9999 -9999 -9999 -9999 -9999 -9999 -9999 -9999 -9999 -9999 -9999 -9999 -9999 -9999 -9999 -9999 -9999 -9999 -9999 -9999 -9999 -9999 -9999 -9999 -9999 -9999 -9999 -9999 -9999 -9999 -9999 -9999 -9999 -9999 -9999 -9999 -9999 -9999 -9999 -9999 -9999 -9999 -9999 -9999 -9999 -9999 -9999 -9999 -9999 -9999 -9999 -9999 -9999 -9999 -9999 -9999 -9999 -9999 -9999 -9999 -9999 -9999 -9999 -9999 -9999 -9999 -9999 -9999 -9999 -9999 -9999 -9999 -9999 -9999 -9999 -9999 -9999 -9999 -9999 -9999 -9999 -9999 -9999 -9999 -9999 -9999 -9999 -9999 -9999 -9999 -9999 -9999 -9999 -9999 -9999 -9999 -9999 -9999 -9999 -9999 -9999 -9999 -9999 -9999 -9999 -9999 -9999 -9999 -9999 -9999 -9999 -9999 -9999 -9999 -9999 -9999 -9999 -9999 -9999 -9999 -9999 -9999 -9999 -9999 -9999 -9999 -9999 -9999 -9999 -9999 -9999 -9999 -9999 -9999 -9999 -9999 -9999 -9999 -9999 -9999 -9999 -9999 -9999 -9999 -9999 -9999 -9999 -9999 -9999 -9999 -9999 -9999 -9999 -9999 -9999 -9999 -9999 -9999 -9999 -9999 -9999 6.52741514360313 6.52741514360313 6.52741514360313 6.52741514360313 6.52741514360313 2.77264325323475 2.77264325323475 2.77264325323475 2.77264325323475 3.09597523219814 3.09597523219814 3.09597523219814 0 0 0 11.472275334608 11.472275334608 11.472275334608 14.9925037481259 11.472275334608 12.6689189189189 7.38916256157635 7.38916256157635 0 0 0 3.15789473684211 3.15789473684211 3.15789473684211 0 0 0 -9999 -9999 -9999 6.23700623700624 8.70147255689424 8.70147255689424 8.70147255689424 8.70147255689424 8.70147255689424 8.70147255689424 8.70147255689424 8.70147255689424 8.70147255689424 8.70147255689424 8.70147255689424 8.70147255689424 8.70147255689424 8.70147255689424 8.70147255689424 17.2413793103448 3.18471337579618 3.18471337579618 3.18471337579618 20.2922077922078 20.2922077922078 18.8034188034188 18.8034188034188 10.9819121447028 8.7527352297593 8.7527352297593 10.2533172496984 9.55414012738854 9.55414012738854 9.55414012738854 9.55414012738854 0 10.2459016393443 10.2459016393443 10.2459016393443 7.30994152046784 7.30994152046784 7.30994152046784 7.30994152046784 8.26149425287356 8.26149425287356 8.26149425287356 8.26149425287356 2.78164116828929 2.78164116828929 7.62527233115468 7.62527233115468 7.62527233115468 7.47663551401869 7.47663551401869 7.47663551401869 0 0 -9999 -9999 -9999 -9999 -9999 -9999 -9999 -9999 -9999 -9999 -9999 -9999 -9999 -9999 -9999 2.32018561484919 2.32018561484919 2.32018561484919 5.87467362924282 1.3531799729364 1.3531799729364 1.3531799729364 1.3531799729364 -9999 -9999 -9999 -9999 -9999 -9999 0 0 3.75469336670839 3.75469336670839 3.75469336670839 3.75469336670839 -9999 3.75469336670839 -9999 -9999 -9999 -9999 -9999 -9999 -9999 -9999 -9999 -9999 -9999 -9999 -9999 -9999 -9999 -9999 -9999 -9999 -9999 -9999 -9999 -9999 -9999 -9999 -9999 -9999 -9999 -9999 -9999 -9999 -9999 -9999 -9999 -9999 -9999 -9999 -9999 -9999
-9999 -9999 -9999 -9999 -9999 -9999 -9999 -9999 -9999 -9999 -9999 -9999 -9999 -9999 -9999 -9999 -9999 -9999 -9999 -9999 -9999 -9999 -9999 -9999 -9999 -9999 -9999 -9999 -9999 -9999 -9999 -9999 -9999 -9999 -9999 -9999 -9999 -9999 -9999 -9999 -9999 -9999 -9999 -9999 -9999 -9999 -9999 -9999 -9999 -9999 -9999 -9999 -9999 -9999 -9999 -9999 -9999 -9999 -9999 -9999 -9999 -9999 -9999 -9999 -9999 -9999 -9999 -9999 -9999 -9999 -9999 -9999 -9999 -9999 -9999 -9999 -9999 -9999 -9999 -9999 -9999 -9999 -9999 -9999 -9999 -9999 -9999 -9999 -9999 -9999 -9999 -9999 -9999 -9999 -9999 -9999 -9999 -9999 -9999 -9999 -9999 -9999 -9999 -9999 -9999 -9999 -9999 -9999 -9999 -9999 -9999 -9999 -9999 -9999 -9999 -9999 -9999 -9999 -9999 -9999 -9999 -9999 -9999 -9999 -9999 -9999 -9999 -9999 -9999 -9999 -9999 -9999 -9999 -9999 -9999 -9999 -9999 -9999 -9999 -9999 -9999 -9999 -9999 -9999 -9999 -9999 -9999 -9999 -9999 -9999 -9999 -9999 -9999 -9999 -9999 -9999 -9999 -9999 -9999 -9999 -9999 -9999 -9999 -9999 -9999 -9999 -9999 -9999 -9999 -9999 -9999 -9999 -9999 -9999 -9999 -9999 -9999 -9999 -9999 -9999 -9999 -9999 -9999 -9999 -9999 -9999 -9999 -9999 -9999 -9999 -9999 -9999 -9999 -9999 -9999 -9999 -9999 -9999 -9999 -9999 -9999 -9999 -9999 -9999 -9999 -9999 -9999 -9999 -9999 -9999 -9999 -9999 -9999 -9999 -9999 -9999 -9999 -9999 -9999 -9999 -9999 -9999 -9999 -9999 -9999 -9999 -9999 -9999 -9999 -9999 -9999 -9999 -9999 -9999 -9999 -9999 -9999 -9999 -9999 -9999 -9999 -9999 -9999 -9999 -9999 -9999 -9999 -9999 -9999 -9999 -9999 6.52741514360313 6.52741514360313 6.52741514360313 6.52741514360313 6.52741514360313 4.02684563758389 4.02684563758389 4.02684563758389 4.02684563758389 3.09597523219814 3.09597523219814 6.51769087523278 6.51769087523278 0 5.6710775047259 5.6710775047259 5.6710775047259 14.9925037481259 14.9925037481259 14.9925037481259 12.6689189189189 12.6689189189189 3.90189520624303 3.90189520624303 3.90189520624303 3.15789473684211 3.15789473684211 3.15789473684211 0 0 0 12.9770992366412 12.9770992366412 -9999 6.23700623700624 6.23700623700624 6.23700623700624 6.23700623700624 8.70147255689424 8.70147255689424 8.70147255689424 8.70147255689424 8.70147255689424 8.70147255689424 8.70147255689424 8.70147255689424 8.70147255689424 8.70147255689424 12.9533678756477 0 0 10.2272727272727 10.2272727272727 17.2413793103448 20.2922077922078 20.2922077922078 12.9310344827586 12.9310344827586 12.9310344827586 8.7527352297593 8.7527352297593 8.7527352297593 10.2533172496984 10.2533172496984 10.2533172496984 10.2533172496984 3.99467376830892 0 0 0 4.95049504950495 7.30994152046784 7.30994152046784 7.30994152046784 8.26149425287356 8.26149425287356 8.26149425287356 8.26149425287356 8.26149425287356 8.26149425287356 2.66903914590747 2.66903914590747 2.66903914590747 0 0 0 4.26439232409382 4.26439232409382 0 6.57894736842105 6.57894736842105 6.57894736842105 -9999 -9999 -9999 -9999 -9999 -9999 -9999 -9999 -9999 -9999 -9999 1.39470013947001 1.39470013947001 1.39470013947001 5.87467362924282 5.87467362924282 5.87467362924282 5.87467362924282 5.87467362924282 -9999 -9999 -9999 -9999 -9999 -9999 0 0 3.75469336670839 3.75469336670839 3.75469336670839 3.75469336670839 -9999 -9999 3.75469336670839 3.75469336670839 -9999 -9999 -9999 -9999 -9999 -9999 -9999 -9999 -9999 -9999 -9999 -9999 -9999 -9999 -9999 -9999 -9999 -9999 -9999 -9999 -9999 -9999 -9999 -9999 -9999 -9999 -9999 -9999 -9999 -9999 -9999 -9999 -9999 -9999 -9999 -9999 -9999
-9999 -9999 -9999 -9999 -9999 -9999 -9999 -9999 -9999 -9999 -9999 -9999 -9999 -9999 -9999 -9999 -9999 -9999 -9999 -9999 -9999 -9999 -9999 -9999 -9999 -9999 -9999 -9999 -9999 -9999 -9999 -9999 -9999 -9999 -9999 -9999 -9999 -9999 -9999 -9999 -9999 -9999 -9999 -9999 -9999 -9999 -9999 -9999 -9999 -9999 -9999 -9999 -9999 -9999 -9999 -9999 -9999 -9999 -9999 -9999 -9999 -9999 -9999 -9999 -9999 -9999 -9999 -9999 -9999 -9999 -9999 -9999 -9999 -9999 -9999 -9999 -9999 -9999 -9999 -9999 -9999 -9999 -9999 -9999 -9999 -9999 -9999 -9999 -9999 -9999 -9999 -9999 -9999 -9999 -9999 -9999 -9999 -9999 -9999 -9999 -9999 -9999 -9999 -9999 -9999 -9999 -9999 -9999 -9999 -9999 -9999 -9999 -9999 -9999 -9999 -9999 -9999 -9999 -9999 -9999 -9999 -9999 -9999 -9999 -9999 -9999 -9999 -9999 -9999 -9999 -9999 -9999 -9999 -9999 -9999 -9999 -9999 -9999 -9999 -9999 -9999 -9999 -9999 -9999 -9999 -9999 -9999 -9999 -9999 -9999 -9999 -9999 -9999 -9999 -9999 -9999 -9999 -9999 -9999 -9999 -9999 -9999 -9999 -9999 -9999 -9999 -9999 -9999 -9999 -9999 -9999 -9999 -9999 -9999 -9999 -9999 -9999 -9999 -9999 -9999 -9999 -9999 -9999 -9999 -9999 -9999 -9999 -9999 -9999 -9999 -9999 -9999 -9999 -9999 -9999 -9999 -9999 -9999 -9999 -9999 -9999 -9999 -9999 -9999 -9999 -9999 -9999 -9999 -9999 -9999 -9999 -9999 -9999 -9999 -9999 -9999 -9999 -9999 -9999 -9999 -9999 -9999 -9999 -9999 -9999 -9999 -9999 -9999 -9999 -9999 -9999 -9999 -9999 -9999 -9999 -9999 -9999 -9999 -9999 -9999 -9999 -9999 -9999 -9999 -9999 -9999 -9999 -9999 -9999 -9999 -9999 6.52741514360313 6.52741514360313 6.52741514360313 6.52741514360313 6.52741514360313 4.02684563758389 4.02684563758389 4.02684563758389 4.02684563758389 4.02684563758389 4.02684563758389 7.15307582260372 6.51769087523278 6.51769087523278 5.6710775047259 5.6710775047259 5.6710775047259 14.9925037481259 14.9925037481259 12.6689189189189 12.6689189189189 12.6689189189189 3.90189520624303 3.90189520624303 9.07258064516129 9.07258064516129 3.90189520624303 12.6689189189189 0 0 12.9770992366412 12.9770992366412 12.9770992366412 12.9770992366412 12.9770992366412 -9999 11.8110236220472 11.8110236220472 11.8110236220472 0 8.70147255689424 8.70147255689424 8.70147255689424 8.70147255689424 8.70147255689424 8.70147255689424 12.9533678756477 6.88073394495413 12.9533678756477 12.9533678756477 21.689497716895 21.689497716895 10.2272727272727 10.2272727272727 10.2272727272727 20.2922077922078 20.2922077922078 12.9310344827586 11.7845117845118 11.7845117845118 11.7845117845118 10.2533172496984 10.2533172496984 10.2533172496984 10.2533172496984 3.99467376830892 3.99467376830892 3.99467376830892 3.99467376830892 7.71388499298738 7.71388499298738 7.71388499298738 4.95049504950495 4.95049504950495 4.95049504950495 8.26149425287356 8.26149425287356 8.26149425287356 8.26149425287356 1.46198830409357 1.46198830409357 1.46198830409357 1.46198830409357 6.23885918003565 6.23885918003565 9.85663082437276 9.85663082437276 9.85663082437276 3.96196513470681 3.96196513470681 3.96196513470681 6.23268698060942 6.23268698060942 4.1407867494824 4.1407867494824 -9999 -9999 -9999 -9999 -9999 -9999 -9999 1.39470013947001 1.39470013947001 1.39470013947001 1.39470013947001 5.87467362924282 5.87467362924282 5.87467362924282 5.87467362924282 5.87467362924282 0 0 0 -9999 -9999 -9999 0 3.75469336670839 3.75469336670839 3.75469336670839 3.75469336670839 3.75469336670839 3.75469336670839 3.75469336670839 3.75469336670839 -9999 -9999 -9999 -9999 -9999 -9999 -9999 -9999 -9999 -9999 -9999 -9999 -9999 -9999 -9999 -9999 -9999 -9999 -9999 -9999 -9999 -9999 -9999 -9999 -9999 -9999 -9999 -9999 -9999 -9999 -9999 -9999 -9999 -9999 -9999 -9999 -9999 -9999
-9999 -9999 -9999 -9999 -9999 -9999 -9999 -9999 -9999 -9999 -9999 -9999 -9999 -9999 -9999 -9999 -9999 -9999 -9999 -9999 -9999 -9999 -9999 -9999 -9999 -9999 -9999 -9999 -9999 -9999 -9999 -9999 -9999 -9999 -9999 -9999 -9999 -9999 -9999 -9999 -9999 -9999 -9999 -9999 -9999 -9999 -9999 -9999 -9999 -9999 -9999 -9999 -9999 -9999 -9999 -9999 -9999 -9999 -9999 -9999 -9999 -9999 -9999 -9999 -9999 -9999 -9999 -9999 -9999 -9999 -9999 -9999 -9999 -9999 -9999 -9999 -9999 -9999 -9999 -9999 -9999 -9999 -9999 -9999 -9999 -9999 -9999 -9999 -9999 -9999 -9999 -9999 -9999 -9999 -9999 -9999 -9999 -9999 -9999 -9999 -9999 -9999 -9999 -9999 -9999 -9999 -9999 -9999 -9999 -9999 -9999 -9999 -9999 -9999 -9999 -9999 -9999 -9999 -9999 -9999 -9999 -9999 -9999 -9999 -9999 -9999 -9999 -9999 -9999 -9999 -9999 -9999 -9999 -9999 -9999 -9999 -9999 -9999 -9999 -9999 -9999 -9999 -9999 -9999 -9999 -9999 -9999 -9999 -9999 -9999 -9999 -9999 -9999 -9999 -9999 -9999 -9999 -9999 -9999 -9999 -9999 -9999 -9999 -9999 -9999 -9999 -9999 -9999 -9999 -9999 -9999 -9999 -9999 -9999 -9999 -9999 -9999 -9999 -9999 -9999 -9999 -9999 -9999 -9999 -9999 -9999 -9999 -9999 -9999 -9999 -9999 -9999 -9999 -9999 -9999 -9999 -9999 -9999 -9999 -9999 -9999 -9999 -9999 -9999 -9999 -9999 -9999 -9999 -9999 -9999 -9999 -9999 -9999 -9999 -9999 -9999 -9999 -9999 -9999 -9999 -9999 -9999 -9999 -9999 -9999 -9999 -9999 -9999 -9999 -9999 -9999 -9999 -9999 -9999 -9999 -9999 -9999 -9999 -9999 -9999 -9999 -9999 -9999 -9999 -9999 -9999 -9999 -9999 -9999 -9999 6.52741514360313 0 3.23974082073434 3.23974082073434 3.23974082073434 6.9204152249135 6.9204152249135 4.02684563758389 4.02684563758389 4.02684563758389 4.02684563758389 7.15307582260372 7.15307582260372 7.15307582260372 7.15307582260372 7.15307582260372 7.15307582260372 14.9925037481259 14.9925037481259 12.6689189189189 12.6689189189189 12.6689189189189 12.6689189189189 12.6689189189189 9.07258064516129 9.07258064516129 12.6689189189189 3.90189520624303 12.6689189189189 12.6689189189189 12.6689189189189 10.6746370623399 10.6746370623399 12.9770992366412 12.9770992366412 12.9770992366412 12.9770992366412 0 11.8110236220472 0 0 0 0 8.70147255689424 3.7037037037037 3.7037037037037 3.7037037037037 14.093137254902 6.88073394495413 6.88073394495413 8.11359026369168 21.689497716895 21.689497716895 21.689497716895 21.689497716895 21.689497716895 19.2901234567901 13.4408602150538 7.17360114777618 7.17360114777618 11.7845117845118 17.6056338028169 17.6056338028169 17.6056338028169 17.6056338028169 3.99467376830892 3.99467376830892 3.99467376830892 3.99467376830892 0 7.71388499298738 7.71388499298738 7.71388499298738 19.3965517241379 19.3965517241379 19.3965517241379 19.3965517241379 8.0091533180778 8.0091533180778 3.78071833648393 3.78071833648393 3.78071833648393 3.78071833648393 6.23885918003565 6.23885918003565 6.23885918003565 6.09756097560976 6.09756097560976 17.6991150442478 17.6991150442478 11.5546218487395 11.5546218487395 6.23268698060942 6.23268698060942 6.23268698060942 12.2873345935728 12.2873345935728 12.2873345935728 12.2873345935728 -9999 -9999 -9999 -9999 5.89225589225589 5.89225589225589 5.89225589225589 5.87467362924282 5.87467362924282 5.87467362924282 5.87467362924282 5.87467362924282 0 0 0 0 0 3.44036697247706 3.44036697247706 11.2781954887218 3.75469336670839 3.75469336670839 3.75469336670839 3.75469336670839 3.75469336670839 3.75469336670839 3.75469336670839 -9999 -9999 -9999 -9999 -9999 -9999 -9999 -9999 -9999 -9999 -9999 -9999 -9999 -9999 -9999 -9999 -9999 -9999 -9999 -9999 -9999 -9999 -9999 -9999 -9999 -9999 -9999 -9999 -9999 -9999 -9999 -9999 -9999 -9999 -9999 -9999 -9999 -9999 -9999
-9999 -9999 -9999 -9999 -9999 -9999 -9999 -9999 -9999 -9999 -9999 -9999 -9999 -9999 -9999 -9999 -9999 -9999 -9999 -9999 -9999 -9999 -9999 -9999 -9999 -9999 -9999 -9999 -9999 -9999 -9999 -9999 -9999 -9999 -9999 -9999 -9999 -9999 -9999 -9999 -9999 -9999 -9999 -9999 -9999 -9999 -9999 -9999 -9999 -9999 -9999 -9999 -9999 -9999 -9999 -9999 -9999 -9999 -9999 -9999 -9999 -9999 -9999 -9999 -9999 -9999 -9999 -9999 -9999 -9999 -9999 -9999 -9999 -9999 -9999 -9999 -9999 -9999 -9999 -9999 -9999 -9999 -9999 -9999 -9999 -9999 -9999 -9999 -9999 -9999 -9999 -9999 -9999 -9999 -9999 -9999 -9999 -9999 -9999 -9999 -9999 -9999 -9999 -9999 -9999 -9999 -9999 -9999 -9999 -9999 -9999 -9999 -9999 -9999 -9999 -9999 -9999 -9999 -9999 -9999 -9999 -9999 -9999 -9999 -9999 -9999 -9999 -9999 -9999 -9999 -9999 -9999 -9999 -9999 -9999 -9999 -9999 -9999 -9999 -9999 -9999 -9999 -9999 -9999 -9999 -9999 -9999 -9999 -9999 -9999 -9999 -9999 -9999 -9999 -9999 -9999 -9999 -9999 -9999 -9999 -9999 -9999 -9999 -9999 -9999 -9999 -9999 -9999 -9999 -9999 -9999 -9999 -9999 -9999 -9999 -9999 -9999 -9999 -9999 -9999 -9999 -9999 -9999 -9999 -9999 -9999 -9999 -9999 -9999 -9999 -9999 -9999 -9999 -9999 -9999 -9999 -9999 -9999 -9999 -9999 -9999 -9999 -9999 -9999 -9999 -9999 -9999 -9999 -9999 -9999 -9999 -9999 -9999 -9999 -9999 -9999 -9999 -9999 -9999 -9999 -9999 -9999 -9999 -9999 -9999 -9999 -9999 -9999 -9999 -9999 -9999 -9999 -9999 -9999 -9999 -9999 -9999 -9999 -9999 -9999 -9999 -9999 -9999 -9999 -9999 -9999 -9999 -9999 -9999 6.52741514360313 7.89473684210526 0 0 0 0 6.9204152249135 6.9204152249135 6.9204152249135 4.02684563758389 4.02684563758389 4.02684563758389 6.57174151150055 6.57174151150055 6.57174151150055 2.36220472440945 7.15307582260372 7.15307582260372 9.89208633093525 9.89208633093525 14.1955835962145 12.6689189189189 12.6689189189189 12.6689189189189 12.6689189189189 12.6689189189189 12.6689189189189 12.6689189189189 12.6689189189189 12.6689189189189 12.6689189189189 10.6746370623399 10.6746370623399 10.6746370623399 10.6746370623399 10.6746370623399 12.9770992366412 0 0 0 0 0 0 12.7118644067797 0 12.7118644067797 12.7118644067797 14.093137254902 14.093137254902 14.093137254902 14.093137254902 8.11359026369168 8.11359026369168 8.95765472312704 21.689497716895 21.689497716895 19.2901234567901 19.2901234567901 13.4408602150538 13.4408602150538 13.4408602150538 7.38916256157635 7.17360114777618 7.17360114777618 17.6056338028169 12.1317157712305 12.1317157712305 12.1317157712305 12.1317157712305 0 0 0 0 0 19.3965517241379 19.3965517241379 19.3965517241379 8.0091533180778 8.0091533180778 3.54107648725212 8.15850815850816 8.15850815850816 8.15850815850816 3.45303867403315 0 0 2.27617602427921 2.27617602427921 2.89855072463768 2.89855072463768 17.6991150442478 17.6991150442478 7.00525394045534 7.00525394045534 0 0 4.81927710843374 4.81927710843374 4.81927710843374 12.2873345935728 12.2873345935728 0 0 0 0 0 4.08348457350272 4.08348457350272 4.08348457350272 4.08348457350272 5.87467362924282 5.87467362924282 0 0 0 0 0 0 0 0 0 0 0 3.75469336670839 3.75469336670839 3.75469336670839 -9999 -9999 -9999 -9999 -9999 -9999 -9999 -9999 -9999 -9999 -9999 -9999 -9999 -9999 -9999 -9999 -9999 -9999 -9999 -9999 -9999 -9999 -9999 -9999 -9999 -9999 -9999 -9999 -9999 -9999 -9999 -9999 -9999 -9999 -9999 -9999 -9999 -9999 -9999 -9999
-9999 -9999 -9999 -9999 -9999 -9999 -9999 -9999 -9999 -9999 -9999 -9999 -9999 -9999 -9999 -9999 -9999 -9999 -9999 -9999 -9999 -9999 -9999 -9999 -9999 -9999 -9999 -9999 -9999 -9999 -9999 -9999 -9999 -9999 -9999 -9999 -9999 -9999 -9999 -9999 -9999 -9999 -9999 -9999 -9999 -9999 -9999 -9999 -9999 -9999 -9999 -9999 -9999 -9999 -9999 -9999 -9999 -9999 -9999 -9999 -9999 -9999 -9999 -9999 -9999 -9999 -9999 -9999 -9999 -9999 -9999 -9999 -9999 -9999 -9999 -9999 -9999 -9999 -9999 -9999 -9999 -9999 -9999 -9999 -9999 -9999 -9999 -9999 -9999 -9999 -9999 -9999 -9999 -9999 -9999 -9999 -9999 -9999 -9999 -9999 -9999 -9999 -9999 -9999 -9999 -9999 -9999 -9999 -9999 -9999 -9999 -9999 -9999 -9999 -9999 -9999 -9999 -9999 -9999 -9999 -9999 -9999 -9999 -9999 -9999 -9999 -9999 -9999 -9999 -9999 -9999 -9999 -9999 -9999 -9999 -9999 -9999 -9999 -9999 -9999 -9999 -9999 -9999 -9999 -9999 -9999 -9999 -9999 -9999 -9999 -9999 -9999 -9999 -9999 -9999 -9999 -9999 -9999 -9999 -9999 -9999 -9999 -9999 -9999 -9999 -9999 -9999 -9999 -9999 -9999 -9999 -9999 -9999 -9999 -9999 -9999 -9999 -9999 -9999 -9999 -9999 -9999 -9999 -9999 -9999 -9999 -9999 -9999 -9999 -9999 -9999 -9999 -9999 -9999 -9999 -9999 -9999 -9999 -9999 -9999 -9999 -9999 -9999 -9999 -9999 -9999 -9999 -9999 -9999 -9999 -9999 -9999 -9999 -9999 -9999 -9999 -9999 -9999 -9999 -9999 -9999 -9999 -9999 -9999 -9999 -9999 -9999 -9999 -9999 -9999 -9999 -9999 -9999 -9999 -9999 -9999 -9999 -9999 -9999 -9999 -9999 -9999 -9999 -9999 -9999 -9999 -9999 -9999 6.52741514360313 7.89473684210526 7.89473684210526 7.89473684210526 7.89473684210526 0 6.9204152249135 6.9204152249135 6.9204152249135 6.30630630630631 6.30630630630631 4.02684563758389 3.86847195357834 6.57174151150055 6.57174151150055 2.36220472440945 2.36220472440945 2.36220472440945 9.89208633093525 9.89208633093525 14.1955835962145 14.1955835962145 9.54773869346734 9.54773869346734 9.54773869346734 12.6689189189189 12.6689189189189 12.6689189189189 12.6689189189189 12.6689189189189 12.6689189189189 10.6746370623399 10.6746370623399 10.6746370623399 10.6746370623399 10.6746370623399 10.6746370623399 10.6746370623399 0 0 0 0 12.7118644067797 12.7118644067797 12.7118644067797 12.7118644067797 12.7118644067797 0 10.2739726027397 10.2739726027397 14.093137254902 13.2827324478178 13.2827324478178 17.9533213644524 17.9533213644524 8.95765472312704 0 19.2901234567901 19.2901234567901 19.2901234567901 19.2901234567901 11.0921501706485 7.38916256157635 7.38916256157635 7.38916256157635 0 0 0 12.1317157712305 6.28140703517588 3.13152400835073 3.13152400835073 3.13152400835073 0 0 0 0 8.0091533180778 8.0091533180778 8.0091533180778 3.54107648725212 7.90513833992095 3.54107648725212 3.54107648725212 3.45303867403315 3.45303867403315 3.45303867403315 2.27617602427921 2.27617602427921 2.89855072463768 2.89855072463768 2.89855072463768 10.9649122807018 10.9649122807018 10.9649122807018 10.9649122807018 8.38926174496644 8.38926174496644 6.80272108843537 6.80272108843537 4.81927710843374 3.7593984962406 3.7593984962406 2.02429149797571 0 0 0 0 4.08348457350272 4.08348457350272 4.08348457350272 4.08348457350272 10.2974828375286 10.2974828375286 0 0 4.80769230769231 0 4.80769230769231 0 0 0 0 0 0 0 0 -9999 -9999 -9999 -9999 -9999 -9999 -9999 -9999 -9999 -9999 -9999 -9999 -9999 -9999 -9999 -9999 -9999 -9999 -9999 -9999 -9999 -9999 -9999 -9999 -9999 -9999 -9999 -9999 -9999 -9999 -9999 -9999 -9999 -9999 -9999 -9999 -9999 -9999 -9999 -9999
-9999 -9999 -9999 -9999 -9999 -9999 -9999 -9999 -9999 -9999 -9999 -9999 -9999 -9999 -9999 -9999 -9999 -9999 -9999 -9999 -9999 -9999 -9999 -9999 -9999 -9999 -9999 -9999 -9999 -9999 -9999 -9999 -9999 -9999 -9999 -9999 -9999 -9999 -9999 -9999 -9999 -9999 -9999 -9999 -9999 -9999 -9999 -9999 -9999 -9999 -9999 -9999 -9999 -9999 -9999 -9999 -9999 -9999 -9999 -9999 -9999 -9999 -9999 -9999 -9999 -9999 -9999 -9999 -9999 -9999 -9999 -9999 -9999 -9999 -9999 -9999 -9999 -9999 -9999 -9999 -9999 -9999 -9999 -9999 -9999 -9999 -9999 -9999 -9999 -9999 -9999 -9999 -9999 -9999 -9999 -9999 -9999 -9999 -9999 -9999 -9999 -9999 -9999 -9999 -9999 -9999 -9999 -9999 -9999 -9999 -9999 -9999 -9999 -9999 -9999 -9999 -9999 -9999 -9999 -9999 -9999 -9999 -9999 -9999 -9999 -9999 -9999 -9999 -9999 -9999 -9999 -9999 -9999 -9999 -9999 -9999 -9999 -9999 -9999 -9999 -9999 -9999 -9999 -9999 -9999 -9999 -9999 -9999 -9999 -9999 -9999 -9999 -9999 -9999 -9999 -9999 -9999 -9999 -9999 -9999 -9999 -9999 -9999 -9999 -9999 -9999 -9999 -9999 -9999 -9999 -9999 -9999 -9999 -9999 -9999 -9999 -9999 -9999 -9999 -9999 -9999 -9999 -9999 -9999 -9999 -9999 -9999 -9999 -9999 -9999 -9999 -9999 -9999 -9999 -9999 -9999 -9999 -9999 -9999 -9999 -9999 -9999 -9999 -9999 -9999 -9999 -9999 -9999 -9999 -9999 -9999 -9999 -9999 -9999 -9999 -9999 -9999 -9999 -9999 -9999 -9999 -9999 -9999 -9999 -9999 -9999 -9999 -9999 -9999 -9999 -9999 -9999 -9999 -9999 -9999 -9999 -9999 -9999 -9999 -9999 -9999 -9999 -9999 -9999 -9999 -9999 -9999 0 0 0 0 7.89473684210526 7.89473684210526 7.89473684210526 0 0 0 6.30630630630631 6.30630630630631 6.30630630630631 3.86847195357834 3.86847195357834 3.86847195357834 2.36220472440945 2.36220472440945 2.36220472440945 2.36220472440945 2.36220472440945 14.1955835962145 14.1955835962145 9.54773869346734 9.54773869346734 9.54773869346734 0 0 0 14.4578313253012 12.6689189189189 12.6689189189189 10.6746370623399 10.6746370623399 10.6746370623399 10.6746370623399 10.6746370623399 10.6746370623399 10.6746370623399 10.6746370623399 0 5.97907324364723 5.97907324364723 5.97907324364723 12.7118644067797 12.7118644067797 12.7118644067797 12.7118644067797 6.83060109289618 16.6666666666667 16.6666666666667 16.6666666666667 10.2739726027397 11.2016293279022 11.2016293279022 30.8788598574822 17.9533213644524 7.30411686586985 7.30411686586985 0 0 11.0921501706485 11.0921501706485 11.0921501706485 11.0921501706485 7.38916256157635 0 0 0 0 4.10509031198686 4.10509031198686 6.28140703517588 3.13152400835073 8.98203592814371 8.98203592814371 8.98203592814371 4.83558994197292 8.0091533180778 8.0091533180778 7.57575757575758 7.57575757575758 4.73484848484848 7.90513833992095 2.75229357798165 2.75229357798165 2.75229357798165 12.4153498871332 12.4153498871332 2.89855072463768 2.89855072463768 2.89855072463768 10.9649122807018 10.9649122807018 10.9649122807018 10.9649122807018 6.20347394540943 8.38926174496644 8.38926174496644 6.80272108843537 6.80272108843537 7.85340314136126 0 0 2.02429149797571 2.02429149797571 2.02429149797571 0 0 0 0 0 10.2974828375286 10.2974828375286 10.2974828375286 10.2974828375286 0 0 0 0 0 0 0 0 0 0 0 -9999 -9999 -9999 -9999 -9999 -9999 -9999 -9999 -9999 -9999 -9999 -9999 -9999 -9999 -9999 -9999 -9999 -9999 -9999 -9999 -9999 -9999 -9999 -9999 -9999 -9999 -9999 -9999 -9999 -9999 -9999 -9999 -9999 -9999 -9999 -9999 -9999 -9999 -9999 -9999 -9999
-9999 -9999 -9999 -9999 -9999 -9999 -9999 -9999 -9999 -9999 -9999 -9999 -9999 -9999 -9999 -9999 -9999 -9999 -9999 -9999 -9999 -9999 -9999 -9999 -9999 -9999 -9999 -9999 -9999 -9999 -9999 -9999 -9999 -9999 -9999 -9999 -9999 -9999 -9999 -9999 -9999 -9999 -9999 -9999 -9999 -9999 -9999 -9999 -9999 -9999 -9999 -9999 -9999 -9999 -9999 -9999 -9999 -9999 -9999 -9999 -9999 -9999 -9999 -9999 -9999 -9999 -9999 -9999 -9999 -9999 -9999 -9999 -9999 -9999 -9999 -9999 -9999 -9999 -9999 -9999 -9999 -9999 -9999 -9999 -9999 -9999 -9999 -9999 -9999 -9999 -9999 -9999 -9999 -9999 -9999 -9999 -9999 -9999 -9999 -9999 -9999 -9999 -9999 -9999 -9999 -9999 -9999 -9999 -9999 -9999 -9999 -9999 -9999 -9999 -9999 -9999 -9999 -9999 -9999 -9999 -9999 -9999 -9999 -9999 -9999 -9999 -9999 -9999 -9999 -9999 -9999 -9999 -9999 -9999 -9999 -9999 -9999 -9999 -9999 -9999 -9999 -9999 -9999 -9999 -9999 -9999 -9999 -9999 -9999 -9999 -9999 -9999 -9999 -9999 -9999 -9999 -9999 -9999 -9999 -9999 -9999 -9999 -9999 -9999 -9999 -9999 -9999 -9999 -9999 -9999 -9999 -9999 -9999 -9999 -9999 -9999 -9999 -9999 -9999 -9999 -9999 -9999 -9999 -9999 -9999 -9999 -9999 -9999 -9999 -9999 -9999 -9999 -9999 -9999 -9999 -9999 -9999 -9999 -9999 -9999 -9999 -9999 -9999 -9999 -9999 -9999 -9999 -9999 -9999 -9999 -9999 -9999 -9999 -9999 -9999 -9999 -9999 -9999 -9999 -9999 -9999 -9999 -9999 -9999 -9999 -9999 -9999 -9999 -9999 -9999 -9999 -9999 -9999 -9999 -9999 -9999 -9999 -9999 -9999 -9999 -9999 -9999 -9999 -9999 -9999 -9999 0 0 0 7.59219088937093 7.59219088937093 0 0 6.56167979002625 0 0 6.30630630630631 6.30630630630631 6.30630630630631 10.1851851851852 10.1851851851852 10.1851851851852 10.1851851851852 3.86847195357834 3.86847195357834 2.36220472440945 2.36220472440945 1.33868808567604 1.33868808567604 1.82149362477231 1.82149362477231 9.54773869346734 6.56814449917898 6.56814449917898 6.56814449917898 6.97211155378486 14.4578313253012 14.4578313253012 4.75059382422803 4.75059382422803 4.75059382422803 10.6746370623399 10.6746370623399 10.6746370623399 0 5.97907324364723 5.97907324364723 1.94552529182879 5.97907324364723 5.97907324364723 5.97907324364723 5.97907324364723 5.97907324364723 5.97907324364723 0 6.83060109289618 6.83060109289618 6.83060109289618 16.6666666666667 8.53889943074004 8.53889943074004 11.9047619047619 11.2016293279022 11.2016293279022 9.61538461538462 9.61538461538462 7.30411686586985 7.30411686586985 6.77710843373494 6.77710843373494 11.0921501706485 11.0921501706485 2.94695481335953 5.84795321637427 2.94695481335953 2.94695481335953 9.54198473282443 4.10509031198686 4.10509031198686 4.10509031198686 4.29553264604811 4.29553264604811 4.29553264604811 8.98203592814371 4.83558994197292 4.83558994197292 10.4633781763827 10.4633781763827 3.99201596806387 3.99201596806387 3.99201596806387 4.73484848484848 4.73484848484848 2.75229357798165 5.81395348837209 12.4153498871332 2.89855072463768 2.89855072463768 10.9649122807018 13.4228187919463 10.9649122807018 10.9649122807018 10.9649122807018 8.56531049250535 6.20347394540943 6.20347394540943 6.80272108843537 7.85340314136126 7.85340314136126 0 0 0 0 0 0 0 0 0 0 0 4.11522633744856 4.11522633744856 0 0 0 0 0 0 0 0 0 0 0 -9999 -9999 -9999 -9999 -9999 -9999 -9999 -9999 -9999 -9999 -9999 -9999 -9999 -9999 -9999 -9999 -9999 -9999 -9999 -9999 -9999 -9999 -9999 -9999 -9999 -9999 -9999 -9999 -9999 -9999 -9999 -9999 -9999 -9999 -9999 -9999 -9999 -9999 -9999 -9999 -9999 -9999
-9999 -9999 -9999 -9999 -9999 -9999 -9999 -9999 -9999 -9999 -9999 -9999 -9999 -9999 -9999 -9999 -9999 -9999 -9999 -9999 -9999 -9999 -9999 -9999 -9999 -9999 -9999 -9999 -9999 -9999 -9999 -9999 -9999 -9999 -9999 -9999 -9999 -9999 -9999 -9999 -9999 -9999 -9999 -9999 -9999 -9999 -9999 -9999 -9999 -9999 -9999 -9999 -9999 -9999 -9999 -9999 -9999 -9999 -9999 -9999 -9999 -9999 -9999 -9999 -9999 -9999 -9999 -9999 -9999 -9999 -9999 -9999 -9999 -9999 -9999 -9999 -9999 -9999 -9999 -9999 -9999 -9999 -9999 -9999 -9999 -9999 -9999 -9999 -9999 -9999 -9999 -9999 -9999 -9999 -9999 -9999 -9999 -9999 -9999 -9999 -9999 -9999 -9999 -9999 -9999 -9999 -9999 -9999 -9999 -9999 -9999 -9999 -9999 -9999 -9999 -9999 -9999 -9999 -9999 -9999 -9999 -9999 -9999 -9999 -9999 -9999 -9999 -9999 -9999 -9999 -9999 -9999 -9999 -9999 -9999 -9999 -9999 -9999 -9999 -9999 -9999 -9999 -9999 -9999 -9999 -9999 -9999 -9999 -9999 -9999 -9999 -9999 -9999 -9999 -9999 -9999 -9999 -9999 -9999 -9999 -9999 -9999 -9999 -9999 -9999 -9999 -9999 -9999 -9999 -9999 -9999 -9999 -9999 -9999 -9999 -9999 -9999 -9999 -9999 -9999 -9999 -9999 -9999 -9999 -9999 -9999 -9999 -9999 -9999 -9999 -9999 -9999 -9999 -9999 -9999 -9999 -9999 -9999 -9999 -9999 -9999 -9999 -9999 -9999 -9999 -9999 -9999 -9999 -9999 -9999 -9999 -9999 -9999 -9999 -9999 -9999 -9999 -9999 -9999 -9999 -9999 -9999 -9999 -9999 -9999 -9999 -9999 -9999 -9999 -9999 -9999 -9999 -9999 -9999 -9999 -9999 -9999 -9999 -9999 0 0 0 0 0 0 0 0 5.55555555555556 5.55555555555556 5.55555555555556 5.55555555555556 7.59219088937093 4.25531914893617 4.25531914893617 4.25531914893617 5.8027079303675 5.8027079303675 5.8027079303675 3.92927308447937 3.92927308447937 10.1851851851852 10.1851851851852 10.1851851851852 2.36220472440945 2.36220472440945 2.36220472440945 2.36220472440945 1.33868808567604 1.33868808567604 1.33868808567604 1.82149362477231 1.82149362477231 0 0 6.56814449917898 6.97211155378486 6.97211155378486 6.97211155378486 4.75059382422803 4.75059382422803 4.75059382422803 4.75059382422803 4.57317073170732 4.57317073170732 5.97907324364723 4.70219435736677 4.70219435736677 1.94552529182879 1.94552529182879 0 5.97907324364723 5.97907324364723 0 0 0 0 5.20833333333333 6.83060109289618 13.0662020905923 15.6462585034014 9.71922246220302 9.71922246220302 8.53889943074004 5.33333333333333 5.33333333333333 22.1445221445221 9.61538461538462 5.11695906432749 12.9032258064516 6.77710843373494 6.77710843373494 0 0 5.84795321637427 5.84795321637427 10.8191653786708 9.54198473282443 9.54198473282443 9.54198473282443 0 0 4.29553264604811 4.29553264604811 0 0 3.91389432485323 3.97614314115308 3.97614314115308 10.4633781763827 10.4633781763827 10.482180293501 0 0 0 0 0 5.81395348837209 5.81395348837209 -9999 -9999 -9999 13.4228187919463 4.72589792060491 8.56531049250535 8.56531049250535 0 7.847533632287 7.85340314136126 7.85340314136126 5.09337860780985 0 0 0 0 0 0 0 0 0 0 4.11522633744856 4.11522633744856 4.12371134020619 4.12371134020619 5.53505535055351 0 0 0 0 0 0 0 -9999 -9999 -9999 -9999 -9999 -9999 -9999 -9999 -9999 -9999 -9999 -9999 -9999 -9999 -9999 -9999 -9999 -9999 -9999 -9999 -9999 -9999 -9999 -9999 -9999 -9999 -9999 -9999 -9999 -9999 -9999 -9999 -9999 -9999 -9999 -9999 -9999 -9999 -9999 -9999 -9999 -9999 -9999
-9999 -9999 -9999 -9999 -9999 -9999 -9999 -9999 -9999 -9999 -9999 -9999 -9999 -9999 -9999 -9999 -9999 -9999 -9999 -9999 -9999 -9999 -9999 -9999 -9999 -9999 -9999 -9999 -9999 -9999 -9999 -9999 -9999 -9999 -9999 -9999 -9999 -9999 -9999 -9999 -9999 -9999 -9999 -9999 -9999 -9999 -9999 -9999 -9999 -9999 -9999 -9999 -9999 -9999 -9999 -9999 -9999 -9999 -9999 -9999 -9999 -9999 -9999 -9999 -9999 -9999 -9999 -9999 -9999 -9999 -9999 -9999 -9999 -9999 -9999 -9999 -9999 -9999 -9999 -9999 -9999 -9999 -9999 -9999 -9999 -9999 -9999 -9999 -9999 -9999 -9999 -9999 -9999 -9999 -9999 -9999 -9999 -9999 -9999 -9999 -9999 -9999 -9999 -9999 -9999 -9999 -9999 -9999 -9999 -9999 -9999 -9999 -9999 -9999 -9999 -9999 -9999 -9999 -9999 -9999 -9999 -9999 -9999 -9999 -9999 -9999 -9999 -9999 -9999 -9999 -9999 -9999 -9999 -9999 -9999 -9999 -9999 -9999 -9999 -9999 -9999 -9999 -9999 -9999 -9999 -9999 -9999 -9999 -9999 -9999 -9999 -9999 -9999 -9999 -9999 -9999 -9999 -9999 -9999 -9999 -9999 -9999 -9999 -9999 -9999 -9999 -9999 -9999 -9999 -9999 -9999 -9999 -9999 -9999 -9999 -9999 -9999 -9999 -9999 -9999 -9999 -9999 -9999 -9999 -9999 -9999 -9999 -9999 -9999 -9999 -9999 -9999 -9999 -9999 -9999 -9999 -9999 -9999 -9999 -9999 -9999 -9999 -9999 -9999 -9999 -9999 -9999 -9999 -9999 -9999 -9999 -9999 -9999 -9999 -9999 -9999 -9999 -9999 -9999 -9999 -9999 -9999 -9999 -9999 -9999 -9999 -9999 -9999 -9999 -9999 -9999 -9999 -9999 -9999 -9999 -9999 -9999 -9999 0 0 0 0 0 0 10.6635071090047 10.6635071090047 10.6635071090047 10.6635071090047 5.79470198675497 5.79470198675497 5.55555555555556 5.55555555555556 4.25531914893617 4.25531914893617 4.25531914893617 2.9585798816568 5.8027079303675 5.8027079303675 3.3955857385399 3.3955857385399 10.1010101010101 3.92927308447937 3.92927308447937 2.36220472440945 2.36220472440945 2.36220472440945 1.33868808567604 1.33868808567604 1.33868808567604 1.33868808567604 1.33868808567604 1.33868808567604 1.33868808567604 0 0 0 0 2.41254523522316 0 0 0 4.57317073170732 4.57317073170732 4.57317073170732 8.7260034904014 8.7260034904014 5.05050505050505 4.70219435736677 0 0 0 3.1055900621118 3.1055900621118 0 0 0 5.20833333333333 7.07070707070707 6.80272108843537 6.80272108843537 13.0662020905923 15.6462585034014 12.0192307692308 12.0192307692308 14.9051490514905 5.33333333333333 7.00280112044818 5.11695906432749 5.11695906432749 5.11695906432749 5.12820512820513 0 0 0 0 10.8191653786708 10.8191653786708 10.8191653786708 7.14285714285714 7.14285714285714 9.32835820895522 9.32835820895522 0 0 12.7591706539075 3.91389432485323 3.91389432485323 5.65428109854604 5.65428109854604 3.96039603960396 3.96039603960396 10.482180293501 10.482180293501 6.14250614250614 5.47945205479452 5.47945205479452 5.81395348837209 -9999 -9999 -9999 -9999 -9999 -9999 -9999 0 0 7.847533632287 7.847533632287 7.847533632287 15.1057401812689 5.09337860780985 5.09337860780985 5.09337860780985 0 0 0 6.1576354679803 6.1576354679803 0 0 0 3.78071833648393 3.78071833648393 5.53505535055351 5.53505535055351 0 0 0 0 0 0 -9999 -9999 -9999 -9999 -9999 -9999 -9999 -9999 -9999 -9999 -9999 -9999 -9999 -9999 -9999 -9999 -9999 -9999 -9999 -9999 -9999 -9999 -9999 -9999 -9999 -9999 -9999 -9999 -9999 -9999 -9999 -9999 -9999 -9999 -9999 -9999 -9999 -9999 -9999 -9999 -9999 -9999 -9999 -9999
-9999 -9999 -9999 -9999 -9999 -9999 -9999 -9999 -9999 -9999 -9999 -9999 -9999 -9999 -9999 -9999 -9999 -9999 -9999 -9999 -9999 -9999 -9999 -9999 -9999 -9999 -9999 -9999 -9999 -9999 -9999 -9999 -9999 -9999 -9999 -9999 -9999 -9999 -9999 -9999 -9999 -9999 -9999 -9999 -9999 -9999 -9999 -9999 -9999 -9999 -9999 -9999 -9999 -9999 -9999 -9999 -9999 -9999 -9999 -9999 -9999 -9999 -9999 -9999 -9999 -9999 -9999 -9999 -9999 -9999 -9999 -9999 -9999 -9999 -9999 -9999 -9999 -9999 -9999 -9999 -9999 -9999 -9999 -9999 -9999 -9999 -9999 -9999 -9999 -9999 -9999 -9999 -9999 -9999 -9999 -9999 -9999 -9999 -9999 -9999 -9999 -9999 -9999 -9999 -9999 -9999 -9999 -9999 -9999 -9999 -9999 -9999 -9999 -9999 -9999 -9999 -9999 -9999 -9999 -9999 -9999 -9999 -9999 -9999 -9999 -9999 -9999 -9999 -9999 -9999 -9999 -9999 -9999 -9999 -9999 -9999 -9999 -9999 -9999 -9999 -9999 -9999 -9999 -9999 -9999 -9999 -9999 -9999 -9999 -9999 -9999 -9999 -9999 -9999 -9999 -9999 -9999 -9999 -9999 -9999 -9999 -9999 -9999 -9999 -9999 -9999 -9999 -9999 -9999 -9999 -9999 -9999 -9999 -9999 -9999 -9999 -9999 -9999 -9999 -9999 -9999 -9999 -9999 -9999 -9999 -9999 -9999 -9999 -9999 -9999 -9999 -9999 -9999 -9999 -9999 -9999 -9999 -9999 -9999 -9999 -9999 -9999 -9999 -9999 -9999 -9999 -9999 -9999 -9999 -9999 -9999 -9999 -9999 -9999 -9999 -9999 -9999 -9999 -9999 -9999 -9999 -9999 -9999 -9999 -9999 -9999 -9999 -9999 -9999 -9999 -9999 -9999 -9999 -9999 -9999 -9999 -9999 0 0 0 0 0 0 0 0 10.6635071090047 10.6635071090047 10.6635071090047 5.79470198675497 5.79470198675497 5.79470198675497 4.25531914893617 4.25531914893617 4.25531914893617 2.9585798816568 2.9585798816568 2.9585798816568 3.3955857385399 3.3955857385399 0 0 10.1010101010101 10.1010101010101 10.1010101010101 2.36220472440945 1.33868808567604 1.33868808567604 1.33868808567604 1.33868808567604 1.33868808567604 1.33868808567604 1.33868808567604 1.33868808567604 1.33868808567604 1.33868808567604 0 0 2.41254523522316 2.41254523522316 2.41254523522316 0 0 0 0 2.7124773960217 8.7260034904014 5.05050505050505 5.05050505050505 8.51581508515815 8.51581508515815 3.1055900621118 3.1055900621118 5.86854460093897 3.1055900621118 3.1055900621118 0 14.1065830721003 3.97456279809221 3.97456279809221 7.07070707070707 6.80272108843537 10.1102941176471 12.0192307692308 12.0192307692308 12.0192307692308 4.12087912087912 6.41025641025641 6.41025641025641 7.00280112044818 5.12820512820513 5.12820512820513 5.12820512820513 5.12820512820513 0 10.4477611940298 0 0 7.11743772241993 7.11743772241993 7.11743772241993 7.14285714285714 7.14285714285714 9.32835820895522 7.02028081123245 12.7591706539075 12.7591706539075 12.7591706539075 5.65428109854604 5.65428109854604 0 0 11.1821086261981 5.68181818181818 5.68181818181818 5.18134715025907 12.9716981132075 12.9716981132075 4.5766590389016 -9999 -9999 -9999 -9999 -9999 -9999 -9999 10.0463678516229 10.0463678516229 10.0463678516229 10.0463678516229 3.21199143468951 15.1057401812689 15.1057401812689 5.65770862800566 5.65770862800566 5.65770862800566 0 0 0 3.95256916996047 0 3.95256916996047 3.78071833648393 0 0 0 0 0 0 0 0 0 -9999 -9999 -9999 -9999 -9999 -9999 -9999 -9999 -9999 -9999 -9999 -9999 -9999 -9999 -9999 -9999 -9999 -9999 -9999 -9999 -9999 -9999 -9999 -9999 -9999 -9999 -9999 -9999 -9999 -9999 -9999 -9999 -9999 -9999 -9999 -9999 -9999 -9999 -9999 -9999 -9999 -9999 -9999 -9999
-9999 -9999 -9999 -9999 -9999 -9999 -9999 -9999 -9999 -9999 -9999 -9999 -9999 -9999 -9999 -9999 -9999 -9999 -9999 -9999 -9999 -9999 -9999 -9999 -9999 -9999 -9999 -9999 -9999 -9999 -9999 -9999 -9999 -9999 -9999 -9999 -9999 -9999 -9999 -9999 -9999 -9999 -9999 -9999 -9999 -9999 -9999 -9999 -9999 -9999 -9999 -9999 -9999 -9999 -9999 -9999 -9999 -9999 -9999 -9999 -9999 -9999 -9999 -9999 -9999 -9999 -9999 -9999 -9999 -9999 -9999 -9999 -9999 -9999 -9999 -9999 -9999 -9999 -9999 -9999 -9999 -9999 -9999 -9999 -9999 -9999 -9999 -9999 -9999 -9999 -9999 -9999 -9999 -9999 -9999 -9999 -9999 -9999 -9999 -9999 -9999 -9999 -9999 -9999 -9999 -9999 -9999 -9999 -9999 -9999 -9999 -9999 -9999 -9999 -9999 -9999 -9999 -9999 -9999 -9999 -9999 -9999 -9999 -9999 -9999 -9999 -9999 -9999 -9999 -9999 -9999 -9999 -9999 -9999 -9999 -9999 -9999 -9999 -9999 -9999 -9999 -9999 -9999 -9999 -9999 -9999 -9999 -9999 -9999 -9999 -9999 -9999 -9999 -9999 -9999 -9999 -9999 -9999 -9999 -9999 -9999 -9999 -9999 -9999 -9999 -9999 -9999 -9999 -9999 -9999 -9999 -9999 -9999 -9999 -9999 -9999 -9999 -9999 -9999 -9999 -9999 -9999 -9999 -9999 -9999 -9999 -9999 -9999 -9999 -9999 -9999 -9999 -9999 -9999 -9999 -9999 -9999 -9999 -9999 -9999 -9999 -9999 -9999 -9999 -9999 -9999 -9999 -9999 -9999 -9999 -9999 -9999 -9999 -9999 -9999 -9999 -9999 -9999 -9999 -9999 -9999 -9999 -9999 -9999 -9999 -9999 -9999 -9999 -9999 -9999 -9999 3.44827586206897 3.44827586206897 9.65824665676077 9.65824665676077 19.8170731707317 19.8170731707317 0 0 0 0 0 0 0 0 0 0 0 0 5.79470198675497 5.79470198675497 0 0 7.52688172043011 2.9585798816568 2.9585798816568 10.5566218809981 10.5566218809981 3.3955857385399 0 0 10.1010101010101 10.1010101010101 10.1010101010101 10.1010101010101 23.6541598694943 23.6541598694943 23.6541598694943 1.33868808567604 1.33868808567604 1.33868808567604 1.33868808567604 1.33868808567604 1.33868808567604 1.33868808567604 1.33868808567604 1.33868808567604 2.41254523522316 2.41254523522316 1.33868808567604 10.1102941176471 0 0 9.18836140888208 2.7124773960217 2.7124773960217 13.8632162661738 13.8632162661738 8.51581508515815 3.16455696202532 3.16455696202532 3.16455696202532 10.6177606177606 5.86854460093897 5.86854460093897 1.68634064080944 1.68634064080944 14.1065830721003 14.1065830721003 3.97456279809221 3.97456279809221 3.97456279809221 10.1102941176471 10.1102941176471 17.9028132992327 6.0790273556231 6.0790273556231 4.12087912087912 8.2063305978898 8.2063305978898 8.2063305978898 5.12820512820513 4.80109739368999 4.80109739368999 0 0 4.62962962962963 7.57575757575758 7.57575757575758 7.11743772241993 8.31600831600832 8.31600831600832 7.02028081123245 7.02028081123245 7.02028081123245 7.02028081123245 12.7591706539075 5.65428109854604 4.88997555012225 4.88997555012225 4.21585160202361 10.0603621730382 0 0 10.0603621730382 10.0603621730382 4.5766590389016 -9999 -9999 -9999 -9999 -9999 -9999 -9999 10.0463678516229 10.0463678516229 10.0463678516229 10.0463678516229 7.3394495412844 7.3394495412844 7.3394495412844 3.63372093023256 3.63372093023256 5.52486187845304 2.6281208935611 2.6281208935611 2.6281208935611 0 3.95256916996047 3.95256916996047 3.95256916996047 3.95256916996047 0 0 0 0 0 0 -9999 -9999 -9999 -9999 -9999 -9999 -9999 -9999 -9999 -9999 -9999 -9999 -9999 -9999 -9999 -9999 -9999 -9999 -9999 -9999 -9999 -9999 -9999 -9999 -9999 -9999 -9999 -9999 -9999 -9999 -9999 -9999 -9999 -9999 -9999 -9999 -9999 -9999 -9999 -9999 -9999 -9999 -9999 -9999 -9999 -9999 -9999
-9999 -9999 -9999 -9999 -9999 -9999 -9999 -9999 -9999 -9999 -9999 -9999 -9999 -9999 -9999 -9999 -9999 -9999 -9999 -9999 -9999 -9999 -9999 -9999 -9999 -9999 -9999 -9999 -9999 -9999 -9999 -9999 -9999 -9999 -9999 -9999 -9999 -9999 -9999 -9999 -9999 -9999 -9999 -9999 -9999 -9999 -9999 -9999 -9999 -9999 -9999 -9999 -9999 -9999 -9999 -9999 -9999 -9999 -9999 -9999 -9999 -9999 -9999 -9999 -9999 -9999 -9999 -9999 -9999 -9999 -9999 -9999 -9999 -9999 -9999 -9999 -9999 -9999 -9999 -9999 -9999 -9999 -9999 -9999 -9999 -9999 -9999 -9999 -9999 -9999 -9999 -9999 -9999 -9999 -9999 -9999 -9999 -9999 -9999 -9999 -9999 -9999 -9999 -9999 -9999 -9999 -9999 -9999 -9999 -9999 -9999 -9999 -9999 -9999 -9999 -9999 -9999 -9999 -9999 -9999 -9999 -9999 -9999 -9999 -9999 -9999 -9999 -9999 -9999 -9999 -9999 -9999 -9999 -9999 -9999 -9999 -9999 -9999 -9999 -9999 -9999 -9999 -9999 -9999 -9999 -9999 -9999 -9999 -9999 -9999 -9999 -9999 -9999 -9999 -9999 -9999 -9999 -9999 -9999 -9999 -9999 -9999 -9999 -9999 -9999 -9999 -9999 -9999 -9999 -9999 -9999 -9999 -9999 -9999 -9999 -9999 -9999 -9999 -9999 -9999 -9999 -9999 -9999 -9999 -9999 -9999 -9999 -9999 -9999 -9999 -9999 -9999 -9999 -9999 -9999 -9999 -9999 -9999 -9999 -9999 -9999 -9999 -9999 -9999 -9999 -9999 -9999 -9999 -9999 -9999 -9999 -9999 -9999 -9999 -9999 -9999 -9999 -9999 -9999 -9999 -9999 -9999 -9999 -9999 16.3352272727273 16.3352272727273 -9999 0 0 -9999 -9999 3.44827586206897 3.44827586206897 3.44827586206897 17.8571428571429 9.65824665676077 9.65824665676077 9.65824665676077 19.8170731707317 19.8170731707317 0 0 0 0 0 0 0 0 0 0 0 0 0 7.52688172043011 7.52688172043011 7.52688172043011 5.1975051975052 10.5566218809981 10.5566218809981 10.5566218809981 10.5566218809981 10.1010101010101 10.1010101010101 10.1010101010101 23.6541598694943 23.6541598694943 23.6541598694943 23.6541598694943 23.6541598694943 8.18181818181818 8.18181818181818 1.33868808567604 1.33868808567604 1.33868808567604 1.33868808567604 1.33868808567604 1.33868808567604 1.33868808567604 1.33868808567604 8.74125874125874 10.1102941176471 10.1102941176471 15.7728706624606 15.7728706624606 9.18836140888208 4.59418070444104 4.59418070444104 4.59418070444104 8.73015873015873 8.73015873015873 8.73015873015873 3.89863547758285 10.6177606177606 10.6177606177606 7.86516853932584 11.5830115830116 11.5830115830116 1.68634064080944 1.68634064080944 6.76982591876209 6.76982591876209 10.1102941176471 10.1102941176471 0 0 17.9028132992327 17.9028132992327 3.67647058823529 3.67647058823529 3.67647058823529 8.2063305978898 10.0502512562814 10.0502512562814 10.0502512562814 4.80109739368999 5.46448087431694 16.3934426229508 16.3934426229508 4.62962962962963 7.57575757575758 7.57575757575758 7.02028081123245 7.02028081123245 7.02028081123245 7.02028081123245 6.51465798045603 6.51465798045603 6.51465798045603 6.51465798045603 4.21585160202361 4.21585160202361 10.0603621730382 10.0603621730382 10.0603621730382 10.0603621730382 -9999 -9999 -9999 -9999 -9999 -9999 -9999 -9999 -9999 4.58715596330275 4.58715596330275 4.58715596330275 4.58715596330275 11.2219451371571 11.2219451371571 7.3394495412844 3.63372093023256 3.63372093023256 3.63372093023256 3.92670157068063 3.92670157068063 2.6281208935611 0 0 5.6890012642225 3.95256916996047 4.15973377703827 4.15973377703827 0 0 0 0 0 0 -9999 -9999 -9999 -9999 -9999 -9999 -9999 -9999 -9999 -9999 -9999 -9999 -9999 -9999 -9999 -9999 -9999 -9999 -9999 -9999 -9999 -9999 -9999 -9999 -9999 -9999 -9999 -9999 -9999 -9999 -9999 -9999 -9999 -9999 -9999 -9999 -9999 -9999 -9999 -9999 -9999 -9999 -9999 -9999 -9999 -9999
-9999 -9999 -9999 -9999 -9999 -9999 -9999 -9999 -9999 -9999 -9999 -9999 -9999 -9999 -9999 -9999 -9999 -9999 -9999 -9999 -9999 -9999 -9999 -9999 -9999 -9999 -9999 -9999 -9999 -9999 -9999 -9999 -9999 -9999 -9999 -9999 -9999 -9999 -9999 -9999 -9999 -9999 -9999 -9999 -9999 -9999 -9999 -9999 -9999 -9999 -9999 -9999 -9999 -9999 -9999 -9999 -9999 -9999 -9999 -9999 -9999 -9999 -9999 -9999 -9999 -9999 -9999 -9999 -9999 -9999 -9999 -9999 -9999 -9999 -9999 -9999 -9999 -9999 -9999 -9999 -9999 -9999 -9999 -9999 -9999 -9999 -9999 -9999 -9999 -9999 -9999 -9999 -9999 -9999 -9999 -9999 -9999 -9999 -9999 -9999 -9999 -9999 -9999 -9999 -9999 -9999 -9999 -9999 -9999 -9999 -9999 -9999 -9999 -9999 -9999 -9999 -9999 -9999 -9999 -9999 -9999 -9999 -9999 -9999 -9999 -9999 -9999 -9999 -9999 -9999 -9999 -9999 -9999 -9999 -9999 -9999 -9999 -9999 -9999 -9999 -9999 -9999 -9999 -9999 -9999 -9999 -9999 -9999 -9999 -9999 -9999 -9999 -9999 -9999 -9999 -9999 -9999 -9999 -9999 -9999 -9999 -9999 -9999 -9999 -9999 -9999 -9999 -9999 -9999 -9999 -9999 -9999 -9999 -9999 -9999 -9999 -9999 -9999 -9999 -9999 -9999 -9999 -9999 -9999 -9999 -9999 -9999 -9999 -9999 -9999 -9999 -9999 -9999 -9999 -9999 -9999 -9999 -9999 -9999 -9999 -9999 -9999 -9999 -9999 -9999 -9999 -9999 -9999 -9999 -9999 -9999 -9999 -9999 -9999 -9999 -9999 -9999 -9999 -9999 -9999 -9999 -9999 -9999 16.3352272727273 16.3352272727273 16.3352272727273 16.3352272727273 16.3352272727273 0 0 0 3.44827586206897 3.44827586206897 3.44827586206897 7.16694772344014 17.8571428571429 17.8571428571429 17.8571428571429 17.8571428571429 17.8571428571429 19.8170731707317 19.8170731707317 19.8170731707317 0 0 0 0 0 0 3.17662007623888 3.17662007623888 0 7.42574257425743 7.42574257425743 7.42574257425743 7.53768844221105 5.1975051975052 5.1975051975052 5.1975051975052 5.1975051975052 10.1010101010101 10.1010101010101 10.1010101010101 10.1010101010101 23.6541598694943 23.6541598694943 23.6541598694943 23.6541598694943 23.6541598694943 8.18181818181818 8.18181818181818 8.18181818181818 15.3225806451613 15.3225806451613 15.3225806451613 1.33868808567604 1.33868808567604 1.33868808567604 4.14593698175788 4.14593698175788 4.14593698175788 8.74125874125874 6.44567219152855 15.7728706624606 15.7728706624606 7.93650793650794 7.93650793650794 4.59418070444104 5.23952095808383 5.23952095808383 5.23952095808383 12.8205128205128 3.89863547758285 3.89863547758285 7.86516853932584 7.86516853932584 7.86516853932584 11.3851992409867 11.3851992409867 11.3851992409867 6.76982591876209 6.76982591876209 0 0 2.77008310249307 0 4.52488687782805 7.46268656716418 7.46268656716418 3.67647058823529 6.95825049701789 6.98602794411178 6.98602794411178 10.0502512562814 4.17827298050139 4.17827298050139 12.2850122850123 5.46448087431694 5.46448087431694 5.46448087431694 4.62962962962963 0 0 7.02028081123245 6.51465798045603 6.51465798045603 6.51465798045603 6.51465798045603 6.51465798045603 6.51465798045603 6.51465798045603 10.0603621730382 10.0603621730382 10.0603621730382 10.0603621730382 -9999 -9999 -9999 -9999 -9999 -9999 -9999 -9999 -9999 4.58715596330275 4.58715596330275 4.58715596330275 6.43382352941176 6.43382352941176 11.2219451371571 0 0 0 0 0 0 0 0 5.6890012642225 5.6890012642225 4.21940928270042 4.21940928270042 4.21940928270042 2.46305418719212 0 0 0 -9999 -9999 -9999 -9999 -9999 -9999 -9999 -9999 -9999 -9999 -9999 -9999 -9999 -9999 -9999 -9999 -9999 -9999 -9999 -9999 -9999 -9999 -9999 -9999 -9999 -9999 -9999 -9999 -9999 -9999 -9999 -9999 -9999 -9999 -9999 -9999 -9999 -9999 -9999 -9999 -9999 -9999 -9999 -9999 -9999 -9999 -9999 -9999
-9999 -9999 -9999 -9999 -9999 -9999 -9999 -9999 -9999 -9999 -9999 -9999 -9999 -9999 -9999 -9999 -9999 -9999 -9999 -9999 -9999 -9999 -9999 -9999 -9999 -9999 -9999 -9999 -9999 -9999 -9999 -9999 -9999 -9999 -9999 -9999 -9999 -9999 -9999 -9999 -9999 -9999 -9999 -9999 -9999 -9999 -9999 -9999 -9999 -9999 -9999 -9999 -9999 -9999 -9999 -9999 -9999 -9999 -9999 -9999 -9999 -9999 -9999 -9999 -9999 -9999 -9999 -9999 -9999 -9999 -9999 -9999 -9999 -9999 -9999 -9999 -9999 -9999 -9999 -9999 -9999 -9999 -9999 -9999 -9999 -9999 -9999 -9999 -9999 -9999 -9999 -9999 -9999 -9999 -9999 -9999 -9999 -9999 -9999 -9999 -9999 -9999 -9999 -9999 -9999 -9999 -9999 -9999 -9999 -9999 -9999 -9999 -9999 -9999 -9999 -9999 -9999 -9999 -9999 -9999 -9999 -9999 -9999 -9999 -9999 -9999 -9999 -9999 -9999 -9999 -9999 -9999 -9999 -9999 -9999 -9999 -9999 -9999 -9999 -9999 -9999 -9999 -9999 -9999 -9999 -9999 -9999 -9999 -9999 -9999 -9999 -9999 -9999 -9999 -9999 -9999 -9999 -9999 -9999 -9999 -9999 -9999 -9999 -9999 -9999 -9999 -9999 -9999 -9999 -9999 -9999 -9999 -9999 -9999 -9999 -9999 -9999 -9999 -9999 -9999 -9999 -9999 -9999 -9999 -9999 -9999 -9999 -9999 -9999 -9999 -9999 -9999 -9999 -9999 -9999 -9999 -9999 -9999 -9999 -9999 -9999 -9999 -9999 -9999 -9999 -9999 -9999 -9999 -9999 -9999 -9999 -9999 -9999 -9999 -9999 -9999 -9999 -9999 -9999 -9999 -9999 -9999 16.3352272727273 13.5623869801085 16.3352272727273 16.3352272727273 10.4166666666667 16.3352272727273 16.3352272727273 16.3352272727273 13.2605304212168 0 0 8.23529411764706 8.23529411764706 7.16694772344014 7.16694772344014 7.16694772344014 7.16694772344014 17.8571428571429 17.8571428571429 17.8571428571429 19.8170731707317 19.8170731707317 0 0 0 0 0 3.17662007623888 3.17662007623888 4.59770114942529 4.59770114942529 7.42574257425743 7.42574257425743 7.53768844221105 7.53768844221105 7.53768844221105 7.53768844221105 10.1010101010101 10.1010101010101 10.1010101010101 10.1010101010101 23.6541598694943 23.6541598694943 23.6541598694943 23.6541598694943 23.6541598694943 21.6783216783217 21.6783216783217 21.6783216783217 15.3225806451613 15.3225806451613 15.3225806451613 13.0260521042084 13.0260521042084 13.0260521042084 17.6211453744493 17.6211453744493 4.14593698175788 4.14593698175788 15.4761904761905 15.4761904761905 6.44567219152855 13.3858267716535 13.3858267716535 13.3858267716535 5.56438791732909 5.56438791732909 5.56438791732909 0 16.4319248826291 16.4319248826291 6.11246943765281 6.11246943765281 0 8.94854586129754 8.94854586129754 10.8481262327416 4.58715596330275 11.3851992409867 5.87248322147651 5.87248322147651 5.87248322147651 0 3.78787878787879 3.4965034965035 3.4965034965035 4.52488687782805 0 15.0862068965517 6.95825049701789 6.95825049701789 6.98602794411178 6.98602794411178 8.37988826815642 8.37988826815642 4.17827298050139 12.2850122850123 5.46448087431694 6.73076923076923 0 0 0 6.51465798045603 6.51465798045603 6.51465798045603 6.51465798045603 6.51465798045603 3.98724082934609 3.98724082934609 3.98724082934609 3.98724082934609 10.0603621730382 -9999 -9999 -9999 -9999 -9999 -9999 -9999 -9999 -9999 -9999 4.58715596330275 4.58715596330275 6.43382352941176 6.43382352941176 6.43382352941176 0 0 0 5.26315789473684 5.26315789473684 4.22832980972516 4.22832980972516 0 0 0 0 0 0 2.46305418719212 2.46305418719212 2.46305418719212 2.46305418719212 2.46305418719212 -9999 -9999 -9999 -9999 -9999 -9999 -9999 -9999 -9999 -9999 -9999 -9999 -9999 -9999 -9999 -9999 -9999 -9999 -9999 -9999 -9999 -9999 -9999 -9999 -9999 -9999 -9999 -9999 -9999 -9999 -9999 -9999 -9999 -9999 -9999 -9999 -9999 -9999 -9999 -9999 -9999 -9999 -9999 -9999 -9999 -9999 -9999 -9999
-9999 -9999 -9999 -9999 -9999 -9999 -9999 -9999 -9999 -9999 -9999 -9999 -9999 -9999 -9999 -9999 -9999 -9999 -9999 -9999 -9999 -9999 -9999 -9999 -9999 -9999 -9999 -9999 -9999 -9999 -9999 -9999 -9999 -9999 -9999 -9999 -9999 -9999 -9999 -9999 -9999 -9999 -9999 -9999 -9999 -9999 -9999 -9999 -9999 -9999 -9999 -9999 -9999 -9999 -9999 -9999 -9999 -9999 -9999 -9999 -9999 -9999 -9999 -9999 -9999 -9999 -9999 -9999 -9999 -9999 -9999 -9999 -9999 -9999 -9999 -9999 -9999 -9999 -9999 -9999 -9999 -9999 -9999 -9999 -9999 -9999 -9999 -9999 -9999 -9999 -9999 -9999 -9999 -9999 -9999 -9999 -9999 -9999 -9999 -9999 -9999 -9999 -9999 -9999 -9999 -9999 -9999 -9999 -9999 -9999 -9999 -9999 -9999 -9999 -9999 -9999 -9999 -9999 -9999 -9999 -9999 -9999 -9999 -9999 -9999 -9999 -9999 -9999 -9999 -9999 -9999 -9999 -9999 -9999 -9999 -9999 -9999 -9999 -9999 -9999 -9999 -9999 -9999 -9999 -9999 -9999 -9999 -9999 -9999 -9999 -9999 -9999 -9999 -9999 -9999 -9999 -9999 -9999 -9999 -9999 -9999 -9999 -9999 -9999 -9999 -9999 -9999 -9999 -9999 -9999 -9999 -9999 -9999 -9999 -9999 -9999 -9999 -9999 -9999 -9999 -9999 -9999 -9999 -9999 -9999 -9999 -9999 -9999 -9999 -9999 -9999 -9999 -9999 -9999 -9999 -9999 -9999 -9999 -9999 -9999 -9999 -9999 -9999 -9999 -9999 -9999 -9999 -9999 -9999 -9999 -9999 -9999 -9999 -9999 -9999 -9999 -9999 -9999 -9999 -9999 -9999 16.3352272727273 13.5623869801085 13.5623869801085 13.5623869801085 13.5623869801085 10.4166666666667 10.4166666666667 10.4166666666667 13.2605304212168 13.2605304212168 13.2605304212168 10.2739726027397 10.2739726027397 8.23529411764706 8.23529411764706 7.16694772344014 7.16694772344014 7.16694772344014 7.16694772344014 9.89445910290237 9.89445910290237 16.1870503597122 16.1870503597122 16.1870503597122 16.1870503597122 16.1870503597122 16.1870503597122 3.17662007623888 3.17662007623888 3.17662007623888 3.17662007623888 3.17662007623888 4.59770114942529 7.53768844221105 1.47058823529412 1.47058823529412 1.47058823529412 7.53768844221105 10.1010101010101 10.1010101010101 10.1010101010101 10.1010101010101 23.6541598694943 23.6541598694943 23.6541598694943 23.6541598694943 23.6541598694943 21.1864406779661 21.6783216783217 21.6783216783217 18.2012847965739 18.2012847965739 18.2012847965739 7.37100737100737 13.0260521042084 13.0260521042084 17.6211453744493 17.6211453744493 17.6211453744493 17.6211453744493 17.6211453744493 15.4761904761905 15.4761904761905 8.49514563106796 8.49514563106796 13.3858267716535 26 26 26 14.6579804560261 14.6579804560261 0 0 6.94444444444444 2.89435600578871 2.89435600578871 14.6048109965636 14.6048109965636 4.58715596330275 4.58715596330275 9.86842105263158 5.87248322147651 5.87248322147651 3.43878954607978 3.43878954607978 3.78787878787879 3.78787878787879 5.74712643678161 5.74712643678161 0 0 15.0862068965517 16.8195718654434 8.37988826815642 8.37988826815642 4.17827298050139 4.17827298050139 4.17827298050139 4.17827298050139 6.73076923076923 6.73076923076923 11.0565110565111 0 0 0 3.98724082934609 3.98724082934609 3.98724082934609 3.98724082934609 3.98724082934609 3.98724082934609 3.98724082934609 5.68181818181818 5.68181818181818 5.68181818181818 1.77935943060498 1.77935943060498 1.77935943060498 1.77935943060498 1.77935943060498 1.77935943060498 1.77935943060498 1.77935943060498 4.58715596330275 4.58715596330275 6.43382352941176 6.43382352941176 6.43382352941176 0 0 0 5.26315789473684 5.26315789473684 5.26315789473684 0 0 0 0 0 0 -9999 2.46305418719212 2.46305418719212 2.46305418719212 -9999 -9999 -9999 -9999 -9999 -9999 -9999 -9999 -9999 -9999 -9999 -9999 -9999 -9999 -9999 -9999 -9999 -9999 -9999 -9999 -9999 -9999 -9999 -9999 -9999 -9999 -9999 -9999 -9999 -9999 -9999 -9999 -9999 -9999 -9999 -9999 -9999 -9999 -9999 -9999 -9999 -9999 -9999 -9999 -9999 -9999 -9999 -9999 -9999 -9999
-9999 -9999 -9999 -9999 -9999 -9999 -9999 -9999 -9999 -9999 -9999 -9999 -9999 -9999 -9999 -9999 -9999 -9999 -9999 -9999 -9999 -9999 -9999 -9999 -9999 -9999 -9999 -9999 -9999 -9999 -9999 -9999 -9999 -9999 -9999 -9999 -9999 -9999 -9999 -9999 -9999 -9999 -9999 -9999 -9999 -9999 -9999 -9999 -9999 -9999 -9999 -9999 -9999 -9999 -9999 -9999 -9999 -9999 -9999 -9999 -9999 -9999 -9999 -9999 -9999 -9999 -9999 -9999 -9999 -9999 -9999 -9999 -9999 -9999 -9999 -9999 -9999 -9999 -9999 -9999 -9999 -9999 -9999 -9999 -9999 -9999 -9999 -9999 -9999 -9999 -9999 -9999 -9999 -9999 -9999 -9999 -9999 -9999 -9999 -9999 -9999 -9999 -9999 -9999 -9999 -9999 -9999 -9999 -9999 -9999 -9999 -9999 -9999 -9999 -9999 -9999 -9999 -9999 -9999 -9999 -9999 -9999 -9999 -9999 -9999 -9999 -9999 -9999 -9999 -9999 -9999 -9999 -9999 -9999 -9999 -9999 -9999 -9999 -9999 -9999 -9999 -9999 -9999 -9999 -9999 -9999 -9999 -9999 -9999 -9999 -9999 -9999 -9999 -9999 -9999 -9999 -9999 -9999 -9999 -9999 -9999 -9999 -9999 -9999 -9999 -9999 -9999 -9999 -9999 -9999 -9999 -9999 -9999 -9999 -9999 -9999 -9999 -9999 -9999 -9999 -9999 -9999 -9999 -9999 -9999 -9999 -9999 -9999 -9999 -9999 -9999 -9999 -9999 -9999 -9999 -9999 -9999 -9999 -9999 -9999 -9999 -9999 -9999 -9999 -9999 -9999 -9999 -9999 -9999 -9999 -9999 -9999 -9999 -9999 -9999 -9999 -9999 -9999 -9999 -9999 7.43099787685775 16.1943319838057 13.5623869801085 13.5623869801085 16.1943319838057 16.1943319838057 16.1943319838057 13.5623869801085 19.2307692307692 19.2307692307692 19.2307692307692 10.2739726027397 10.2739726027397 10.2739726027397 10.2739726027397 7.14285714285714 7.16694772344014 7.16694772344014 7.16694772344014 9.89445910290237 9.89445910290237 9.89445910290237 9.89445910290237 9.89445910290237 9.89445910290237 9.89445910290237 16.1870503597122 15.1515151515152 15.1515151515152 15.1515151515152 15.1515151515152 17.2064777327935 15.1515151515152 16.5903890160183 1.47058823529412 1.47058823529412 1.47058823529412 1.47058823529412 10.1010101010101 10.1010101010101 10.1010101010101 10.1010101010101 23.6541598694943 23.6541598694943 23.6541598694943 23.6541598694943 23.6541598694943 23.6541598694943 23.6541598694943 21.1864406779661 18.2012847965739 18.2012847965739 18.2012847965739 17.7514792899408 7.37100737100737 7.37100737100737 17.6211453744493 17.6211453744493 17.6211453744493 17.6211453744493 16.8302945301543 16.8302945301543 16.8302945301543 16.8302945301543 16.8302945301543 16.8302945301543 6.62251655629139 6.62251655629139 6.62251655629139 11.1524163568773 9.67741935483871 9.67741935483871 7.32600732600733 7.32600732600733 15.1006711409396 5.3475935828877 5.3475935828877 5.3475935828877 2.89435600578871 2.89435600578871 9.33609958506224 9.33609958506224 9.86842105263158 9.86842105263158 3.43878954607978 3.43878954607978 3.43878954607978 3.43878954607978 0 0 5.74712643678161 5.74712643678161 12.4378109452736 12.4378109452736 16.8195718654434 4.17827298050139 4.17827298050139 4.17827298050139 4.17827298050139 4.17827298050139 4.17827298050139 4.17827298050139 11.0565110565111 11.0565110565111 8.02139037433155 3.98724082934609 3.98724082934609 7.46268656716418 4.25531914893617 4.25531914893617 3.98724082934609 3.98724082934609 5.68181818181818 5.68181818181818 5.68181818181818 5.68181818181818 5.68181818181818 5.68181818181818 1.77935943060498 1.77935943060498 1.77935943060498 1.77935943060498 1.77935943060498 1.77935943060498 1.77935943060498 11.5384615384615 11.5384615384615 11.5384615384615 3.125 3.125 3.125 2.76548672566372 2.76548672566372 2.76548672566372 5.26315789473684 0 0 0 -9999 0 -9999 -9999 -9999 -9999 -9999 -9999 -9999 -9999 -9999 -9999 -9999 -9999 -9999 -9999 -9999 -9999 -9999 -9999 -9999 -9999 -9999 -9999 -9999 -9999 -9999 -9999 -9999 -9999 -9999 -9999 -9999 -9999 -9999 -9999 -9999 -9999 -9999 -9999 -9999 -9999 -9999 -9999 -9999 -9999 -9999 -9999 -9999 -9999 -9999 -9999 -9999 -9999 -9999 -9999 -9999
-9999 -9999 -9999 -9999 -9999 -9999 -9999 -9999 -9999 -9999 -9999 -9999 -9999 -9999 -9999 -9999 -9999 -9999 -9999 -9999 -9999 -9999 -9999 -9999 -9999 -9999 -9999 -9999 -9999 -9999 -9999 -9999 -9999 -9999 -9999 -9999 -9999 -9999 -9999 -9999 -9999 -9999 -9999 -9999 -9999 -9999 -9999 -9999 -9999 -9999 -9999 -9999 -9999 -9999 -9999 -9999 -9999 -9999 -9999 -9999 -9999 -9999 -9999 -9999 -9999 -9999 -9999 -9999 -9999 -9999 -9999 -9999 -9999 -9999 -9999 -9999 -9999 -9999 -9999 -9999 -9999 -9999 -9999 -9999 -9999 -9999 -9999 -9999 -9999 -9999 -9999 -9999 -9999 -9999 -9999 -9999 -9999 -9999 -9999 -9999 -9999 -9999 -9999 -9999 -9999 -9999 -9999 -9999 -9999 -9999 -9999 -9999 -9999 -9999 -9999 -9999 -9999 -9999 -9999 -9999 -9999 -9999 -9999 -9999 -9999 -9999 -9999 -9999 -9999 -9999 -9999 -9999 -9999 -9999 -9999 -9999 -9999 -9999 -9999 -9999 -9999 -9999 -9999 -9999 -9999 -9999 -9999 -9999 -9999 -9999 -9999 -9999 -9999 -9999 -9999 -9999 -9999 -9999 -9999 -9999 -9999 -9999 -9999 -9999 -9999 -9999 -9999 -9999 -9999 -9999 -9999 -9999 -9999 -9999 -9999 -9999 -9999 -9999 -9999 -9999 -9999 -9999 -9999 -9999 -9999 -9999 -9999 -9999 -9999 -9999 -9999 -9999 -9999 -9999 -9999 -9999 -9999 -9999 -9999 -9999 -9999 -9999 -9999 -9999 -9999 -9999 -9999 -9999 -9999 -9999 -9999 -9999 -9999 -9999 -9999 -9999 -9999 -9999 7.43099787685775 7.43099787685775 5.12820512820513 5.12820512820513 5.12820512820513 16.1943319838057 16.1943319838057 16.1943319838057 16.1943319838057 16.1943319838057 16.1943319838057 11.5658362989324 11.5658362989324 10.230179028133 10.230179028133 10.2739726027397 7.14285714285714 7.14285714285714 7.14285714285714 7.14285714285714 9.89445910290237 9.89445910290237 9.89445910290237 9.89445910290237 9.89445910290237 17.1184022824536 17.1184022824536 17.1184022824536 17.1184022824536 15.1515151515152 15.1515151515152 15.1515151515152 15.1515151515152 15.1515151515152 15.1515151515152 17.2064777327935 17.2064777327935 17.2064777327935 16.5903890160183 16.5903890160183 -9999 -9999 -9999 23.6541598694943 23.6541598694943 23.6541598694943 23.6541598694943 23.6541598694943 23.6541598694943 23.6541598694943 23.6541598694943 23.2300884955752 23.2300884955752 23.2300884955752 21.3114754098361 21.3114754098361 17.7514792899408 17.6211453744493 17.6211453744493 17.6211453744493 17.6211453744493 17.6211453744493 16.8302945301543 16.8302945301543 16.8302945301543 16.8302945301543 16.8302945301543 -9999 -9999 -9999 -9999 11.1524163568773 11.1524163568773 11.1524163568773 11.2016293279022 7.32600732600733 19.5652173913043 19.5652173913043 19.5652173913043 5.18672199170125 5.18672199170125 5.18672199170125 9.375 9.33609958506224 9.33609958506224 6.84931506849315 9.86842105263158 9.86842105263158 3.43878954607978 6.97084917617237 6.97084917617237 6.97084917617237 6.97084917617237 5.37634408602151 5.37634408602151 7.5187969924812 0 0 4.17827298050139 4.17827298050139 4.17827298050139 4.17827298050139 4.17827298050139 4.17827298050139 4.17827298050139 5.13347022587269 8.02139037433155 8.02139037433155 13.5350318471338 7.46268656716418 7.46268656716418 7.46268656716418 3.77358490566038 16.5876777251185 16.5876777251185 7.69230769230769 7.69230769230769 5.68181818181818 5.68181818181818 11.9047619047619 11.9047619047619 5.61797752808989 1.77935943060498 1.77935943060498 1.77935943060498 1.77935943060498 1.77935943060498 11.6279069767442 11.6279069767442 11.5384615384615 3.125 3.125 3.125 2.76548672566372 2.76548672566372 2.76548672566372 -9999 -9999 0 0 -9999 -9999 -9999 -9999 -9999 -9999 -9999 -9999 -9999 -9999 -9999 -9999 -9999 -9999 -9999 -9999 -9999 -9999 -9999 -9999 -9999 -9999 -9999 -9999 -9999 -9999 -9999 -9999 -9999 -9999 -9999 -9999 -9999 -9999 -9999 -9999 -9999 -9999 -9999 -9999 -9999 -9999 -9999 -9999 -9999 -9999 -9999 -9999 -9999 -9999 -9999 -9999 -9999 -9999 -9999 -9999 -9999
-9999 -9999 -9999 -9999 -9999 -9999 -9999 -9999 -9999 -9999 -9999 -9999 -9999 -9999 -9999 -9999 -9999 -9999 -9999 -9999 -9999 -9999 -9999 -9999 -9999 -9999 -9999 -9999 -9999 -9999 -9999 -9999 -9999 -9999 -9999 -9999 -9999 -9999 -9999 -9999 -9999 -9999 -9999 -9999 -9999 -9999 -9999 -9999 -9999 -9999 -9999 -9999 -9999 -9999 -9999 -9999 -9999 -9999 -9999 -9999 -9999 -9999 -9999 -9999 -9999 -9999 -9999 -9999 -9999 -9999 -9999 -9999 -9999 -9999 -9999 -9999 -9999 -9999 -9999 -9999 -9999 -9999 -9999 -9999 -9999 -9999 -9999 -9999 -9999 -9999 -9999 -9999 -9999 -9999 -9999 -9999 -9999 -9999 -9999 -9999 -9999 -9999 -9999 -9999 -9999 -9999 -9999 -9999 -9999 -9999 -9999 -9999 -9999 -9999 -9999 -9999 -9999 -9999 -9999 -9999 -9999 -9999 -9999 -9999 -9999 -9999 -9999 -9999 -9999 -9999 -9999 -9999 -9999 -9999 -9999 -9999 -9999 -9999 -9999 -9999 -9999 -9999 -9999 -9999 -9999 -9999 -9999 -9999 -9999 -9999 -9999 -9999 -9999 -9999 -9999 -9999 -9999 -9999 -9999 -9999 -9999 -9999 -9999 -9999 -9999 -9999 -9999 -9999 -9999 -9999 -9999 -9999 -9999 -9999 -9999 -9999 -9999 -9999 -9999 -9999 -9999 -9999 -9999 -9999 -9999 -9999 -9999 -9999 -9999 -9999 -9999 -9999 -9999 -9999 -9999 -9999 -9999 -9999 -9999 -9999 -9999 -9999 -9999 -9999 -9999 -9999 -9999 -9999 -9999 -9999 -9999 7.43099787685775 7.43099787685775 7.43099787685775 7.43099787685775 -9999 7.43099787685775 7.43099787685775 7.47663551401869 5.12820512820513 5.12820512820513 7.47663551401869 5.12820512820513 7.47663551401869 7.47663551401869 5.12820512820513 5.12820512820513 16.1943319838057 11.5658362989324 11.5658362989324 11.5658362989324 11.5658362989324 10.230179028133 7.14285714285714 7.14285714285714 7.14285714285714 23.1277533039648 26.1363636363636 26.1363636363636 26.1363636363636 26.1363636363636 9.89445910290237 9.89445910290237 9.89445910290237 9.89445910290237 17.1184022824536 6.34920634920635 12.1951219512195 15.3764581124072 31.6310975609756 31.6310975609756 31.6310975609756 31.6310975609756 31.6310975609756 11.265164644714 16.5903890160183 16.5903890160183 16.5903890160183 -9999 -9999 -9999 -9999 -9999 -9999 -9999 -9999 -9999 23.6541598694943 23.6541598694943 23.2300884955752 23.2300884955752 23.2300884955752 21.3114754098361 21.3114754098361 21.3114754098361 17.6211453744493 17.6211453744493 17.6211453744493 17.6211453744493 17.6211453744493 17.6211453744493 17.6211453744493 17.6211453744493 16.8302945301543 16.8302945301543 -9999 -9999 -9999 -9999 -9999 -9999 -9999 11.2016293279022 11.2016293279022 8.35654596100279 8.35654596100279 7.06436420722135 7.06436420722135 7.06436420722135 10.1123595505618 10.1123595505618 9.375 14.3487858719647 11.5107913669065 11.5107913669065 6.84931506849315 6.06585788561525 6.06585788561525 6.06585788561525 6.97084917617237 5.14800514800515 5.14800514800515 5.14800514800515 5.37634408602151 6.9593147751606 7.0281124497992 0 8.39793281653747 8.39793281653747 8.39793281653747 4.17827298050139 4.17827298050139 9.51474785918173 4.56204379562044 4.56204379562044 5.13347022587269 8.02139037433155 8.02139037433155 13.5350318471338 3.77358490566038 15.017667844523 15.017667844523 0 0 10.7296137339056 7.69230769230769 7.64192139737991 11.9047619047619 11.9047619047619 5.61797752808989 5.61797752808989 5.61797752808989 0 1.77935943060498 8.71080139372822 8.71080139372822 11.6279069767442 0 0 3.125 5.31107738998482 5.31107738998482 5.31107738998482 -9999 -9999 -9999 0 -9999 -9999 -9999 -9999 -9999 -9999 -9999 -9999 -9999 -9999 -9999 -9999 -9999 -9999 -9999 -9999 -9999 -9999 -9999 -9999 -9999 -9999 -9999 -9999 -9999 -9999 -9999 -9999 -9999 -9999 -9999 -9999 -9999 -9999 -9999 -9999 -9999 -9999 -9999 -9999 -9999 -9999 -9999 -9999 -9999 -9999 -9999 -9999 -9999 -9999 -9999 -9999 -9999 -9999 -9999 -9999 -9999 -9999
-9999 -9999 -9999 -9999 -9999 -9999 -9999 -9999 -9999 -9999 -9999 -9999 -9999 -9999 -9999 -9999 -9999 -9999 -9999 -9999 -9999 -9999 -9999 -9999 -9999 -9999 -9999 -9999 -9999 -9999 -9999 -9999 -9999 -9999 -9999 -9999 -9999 -9999 -9999 -9999 -9999 -9999 -9999 -9999 -9999 -9999 -9999 -9999 -9999 -9999 -9999 -9999 -9999 -9999 -9999 -9999 -9999 -9999 -9999 -9999 -9999 -9999 -9999 -9999 -9999 -9999 -9999 -9999 -9999 -9999 -9999 -9999 -9999 -9999 -9999 -9999 -9999 -9999 -9999 -9999 -9999 -9999 -9999 -9999 -9999 -9999 -9999 -9999 -9999 -9999 -9999 -9999 -9999 -9999 -9999 -9999 -9999 -9999 -9999 -9999 -9999 -9999 -9999 -9999 -9999 -9999 -9999 -9999 -9999 -9999 -9999 -9999 -9999 -9999 -9999 -9999 -9999 -9999 -9999 -9999 -9999 -9999 -9999 -9999 -9999 -9999 -9999 -9999 -9999 -9999 -9999 -9999 -9999 -9999 -9999 -9999 -9999 -9999 -9999 -9999 -9999 -9999 -9999 -9999 -9999 -9999 -9999 -9999 -9999 -9999 -9999 -9999 -9999 -9999 -9999 -9999 -9999 -9999 -9999 -9999 -9999 -9999 -9999 -9999 -9999 -9999 -9999 -9999 -9999 -9999 -9999 -9999 -9999 -9999 -9999 -9999 -9999 -9999 -9999 -9999 -9999 -9999 -9999 -9999 -9999 -9999 -9999 -9999 -9999 -9999 -9999 -9999 -9999 -9999 -9999 -9999 -9999 -9999 -9999 -9999 -9999 -9999 -9999 -9999 -9999 -9999 -9999 -9999 -9999 7.43099787685775 7.43099787685775 7.43099787685775 7.43099787685775 7.43099787685775 7.43099787685775 -9999 7.43099787685775 7.47663551401869 7.47663551401869 7.47663551401869 7.47663551401869 7.47663551401869 7.47663551401869 7.47663551401869 7.47663551401869 5.12820512820513 5.12820512820513 6.68449197860963 6.68449197860963 11.5658362989324 11.5658362989324 11.5658362989324 21.5163934426229 23.1277533039648 23.1277533039648 23.1277533039648 32.258064516129 32.258064516129 26.1363636363636 26.1363636363636 26.1363636363636 26.1363636363636 25.703794369645 9.89445910290237 9.89445910290237 9.89445910290237 6.34920634920635 6.34920634920635 15.3764581124072 15.3764581124072 15.3764581124072 15.3764581124072 15.3764581124072 15.3764581124072 15.3764581124072 8.69565217391304 8.69565217391304 8.69565217391304 -9999 -9999 -9999 -9999 -9999 -9999 -9999 -9999 -9999 -9999 -9999 -9999 -9999 -9999 23.2300884955752 23.2300884955752 17.6211453744493 17.6211453744493 17.6211453744493 17.6211453744493 17.6211453744493 17.6211453744493 17.6211453744493 17.6211453744493 17.6211453744493 17.6211453744493 -9999 -9999 -9999 -9999 -9999 -9999 -9999 -9999 -9999 8.35654596100279 8.35654596100279 8.35654596100279 8.35654596100279 7.06436420722135 5.68181818181818 10.1123595505618 10.1123595505618 10.1123595505618 14.3487858719647 14.3487858719647 14.3487858719647 11.5107913669065 11.5107913669065 6.06585788561525 6.06585788561525 5.5205047318612 5.5205047318612 5.14800514800515 5.14800514800515 6.9593147751606 6.9593147751606 6.9593147751606 6.9593147751606 8.39793281653747 8.39793281653747 8.39793281653747 19.3156732891832 19.3156732891832 15.5925155925156 9.51474785918173 9.51474785918173 4.56204379562044 8.72093023255814 8.72093023255814 8.72093023255814 10.0502512562814 10.0502512562814 7.86713286713287 9.56284153005464 15.017667844523 0 5.76923076923077 5.76923076923077 5.76923076923077 5.38599640933573 11.9047619047619 5.61797752808989 0 0 0 0 8.71080139372822 2.83018867924528 2.83018867924528 2.83018867924528 5.41125541125541 5.41125541125541 5.41125541125541 5.31107738998482 -9999 -9999 -9999 -9999 -9999 -9999 -9999 -9999 -9999 -9999 -9999 -9999 -9999 -9999 -9999 -9999 -9999 -9999 -9999 -9999 -9999 -9999 -9999 -9999 -9999 -9999 -9999 -9999 -9999 -9999 -9999 -9999 -9999 -9999 -9999 -9999 -9999 -9999 -9999 -9999 -9999 -9999 -9999 -9999 -9999 -9999 -9999 -9999 -9999 -9999 -9999 -9999 -9999 -9999 -9999 -9999 -9999 -9999 -9999 -9999 -9999 -9999
-9999 -9999 -9999 -9999 -9999 -9999 -9999 -9999 -9999 -9999 -9999 -9999 -9999 -9999 -9999 -9999 -9999 -9999 -9999 -9999 -9999 -9999 -9999 -9999 -9999 -9999 -9999 -9999 -9999 -9999 -9999 -9999 -9999 -9999 -9999 -9999 -9999 -9999 -9999 -9999 -9999 -9999 -9999 -9999 -9999 -9999 -9999 -9999 -9999 -9999 -9999 -9999 -9999 -9999 -9999 -9999 -9999 -9999 -9999 -9999 -9999 -9999 -9999 -9999 -9999 -9999 -9999 -9999 -9999 -9999 -9999 -9999 -9999 -9999 -9999 -9999 -9999 -9999 -9999 -9999 -9999 -9999 -9999 -9999 -9999 -9999 -9999 -9999 -9999 -9999 -9999 -9999 -9999 -9999 -9999 -9999 -9999 -9999 -9999 -9999 -9999 -9999 -9999 -9999 -9999 -9999 -9999 -9999 -9999 -9999 -9999 -9999 -9999 -9999 -9999 -9999 -9999 -9999 -9999 -9999 -9999 -9999 -9999 -9999 -9999 -9999 -9999 -9999 -9999 -9999 -9999 -9999 -9999 -9999 -9999 -9999 -9999 -9999 -9999 -9999 -9999 -9999 -9999 -9999 -9999 -9999 -9999 -9999 -9999 -9999 -9999 -9999 -9999 -9999 -9999 -9999 -9999 -9999 -9999 -9999 -9999 -9999 -9999 -9999 -9999 -9999 -9999 -9999 -9999 -9999 -9999 -9999 -9999 -9999 -9999 -9999 -9999 -9999 -9999 -9999 -9999 -9999 -9999 -9999 -9999 -9999 -9999 -9999 -9999 -9999 -9999 -9999 -9999 -9999 -9999 -9999 -9999 -9999 -9999 -9999 -9999 -9999 -9999 -9999 -9999 -9999 -9999 -9999 6.01374570446735 6.01374570446735 6.01374570446735 8.08080808080808 7.43099787685775 8.08080808080808 8.08080808080808 8.08080808080808 -9999 -9999 -9999 7.47663551401869 7.47663551401869 7.40740740740741 7.40740740740741 7.47663551401869 7.47663551401869 6.68449197860963 6.68449197860963 6.68449197860963 6.68449197860963 6.68449197860963 11.5658362989324 11.5658362989324 21.5163934426229 21.5163934426229 23.1277533039648 32.258064516129 32.258064516129 32.258064516129 32.258064516129 26.1363636363636 26.1363636363636 13.6554621848739 25.703794369645 25.703794369645 25.703794369645 6.34920634920635 6.34920634920635 6.34920634920635 6.34920634920635 15.3764581124072 15.3764581124072 3.36862367661213 3.36862367661213 3.36862367661213 3.36862367661213 -9999 8.69565217391304 -9999 -9999 -9999 -9999 -9999 -9999 -9999 -9999 -9999 -9999 -9999 -9999 -9999 -9999 -9999 -9999 -9999 20.9059233449477 20.9059233449477 20.9059233449477 20.9059233449477 20.9059233449477 17.6211453744493 17.6211453744493 17.6211453744493 17.6211453744493 17.6211453744493 -9999 -9999 -9999 -9999 -9999 -9999 -9999 -9999 -9999 8.35654596100279 8.35654596100279 8.35654596100279 23.4215885947047 23.4215885947047 5.68181818181818 5.68181818181818 5.68181818181818 13.5135135135135 13.5135135135135 13.5135135135135 8.10372771474878 0 0 11.5107913669065 5.61797752808989 5.5205047318612 5.5205047318612 5.5205047318612 10.9677419354839 11.7967332123412 11.7967332123412 6.9593147751606 8.39793281653747 8.39793281653747 8.39793281653747 19.3156732891832 19.3156732891832 19.3156732891832 19.3156732891832 10.6589147286822 15.5925155925156 9.51474785918173 5.859375 8.72093023255814 6.65188470066519 7.32600732600733 7.32600732600733 7.86713286713287 7.86713286713287 7.86713286713287 5.19930675909879 3.87596899224806 3.87596899224806 7.6530612244898 7.6530612244898 7.6530612244898 21.415270018622 2.88461538461538 0 0 0 12.4416796267496 12.4416796267496 2.83018867924528 20.2429149797571 20.2429149797571 20.2429149797571 20.2429149797571 -9999 -9999 -9999 -9999 -9999 -9999 -9999 -9999 -9999 -9999 -9999 -9999 -9999 -9999 -9999 -9999 -9999 -9999 -9999 -9999 -9999 -9999 -9999 -9999 -9999 -9999 -9999 -9999 -9999 -9999 -9999 -9999 -9999 -9999 -9999 -9999 -9999 -9999 -9999 -9999 -9999 -9999 -9999 -9999 -9999 -9999 -9999 -9999 -9999 -9999 -9999 -9999 -9999 -9999 -9999 -9999 -9999 -9999 -9999 -9999 -9999 -9999 -9999
-9999 -9999 -9999 -9999 -9999 -9999 -9999 -9999 -9999 -9999 -9999 -9999 -9999 -9999 -9999 -9999 -9999 -9999 -9999 -9999 -9999 -9999 -9999 -9999 -9999 -9999 -9999 -9999 -9999 -9999 -9999 -9999 -9999 -9999 -9999 -9999 -9999 -9999 -9999 -9999 -9999 -9999 -9999 -9999 -9999 -9999 -9999 -9999 -9999 -9999 -9999 -9999 -9999 -9999 -9999 -9999 -9999 -9999 -9999 -9999 -9999 -9999 -9999 -9999 -9999 -9999 -9999 -9999 -9999 -9999 -9999 -9999 -9999 -9999 -9999 -9999 -9999 -9999 -9999 -9999 -9999 -9999 -9999 -9999 -9999 -9999 -9999 -9999 -9999 -9999 -9999 -9999 -9999 -9999 -9999 -9999 -9999 -9999 -9999 -9999 -9999 -9999 -9999 -9999 -9999 -9999 -9999 -9999 -9999 -9999 -9999 -9999 -9999 -9999 -9999 -9999 -9999 -9999 -9999 -9999 -9999 -9999 -9999 -9999 -9999 -9999 -9999 -9999 -9999 -9999 -9999 -9999 -9999 -9999 -9999 -9999 -9999 -9999 -9999 -9999 -9999 -9999 -9999 -9999 -9999 -9999 -9999 -9999 -9999 -9999 -9999 -9999 -9999 -9999 -9999 -9999 -9999 -9999 -9999 -9999 -9999 -9999 -9999 -9999 -9999 -9999 -9999 -9999 -9999 -9999 -9999 -9999 -9999 -9999 -9999 -9999 -9999 -9999 -9999 -9999 -9999 -9999 -9999 -9999 -9999 -9999 -9999 -9999 -9999 -9999 -9999 -9999 -9999 -9999 -9999 -9999 -9999 -9999 -9999 -9999 -9999 -9999 -9999 -9999 -9999 -9999 -9999 6.01374570446735 6.01374570446735 6.01374570446735 6.01374570446735 6.01374570446735 8.08080808080808 8.08080808080808 -9999 -9999 -9999 -9999 -9999 -9999 7.40740740740741 7.40740740740741 7.40740740740741 7.40740740740741 15.5844155844156 15.5844155844156 6.68449197860963 6.68449197860963 6.68449197860963 14.4628099173554 14.4628099173554 14.4628099173554 11.5658362989324 25.703794369645 23.5042735042735 23.5042735042735 17.2413793103448 17.2413793103448 32.258064516129 26.1363636363636 26.1363636363636 13.6554621848739 13.6554621848739 13.6554621848739 -9999 -9999 -9999 -9999 -9999 -9999 -9999 -9999 3.36862367661213 3.36862367661213 3.36862367661213 -9999 3.36862367661213 -9999 -9999 -9999 -9999 -9999 -9999 -9999 -9999 -9999 -9999 -9999 -9999 -9999 -9999 -9999 -9999 8.10014727540501 18.3150183150183 18.3150183150183 20.9059233449477 8.79765395894428 10.4477611940298 10.4477611940298 7.50750750750751 7.50750750750751 7.50750750750751 -9999 -9999 -9999 -9999 -9999 -9999 -9999 -9999 -9999 8.35654596100279 8.35654596100279 8.35654596100279 8.35654596100279 11.9318181818182 23.4215885947047 23.4215885947047 12.7450980392157 25.2427184466019 25.2427184466019 25.2427184466019 10.958904109589 6.51465798045603 6.51465798045603 8.10372771474878 8.38926174496644 8.38926174496644 8.38926174496644 5.61797752808989 10.6035889070147 10.6035889070147 10.9677419354839 10.9677419354839 6.76818950930626 6.76818950930626 6.76818950930626 6.99300699300699 19.3156732891832 19.3156732891832 19.3156732891832 19.3156732891832 19.3156732891832 19.3156732891832 10.6589147286822 5.859375 6.65188470066519 6.65188470066519 6.65188470066519 12.3152709359606 7.32600732600733 7.32600732600733 5.19930675909879 5.19930675909879 5.19930675909879 5.19930675909879 3.87596899224806 3.87596899224806 11.2781954887218 11.2781954887218 11.2781954887218 21.415270018622 14.2543859649123 14.2543859649123 10.8958837772397 12.4416796267496 0 0 0 20.2429149797571 -9999 -9999 -9999 -9999 -9999 -9999 -9999 -9999 8.89679715302491 -9999 -9999 -9999 -9999 -9999 -9999 -9999 -9999 -9999 -9999 -9999 -9999 -9999 -9999 -9999 -9999 -9999 -9999 -9999 -9999 -9999 -9999 -9999 -9999 -9999 -9999 -9999 -9999 -9999 -9999 -9999 -9999 -9999 -9999 -9999 -9999 -9999 -9999 -9999 -9999 -9999 -9999 -9999 -9999 -9999 -9999 -9999 -9999 -9999 -9999 -9999 -9999 -9999 -9999 -9999
-9999 -9999 -9999 -9999 -9999 -9999 -9999 -9999 -9999 -9999 -9999 -9999 -9999 -9999 -9999 -9999 -9999 -9999 -9999 -9999 -9999 -9999 -9999 -9999 -9999 -9999 -9999 -9999 -9999 -9999 -9999 -9999 -9999 -9999 -9999 -9999 -9999 -9999 -9999 -9999 -9999 -9999 -9999 -9999 -9999 -9999 -9999 -9999 -9999 -9999 -9999 -9999 -9999 -9999 -9999 -9999 -9999 -9999 -9999 -9999 -9999 -9999 -9999 -9999 -9999 -9999 -9999 -9999 -9999 -9999 -9999 -9999 -9999 -9999 -9999 -9999 -9999 -9999 -9999 -9999 -9999 -9999 -9999 -9999 -9999 -9999 -9999 -9999 -9999 -9999 -9999 -9999 -9999 -9999 -9999 -9999 -9999 -9999 -9999 -9999 -9999 -9999 -9999 -9999 -9999 -9999 -9999 -9999 -9999 -9999 -9999 -9999 -9999 -9999 -9999 -9999 -9999 -9999 -9999 -9999 -9999 -9999 -9999 -9999 -9999 -9999 -9999 -9999 -9999 -9999 -9999 -9999 -9999 -9999 -9999 -9999 -9999 -9999 -9999 -9999 -9999 -9999 -9999 -9999 -9999 -9999 -9999 -9999 -9999 -9999 -9999 -9999 -9999 -9999 -9999 -9999 -9999 -9999 -9999 -9999 -9999 -9999 -9999 -9999 -9999 -9999 -9999 -9999 -9999 -9999 -9999 -9999 -9999 -9999 -9999 -9999 -9999 -9999 -9999 -9999 -9999 -9999 -9999 -9999 -9999 -9999 -9999 -9999 -9999 -9999 -9999 -9999 -9999 -9999 -9999 -9999 -9999 -9999 -9999 -9999 -9999 -9999 -9999 -9999 -9999 -9999 0 6.01374570446735 8.91632373113855 8.91632373113855 8.91632373113855 8.91632373113855 6.5028901734104 8.08080808080808 -9999 -9999 -9999 -9999 -9999 -9999 -9999 -9999 7.40740740740741 15.5844155844156 15.5844155844156 15.5844155844156 15.5844155844156 14.4628099173554 14.4628099173554 14.4628099173554 14.4628099173554 14.4628099173554 14.2857142857143 14.2857142857143 25.703794369645 25.703794369645 17.2413793103448 26.3736263736264 26.3736263736264 26.3736263736264 13.6554621848739 13.6554621848739 13.6554621848739 25.703794369645 -9999 -9999 -9999 -9999 -9999 -9999 -9999 -9999 -9999 -9999 -9999 -9999 -9999 -9999 -9999 -9999 -9999 -9999 -9999 -9999 -9999 -9999 -9999 -9999 -9999 -9999 -9999 -9999 9.29614873837981 12.1268656716418 9.29614873837981 9.29614873837981 8.10014727540501 8.26446280991736 8.26446280991736 8.79765395894428 38.7537993920973 38.7537993920973 38.7537993920973 -9999 -9999 -9999 -9999 -9999 -9999 17.7993527508091 -9999 8.35654596100279 8.35654596100279 8.35654596100279 8.35654596100279 11.9318181818182 11.9318181818182 11.9318181818182 11.9318181818182 12.7450980392157 12.7450980392157 12.7450980392157 5.44135429262394 5.44135429262394 5.44135429262394 10.958904109589 13.4069400630915 13.4069400630915 13.4069400630915 8.38926174496644 5.73770491803279 5.73770491803279 10.6035889070147 10.6035889070147 10.9677419354839 10.9677419354839 10.9677419354839 6.99300699300699 6.99300699300699 6.99300699300699 6.99300699300699 6.99300699300699 19.3156732891832 19.3156732891832 13.136288998358 13.136288998358 8.67678958785249 8.67678958785249 6.65188470066519 12.2126436781609 12.2126436781609 12.3152709359606 0 0 7.75862068965517 5.19930675909879 5.19930675909879 5.19930675909879 17.5257731958763 12.2549019607843 12.2549019607843 12.2494432071269 12.2494432071269 6.39204545454545 8.01832760595647 8.01832760595647 8.01832760595647 0 0 0 -9999 -9999 -9999 4.88145048814505 4.88145048814505 -9999 -9999 -9999 -9999 8.89679715302491 8.89679715302491 -9999 -9999 -9999 -9999 -9999 -9999 -9999 -9999 -9999 -9999 -9999 -9999 -9999 -9999 -9999 -9999 -9999 -9999 -9999 -9999 -9999 -9999 -9999 -9999 -9999 -9999 -9999 -9999 -9999 -9999 -9999 -9999 -9999 -9999 -9999 -9999 -9999 -9999 -9999 -9999 -9999 -9999 -9999 -9999 -9999 -9999 -9999 -9999 -9999 -9999 -9999 -9999 -9999 -9999
-9999 -9999 -9999 -9999 -9999 -9999 -9999 -9999 -9999 -9999 -9999 -9999 -9999 -9999 -9999 -9999 -9999 -9999 -9999 -9999 -9999 -9999 -9999 -9999 -9999 -9999 -9999 -9999 -9999 -9999 -9999 -9999 -9999 -9999 -9999 -9999 -9999 -9999 -9999 -9999 -9999 -9999 -9999 -9999 -9999 -9999 -9999 -9999 -9999 -9999 -9999 -9999 -9999 -9999 -9999 -9999 -9999 -9999 -9999 -9999 -9999 -9999 -9999 -9999 -9999 -9999 -9999 -9999 -9999 -9999 -9999 -9999 -9999 -9999 -9999 -9999 -9999 -9999 -9999 -9999 -9999 -9999 -9999 -9999 -9999 -9999 -9999 -9999 -9999 -9999 -9999 -9999 -9999 -9999 -9999 -9999 -9999 -9999 -9999 -9999 -9999 -9999 -9999 -9999 -9999 -9999 -9999 -9999 -9999 -9999 -9999 -9999 -9999 -9999 -9999 -9999 -9999 -9999 -9999 -9999 -9999 -9999 -9999 -9999 -9999 -9999 -9999 -9999 -9999 -9999 -9999 -9999 -9999 -9999 -9999 -9999 -9999 -9999 -9999 -9999 -9999 -9999 -9999 -9999 -9999 -9999 -9999 -9999 -9999 -9999 -9999 -9999 -9999 -9999 -9999 -9999 -9999 -9999 -9999 -9999 -9999 -9999 -9999 -9999 -9999 -9999 -9999 -9999 -9999 -9999 -9999 -9999 -9999 -9999 -9999 -9999 -9999 -9999 -9999 -9999 -9999 -9999 -9999 -9999 -9999 -9999 -9999 -9999 -9999 -9999 -9999 -9999 -9999 -9999 -9999 -9999 -9999 -9999 -9999 -9999 -9999 -9999 -9999 -9999 -9999 0 0 0 0 8.91632373113855 8.91632373113855 2.06043956043956 6.5028901734104 6.5028901734104 2.06043956043956 -9999 -9999 -9999 -9999 -9999 -9999 17.1385991058122 12.1951219512195 12.1951219512195 12.1951219512195 15.5844155844156 5.58035714285714 5.58035714285714 14.4628099173554 14.4628099173554 14.4628099173554 14.2857142857143 14.2857142857143 14.2857142857143 14.2857142857143 14.2857142857143 25.703794369645 25.703794369645 25.703794369645 26.3736263736264 25.703794369645 25.703794369645 25.703794369645 -9999 -9999 -9999 -9999 -9999 14.9253731343284 14.9253731343284 14.9253731343284 11.7056856187291 11.7056856187291 11.7056856187291 -9999 -9999 -9999 -9999 10.3211009174312 -9999 -9999 -9999 -9999 -9999 -9999 -9999 -9999 -9999 -9999 -9999 -9999 -9999 9.29614873837981 7.12589073634204 9.20245398773006 9.20245398773006 21.5889464594128 8.26446280991736 8.26446280991736 8.26446280991736 8.26446280991736 8.26446280991736 21.9178082191781 25.9615384615385 25.9615384615385 16.2094763092269 16.2094763092269 5.31914893617021 5.15463917525773 17.7993527508091 17.7993527508091 17.7993527508091 17.7993527508091 17.7993527508091 10.5769230769231 10.5769230769231 7.29166666666667 11.9318181818182 11.9318181818182 11.9318181818182 5.79470198675497 5.79470198675497 5.79470198675497 5.79470198675497 5.44135429262394 5.73770491803279 5.73770491803279 4.20168067226891 4.20168067226891 5.73770491803279 5.73770491803279 5.73770491803279 5.73770491803279 5.73770491803279 10.9677419354839 10.9677419354839 4.80192076830732 4.80192076830732 4.80192076830732 6.99300699300699 6.99300699300699 11.3636363636364 6.99300699300699 6.99300699300699 13.136288998358 8.67678958785249 8.67678958785249 16.629711751663 7.47384155455904 7.47384155455904 12.2126436781609 0 0 0 7.75862068965517 7.75862068965517 7.75862068965517 0 0 17.5257731958763 10.8359133126935 12.2549019607843 12.2549019607843 6.39204545454545 6.39204545454545 8.01832760595647 8.01832760595647 8.01832760595647 8.01832760595647 -9999 -9999 -9999 4.88145048814505 4.88145048814505 4.88145048814505 4.88145048814505 8.89679715302491 8.89679715302491 -9999 8.89679715302491 -9999 -9999 -9999 -9999 -9999 -9999 -9999 -9999 -9999 -9999 -9999 -9999 -9999 -9999 -9999 -9999 -9999 -9999 -9999 -9999 -9999 -9999 -9999 -9999 -9999 -9999 -9999 -9999 -9999 -9999 -9999 -9999 -9999 -9999 -9999 -9999 -9999 -9999 -9999 -9999 -9999 -9999 -9999 -9999 -9999 -9999 -9999 -9999 -9999 -9999 -9999 -9999 -9999 -9999 -9999
-9999 -9999 -9999 -9999 -9999 -9999 -9999 -9999 -9999 -9999 -9999 -9999 -9999 -9999 -9999 -9999 -9999 -9999 -9999 -9999 -9999 -9999 -9999 -9999 -9999 -9999 -9999 -9999 -9999 -9999 -9999 -9999 -9999 -9999 -9999 -9999 -9999 -9999 -9999 -9999 -9999 -9999 -9999 -9999 -9999 -9999 -9999 -9999 -9999 -9999 -9999 -9999 -9999 -9999 -9999 -9999 -9999 -9999 -9999 -9999 -9999 -9999 -9999 -9999 -9999 -9999 -9999 -9999 -9999 -9999 -9999 -9999 -9999 -9999 -9999 -9999 -9999 -9999 -9999 -9999 -9999 -9999 -9999 -9999 -9999 -9999 -9999 -9999 -9999 -9999 -9999 -9999 -9999 -9999 -9999 -9999 -9999 -9999 -9999 -9999 -9999 -9999 -9999 -9999 -9999 -9999 -9999 -9999 -9999 -9999 -9999 -9999 -9999 -9999 -9999 -9999 -9999 -9999 -9999 -9999 -9999 -9999 -9999 -9999 -9999 -9999 -9999 -9999 -9999 -9999 -9999 -9999 -9999 -9999 -9999 -9999 -9999 -9999 -9999 -9999 -9999 -9999 -9999 -9999 -9999 -9999 -9999 -9999 -9999 -9999 -9999 -9999 -9999 -9999 -9999 -9999 -9999 -9999 -9999 -9999 -9999 -9999 -9999 -9999 -9999 -9999 -9999 -9999 -9999 -9999 -9999 -9999 -9999 -9999 -9999 -9999 -9999 -9999 -9999 -9999 -9999 -9999 -9999 -9999 -9999 -9999 -9999 -9999 -9999 -9999 -9999 -9999 -9999 -9999 -9999 -9999 -9999 -9999 -9999 -9999 -9999 -9999 0 0 0 0 0 0 0 2.30414746543779 2.06043956043956 0 2.06043956043956 2.06043956043956 2.06043956043956 2.06043956043956 -9999 -9999 -9999 -9999 17.1385991058122 17.1385991058122 8.1573896353167 8.1573896353167 12.1951219512195 8.45864661654135 5.58035714285714 5.58035714285714 5.58035714285714 14.2857142857143 14.2857142857143 14.2857142857143 14.2857142857143 14.2857142857143 14.2857142857143 14.2857142857143 14.2857142857143 14.2857142857143 14.2857142857143 14.2857142857143 14.2857142857143 -9999 -9999 -9999 -9999 -9999 14.9253731343284 14.9253731343284 6.83760683760684 6.83760683760684 13.911620294599 13.911620294599 11.7056856187291 11.7056856187291 0 -9999 -9999 10.3211009174312 10.3211009174312 10.3211009174312 10.3211009174312 10.3211009174312 -9999 -9999 -9999 -9999 -9999 -9999 -9999 -9999 -9999 21.6346153846154 21.6346153846154 21.6346153846154 21.6346153846154 21.6346153846154 4.84848484848485 4.84848484848485 26.3888888888889 11.5303983228512 11.5303983228512 12.326656394453 12.326656394453 12.326656394453 12.326656394453 13.6476426799007 13.6476426799007 13.6476426799007 9.86842105263158 9.86842105263158 5.15463917525773 6.89655172413793 6.89655172413793 10.5769230769231 10.5769230769231 10.5769230769231 10.5769230769231 10.5769230769231 7.29166666666667 7.29166666666667 7.29166666666667 7.29166666666667 7.29166666666667 5.79470198675497 5.79470198675497 5.79470198675497 5.79470198675497 5.73770491803279 5.73770491803279 5.73770491803279 5.73770491803279 5.73770491803279 5.73770491803279 5.73770491803279 10.8548168249661 10.8548168249661 4.80192076830732 4.80192076830732 4.80192076830732 4.80192076830732 6.94444444444444 11.3636363636364 9.0702947845805 9.0702947845805 10.4166666666667 10.4166666666667 16.629711751663 12.9589632829374 12.9589632829374 16.629711751663 6.79347826086956 6.79347826086956 6.79347826086956 10.0463678516229 10.0463678516229 10.0463678516229 -9999 -9999 -9999 9.53137410643368 9.53137410643368 8.21917808219178 7.26978998384491 7.26978998384491 7.26978998384491 8.01832760595647 8.01832760595647 8.01832760595647 -9999 -9999 -9999 8.57632933104631 8.57632933104631 0 0 4.04312668463612 8.89679715302491 8.89679715302491 8.89679715302491 8.89679715302491 -9999 -9999 -9999 -9999 -9999 -9999 -9999 -9999 -9999 -9999 -9999 -9999 -9999 -9999 -9999 -9999 -9999 -9999 -9999 -9999 -9999 -9999 -9999 -9999 -9999 -9999 -9999 -9999 -9999 -9999 -9999 -9999 -9999 -9999 -9999 -9999 -9999 -9999 -9999 -9999 -9999 -9999 -9999 -9999 -9999 -9999 -9999 -9999 -9999 -9999 -9999 -9999 -9999 -9999 -9999
-9999 -9999 -9999 -9999 -9999 -9999 -9999 -9999 -9999 -9999 -9999 -9999 -9999 -9999 -9999 -9999 -9999 -9999 -9999 -9999 -9999 -9999 -9999 -9999 -9999 -9999 -9999 -9999 -9999 -9999 -9999 -9999 -9999 -9999 -9999 -9999 -9999 -9999 -9999 -9999 -9999 -9999 -9999 -9999 -9999 -9999 -9999 -9999 -9999 -9999 -9999 -9999 -9999 -9999 -9999 -9999 -9999 -9999 -9999 -9999 -9999 -9999 -9999 -9999 -9999 -9999 -9999 -9999 -9999 -9999 -9999 -9999 -9999 -9999 -9999 -9999 -9999 -9999 -9999 -9999 -9999 -9999 -9999 -9999 -9999 -9999 -9999 -9999 -9999 -9999 -9999 -9999 -9999 -9999 -9999 -9999 -9999 -9999 -9999 -9999 -9999 -9999 -9999 -9999 -9999 -9999 -9999 -9999 -9999 -9999 -9999 -9999 -9999 -9999 -9999 -9999 -9999 -9999 -9999 -9999 -9999 -9999 -9999 -9999 -9999 -9999 -9999 -9999 -9999 -9999 -9999 -9999 -9999 -9999 -9999 -9999 -9999 -9999 -9999 -9999 -9999 -9999 -9999 -9999 -9999 -9999 -9999 -9999 -9999 -9999 -9999 -9999 -9999 -9999 -9999 -9999 -9999 -9999 -9999 -9999 -9999 -9999 -9999 -9999 -9999 -9999 -9999 -9999 -9999 -9999 -9999 -9999 -9999 -9999 -9999 -9999 -9999 -9999 -9999 -9999 -9999 -9999 -9999 -9999 -9999 -9999 -9999 -9999 -9999 -9999 -9999 -9999 -9999 -9999 -9999 -9999 -9999 -9999 -9999 -9999 -9999 0 0 0 0 0 0 11.5163147792706 11.5163147792706 11.5163147792706 2.30414746543779 2.30414746543779 0 0 0 -9999 -9999 -9999 -9999 8.1573896353167 8.1573896353167 8.1573896353167 8.1573896353167 8.1573896353167 14.6276595744681 8.45864661654135 8.45864661654135 8.45864661654135 0 14.2857142857143 14.2857142857143 14.2857142857143 14.2857142857143 14.6048109965636 14.6048109965636 8.47457627118644 8.47457627118644 8.47457627118644 8.47457627118644 8.47457627118644 8.47457627118644 8.47457627118644 -9999 -9999 -9999 -9999 6.83760683760684 6.83760683760684 6.83760683760684 13.911620294599 13.911620294599 13.911620294599 13.911620294599 0 0 6.4327485380117 6.4327485380117 10.3211009174312 10.3211009174312 10.3211009174312 10.3211009174312 10.3211009174312 10.3211009174312 10.3211009174312 10.3211009174312 -9999 -9999 -9999 -9999 -9999 21.6346153846154 21.6346153846154 21.6346153846154 21.6346153846154 21.6346153846154 21.6346153846154 21.6346153846154 13.7614678899083 13.7614678899083 11.6279069767442 11.6279069767442 15.224358974359 15.224358974359 12.326656394453 20.2205882352941 20.2205882352941 20.2205882352941 22.7703984819734 21.1132437619962 21.1132437619962 19.7802197802198 12.6984126984127 10.8695652173913 10.8695652173913 16.0183066361556 10.5769230769231 10.5769230769231 10.5769230769231 7.29166666666667 7.29166666666667 7.29166666666667 7.29166666666667 7.29166666666667 7.29166666666667 7.29166666666667 7.29166666666667 17.2101449275362 17.2101449275362 17.2101449275362 10.8548168249661 10.8548168249661 10.8548168249661 10.8548168249661 10.8548168249661 10.8548168249661 10.8548168249661 12.4555160142349 12.4555160142349 4.80192076830732 6.94444444444444 6.94444444444444 6.94444444444444 5.21739130434783 5.21739130434783 11.7647058823529 10.4166666666667 11.1358574610245 16.629711751663 16.629711751663 13.5396518375242 13.5396518375242 13.5396518375242 20.9580838323353 20.9580838323353 20.9580838323353 -9999 -9999 -9999 -9999 -9999 -9999 9.53137410643368 9.20598388952819 9.20598388952819 10.7843137254902 10.7843137254902 10.7843137254902 -9999 -9999 -9999 8.57632933104631 8.57632933104631 8.57632933104631 0 4.04312668463612 4.04312668463612 0 0 8.89679715302491 8.89679715302491 -9999 -9999 -9999 -9999 -9999 -9999 -9999 -9999 -9999 -9999 -9999 -9999 -9999 -9999 -9999 -9999 -9999 -9999 -9999 -9999 -9999 -9999 -9999 -9999 -9999 -9999 -9999 -9999 -9999 -9999 -9999 -9999 -9999 -9999 -9999 -9999 -9999 -9999 -9999 -9999 -9999 -9999 -9999 -9999 -9999 -9999 -9999 -9999 -9999 -9999 -9999 -9999 -9999 -9999 -9999
-9999 -9999 -9999 -9999 -9999 -9999 -9999 -9999 -9999 -9999 -9999 -9999 -9999 -9999 -9999 -9999 -9999 -9999 -9999 -9999 -9999 -9999 -9999 -9999 -9999 -9999 -9999 -9999 -9999 -9999 -9999 -9999 -9999 -9999 -9999 -9999 -9999 -9999 -9999 -9999 -9999 -9999 -9999 -9999 -9999 -9999 -9999 -9999 -9999 -9999 -9999 -9999 -9999 -9999 -9999 -9999 -9999 -9999 -9999 -9999 -9999 -9999 -9999 -9999 -9999 -9999 -9999 -9999 -9999 -9999 -9999 -9999 -9999 -9999 -9999 -9999 -9999 -9999 -9999 -9999 -9999 -9999 -9999 -9999 -9999 -9999 -9999 -9999 -9999 -9999 -9999 -9999 -9999 -9999 -9999 -9999 -9999 -9999 -9999 -9999 -9999 -9999 -9999 -9999 -9999 -9999 -9999 -9999 -9999 -9999 -9999 -9999 -9999 -9999 -9999 -9999 -9999 -9999 -9999 -9999 -9999 -9999 -9999 -9999 -9999 -9999 -9999 -9999 -9999 -9999 -9999 -9999 -9999 -9999 -9999 -9999 -9999 -9999 -9999 -9999 -9999 -9999 -9999 -9999 -9999 -9999 -9999 -9999 -9999 -9999 -9999 -9999 -9999 -9999 -9999 -9999 -9999 -9999 -9999 -9999 -9999 -9999 -9999 -9999 -9999 -9999 -9999 -9999 -9999 -9999 -9999 -9999 -9999 -9999 -9999 -9999 -9999 -9999 -9999 -9999 -9999 -9999 -9999 -9999 -9999 -9999 -9999 -9999 -9999 -9999 -9999 -9999 -9999 -9999 -9999 -9999 -9999 -9999 -9999 -9999 0 0 0 0 11.5163147792706 11.5163147792706 11.5163147792706 11.5163147792706 11.5163147792706 11.5163147792706 11.5163147792706 2.30414746543779 2.30414746543779 2.30414746543779 0 0 0 -9999 -9999 0 0 8.1573896353167 14.6276595744681 14.6276595744681 14.6276595744681 14.6276595744681 8.45864661654135 5.03778337531486 5.03778337531486 0 14.6048109965636 14.6048109965636 14.6048109965636 9.59692898272553 9.59692898272553 9.59692898272553 13.2275132275132 8.47457627118644 8.47457627118644 8.47457627118644 8.47457627118644 12.1753246753247 16.0142348754448 12.1753246753247 8.47457627118644 10.6589147286822 8.6442220200182 8.6442220200182 8.6442220200182 8.6442220200182 0 0 9.28792569659443 9.28792569659443 6.4327485380117 6.4327485380117 10.3211009174312 10.3211009174312 10.3211009174312 10.3211009174312 10.3211009174312 10.3211009174312 10.3211009174312 10.3211009174312 10.3211009174312 10.3211009174312 10.3211009174312 8.36120401337793 8.36120401337793 8.36120401337793 21.6346153846154 21.6346153846154 21.6346153846154 21.6346153846154 21.6346153846154 21.6346153846154 21.6346153846154 13.7614678899083 13.7614678899083 13.7614678899083 5.65610859728507 5.65610859728507 21.6346153846154 17.5840978593272 40.5405405405405 40.5405405405405 10.3926096997691 10.3926096997691 5.6390977443609 5.6390977443609 9.9601593625498 9.9601593625498 28.6885245901639 18.3823529411765 18.3823529411765 10.5769230769231 10.5769230769231 7.94701986754967 7.94701986754967 7.29166666666667 7.29166666666667 7.29166666666667 7.29166666666667 7.29166666666667 17.2101449275362 15.8597662771285 17.2101449275362 17.2101449275362 17.2101449275362 17.2101449275362 25.7731958762887 10.8548168249661 10.8548168249661 10.8548168249661 10.8548168249661 10.8548168249661 10.8548168249661 15.9340659340659 8.26446280991736 8.26446280991736 8.26446280991736 5.21739130434783 5.21739130434783 7.5885328836425 14.4927536231884 14.4927536231884 11.7647058823529 11.1358574610245 9.35374149659864 9.35374149659864 9.35374149659864 12.1278941565601 12.1278941565601 12.1278941565601 -9999 -9999 -9999 -9999 -9999 -9999 -9999 -9999 8.99550224887556 8.99550224887556 9.20598388952819 9.20598388952819 7.67085076708508 7.67085076708508 7.67085076708508 8.57632933104631 8.57632933104631 8.57632933104631 8.57632933104631 0 0 0 0 0 8.89679715302491 -9999 -9999 -9999 -9999 -9999 -9999 -9999 -9999 -9999 -9999 -9999 -9999 -9999 -9999 -9999 -9999 -9999 -9999 -9999 -9999 -9999 -9999 -9999 -9999 -9999 -9999 -9999 -9999 -9999 -9999 -9999 -9999 -9999 -9999 -9999 -9999 -9999 -9999 -9999 -9999 -9999 -9999 -9999 -9999 -9999 -9999 -9999 -9999 -9999 -9999 -9999 -9999 -9999 -9999 -9999 -9999
-9999 -9999 -9999 -9999 -9999 -9999 -9999 -9999 -9999 -9999 -9999 -9999 -9999 -9999 -9999 -9999 -9999 -9999 -9999 -9999 -9999 -9999 -9999 -9999 -9999 -9999 -9999 -9999 -9999 -9999 -9999 -9999 -9999 -9999 -9999 -9999 -9999 -9999 -9999 -9999 -9999 -9999 -9999 -9999 -9999 -9999 -9999 -9999 -9999 -9999 -9999 -9999 -9999 -9999 -9999 -9999 -9999 -9999 -9999 -9999 -9999 -9999 -9999 -9999 -9999 -9999 -9999 -9999 -9999 -9999 -9999 -9999 -9999 -9999 -9999 -9999 -9999 -9999 -9999 -9999 -9999 -9999 -9999 -9999 -9999 -9999 -9999 -9999 -9999 -9999 -9999 -9999 -9999 -9999 -9999 -9999 -9999 -9999 -9999 -9999 -9999 -9999 -9999 -9999 -9999 -9999 -9999 -9999 -9999 -9999 -9999 -9999 -9999 -9999 -9999 -9999 -9999 -9999 -9999 -9999 -9999 -9999 -9999 -9999 -9999 -9999 -9999 -9999 -9999 -9999 -9999 -9999 -9999 -9999 -9999 -9999 -9999 -9999 -9999 -9999 -9999 -9999 -9999 -9999 -9999 -9999 -9999 -9999 -9999 -9999 -9999 -9999 -9999 -9999 -9999 -9999 -9999 -9999 -9999 -9999 -9999 -9999 -9999 -9999 -9999 -9999 -9999 -9999 -9999 -9999 -9999 -9999 -9999 -9999 -9999 -9999 -9999 -9999 -9999 -9999 -9999 -9999 -9999 -9999 -9999 -9999 -9999 -9999 -9999 -9999 -9999 -9999 -9999 -9999 -9999 -9999 -9999 0 0 2.58620689655172 0 0 0 2.58620689655172 2.58620689655172 6.34517766497462 6.34517766497462 6.34517766497462 29.8850574712644 11.5163147792706 15.1515151515152 15.1515151515152 15.1515151515152 2.30414746543779 2.30414746543779 2.30414746543779 2.30414746543779 -9999 -9999 -9999 -9999 6.25978090766823 6.25978090766823 14.6276595744681 14.6276595744681 14.6276595744681 0 -9999 -9999 -9999 -9999 0 0 14.6048109965636 14.6048109965636 13.2275132275132 13.2275132275132 13.2275132275132 8.47457627118644 8.47457627118644 12.1753246753247 12.1753246753247 16.0142348754448 16.0142348754448 16.0142348754448 16.0142348754448 16.629711751663 16.629711751663 10.6589147286822 8.6442220200182 8.6442220200182 8.6442220200182 8.6442220200182 6.4327485380117 6.4327485380117 6.4327485380117 10.3211009174312 10.3211009174312 10.3211009174312 10.3211009174312 10.3211009174312 10.3211009174312 10.3211009174312 10.3211009174312 10.3211009174312 10.3211009174312 10.3211009174312 10.3211009174312 8.36120401337793 -9999 11.9305856832972 11.9305856832972 11.9305856832972 11.9305856832972 21.6346153846154 21.6346153846154 13.7614678899083 13.7614678899083 13.7614678899083 5.65610859728507 5.65610859728507 5.65610859728507 8.06451612903226 8.06451612903226 13.8339920948617 13.8339920948617 23.5745614035088 23.5745614035088 23.5745614035088 12.1951219512195 12.1951219512195 6.35593220338983 6.35593220338983 11.340206185567 11.340206185567 22.8070175438596 11.0192837465565 7.94701986754967 7.94701986754967 7.94701986754967 7.94701986754967 7.94701986754967 12.273212379936 16.5706051873199 16.5706051873199 13.0718954248366 13.0718954248366 15.8597662771285 17.2101449275362 6.68449197860963 24.1935483870968 24.1935483870968 25.7731958762887 14.0597539543058 14.0597539543058 14.0597539543058 10.8548168249661 10.8548168249661 15.9340659340659 15.9340659340659 15.3609831029186 15.3609831029186 7.92079207920792 7.5885328836425 7.5885328836425 12.4555160142349 12.4555160142349 12.4555160142349 15.9235668789809 9.35374149659864 8.09352517985612 18.7667560321716 18.7667560321716 -9999 -9999 -9999 -9999 -9999 -9999 -9999 -9999 8.99550224887556 8.99550224887556 8.99550224887556 8.99550224887556 8.99550224887556 7.67085076708508 7.67085076708508 7.67085076708508 7.67085076708508 7.67085076708508 8.57632933104631 0 0 0 0 0 8.89679715302491 8.89679715302491 -9999 -9999 -9999 -9999 -9999 -9999 -9999 -9999 -9999 -9999 -9999 -9999 -9999 -9999 -9999 -9999 -9999 -9999 -9999 -9999 -9999 -9999 -9999 -9999 -9999 -9999 -9999 -9999 -9999 -9999 -9999 -9999 -9999 -9999 -9999 -9999 -9999 -9999 -9999 -9999 -9999 -9999 -9999 -9999 -9999 -9999 -9999 -9999 -9999 -9999 -9999 -9999 -9999 -9999 -9999 -9999
-9999 -9999 -9999 -9999 -9999 -9999 -9999 -9999 -9999 -9999 -9999 -9999 -9999 -9999 -9999 -9999 -9999 -9999 -9999 -9999 -9999 -9999 -9999 -9999 -9999 -9999 -9999 -9999 -9999 -9999 -9999 -9999 -9999 -9999 -9999 -9999 -9999 -9999 -9999 -9999 -9999 -9999 -9999 -9999 -9999 -9999 -9999 -9999 -9999 -9999 -9999 -9999 -9999 -9999 -9999 -9999 -9999 -9999 -9999 -9999 -9999 -9999 -9999 -9999 -9999 -9999 -9999 -9999 -9999 -9999 -9999 -9999 -9999 -9999 -9999 -9999 -9999 -9999 -9999 -9999 -9999 -9999 -9999 -9999 -9999 -9999 -9999 -9999 -9999 -9999 -9999 -9999 -9999 -9999 -9999 -9999 -9999 -9999 -9999 -9999 -9999 -9999 -9999 -9999 -9999 -9999 -9999 -9999 -9999 -9999 -9999 -9999 -9999 -9999 -9999 -9999 -9999 -9999 -9999 -9999 -9999 -9999 -9999 -9999 -9999 -9999 -9999 -9999 -9999 -9999 -9999 -9999 -9999 -9999 -9999 -9999 -9999 -9999 -9999 -9999 -9999 -9999 -9999 -9999 -9999 -9999 -9999 -9999 -9999 -9999 -9999 -9999 -9999 -9999 -9999 -9999 -9999 -9999 -9999 -9999 -9999 -9999 -9999 -9999 -9999 -9999 -9999 -9999 -9999 -9999 -9999 -9999 -9999 -9999 -9999 -9999 -9999 -9999 -9999 -9999 -9999 -9999 -9999 -9999 -9999 -9999 -9999 -9999 -9999 -9999 -9999 -9999 -9999 -9999 -9999 -9999 9.00900900900901 9.00900900900901 2.58620689655172 2.58620689655172 2.58620689655172 2.58620689655172 2.58620689655172 2.58620689655172 2.58620689655172 6.34517766497462 6.34517766497462 29.8850574712644 29.8850574712644 10.250569476082 10.250569476082 10.250569476082 15.1515151515152 15.1515151515152 11.3895216400911 11.3895216400911 2.30414746543779 2.30414746543779 11.3895216400911 8.80281690140845 0 0 0 0 0 -9999 -9999 -9999 -9999 -9999 -9999 -9999 -9999 0 13.2275132275132 13.2275132275132 13.2275132275132 13.2275132275132 7.64818355640535 7.64818355640535 12.1753246753247 12.1753246753247 16.0142348754448 16.0142348754448 16.0142348754448 6.78294573643411 6.78294573643411 16.629711751663 16.629711751663 16.629711751663 16.629711751663 10.6589147286822 8.6442220200182 6.4327485380117 6.4327485380117 10.3211009174312 10.3211009174312 10.3211009174312 10.3211009174312 10.3211009174312 10.3211009174312 10.3211009174312 10.3211009174312 10.3211009174312 10.3211009174312 10.3211009174312 10.3211009174312 10.3211009174312 8.36120401337793 -9999 11.9305856832972 11.9305856832972 11.9305856832972 11.9305856832972 11.9305856832972 13.7614678899083 13.7614678899083 13.7614678899083 5.65610859728507 5.65610859728507 5.65610859728507 8.06451612903226 8.06451612903226 8.06451612903226 8.06451612903226 13.8339920948617 13.8339920948617 13.8339920948617 10.5519480519481 10.5519480519481 12.1951219512195 22.8070175438596 22.8070175438596 36.4963503649635 22.8070175438596 22.8070175438596 11.0192837465565 11.0192837465565 11.0192837465565 7.94701986754967 7.94701986754967 7.94701986754967 7.94701986754967 9.52380952380952 12.273212379936 12.273212379936 16.5706051873199 16.5706051873199 9.18367346938776 14.7727272727273 14.7727272727273 6.68449197860963 29.2598967297762 29.2598967297762 21.2765957446809 6.93069306930693 6.93069306930693 15.9340659340659 15.9340659340659 15.3609831029186 15.3609831029186 11.3871635610766 7.92079207920792 16.4576802507837 16.4576802507837 12.4555160142349 12.4555160142349 4.67289719626168 15.9235668789809 8.09352517985612 8.09352517985612 8.09352517985612 4.63678516228748 12.6760563380282 12.6760563380282 -9999 -9999 -9999 -9999 -9999 -9999 9.96932515337423 9.96932515337423 8.99550224887556 8.99550224887556 13.0597014925373 13.0597014925373 13.0597014925373 7.67085076708508 7.67085076708508 3.24675324675325 3.24675324675325 3.24675324675325 5.61009817671809 0 0 0 8.89679715302491 8.89679715302491 -9999 -9999 -9999 -9999 -9999 -9999 -9999 -9999 -9999 -9999 -9999 -9999 -9999 -9999 -9999 -9999 -9999 -9999 -9999 -9999 -9999 -9999 -9999 -9999 -9999 -9999 -9999 -9999 -9999 -9999 -9999 -9999 -9999 -9999 -9999 -9999 -9999 -9999 -9999 -9999 -9999 -9999 -9999 -9999 -9999 -9999 -9999 -9999 -9999 -9999 -9999 -9999 -9999 -9999 -9999 -9999
-9999 -9999 -9999 -9999 -9999 -9999 -9999 -9999 -9999 -9999 -9999 -9999 -9999 -9999 -9999 -9999 -9999 -9999 -9999 -9999 -9999 -9999 -9999 -9999 -9999 -9999 -9999 -9999 -9999 -9999 -9999 -9999 -9999 -9999 -9999 -9999 -9999 -9999 -9999 -9999 -9999 -9999 -9999 -9999 -9999 -9999 -9999 -9999 -9999 -9999 -9999 -9999 -9999 -9999 -9999 -9999 -9999 -9999 -9999 -9999 -9999 -9999 -9999 -9999 -9999 -9999 -9999 -9999 -9999 -9999 -9999 -9999 -9999 -9999 -9999 -9999 -9999 -9999 -9999 -9999 -9999 -9999 -9999 -9999 -9999 -9999 -9999 -9999 -9999 -9999 -9999 -9999 -9999 -9999 -9999 -9999 -9999 -9999 -9999 -9999 -9999 -9999 -9999 -9999 -9999 -9999 -9999 -9999 -9999 -9999 -9999 -9999 -9999 -9999 -9999 -9999 -9999 -9999 -9999 -9999 -9999 -9999 -9999 -9999 -9999 -9999 -9999 -9999 -9999 -9999 -9999 -9999 -9999 -9999 -9999 -9999 -9999 -9999 -9999 -9999 -9999 -9999 -9999 -9999 -9999 -9999 -9999 -9999 -9999 -9999 -9999 -9999 -9999 -9999 -9999 -9999 -9999 -9999 -9999 -9999 -9999 -9999 -9999 -9999 -9999 -9999 -9999 -9999 -9999 -9999 -9999 -9999 -9999 -9999 -9999 -9999 -9999 -9999 -9999 -9999 -9999 -9999 -9999 -9999 -9999 -9999 -9999 -9999 -9999 -9999 -9999 -9999 -9999 -9999 -9999 0 0 9.00900900900901 9.00900900900901 9.00900900900901 2.58620689655172 2.58620689655172 15.4525386313466 34.5744680851064 2.58620689655172 34.5744680851064 34.5744680851064 34.5744680851064 11.8733509234828 10.250569476082 7.30688935281837 15.1515151515152 15.1515151515152 15.1515151515152 15.1515151515152 11.3895216400911 11.3895216400911 11.3895216400911 8.80281690140845 8.80281690140845 8.80281690140845 0 -9999 -9999 -9999 -9999 -9999 -9999 -9999 -9999 -9999 -9999 -9999 -9999 13.2275132275132 13.2275132275132 13.2275132275132 7.64818355640535 7.64818355640535 7.64818355640535 7.64818355640535 0 0 16.0142348754448 16.0142348754448 16.0142348754448 10.6382978723404 6.78294573643411 6.78294573643411 16.629711751663 16.629711751663 10.6589147286822 12.609649122807 -9999 -9999 10.3211009174312 10.3211009174312 10.3211009174312 10.3211009174312 10.3211009174312 10.3211009174312 10.3211009174312 10.3211009174312 10.3211009174312 10.3211009174312 10.3211009174312 10.3211009174312 10.3211009174312 -9999 11.9305856832972 11.9305856832972 11.8110236220472 11.8110236220472 11.8110236220472 11.8110236220472 13.7614678899083 13.7614678899083 13.7614678899083 5.65610859728507 5.65610859728507 5.65610859728507 8.06451612903226 8.06451612903226 8.06451612903226 8.06451612903226 8.06451612903226 13.8339920948617 10.5519480519481 10.5519480519481 10.5519480519481 10.5519480519481 10.5519480519481 10.5519480519481 10.5519480519481 10.5519480519481 19.3798449612403 19.3798449612403 11.0192837465565 11.0192837465565 11.0192837465565 11.0192837465565 7.94701986754967 7.94701986754967 9.70017636684303 9.52380952380952 0 12.273212379936 19.7889182058047 12.1951219512195 12.1951219512195 9.18367346938776 24.7058823529412 24.7058823529412 26.4765784114053 29.2598967297762 29.2598967297762 11.5740740740741 6.93069306930693 6.93069306930693 6.93069306930693 9.83606557377049 9.83606557377049 14.4508670520231 16.4576802507837 16.4576802507837 16.4576802507837 12.0593692022263 4.67289719626168 9.94318181818182 9.94318181818182 9.94318181818182 12.0068610634648 4.63678516228748 4.63678516228748 13.4680134680135 13.4680134680135 9.39457202505219 -9999 -9999 -9999 -9999 8.32072617246596 9.96932515337423 9.96932515337423 5.11945392491468 5.11945392491468 5.11945392491468 10.8695652173913 10.8695652173913 7.27650727650728 0 0 5.61009817671809 5.61009817671809 5.61009817671809 5.61009817671809 0 8.89679715302491 -9999 -9999 -9999 -9999 -9999 -9999 -9999 -9999 -9999 -9999 -9999 -9999 -9999 -9999 -9999 -9999 -9999 -9999 -9999 -9999 -9999 -9999 -9999 -9999 -9999 -9999 -9999 -9999 -9999 -9999 -9999 -9999 -9999 -9999 -9999 -9999 -9999 -9999 -9999 -9999 -9999 -9999 -9999 -9999 -9999 -9999 -9999 -9999 -9999 -9999 -9999 -9999 -9999 -9999 -9999 -9999 -9999
-9999 -9999 -9999 -9999 -9999 -9999 -9999 -9999 -9999 -9999 -9999 -9999 -9999 -9999 -9999 -9999 -9999 -9999 -9999 -9999 -9999 -9999 -9999 -9999 -9999 -9999 -9999 -9999 -9999 -9999 -9999 -9999 -9999 -9999 -9999 -9999 -9999 -9999 -9999 -9999 -9999 -9999 -9999 -9999 -9999 -9999 -9999 -9999 -9999 -9999 -9999 -9999 -9999 -9999 -9999 -9999 -9999 -9999 -9999 -9999 -9999 -9999 -9999 -9999 -9999 -9999 -9999 -9999 -9999 -9999 -9999 -9999 -9999 -9999 -9999 -9999 -9999 -9999 -9999 -9999 -9999 -9999 -9999 -9999 -9999 -9999 -9999 -9999 -9999 -9999 -9999 -9999 -9999 -9999 -9999 -9999 -9999 -9999 -9999 -9999 -9999 -9999 -9999 -9999 -9999 -9999 -9999 -9999 -9999 -9999 -9999 -9999 -9999 -9999 -9999 -9999 -9999 -9999 -9999 -9999 -9999 -9999 -9999 -9999 -9999 -9999 -9999 -9999 -9999 -9999 -9999 -9999 -9999 -9999 -9999 -9999 -9999 -9999 -9999 -9999 -9999 -9999 -9999 -9999 -9999 -9999 -9999 -9999 -9999 -9999 -9999 -9999 -9999 -9999 -9999 -9999 -9999 -9999 -9999 -9999 -9999 -9999 -9999 -9999 -9999 -9999 -9999 -9999 -9999 -9999 -9999 -9999 -9999 -9999 -9999 -9999 -9999 -9999 -9999 -9999 -9999 -9999 -9999 -9999 -9999 -9999 -9999 -9999 -9999 -9999 -9999 -9999 -9999 -9999 0 0 0 9.00900900900901 9.00900900900901 9.00900900900901 9.00900900900901 15.4525386313466 15.4525386313466 15.4525386313466 12.2199592668024 34.5744680851064 34.5744680851064 6.44122383252818 11.8733509234828 11.8733509234828 7.30688935281837 15.1515151515152 15.1515151515152 7.30688935281837 15.1515151515152 11.3895216400911 8.80281690140845 8.80281690140845 8.80281690140845 8.80281690140845 8.80281690140845 8.80281690140845 8.80281690140845 -9999 -9999 -9999 -9999 -9999 -9999 -9999 -9999 -9999 -9999 -9999 -9999 -9999 7.64818355640535 7.64818355640535 7.64818355640535 7.64818355640535 3.92464678178964 3.92464678178964 3.92464678178964 0 0 10.6382978723404 10.6382978723404 10.6382978723404 6.43500643500643 10.6589147286822 10.6589147286822 12.609649122807 12.609649122807 -9999 -9999 10.3211009174312 10.3211009174312 10.3211009174312 10.3211009174312 10.3211009174312 10.3211009174312 10.3211009174312 10.3211009174312 10.3211009174312 10.3211009174312 10.3211009174312 10.3211009174312 -9999 -9999 -9999 -9999 11.8110236220472 11.8110236220472 11.8110236220472 11.8110236220472 11.8110236220472 11.8110236220472 13.4706814580032 5.65610859728507 5.65610859728507 8.06451612903226 8.06451612903226 8.06451612903226 8.06451612903226 8.06451612903226 13.8339920948617 13.8339920948617 10.5519480519481 10.5519480519481 10.5519480519481 10.5519480519481 10.5519480519481 10.5519480519481 10.5519480519481 19.3798449612403 19.3798449612403 19.3798449612403 19.3798449612403 18.4426229508197 11.0192837465565 16.8634064080944 16.8634064080944 13.2850241545894 13.2850241545894 10.077519379845 10.077519379845 5.06072874493927 7.59219088937093 19.7889182058047 19.7889182058047 12.6903553299492 12.6903553299492 17.5438596491228 17.5438596491228 24.7058823529412 16 16 11.5740740740741 11.5740740740741 14.8305084745763 9.83606557377049 16.1538461538462 14.4508670520231 14.4508670520231 16.4576802507837 14.3638850889193 14.3638850889193 12.0593692022263 12.0593692022263 9.94318181818182 12.0068610634648 12.0068610634648 12.0068610634648 -9999 7.17213114754098 7.17213114754098 9.39457202505219 7.40740740740741 7.40740740740741 -9999 -9999 8.32072617246596 8.32072617246596 8.32072617246596 5.11945392491468 5.11945392491468 5.11945392491468 10.8695652173913 4.11184210526316 7.27650727650728 7.27650727650728 2.82485875706215 0 5.61009817671809 5.61009817671809 5.61009817671809 5.61009817671809 5.61009817671809 -9999 -9999 -9999 -9999 -9999 -9999 -9999 -9999 -9999 -9999 -9999 -9999 -9999 -9999 -9999 -9999 -9999 -9999 -9999 -9999 -9999 -9999 -9999 -9999 -9999 -9999 -9999 -9999 -9999 -9999 -9999 -9999 -9999 -9999 -9999 -9999 -9999 -9999 -9999 -9999 -9999 -9999 -9999 -9999 -9999 -9999 -9999 -9999 -9999 -9999 -9999 -9999 -9999 -9999 -9999 -9999 -9999
-9999 -9999 -9999 -9999 -9999 -9999 -9999 -9999 -9999 -9999 -9999 -9999 -9999 -9999 -9999 -9999 -9999 -9999 -9999 -9999 -9999 -9999 -9999 -9999 -9999 -9999 -9999 -9999 -9999 -9999 -9999 -9999 -9999 -9999 -9999 -9999 -9999 -9999 -9999 -9999 -9999 -9999 -9999 -9999 -9999 -9999 -9999 -9999 -9999 -9999 -9999 -9999 -9999 -9999 -9999 -9999 -9999 -9999 -9999 -9999 -9999 -9999 -9999 -9999 -9999 -9999 -9999 -9999 -9999 -9999 -9999 -9999 -9999 -9999 -9999 -9999 -9999 -9999 -9999 -9999 -9999 -9999 -9999 -9999 -9999 -9999 -9999 -9999 -9999 -9999 -9999 -9999 -9999 -9999 -9999 -9999 -9999 -9999 -9999 -9999 -9999 -9999 -9999 -9999 -9999 -9999 -9999 -9999 -9999 -9999 -9999 -9999 -9999 -9999 -9999 -9999 -9999 -9999 -9999 -9999 -9999 -9999 -9999 -9999 -9999 -9999 -9999 -9999 -9999 -9999 -9999 -9999 -9999 -9999 -9999 -9999 -9999 -9999 -9999 -9999 -9999 -9999 -9999 -9999 -9999 -9999 -9999 -9999 -9999 -9999 -9999 -9999 -9999 -9999 -9999 -9999 -9999 -9999 -9999 -9999 -9999 -9999 -9999 -9999 -9999 -9999 -9999 -9999 -9999 -9999 -9999 -9999 -9999 -9999 -9999 -9999 -9999 -9999 -9999 -9999 -9999 -9999 -9999 -9999 -9999 -9999 -9999 -9999 -9999 -9999 -9999 -9999 -9999 -9999 0 0 8.66666666666667 8.66666666666667 8.66666666666667 9.00900900900901 15.4525386313466 15.4525386313466 15.4525386313466 15.4525386313466 15.4525386313466 12.2199592668024 12.2199592668024 12.2199592668024 6.44122383252818 6.44122383252818 6.44122383252818 6.44122383252818 7.30688935281837 8.80281690140845 8.80281690140845 8.80281690140845 8.80281690140845 8.80281690140845 8.80281690140845 8.80281690140845 8.80281690140845 -9999 -9999 -9999 -9999 -9999 -9999 -9999 -9999 -9999 -9999 -9999 -9999 7.63016157989228 7.63016157989228 5.89970501474926 5.89970501474926 7.64818355640535 -9999 -9999 -9999 3.92464678178964 3.92464678178964 3.92464678178964 3.92464678178964 10.6382978723404 10.6382978723404 6.43500643500643 6.43500643500643 6.43500643500643 6.43500643500643 12.609649122807 12.609649122807 -9999 -9999 10.3211009174312 10.3211009174312 10.3211009174312 10.3211009174312 10.3211009174312 10.3211009174312 10.3211009174312 10.3211009174312 10.3211009174312 10.3211009174312 10.3211009174312 10.3211009174312 -9999 13.5135135135135 13.5135135135135 13.5135135135135 13.5135135135135 11.8110236220472 11.8110236220472 11.8110236220472 11.8110236220472 11.8110236220472 13.4706814580032 13.4706814580032 19.7080291970803 19.7080291970803 8.06451612903226 8.06451612903226 8.06451612903226 13.8339920948617 13.8339920948617 17.6470588235294 17.6470588235294 10.5519480519481 10.5519480519481 10.5519480519481 10.5519480519481 10.5519480519481 19.3798449612403 19.3798449612403 19.3798449612403 19.3798449612403 19.3798449612403 18.4426229508197 18.4426229508197 13.8067061143984 9.33609958506224 9.33609958506224 6.20567375886525 6.20567375886525 3.40909090909091 3.40909090909091 5.06072874493927 5.06072874493927 15.5325443786982 15.5325443786982 5.87084148727984 5.87084148727984 12.6903553299492 10.0334448160535 10.0334448160535 10.0334448160535 16 16.8224299065421 14.8305084745763 18.1660899653979 18.1660899653979 16.1538461538462 16.4576802507837 18.1058495821727 14.3638850889193 14.3638850889193 27.1493212669683 27.1493212669683 28.5947712418301 28.5947712418301 28.5947712418301 -9999 -9999 -9999 -9999 6.22775800711744 6.22775800711744 6.22775800711744 7.42942050520059 12.6050420168067 2.22222222222222 2.22222222222222 0 0 0 5.11945392491468 4.11184210526316 0 7.27650727650728 2.82485875706215 2.82485875706215 2.82485875706215 -9999 5.61009817671809 5.61009817671809 5.61009817671809 5.61009817671809 -9999 -9999 -9999 -9999 -9999 -9999 -9999 -9999 -9999 -9999 -9999 -9999 -9999 -9999 -9999 -9999 -9999 -9999 -9999 -9999 -9999 -9999 -9999 -9999 -9999 -9999 -9999 -9999 -9999 -9999 -9999 -9999 -9999 -9999 -9999 -9999 -9999 -9999 -9999 -9999 -9999 -9999 -9999 -9999 -9999 -9999 -9999 -9999 -9999 -9999 -9999 -9999 -9999 -9999 -9999 -9999 -9999
-9999 -9999 -9999 -9999 -9999 -9999 -9999 -9999 -9999 -9999 -9999 -9999 -9999 -9999 -9999 -9999 -9999 -9999 -9999 -9999 -9999 -9999 -9999 -9999 -9999 -9999 -9999 -9999 -9999 -9999 -9999 -9999 -9999 -9999 -9999 -9999 -9999 -9999 -9999 -9999 -9999 -9999 -9999 -9999 -9999 -9999 -9999 -9999 -9999 -9999 -9999 -9999 -9999 -9999 -9999 -9999 -9999 -9999 -9999 -9999 -9999 -9999 -9999 -9999 -9999 -9999 -9999 -9999 -9999 -9999 -9999 -9999 -9999 -9999 12.9032258064516 12.9032258064516 12.9032258064516 12.9032258064516 12.9032258064516 12.9032258064516 12.9032258064516 12.9032258064516 12.9032258064516 12.9032258064516 -9999 -9999 -9999 -9999 -9999 -9999 -9999 -9999 -9999 -9999 -9999 -9999 -9999 -9999 -9999 -9999 -9999 -9999 -9999 -9999 -9999 -9999 -9999 -9999 -9999 -9999 -9999 -9999 -9999 -9999 -9999 -9999 -9999 -9999 -9999 -9999 -9999 -9999 -9999 -9999 -9999 -9999 -9999 -9999 -9999 -9999 -9999 -9999 -9999 -9999 -9999 -9999 -9999 -9999 -9999 -9999 -9999 -9999 -9999 -9999 -9999 -9999 -9999 -9999 -9999 -9999 -9999 -9999 -9999 -9999 -9999 -9999 -9999 -9999 -9999 -9999 -9999 -9999 -9999 -9999 -9999 -9999 -9999 -9999 -9999 -9999 -9999 -9999 -9999 -9999 -9999 -9999 -9999 -9999 -9999 -9999 -9999 -9999 -9999 -9999 -9999 -9999 -9999 -9999 -9999 -9999 -9999 -9999 -9999 0 8.66666666666667 8.66666666666667 8.66666666666667 8.66666666666667 8.66666666666667 8.66666666666667 14.4736842105263 15.4525386313466 14.4736842105263 14.4736842105263 14.4736842105263 15.4525386313466 12.2199592668024 12.2199592668024 12.2199592668024 6.44122383252818 8.80281690140845 8.80281690140845 8.80281690140845 8.80281690140845 8.80281690140845 8.80281690140845 8.80281690140845 8.80281690140845 8.80281690140845 -9999 -9999 -9999 -9999 -9999 -9999 -9999 -9999 -9999 -9999 -9999 -9999 -9999 5.80046403712297 5.80046403712297 5.80046403712297 7.63016157989228 5.89970501474926 4.43037974683544 5.89970501474926 -9999 -9999 -9999 3.92464678178964 12.4521072796935 3.92464678178964 3.92464678178964 6.43500643500643 6.43500643500643 6.43500643500643 -9999 -9999 -9999 -9999 -9999 -9999 10.3211009174312 10.3211009174312 10.3211009174312 10.3211009174312 10.3211009174312 10.3211009174312 10.3211009174312 10.3211009174312 10.3211009174312 10.3211009174312 10.3211009174312 12.0068610634648 -9999 13.5135135135135 13.5135135135135 13.5135135135135 13.5135135135135 6.74373795761079 6.74373795761079 6.74373795761079 6.74373795761079 6.74373795761079 13.4706814580032 13.4706814580032 19.7080291970803 19.7080291970803 19.7080291970803 8.34879406307978 8.34879406307978 8.34879406307978 13.8339920948617 17.6470588235294 17.6470588235294 13.4264232008593 13.4264232008593 13.4264232008593 10.5519480519481 19.3798449612403 19.3798449612403 19.3798449612403 19.3798449612403 19.3798449612403 23.6886632825719 23.6886632825719 13.8067061143984 13.8067061143984 13.8067061143984 8.85826771653543 9.33609958506224 18.2341650671785 18.2341650671785 18.2341650671785 3.40909090909091 3.40909090909091 3.40909090909091 9.50871632329635 15.5325443786982 15.5325443786982 5.87084148727984 5.87084148727984 10.0334448160535 10.0334448160535 16.8224299065421 16.8224299065421 26.5392781316348 26.5392781316348 18.1660899653979 18.1660899653979 16.8918918918919 18.1058495821727 18.1058495821727 15.7750342935528 15.7750342935528 27.1493212669683 19.6078431372549 28.5947712418301 20.9030100334448 14.4356955380577 14.4356955380577 -9999 -9999 -9999 -9999 6.22775800711744 6.22775800711744 6.63129973474801 12.6050420168067 12.6050420168067 7.71604938271605 2.74725274725275 8.84955752212389 11.4678899082569 11.4678899082569 0 6.41025641025641 6.41025641025641 6.41025641025641 -9999 -9999 -9999 -9999 5.61009817671809 5.61009817671809 -9999 -9999 -9999 -9999 -9999 -9999 -9999 -9999 -9999 -9999 -9999 -9999 -9999 -9999 -9999 -9999 -9999 -9999 -9999 -9999 -9999 -9999 -9999 -9999 -9999 -9999 -9999 -9999 -9999 -9999 -9999 -9999 -9999 -9999 -9999 -9999 -9999 -9999 -9999 -9999 -9999 -9999 -9999 -9999 -9999 -9999 -9999 -9999 -9999 -9999 -9999 -9999 -9999 -9999 -9999 -9999 -9999
-9999 -9999 -9999 -9999 -9999 -9999 -9999 -9999 -9999 -9999 -9999 -9999 -9999 -9999 -9999 -9999 -9999 -9999 -9999 -9999 -9999 -9999 -9999 -9999 -9999 -9999 -9999 -9999 -9999 -9999 -9999 -9999 -9999 -9999 -9999 -9999 -9999 -9999 -9999 -9999 -9999 -9999 -9999 -9999 -9999 -9999 -9999 -9999 -9999 -9999 -9999 -9999 -9999 -9999 -9999 -9999 -9999 -9999 -9999 -9999 -9999 -9999 -9999 -9999 -9999 -9999 -9999 -9999 -9999 -9999 12.9032258064516 12.9032258064516 -9999 -9999 12.9032258064516 12.9032258064516 12.9032258064516 4.25367362722351 4.25367362722351 4.25367362722351 4.25367362722351 4.25367362722351 12.9032258064516 12.9032258064516 12.9032258064516 12.9032258064516 4.25367362722351 4.25367362722351 12.9032258064516 12.9032258064516 12.9032258064516 12.9032258064516 12.9032258064516 -9999 -9999 -9999 -9999 -9999 -9999 -9999 -9999 -9999 -9999 -9999 -9999 -9999 -9999 -9999 -9999 -9999 -9999 -9999 -9999 -9999 -9999 -9999 -9999 -9999 -9999 -9999 -9999 -9999 -9999 -9999 -9999 -9999 -9999 -9999 -9999 -9999 -9999 -9999 -9999 -9999 -9999 -9999 -9999 -9999 -9999 -9999 -9999 -9999 -9999 -9999 -9999 -9999 -9999 -9999 -9999 -9999 -9999 -9999 -9999 -9999 -9999 -9999 -9999 -9999 -9999 -9999 -9999 -9999 -9999 -9999 -9999 -9999 -9999 -9999 -9999 -9999 -9999 -9999 -9999 -9999 -9999 -9999 -9999 -9999 -9999 -9999 -9999 -9999 -9999 -9999 -9999 -9999 -9999 -9999 -9999 -9999 -9999 -9999 0 8.66666666666667 8.66666666666667 8.66666666666667 8.66666666666667 8.66666666666667 8.66666666666667 8.66666666666667 8.66666666666667 8.66666666666667 14.4736842105263 14.4736842105263 14.4736842105263 14.4736842105263 12.2199592668024 8.80281690140845 8.80281690140845 8.80281690140845 8.80281690140845 8.80281690140845 8.80281690140845 8.80281690140845 8.80281690140845 8.80281690140845 8.80281690140845 -9999 -9999 -9999 -9999 -9999 -9999 -9999 -9999 -9999 -9999 -9999 -9999 -9999 0 0 0 0 5.80046403712297 7.63016157989228 7.63016157989228 7.63016157989228 4.43037974683544 5.89970501474926 -9999 -9999 -9999 12.4521072796935 12.4521072796935 12.4521072796935 12.4521072796935 12.4521072796935 18.1644359464627 18.1644359464627 -9999 -9999 -9999 -9999 -9999 10.3211009174312 10.3211009174312 10.3211009174312 10.3211009174312 10.3211009174312 10.3211009174312 10.3211009174312 10.3211009174312 10.3211009174312 10.3211009174312 8.36120401337793 12.0068610634648 12.0068610634648 12.0068610634648 12.0068610634648 13.5135135135135 13.5135135135135 6.74373795761079 6.74373795761079 6.74373795761079 6.74373795761079 13.4706814580032 13.4706814580032 19.7080291970803 19.7080291970803 19.7080291970803 8.34879406307978 8.34879406307978 8.34879406307978 8.34879406307978 13.4264232008593 17.6470588235294 17.6470588235294 13.4264232008593 13.4264232008593 13.4264232008593 11.1888111888112 11.1888111888112 11.1888111888112 19.3798449612403 19.3798449612403 13.3744855967078 13.3744855967078 19.5758564437194 19.5758564437194 19.5758564437194 8.85826771653543 8.85826771653543 8.85826771653543 10.6732348111658 18.2341650671785 18.2341650671785 12.8968253968254 12.8968253968254 3.40909090909091 9.50871632329635 9.50871632329635 9.50871632329635 5.88235294117647 5.88235294117647 5.87084148727984 20.3883495145631 20.3883495145631 17.4216027874564 17.4216027874564 17.9487179487179 26.5392781316348 8.7719298245614 16.8918918918919 16.8918918918919 16.8918918918919 15.7750342935528 15.7750342935528 13.4180790960452 13.4180790960452 30.0925925925926 30.0925925925926 20.9030100334448 20.9030100334448 14.4356955380577 7.8740157480315 -9999 -9999 -9999 -9999 6.63129973474801 6.63129973474801 2.84900284900285 7.71604938271605 7.46268656716418 7.46268656716418 2.74725274725275 8.84955752212389 -9999 -9999 6.41025641025641 -9999 -9999 -9999 -9999 -9999 -9999 -9999 -9999 -9999 -9999 -9999 -9999 -9999 -9999 -9999 -9999 -9999 -9999 -9999 -9999 -9999 -9999 -9999 -9999 -9999 -9999 -9999 -9999 -9999 -9999 -9999 -9999 -9999 -9999 -9999 -9999 -9999 -9999 -9999 -9999 -9999 -9999 -9999 -9999 -9999 -9999 -9999 -9999 -9999 -9999 -9999 -9999 -9999 -9999 -9999 -9999 -9999 -9999 -9999 -9999 -9999 -9999 -9999 -9999
-9999 -9999 -9999 -9999 -9999 -9999 -9999 -9999 -9999 -9999 -9999 -9999 -9999 -9999 -9999 -9999 -9999 -9999 -9999 -9999 -9999 -9999 -9999 -9999 -9999 -9999 -9999 -9999 -9999 -9999 -9999 -9999 -9999 -9999 -9999 -9999 -9999 -9999 -9999 -9999 -9999 -9999 -9999 -9999 -9999 -9999 -9999 -9999 -9999 -9999 -9999 -9999 -9999 -9999 -9999 -9999 -9999 -9999 -9999 -9999 -9999 -9999 12.4037639007699 -9999 -9999 -9999 12.4037639007699 12.4037639007699 12.4037639007699 12.4037639007699 12.4037639007699 12.9032258064516 12.9032258064516 12.9032258064516 12.9032258064516 4.25367362722351 4.25367362722351 4.25367362722351 4.25367362722351 4.25367362722351 4.25367362722351 4.25367362722351 4.25367362722351 12.9032258064516 12.9032258064516 12.9032258064516 4.25367362722351 4.25367362722351 4.25367362722351 12.9032258064516 4.25367362722351 12.9032258064516 12.9032258064516 12.9032258064516 -9999 -9999 -9999 -9999 -9999 -9999 -9999 -9999 -9999 -9999 -9999 -9999 -9999 -9999 -9999 -9999 -9999 -9999 -9999 -9999 -9999 -9999 -9999 -9999 -9999 -9999 -9999 -9999 -9999 -9999 -9999 -9999 -9999 -9999 -9999 -9999 -9999 -9999 -9999 -9999 -9999 -9999 -9999 -9999 -9999 -9999 -9999 -9999 -9999 -9999 -9999 -9999 -9999 -9999 -9999 -9999 -9999 -9999 -9999 -9999 -9999 -9999 -9999 -9999 -9999 -9999 -9999 -9999 -9999 -9999 -9999 -9999 -9999 -9999 -9999 -9999 -9999 -9999 -9999 -9999 -9999 -9999 -9999 -9999 -9999 -9999 -9999 -9999 -9999 -9999 0 0 -9999 -9999 -9999 0 0 0 8.66666666666667 8.66666666666667 8.66666666666667 8.66666666666667 8.66666666666667 8.66666666666667 8.66666666666667 8.66666666666667 8.66666666666667 8.66666666666667 8.66666666666667 14.4736842105263 14.4736842105263 14.4736842105263 14.4736842105263 14.4736842105263 8.80281690140845 8.80281690140845 8.80281690140845 7.39644970414201 8.80281690140845 8.80281690140845 8.80281690140845 8.80281690140845 -9999 -9999 -9999 -9999 -9999 -9999 -9999 -9999 -9999 -9999 -9999 -9999 -9999 0 0 0 0 0 0 0 7.63016157989228 7.63016157989228 7.63016157989228 6.82128240109141 6.82128240109141 7.00934579439252 -9999 -9999 12.4521072796935 12.4521072796935 12.4521072796935 18.1644359464627 18.1644359464627 18.1644359464627 -9999 -9999 -9999 -9999 -9999 10.3211009174312 10.3211009174312 10.3211009174312 10.3211009174312 10.3211009174312 8.36120401337793 8.36120401337793 8.36120401337793 10.3211009174312 10.3211009174312 6.04229607250755 6.04229607250755 12.0068610634648 12.0068610634648 12.0068610634648 12.241054613936 12.241054613936 12.241054613936 16.8067226890756 6.74373795761079 6.74373795761079 13.4706814580032 13.4706814580032 19.7080291970803 11.3085621970921 11.3085621970921 11.3085621970921 8.34879406307978 8.34879406307978 13.4264232008593 13.4264232008593 13.4264232008593 13.4264232008593 13.4264232008593 13.4264232008593 11.1888111888112 11.1888111888112 11.1888111888112 8.7281795511222 8.7281795511222 8.7281795511222 13.3744855967078 19.5758564437194 19.5758564437194 19.5758564437194 19.5758564437194 8.31600831600832 8.31600831600832 10.6732348111658 10.6732348111658 10.6732348111658 10.6732348111658 12.8968253968254 12.8968253968254 12.8968253968254 12.8968253968254 9.50871632329635 9.35550935550936 9.35550935550936 5.88235294117647 14.8063781321184 14.8063781321184 20.3883495145631 4.83870967741935 4.83870967741935 17.4216027874564 8.7719298245614 8.7719298245614 8.7719298245614 7.15421303656598 7.15421303656598 7.15421303656598 31.1111111111111 13.4180790960452 3.24675324675325 3.24675324675325 3.24675324675325 11.6731517509728 11.6731517509728 6.57894736842105 7.8740157480315 7.8740157480315 6.57894736842105 -9999 6.63129973474801 6.63129973474801 6.63129973474801 6.63129973474801 7.46268656716418 2.84900284900285 7.46268656716418 7.46268656716418 0 -9999 -9999 -9999 -9999 -9999 -9999 -9999 -9999 -9999 -9999 -9999 -9999 -9999 -9999 -9999 -9999 -9999 -9999 -9999 -9999 -9999 -9999 -9999 -9999 -9999 -9999 -9999 -9999 -9999 -9999 -9999 -9999 -9999 -9999 -9999 -9999 -9999 -9999 -9999 -9999 -9999 -9999 -9999 -9999 -9999 -9999 -9999 -9999 -9999 -9999 -9999 -9999 -9999 -9999 -9999 -9999 -9999 -9999 -9999 -9999 -9999 -9999 -9999 -9999 -9999 -9999 -9999
-9999 -9999 -9999 -9999 -9999 -9999 -9999 -9999 -9999 -9999 -9999 -9999 -9999 -9999 -9999 -9999 -9999 -9999 -9999 -9999 -9999 -9999 -9999 -9999 -9999 -9999 -9999 -9999 -9999 -9999 -9999 -9999 -9999 -9999 -9999 -9999 -9999 -9999 -9999 -9999 -9999 -9999 -9999 -9999 -9999 -9999 -9999 -9999 -9999 -9999 -9999 -9999 -9999 -9999 -9999 -9999 -9999 -9999 -9999 -9999 -9999 -9999 12.4037639007699 12.4037639007699 12.4037639007699 12.4037639007699 12.4037639007699 12.4037639007699 12.4037639007699 12.4037639007699 12.4037639007699 12.4037639007699 12.4037639007699 4.25367362722351 4.25367362722351 4.25367362722351 4.25367362722351 4.25367362722351 4.25367362722351 4.25367362722351 4.25367362722351 4.25367362722351 4.25367362722351 4.25367362722351 4.25367362722351 4.25367362722351 4.25367362722351 4.25367362722351 4.25367362722351 4.25367362722351 4.25367362722351 4.25367362722351 12.9032258064516 12.9032258064516 12.9032258064516 -9999 -9999 -9999 -9999 -9999 -9999 -9999 -9999 -9999 -9999 -9999 -9999 6.27615062761506 6.27615062761506 6.27615062761506 8.34772596430628 8.34772596430628 8.34772596430628 8.34772596430628 8.34772596430628 8.34772596430628 8.34772596430628 8.34772596430628 8.34772596430628 8.34772596430628 8.34772596430628 8.34772596430628 8.34772596430628 8.34772596430628 -9999 -9999 -9999 -9999 -9999 -9999 -9999 -9999 -9999 -9999 -9999 -9999 -9999 10.6263982102908 10.6263982102908 -9999 -9999 -9999 -9999 -9999 -9999 -9999 -9999 -9999 -9999 -9999 -9999 -9999 -9999 -9999 -9999 -9999 -9999 -9999 -9999 -9999 -9999 -9999 -9999 -9999 -9999 -9999 -9999 -9999 -9999 -9999 -9999 -9999 -9999 -9999 -9999 -9999 -9999 -9999 -9999 -9999 -9999 -9999 0 0 0 0 -9999 -9999 0 0 0 8.66666666666667 8.66666666666667 8.66666666666667 8.66666666666667 8.66666666666667 8.66666666666667 8.66666666666667 8.66666666666667 8.66666666666667 8.66666666666667 8.66666666666667 8.66666666666667 8.66666666666667 8.66666666666667 7.63747454175153 7.63747454175153 7.63747454175153 7.63747454175153 8.80281690140845 7.39644970414201 7.39644970414201 7.39644970414201 8.80281690140845 -9999 -9999 -9999 -9999 -9999 -9999 -9999 -9999 -9999 -9999 -9999 -9999 -9999 -9999 -9999 -9999 -9999 0 0 0 2.60869565217391 2.60869565217391 0 7.63016157989228 -9999 -9999 -9999 6.82128240109141 6.49350649350649 6.49350649350649 -9999 -9999 18.1644359464627 18.1644359464627 18.1644359464627 18.1644359464627 -9999 -9999 -9999 -9999 -9999 10.3211009174312 10.3211009174312 10.3211009174312 10.3211009174312 8.36120401337793 8.36120401337793 8.36120401337793 8.36120401337793 8.36120401337793 16.1290322580645 6.04229607250755 6.04229607250755 13.8888888888889 13.8888888888889 12.241054613936 12.241054613936 12.241054613936 12.241054613936 16.8067226890756 16.8067226890756 11.265164644714 11.265164644714 11.3085621970921 11.3085621970921 11.3085621970921 11.3085621970921 11.3085621970921 8.34879406307978 8.34879406307978 13.4264232008593 13.4264232008593 13.4264232008593 13.4264232008593 13.4264232008593 9.70873786407767 9.70873786407767 11.1888111888112 8.92857142857143 8.7281795511222 8.92857142857143 8.7281795511222 6.99300699300699 6.99300699300699 6.99300699300699 19.5758564437194 8.31600831600832 8.31600831600832 8.39328537170264 8.39328537170264 8.39328537170264 8.39328537170264 8.39328537170264 12.8968253968254 12.8968253968254 12.8968253968254 12.8968253968254 12.8968253968254 12.8968253968254 9.35550935550936 11.1287758346582 12.3574144486692 12.3574144486692 14.8063781321184 14.8063781321184 12.0087336244541 -9999 -9999 8.7719298245614 8.7719298245614 8.7719298245614 8.7719298245614 8.7719298245614 8.7719298245614 15.7232704402516 15.7232704402516 15.7232704402516 3.24675324675325 3.24675324675325 -9999 -9999 -9999 -9999 6.57894736842105 6.57894736842105 11.5044247787611 6.63129973474801 6.63129973474801 6.63129973474801 6.63129973474801 6.63129973474801 7.46268656716418 7.46268656716418 0 0 17.2955974842767 -9999 -9999 -9999 8.61195542046606 -9999 -9999 -9999 -9999 -9999 -9999 -9999 -9999 -9999 -9999 -9999 -9999 -9999 -9999 -9999 -9999 -9999 -9999 -9999 -9999 -9999 -9999 -9999 -9999 -9999 -9999 -9999 -9999 -9999 -9999 -9999 -9999 -9999 -9999 -9999 -9999 -9999 -9999 -9999 -9999 -9999 -9999 -9999 -9999 -9999 -9999 -9999 -9999 -9999 -9999 -9999 -9999 -9999 -9999 -9999 -9999 -9999 -9999 -9999 -9999 -9999
-9999 -9999 -9999 -9999 -9999 -9999 -9999 -9999 -9999 -9999 -9999 -9999 -9999 -9999 -9999 -9999 -9999 -9999 -9999 -9999 -9999 -9999 -9999 -9999 -9999 -9999 -9999 -9999 -9999 -9999 -9999 -9999 -9999 -9999 -9999 -9999 -9999 -9999 -9999 -9999 -9999 -9999 -9999 -9999 -9999 -9999 -9999 -9999 -9999 -9999 -9999 -9999 -9999 -9999 -9999 -9999 -9999 -9999 -9999 -9999 -9999 12.4037639007699 12.4037639007699 12.4037639007699 12.4037639007699 12.4037639007699 12.4037639007699 12.4037639007699 12.4037639007699 12.4037639007699 12.4037639007699 12.4037639007699 12.4037639007699 4.25367362722351 4.25367362722351 4.25367362722351 4.25367362722351 4.25367362722351 4.25367362722351 4.25367362722351 4.25367362722351 4.25367362722351 4.25367362722351 4.25367362722351 4.25367362722351 4.25367362722351 4.25367362722351 4.25367362722351 4.25367362722351 4.25367362722351 4.25367362722351 4.25367362722351 4.25367362722351 12.9032258064516 12.9032258064516 12.9032258064516 12.9032258064516 12.9032258064516 -9999 -9999 -9999 -9999 -9999 -9999 -9999 -9999 -9999 6.27615062761506 6.27615062761506 8.34772596430628 8.34772596430628 8.34772596430628 8.34772596430628 8.34772596430628 8.34772596430628 8.34772596430628 8.34772596430628 8.34772596430628 8.34772596430628 8.34772596430628 8.34772596430628 8.34772596430628 8.34772596430628 8.34772596430628 8.34772596430628 8.34772596430628 -9999 -9999 -9999 -9999 -9999 -9999 9.84251968503937 7.97872340425532 7.97872340425532 9.84251968503937 9.84251968503937 10.6263982102908 10.6263982102908 10.6263982102908 10.6263982102908 -9999 -9999 10.6263982102908 10.6263982102908 10.6263982102908 -9999 -9999 -9999 -9999 -9999 -9999 -9999 -9999 -9999 -9999 -9999 -9999 -9999 -9999 -9999 -9999 -9999 -9999 -9999 -9999 -9999 -9999 -9999 -9999 -9999 -9999 -9999 -9999 -9999 -9999 -9999 -9999 -9999 -9999 -9999 -9999 0 0 0 -9999 -9999 0 0 0 8.66666666666667 8.66666666666667 8.66666666666667 8.66666666666667 8.66666666666667 8.66666666666667 8.66666666666667 8.66666666666667 8.66666666666667 8.66666666666667 8.66666666666667 8.66666666666667 8.66666666666667 7.63747454175153 7.63747454175153 7.63747454175153 7.63747454175153 7.63747454175153 9.08119658119658 9.08119658119658 9.08119658119658 7.39644970414201 7.39644970414201 -9999 -9999 -9999 -9999 -9999 -9999 -9999 -9999 -9999 -9999 -9999 -9999 -9999 -9999 -9999 -9999 -9999 -9999 -9999 -9999 0 0 2.60869565217391 0 0 0 -9999 6.49350649350649 6.49350649350649 6.49350649350649 6.49350649350649 4.72813238770686 10.8055009823183 10.8055009823183 18.1644359464627 18.1644359464627 -9999 -9999 -9999 -9999 -9999 -9999 10.3211009174312 10.3211009174312 10.3211009174312 10.3211009174312 35.0089766606822 35.0089766606822 8.36120401337793 8.36120401337793 8.36120401337793 13.8888888888889 13.8888888888889 13.8888888888889 13.8888888888889 13.8888888888889 12.241054613936 12.241054613936 12.241054613936 2.91828793774319 16.8067226890756 16.8067226890756 11.265164644714 14.3097643097643 14.3097643097643 14.3097643097643 14.3097643097643 14.3097643097643 11.3085621970921 8.34879406307978 13.9335476956056 13.9335476956056 13.4264232008593 13.4264232008593 13.4264232008593 13.4264232008593 9.70873786407767 9.70873786407767 18.4210526315789 5.30503978779841 8.92857142857143 8.92857142857143 8.92857142857143 6.99300699300699 6.99300699300699 6.99300699300699 10 10 8.39328537170264 8.39328537170264 8.39328537170264 8.39328537170264 13.7111517367459 13.7111517367459 13.7111517367459 13.7111517367459 13.7111517367459 13.7111517367459 11.1287758346582 11.1287758346582 11.1287758346582 11.1287758346582 11.1287758346582 11.1287758346582 11.1287758346582 11.1287758346582 -9999 -9999 -9999 -9999 -9999 8.7719298245614 8.7719298245614 8.7719298245614 13.1578947368421 13.1578947368421 13.1578947368421 13.1578947368421 10.989010989011 10.989010989011 -9999 -9999 -9999 -9999 -9999 11.5044247787611 11.5044247787611 11.5044247787611 11.5044247787611 11.5044247787611 6.63129973474801 6.63129973474801 6.63129973474801 13.4892086330935 13.4892086330935 17.2955974842767 17.2955974842767 17.2955974842767 17.2955974842767 8.61195542046606 8.61195542046606 8.61195542046606 -9999 -9999 -9999 -9999 -9999 -9999 -9999 -9999 -9999 -9999 -9999 -9999 -9999 -9999 -9999 -9999 -9999 -9999 -9999 -9999 -9999 -9999 -9999 -9999 -9999 -9999 -9999 -9999 -9999 -9999 -9999 -9999 -9999 -9999 -9999 -9999 -9999 -9999 -9999 -9999 -9999 -9999 -9999 -9999 -9999 -9999 -9999 -9999 -9999 -9999 -9999 -9999 -9999 -9999 -9999 -9999 -9999 -9999 -9999 -9999
-9999 -9999 -9999 -9999 -9999 -9999 -9999 -9999 -9999 -9999 -9999 -9999 -9999 -9999 -9999 -9999 -9999 -9999 -9999 -9999 -9999 -9999 -9999 -9999 -9999 -9999 -9999 -9999 -9999 -9999 -9999 -9999 -9999 -9999 -9999 -9999 -9999 -9999 -9999 -9999 -9999 -9999 -9999 -9999 -9999 -9999 -9999 -9999 -9999 -9999 -9999 -9999 -9999 -9999 -9999 -9999 -9999 -9999 -9999 -9999 -9999 -9999 12.4037639007699 12.4037639007699 12.4037639007699 12.4037639007699 12.4037639007699 12.4037639007699 12.4037639007699 12.4037639007699 12.4037639007699 12.4037639007699 12.4037639007699 12.4037639007699 4.25367362722351 4.25367362722351 4.25367362722351 4.25367362722351 4.25367362722351 4.25367362722351 4.25367362722351 4.25367362722351 4.25367362722351 4.25367362722351 4.25367362722351 4.25367362722351 4.25367362722351 4.25367362722351 4.25367362722351 4.25367362722351 4.25367362722351 4.25367362722351 4.25367362722351 4.25367362722351 4.25367362722351 12.9032258064516 12.9032258064516 12.9032258064516 12.9032258064516 -9999 -9999 -9999 -9999 -9999 -9999 -9999 6.27615062761506 6.27615062761506 6.27615062761506 5.32859680284192 5.32859680284192 5.32859680284192 5.32859680284192 5.32859680284192 5.32859680284192 5.32859680284192 7.17213114754098 8.34772596430628 8.34772596430628 8.34772596430628 8.34772596430628 8.34772596430628 8.34772596430628 8.34772596430628 8.34772596430628 8.34772596430628 8.34772596430628 8.34772596430628 -9999 -9999 -9999 -9999 22.0588235294118 9.84251968503937 9.84251968503937 7.97872340425532 7.97872340425532 7.97872340425532 9.84251968503937 10.6263982102908 10.6263982102908 10.6263982102908 10.6263982102908 10.6263982102908 10.6263982102908 10.6263982102908 -9999 -9999 -9999 -9999 -9999 -9999 -9999 -9999 -9999 -9999 -9999 -9999 -9999 -9999 -9999 -9999 -9999 -9999 -9999 -9999 -9999 -9999 -9999 -9999 -9999 -9999 -9999 -9999 -9999 -9999 -9999 -9999 -9999 -9999 -9999 -9999 -9999 -9999 -9999 -9999 -9999 0 0 8.66666666666667 8.66666666666667 8.66666666666667 8.66666666666667 8.66666666666667 8.66666666666667 8.66666666666667 8.66666666666667 8.66666666666667 8.66666666666667 8.66666666666667 -9999 -9999 7.63747454175153 7.63747454175153 7.63747454175153 9.08119658119658 9.08119658119658 9.08119658119658 9.08119658119658 9.08119658119658 9.08119658119658 9.08119658119658 -9999 -9999 -9999 -9999 -9999 -9999 -9999 -9999 -9999 -9999 -9999 -9999 -9999 -9999 -9999 -9999 -9999 -9999 -9999 -9999 -9999 -9999 0 0 0 0 0 6.51769087523278 6.49350649350649 6.49350649350649 6.49350649350649 6.49350649350649 4.72813238770686 4.72813238770686 4.72813238770686 10.8055009823183 10.8055009823183 -9999 -9999 -9999 -9999 -9999 -9999 10.3211009174312 10.3211009174312 10.3211009174312 35.0089766606822 35.0089766606822 35.0089766606822 35.0089766606822 8.36120401337793 16.1290322580645 13.8888888888889 13.8888888888889 13.8888888888889 13.8888888888889 2.91828793774319 2.91828793774319 2.91828793774319 2.91828793774319 2.91828793774319 11.265164644714 11.265164644714 11.265164644714 14.3097643097643 14.3097643097643 14.3097643097643 14.3097643097643 14.3097643097643 13.9335476956056 13.9335476956056 13.9335476956056 13.9335476956056 13.9335476956056 9.70873786407767 9.70873786407767 0 0 18.4210526315789 5.30503978779841 21.6867469879518 21.6867469879518 21.6867469879518 6.99300699300699 6.99300699300699 6.99300699300699 10 10 10 10 6.6793893129771 6.6793893129771 6.6793893129771 6.6793893129771 13.7111517367459 13.7111517367459 13.7111517367459 13.7111517367459 11.1287758346582 11.1287758346582 11.1287758346582 -9999 -9999 -9999 -9999 -9999 -9999 -9999 -9999 -9999 -9999 -9999 -9999 -9999 8.7719298245614 13.1578947368421 13.1578947368421 13.1578947368421 13.1578947368421 13.1578947368421 11.094674556213 11.094674556213 11.094674556213 -9999 -9999 -9999 10.7052896725441 10.7052896725441 2.87120590648072 2.87120590648072 11.5044247787611 11.5044247787611 11.5044247787611 13.4892086330935 13.4892086330935 7.19895287958115 7.19895287958115 7.19895287958115 7.19895287958115 8.61195542046606 8.61195542046606 8.61195542046606 -9999 -9999 -9999 -9999 -9999 -9999 -9999 -9999 -9999 -9999 -9999 -9999 -9999 -9999 -9999 -9999 -9999 -9999 -9999 -9999 -9999 -9999 -9999 -9999 -9999 -9999 -9999 -9999 -9999 -9999 -9999 -9999 -9999 -9999 -9999 -9999 -9999 -9999 -9999 -9999 -9999 -9999 -9999 -9999 -9999 -9999 -9999 -9999 -9999 -9999 -9999 -9999 -9999 -9999 -9999 -9999 -9999 -9999 -9999 -9999 -9999
-9999 -9999 -9999 -9999 -9999 -9999 -9999 -9999 -9999 -9999 -9999 -9999 -9999 -9999 -9999 -9999 -9999 -9999 -9999 -9999 -9999 -9999 -9999 -9999 -9999 -9999 -9999 -9999 -9999 -9999 -9999 -9999 -9999 -9999 -9999 -9999 -9999 -9999 -9999 -9999 -9999 -9999 -9999 -9999 -9999 -9999 -9999 -9999 -9999 -9999 -9999 -9999 -9999 -9999 -9999 -9999 -9999 -9999 -9999 -9999 -9999 12.4037639007699 12.4037639007699 12.4037639007699 12.4037639007699 12.4037639007699 12.4037639007699 12.4037639007699 12.4037639007699 12.4037639007699 12.4037639007699 12.4037639007699 12.4037639007699 12.4037639007699 12.4037639007699 4.25367362722351 4.25367362722351 4.25367362722351 4.25367362722351 4.25367362722351 4.25367362722351 4.25367362722351 4.25367362722351 4.25367362722351 4.25367362722351 4.25367362722351 4.25367362722351 4.25367362722351 4.25367362722351 4.25367362722351 4.25367362722351 4.25367362722351 4.25367362722351 4.25367362722351 4.25367362722351 4.25367362722351 12.9032258064516 12.9032258064516 10.6117353308365 12.9032258064516 -9999 -9999 -9999 -9999 -9999 -9999 6.27615062761506 6.27615062761506 10.4321907600596 10.4321907600596 10.4321907600596 10.4321907600596 5.32859680284192 5.32859680284192 5.32859680284192 5.32859680284192 11.9825708061002 7.17213114754098 7.17213114754098 7.17213114754098 7.17213114754098 7.17213114754098 7.17213114754098 7.17213114754098 7.17213114754098 7.17213114754098 8.34772596430628 8.34772596430628 8.34772596430628 9.43396226415094 9.43396226415094 22.0588235294118 22.0588235294118 22.0588235294118 22.0588235294118 9.84251968503937 7.97872340425532 7.97872340425532 7.97872340425532 9.84251968503937 10.6263982102908 10.6263982102908 10.6263982102908 10.6263982102908 10.6263982102908 10.6263982102908 10.6263982102908 -9999 -9999 -9999 -9999 -9999 -9999 -9999 -9999 -9999 -9999 -9999 -9999 -9999 -9999 -9999 -9999 -9999 -9999 -9999 -9999 -9999 -9999 -9999 -9999 -9999 -9999 -9999 -9999 -9999 -9999 -9999 -9999 -9999 -9999 0 0 -9999 -9999 0 0 0 17.4731182795699 17.4731182795699 8.66666666666667 8.66666666666667 8.66666666666667 8.66666666666667 8.66666666666667 8.66666666666667 8.66666666666667 -9999 -9999 -9999 -9999 -9999 -9999 7.63747454175153 7.63747454175153 7.63747454175153 9.08119658119658 9.08119658119658 9.08119658119658 9.08119658119658 9.08119658119658 -9999 -9999 -9999 -9999 -9999 -9999 -9999 -9999 -9999 -9999 -9999 -9999 -9999 -9999 -9999 -9999 -9999 -9999 -9999 -9999 -9999 -9999 -9999 -9999 -9999 0 0 6.51769087523278 6.51769087523278 6.51769087523278 6.51769087523278 5.58035714285714 5.58035714285714 4.72813238770686 4.72813238770686 4.72813238770686 4.72813238770686 0 0 0 -9999 -9999 -9999 10.3211009174312 10.3211009174312 10.3211009174312 10.3211009174312 35.0089766606822 35.0089766606822 35.0089766606822 8.36120401337793 16.1290322580645 13.8888888888889 13.8888888888889 5.1440329218107 5.1440329218107 5.1440329218107 2.91828793774319 2.91828793774319 2.91828793774319 2.91828793774319 2.91828793774319 11.265164644714 11.265164644714 14.3097643097643 14.3097643097643 14.3097643097643 14.3097643097643 14.3097643097643 14.3097643097643 13.9335476956056 13.9335476956056 13.9335476956056 13.9335476956056 12.4826629680999 12.4826629680999 12.4826629680999 4.3956043956044 18.4210526315789 -9999 -9999 -9999 21.6867469879518 8.37404047452896 8.37404047452896 8.37404047452896 10 10 10 6.6793893129771 6.6793893129771 6.6793893129771 6.6793893129771 6.6793893129771 6.6793893129771 6.6793893129771 0 0 0 0 11.1287758346582 0 0 0 -9999 -9999 -9999 -9999 -9999 -9999 -9999 -9999 -9999 -9999 -9999 -9999 -9999 13.1578947368421 13.1578947368421 13.1578947368421 5 2.81425891181989 2.81425891181989 10.9780439121756 10.9780439121756 10.9780439121756 10.7052896725441 10.7052896725441 10.7052896725441 2.87120590648072 2.87120590648072 7.04225352112676 11.5044247787611 6.12959719789842 6.12959719789842 0 7.19895287958115 7.19895287958115 7.19895287958115 8.61195542046606 8.61195542046606 8.61195542046606 8.61195542046606 -9999 -9999 -9999 -9999 -9999 -9999 -9999 -9999 -9999 -9999 -9999 -9999 -9999 -9999 -9999 -9999 -9999 -9999 -9999 -9999 -9999 -9999 -9999 -9999 -9999 -9999 -9999 -9999 -9999 -9999 -9999 -9999 -9999 -9999 -9999 -9999 -9999 -9999 -9999 -9999 -9999 -9999 -9999 -9999 -9999 -9999 -9999 -9999 -9999 -9999 -9999 -9999 -9999 -9999 -9999 -9999 -9999 -9999 -9999 -9999 -9999
-9999 -9999 -9999 -9999 -9999 -9999 -9999 -9999 -9999 -9999 -9999 -9999 -9999 -9999 -9999 -9999 -9999 -9999 -9999 -9999 -9999 -9999 -9999 -9999 -9999 -9999 -9999 -9999 -9999 -9999 -9999 -9999 -9999 -9999 -9999 -9999 -9999 -9999 -9999 -9999 -9999 -9999 -9999 -9999 -9999 -9999 -9999 -9999 -9999 -9999 -9999 -9999 -9999 -9999 -9999 -9999 -9999 -9999 -9999 -9999 -9999 12.4037639007699 12.4037639007699 12.4037639007699 12.4037639007699 12.4037639007699 12.4037639007699 12.4037639007699 12.4037639007699 12.4037639007699 12.4037639007699 12.4037639007699 12.4037639007699 12.4037639007699 12.4037639007699 12.4037639007699 4.25367362722351 4.25367362722351 4.25367362722351 4.25367362722351 4.25367362722351 4.25367362722351 4.25367362722351 4.25367362722351 4.25367362722351 4.25367362722351 4.25367362722351 4.25367362722351 4.25367362722351 4.25367362722351 4.25367362722351 4.25367362722351 4.25367362722351 4.25367362722351 4.25367362722351 4.25367362722351 10.6117353308365 10.6117353308365 10.6117353308365 12.9032258064516 12.9032258064516 -9999 -9999 -9999 6.27615062761506 6.27615062761506 6.27615062761506 6.27615062761506 10.4321907600596 10.4321907600596 10.4321907600596 10.4321907600596 10.4321907600596 22.7703984819734 22.7703984819734 22.7703984819734 22.7703984819734 11.9825708061002 11.9825708061002 11.9825708061002 7.17213114754098 7.17213114754098 11.9825708061002 7.0281124497992 7.0281124497992 7.0281124497992 10.1522842639594 10.1522842639594 3.52941176470588 3.52941176470588 9.43396226415094 9.43396226415094 9.43396226415094 22.0588235294118 22.0588235294118 22.0588235294118 9.84251968503937 9.84251968503937 7.97872340425532 7.97872340425532 7.97872340425532 10.6263982102908 14.5903479236813 14.5903479236813 10.6263982102908 10.6263982102908 10.6263982102908 -9999 -9999 -9999 -9999 -9999 -9999 -9999 -9999 -9999 -9999 -9999 -9999 -9999 -9999 -9999 -9999 -9999 -9999 -9999 -9999 -9999 -9999 -9999 -9999 -9999 -9999 -9999 -9999 -9999 -9999 -9999 -9999 -9999 0 0 0 0 0 0 17.4731182795699 17.4731182795699 8.66666666666667 8.66666666666667 17.4731182795699 8.66666666666667 8.66666666666667 8.66666666666667 -9999 -9999 -9999 -9999 -9999 -9999 -9999 -9999 -9999 -9999 -9999 -9999 -9999 -9999 -9999 -9999 -9999 -9999 -9999 -9999 -9999 -9999 -9999 -9999 -9999 -9999 -9999 -9999 -9999 -9999 -9999 -9999 -9999 -9999 -9999 -9999 -9999 -9999 -9999 -9999 -9999 13.4751773049645 13.4751773049645 6.51769087523278 6.51769087523278 6.51769087523278 6.51769087523278 6.51769087523278 5.58035714285714 5.58035714285714 0 0 4.72813238770686 5.97269624573379 5.97269624573379 5.97269624573379 0 0 -9999 -9999 10.3211009174312 10.3211009174312 10.3211009174312 8.36120401337793 35.0089766606822 35.0089766606822 8.36120401337793 8.36120401337793 16.1290322580645 16.1290322580645 16.1290322580645 5.1440329218107 5.1440329218107 5.1440329218107 5.1440329218107 5.1440329218107 2.91828793774319 2.91828793774319 6.97674418604651 6.97674418604651 6.97674418604651 6.97674418604651 14.3097643097643 14.3097643097643 14.3097643097643 14.3097643097643 21.2053571428571 13.9335476956056 13.9335476956056 13.9335476956056 12.4826629680999 12.4826629680999 12.4826629680999 4.3956043956044 7.76965265082267 -9999 27.0485282418457 27.0485282418457 27.0485282418457 8.37404047452896 8.37404047452896 8.37404047452896 10 10 10 12.6262626262626 6.6793893129771 6.6793893129771 6.6793893129771 6.6793893129771 6.6793893129771 0 0 0 0 0 0 0 0 0 0 -9999 -9999 -9999 -9999 -9999 -9999 -9999 -9999 -9999 -9999 -9999 -9999 -9999 -9999 -9999 3.1201248049922 5 5 5 3.1055900621118 12.6582278481013 12.6582278481013 9.06095551894563 9.06095551894563 10.7052896725441 10.7052896725441 7.04225352112676 10.7052896725441 9.53815261044177 6.12959719789842 6.12959719789842 0 0 0 7.19895287958115 8.61195542046606 8.61195542046606 8.61195542046606 8.61195542046606 -9999 -9999 -9999 -9999 -9999 -9999 -9999 -9999 -9999 -9999 -9999 -9999 -9999 -9999 -9999 -9999 -9999 -9999 -9999 -9999 -9999 -9999 -9999 -9999 -9999 -9999 -9999 -9999 -9999 -9999 -9999 -9999 -9999 -9999 -9999 -9999 -9999 -9999 -9999 -9999 -9999 -9999 -9999 -9999 -9999 -9999 -9999 -9999 -9999 -9999 -9999 -9999 -9999 -9999 -9999 -9999 -9999 -9999 -9999 -9999 -9999
-9999 -9999 -9999 -9999 -9999 -9999 -9999 -9999 -9999 -9999 -9999 -9999 -9999 -9999 -9999 -9999 -9999 -9999 -9999 -9999 -9999 -9999 -9999 -9999 -9999 -9999 -9999 -9999 -9999 -9999 -9999 -9999 -9999 -9999 -9999 -9999 -9999 -9999 -9999 -9999 -9999 -9999 -9999 -9999 -9999 -9999 -9999 -9999 -9999 -9999 -9999 -9999 -9999 -9999 -9999 -9999 -9999 -9999 -9999 -9999 12.781954887218 12.781954887218 12.4037639007699 12.4037639007699 12.4037639007699 12.4037639007699 12.4037639007699 12.4037639007699 12.4037639007699 12.4037639007699 12.4037639007699 12.4037639007699 12.4037639007699 12.4037639007699 12.4037639007699 12.4037639007699 12.4037639007699 4.25367362722351 4.25367362722351 4.25367362722351 4.25367362722351 4.25367362722351 4.25367362722351 4.25367362722351 4.25367362722351 4.25367362722351 4.25367362722351 4.25367362722351 4.25367362722351 4.25367362722351 7.75547445255475 4.25367362722351 4.25367362722351 4.25367362722351 4.25367362722351 10.6117353308365 10.6117353308365 12.9032258064516 12.9032258064516 -9999 -9999 -9999 -9999 13.0023640661939 13.0023640661939 13.0023640661939 13.0023640661939 6.27615062761506 10.4321907600596 10.4321907600596 10.4321907600596 10.4321907600596 10.4321907600596 9.57446808510638 22.7703984819734 22.7703984819734 22.7703984819734 22.7703984819734 22.7703984819734 11.9825708061002 11.9825708061002 11.9825708061002 11.9825708061002 7.0281124497992 7.0281124497992 7.0281124497992 7.0281124497992 10.1522842639594 10.1522842639594 3.52941176470588 3.52941176470588 9.43396226415094 9.43396226415094 8.52713178294574 8.52713178294574 22.0588235294118 22.0588235294118 8.52713178294574 3.64963503649635 3.64963503649635 3.64963503649635 3.64963503649635 3.64963503649635 14.5903479236813 14.5903479236813 14.5903479236813 14.5903479236813 10.6263982102908 -9999 -9999 -9999 -9999 -9999 -9999 -9999 -9999 -9999 -9999 -9999 -9999 -9999 -9999 -9999 -9999 -9999 -9999 -9999 -9999 -9999 -9999 -9999 -9999 -9999 -9999 -9999 -9999 -9999 3.4435261707989 0 0 0 0 0 0 17.4731182795699 17.4731182795699 17.4731182795699 17.4731182795699 17.4731182795699 17.4731182795699 8.66666666666667 -9999 -9999 -9999 -9999 -9999 -9999 -9999 -9999 -9999 -9999 -9999 -9999 -9999 -9999 -9999 -9999 -9999 -9999 -9999 -9999 -9999 -9999 -9999 -9999 -9999 -9999 -9999 -9999 -9999 -9999 -9999 -9999 -9999 -9999 -9999 -9999 -9999 -9999 -9999 -9999 -9999 -9999 -9999 13.4751773049645 13.4751773049645 13.4751773049645 13.4751773049645 13.4751773049645 6.51769087523278 6.51769087523278 6.51769087523278 0 0 0 12.987012987013 12.987012987013 5.97269624573379 5.97269624573379 5.97269624573379 5.97269624573379 0 0 10.5337078651685 10.3211009174312 10.3211009174312 10.3211009174312 8.36120401337793 8.36120401337793 8.36120401337793 8.36120401337793 16.1290322580645 19.0023752969121 19.0023752969121 16.1290322580645 16.1290322580645 5.1440329218107 5.1440329218107 5.1440329218107 5.1440329218107 5.1440329218107 6.97674418604651 6.97674418604651 6.97674418604651 6.97674418604651 14.1414141414141 14.1414141414141 14.1414141414141 14.3097643097643 21.2053571428571 21.2053571428571 21.2053571428571 13.9335476956056 8.82352941176471 8.82352941176471 8.82352941176471 4.3956043956044 7.76965265082267 -9999 12.8956623681125 32.6576576576577 21.8340611353712 8.37404047452896 34.7648261758691 34.7648261758691 34.7648261758691 34.7648261758691 34.7648261758691 7.38552437223043 7.38552437223043 7.38552437223043 10.3092783505155 0 0 0 0 0 0 0 0 0 0 0 0 0 0 0 -9999 -9999 -9999 -9999 -9999 -9999 -9999 -9999 -9999 -9999 -9999 -9999 30.0171526586621 5.44464609800363 3.1201248049922 -9999 3.38983050847458 9.25925925925926 9.25925925925926 9.06095551894563 9.06095551894563 9.06095551894563 9.06095551894563 9.06095551894563 9.06095551894563 9.53815261044177 9.53815261044177 9.53815261044177 9.53815261044177 0 0 0 13.3079847908745 13.3079847908745 13.3079847908745 8.61195542046606 -9999 -9999 -9999 -9999 -9999 -9999 -9999 -9999 -9999 -9999 -9999 -9999 -9999 -9999 -9999 -9999 -9999 -9999 -9999 -9999 -9999 -9999 -9999 -9999 -9999 -9999 -9999 -9999 -9999 -9999 -9999 -9999 -9999 -9999 -9999 -9999 -9999 -9999 -9999 -9999 -9999 -9999 -9999 -9999 -9999 -9999 -9999 -9999 -9999 -9999 -9999 -9999 -9999 -9999 -9999 -9999 -9999 -9999 -9999 -9999 -9999 -9999
-9999 -9999 -9999 -9999 -9999 -9999 -9999 -9999 -9999 -9999 -9999 -9999 -9999 -9999 -9999 -9999 -9999 -9999 -9999 -9999 -9999 -9999 -9999 -9999 -9999 -9999 -9999 -9999 -9999 -9999 -9999 -9999 -9999 -9999 -9999 -9999 -9999 -9999 -9999 -9999 -9999 -9999 -9999 -9999 -9999 -9999 -9999 -9999 -9999 -9999 -9999 -9999 -9999 -9999 -9999 -9999 -9999 -9999 -9999 12.781954887218 12.781954887218 12.781954887218 12.781954887218 12.4037639007699 12.4037639007699 12.4037639007699 12.4037639007699 12.4037639007699 12.4037639007699 12.4037639007699 12.4037639007699 12.4037639007699 12.4037639007699 12.4037639007699 12.4037639007699 12.4037639007699 12.4037639007699 12.4037639007699 4.25367362722351 4.25367362722351 4.25367362722351 4.25367362722351 4.25367362722351 4.25367362722351 4.25367362722351 4.25367362722351 4.25367362722351 4.25367362722351 7.75547445255475 7.75547445255475 7.75547445255475 7.75547445255475 4.25367362722351 4.25367362722351 7.75547445255475 10.6117353308365 10.6117353308365 10.6117353308365 -9999 -9999 -9999 -9999 6.27615062761506 6.27615062761506 13.0023640661939 13.0023640661939 13.0023640661939 6.27615062761506 10.5820105820106 10.4321907600596 10.4321907600596 9.57446808510638 9.57446808510638 9.57446808510638 22.7703984819734 22.7703984819734 21.5827338129496 21.5827338129496 21.5827338129496 21.5827338129496 11.9825708061002 11.9825708061002 11.9825708061002 7.0281124497992 7.0281124497992 7.0281124497992 7.0281124497992 7.0281124497992 10.1522842639594 3.21888412017167 3.21888412017167 14.6627565982405 9.43396226415094 9.43396226415094 8.52713178294574 8.52713178294574 8.52713178294574 8.52713178294574 8.52713178294574 8.52713178294574 8.52713178294574 13.1914893617021 3.64963503649635 3.64963503649635 3.64963503649635 3.64963503649635 14.5903479236813 14.5903479236813 14.5903479236813 14.5903479236813 14.5903479236813 14.5903479236813 16.6666666666667 10.6263982102908 16.6666666666667 20.8816705336427 20.8816705336427 20.8816705336427 20.8816705336427 3.4435261707989 3.4435261707989 3.4435261707989 3.4435261707989 -9999 -9999 -9999 -9999 -9999 -9999 -9999 3.4435261707989 3.4435261707989 3.4435261707989 3.4435261707989 3.4435261707989 3.4435261707989 3.4435261707989 3.4435261707989 3.4435261707989 3.4435261707989 0 17.4731182795699 17.4731182795699 17.4731182795699 17.4731182795699 17.4731182795699 17.4731182795699 17.4731182795699 17.4731182795699 -9999 -9999 -9999 -9999 -9999 -9999 -9999 -9999 -9999 -9999 -9999 -9999 -9999 -9999 -9999 -9999 -9999 -9999 -9999 -9999 -9999 -9999 -9999 -9999 -9999 -9999 -9999 -9999 -9999 -9999 -9999 -9999 -9999 -9999 -9999 -9999 -9999 -9999 -9999 -9999 -9999 -9999 19.3687230989957 -9999 13.4751773049645 13.4751773049645 13.855421686747 13.855421686747 13.4751773049645 9.41028858218319 9.41028858218319 9.41028858218319 6.51769087523278 0 0 12.5348189415042 12.987012987013 12.987012987013 5.97269624573379 5.97269624573379 5.08905852417303 5.08905852417303 10.5337078651685 10.5337078651685 10.5337078651685 10.5337078651685 10.5337078651685 10.5337078651685 8.36120401337793 8.36120401337793 8.36120401337793 16.1290322580645 16.1290322580645 19.0023752969121 19.0023752969121 19.0023752969121 19.0023752969121 8.09716599190283 5.1440329218107 5.1440329218107 8.09716599190283 8.09716599190283 6.97674418604651 6.97674418604651 6.97674418604651 6.97674418604651 14.1414141414141 14.1414141414141 14.1414141414141 21.2053571428571 21.2053571428571 21.2053571428571 13.9335476956056 8.82352941176471 8.82352941176471 8.82352941176471 10.7843137254902 5.92885375494071 6.19195046439629 12.8956623681125 32.6576576576577 21.8340611353712 21.8340611353712 15.1975683890577 15.1975683890577 11.070110701107 34.7648261758691 34.7648261758691 8.9126559714795 7.38552437223043 7.38552437223043 10.3092783505155 10.3092783505155 10.3092783505155 10.3092783505155 0 0 0 0 0 0 0 0 0 0 0 0 0 0 -9999 -9999 -9999 -9999 -9999 -9999 -9999 -9999 -9999 -9999 -9999 9.93377483443709 30.0171526586621 9.16230366492147 5.44464609800363 5.0251256281407 5.0251256281407 9.25925925925926 9.06095551894563 9.06095551894563 9.06095551894563 9.06095551894563 9.06095551894563 3.34288443170965 3.34288443170965 3.34288443170965 9.53815261044177 9.53815261044177 0 0 0 13.3079847908745 13.3079847908745 13.3079847908745 -9999 -9999 -9999 -9999 -9999 -9999 -9999 -9999 -9999 -9999 -9999 -9999 -9999 -9999 -9999 -9999 -9999 -9999 -9999 -9999 -9999 -9999 -9999 -9999 -9999 -9999 -9999 -9999 -9999 -9999 -9999 -9999 -9999 -9999 -9999 -9999 -9999 -9999 -9999 -9999 -9999 -9999 -9999 -9999 -9999 -9999 -9999 -9999 -9999 -9999 -9999 -9999 -9999 -9999 -9999 -9999 -9999 -9999 -9999 -9999 -9999 -9999 -9999
-9999 -9999 -9999 -9999 -9999 -9999 -9999 -9999 -9999 -9999 -9999 -9999 -9999 -9999 -9999 -9999 -9999 -9999 -9999 -9999 -9999 -9999 -9999 -9999 -9999 -9999 -9999 -9999 -9999 -9999 -9999 -9999 -9999 -9999 -9999 -9999 -9999 -9999 -9999 -9999 -9999 -9999 -9999 -9999 -9999 -9999 -9999 -9999 -9999 -9999 -9999 -9999 -9999 -9999 -9999 12.781954887218 12.781954887218 12.781954887218 12.781954887218 12.781954887218 12.781954887218 12.4037639007699 12.4037639007699 12.4037639007699 12.4037639007699 12.4037639007699 12.4037639007699 12.4037639007699 12.4037639007699 12.4037639007699 12.4037639007699 12.4037639007699 12.4037639007699 12.4037639007699 12.4037639007699 12.4037639007699 12.4037639007699 12.4037639007699 12.4037639007699 4.25367362722351 4.25367362722351 4.25367362722351 4.25367362722351 4.25367362722351 4.25367362722351 4.25367362722351 7.75547445255475 7.75547445255475 7.75547445255475 7.75547445255475 7.75547445255475 7.75547445255475 7.75547445255475 7.75547445255475 7.75547445255475 7.75547445255475 10.6117353308365 -9999 -9999 17.4825174825175 17.4825174825175 6.27615062761506 31.5126050420168 31.5126050420168 13.0023640661939 13.0023640661939 13.0023640661939 13.0023640661939 10.5820105820106 10.5820105820106 10.5820105820106 10.4321907600596 9.57446808510638 9.57446808510638 9.57446808510638 9.57446808510638 21.5827338129496 21.5827338129496 21.5827338129496 21.5827338129496 21.5827338129496 7.0281124497992 7.0281124497992 7.0281124497992 7.0281124497992 7.0281124497992 3.21888412017167 3.21888412017167 3.21888412017167 3.21888412017167 3.21888412017167 0 0 9.43396226415094 9.43396226415094 9.43396226415094 8.52713178294574 8.52713178294574 9.27835051546392 9.27835051546392 9.27835051546392 9.27835051546392 13.1914893617021 13.1914893617021 13.1914893617021 13.1914893617021 13.1914893617021 13.1914893617021 14.5903479236813 14.5903479236813 14.5903479236813 14.5903479236813 14.5903479236813 16.6666666666667 16.6666666666667 16.6666666666667 16.6666666666667 20.8816705336427 20.8816705336427 20.8816705336427 3.4435261707989 3.4435261707989 3.4435261707989 3.4435261707989 3.4435261707989 3.4435261707989 3.4435261707989 3.4435261707989 3.4435261707989 3.4435261707989 3.4435261707989 3.4435261707989 3.4435261707989 3.4435261707989 3.4435261707989 3.4435261707989 3.4435261707989 3.4435261707989 4.83425414364641 4.83425414364641 4.83425414364641 4.83425414364641 17.4731182795699 17.4731182795699 17.4731182795699 17.4731182795699 -9999 -9999 -9999 -9999 -9999 -9999 -9999 -9999 -9999 -9999 -9999 -9999 -9999 -9999 -9999 -9999 -9999 -9999 -9999 -9999 -9999 -9999 -9999 -9999 -9999 -9999 -9999 -9999 -9999 -9999 -9999 -9999 -9999 -9999 -9999 -9999 -9999 -9999 -9999 -9999 -9999 -9999 -9999 19.7710718002081 19.7710718002081 19.3687230989957 14.9402390438247 14.9402390438247 13.855421686747 13.855421686747 13.855421686747 9.41028858218319 9.41028858218319 9.41028858218319 7.64705882352941 7.64705882352941 6.51769087523278 12.5348189415042 12.5348189415042 12.5348189415042 12.987012987013 12.987012987013 5.08905852417303 5.08905852417303 5.08905852417303 5.08905852417303 10.5337078651685 10.5337078651685 10.5337078651685 10.5337078651685 10.5337078651685 10.5337078651685 10.5337078651685 10.5337078651685 16.1290322580645 16.1290322580645 19.0023752969121 19.0023752969121 19.0023752969121 19.0023752969121 8.09716599190283 8.09716599190283 8.09716599190283 8.09716599190283 16.4705882352941 16.4705882352941 16.4705882352941 16.4705882352941 14.1414141414141 14.1414141414141 14.1414141414141 21.2053571428571 21.2053571428571 21.2053571428571 21.2053571428571 8.82352941176471 8.82352941176471 8.82352941176471 10.7843137254902 5.92885375494071 6.19195046439629 6.19195046439629 6.19195046439629 6.19195046439629 6.19195046439629 15.1975683890577 15.1975683890577 11.070110701107 11.070110701107 11.070110701107 8.9126559714795 8.9126559714795 17.6848874598071 11.9565217391304 10.3092783505155 10.3092783505155 10.3092783505155 10.3092783505155 10.3092783505155 10.3092783505155 0 0 0 0 0 0 0 0 0 0 0 0 0 -9999 -9999 -9999 -9999 -9999 -9999 -9999 -9999 -9999 -9999 9.93377483443709 9.46643717728055 30.0171526586621 7.02247191011236 7.02247191011236 13.801756587202 3.7147102526003 3.7147102526003 9.06095551894563 9.06095551894563 9.06095551894563 3.34288443170965 3.34288443170965 3.34288443170965 3.34288443170965 3.34288443170965 3.34288443170965 0 0 13.3079847908745 13.3079847908745 13.3079847908745 13.3079847908745 -9999 -9999 -9999 -9999 -9999 -9999 -9999 -9999 -9999 -9999 -9999 -9999 -9999 -9999 -9999 -9999 -9999 -9999 -9999 -9999 -9999 -9999 -9999 -9999 -9999 -9999 -9999 -9999 -9999 -9999 -9999 -9999 -9999 -9999 -9999 -9999 -9999 -9999 -9999 -9999 -9999 -9999 -9999 -9999 -9999 -9999 -9999 -9999 -9999 -9999 -9999 -9999 -9999 -9999 -9999 -9999 -9999 -9999 -9999 -9999 -9999 -9999 -9999
-9999 -9999 -9999 -9999 -9999 -9999 -9999 -9999 -9999 -9999 -9999 -9999 -9999 -9999 -9999 -9999 -9999 -9999 -9999 -9999 -9999 -9999 -9999 -9999 -9999 -9999 -9999 -9999 -9999 -9999 -9999 -9999 -9999 -9999 -9999 -9999 -9999 -9999 -9999 -9999 -9999 -9999 -9999 -9999 -9999 -9999 -9999 -9999 -9999 -9999 -9999 -9999 -9999 12.781954887218 12.781954887218 12.781954887218 12.781954887218 12.781954887218 12.781954887218 12.781954887218 12.781954887218 12.4037639007699 12.4037639007699 12.4037639007699 12.4037639007699 12.4037639007699 12.4037639007699 12.4037639007699 12.4037639007699 12.4037639007699 12.4037639007699 12.4037639007699 12.4037639007699 12.4037639007699 12.4037639007699 12.4037639007699 12.4037639007699 12.4037639007699 12.4037639007699 12.4037639007699 4.25367362722351 4.25367362722351 4.25367362722351 4.25367362722351 4.25367362722351 4.25367362722351 4.25367362722351 7.75547445255475 7.75547445255475 7.75547445255475 7.75547445255475 7.75547445255475 7.75547445255475 7.75547445255475 7.75547445255475 7.75547445255475 10.6117353308365 -9999 17.4825174825175 17.4825174825175 31.5126050420168 31.5126050420168 31.5126050420168 31.5126050420168 13.0023640661939 5.61797752808989 5.61797752808989 11.8279569892473 11.8279569892473 10.5820105820106 10.5820105820106 10.5820105820106 10.5820105820106 10.5820105820106 10.5820105820106 9.57446808510638 21.5827338129496 21.5827338129496 21.5827338129496 21.5827338129496 21.5827338129496 21.5827338129496 3.21888412017167 3.21888412017167 3.21888412017167 3.21888412017167 3.21888412017167 3.21888412017167 3.21888412017167 7.80487804878049 0 0 0 0 9.43396226415094 9.43396226415094 9.43396226415094 9.43396226415094 9.43396226415094 9.27835051546392 9.27835051546392 9.27835051546392 9.27835051546392 9.27835051546392 9.27835051546392 9.27835051546392 13.1914893617021 13.1914893617021 13.1914893617021 13.1914893617021 13.1914893617021 11.4854517611026 14.5903479236813 14.5903479236813 14.5903479236813 16.6666666666667 16.6666666666667 16.6666666666667 20.8816705336427 20.8816705336427 20.8816705336427 20.8816705336427 3.4435261707989 3.4435261707989 3.4435261707989 3.4435261707989 3.4435261707989 3.4435261707989 -9999 4.83425414364641 4.83425414364641 4.83425414364641 4.83425414364641 4.83425414364641 4.83425414364641 4.83425414364641 4.83425414364641 4.83425414364641 4.83425414364641 4.83425414364641 4.83425414364641 4.83425414364641 4.83425414364641 -9999 -9999 -9999 -9999 -9999 -9999 -9999 -9999 -9999 -9999 -9999 -9999 -9999 -9999 -9999 -9999 -9999 -9999 -9999 -9999 -9999 -9999 -9999 -9999 -9999 -9999 -9999 -9999 -9999 -9999 -9999 -9999 -9999 -9999 -9999 -9999 -9999 -9999 -9999 -9999 -9999 -9999 -9999 -9999 -9999 19.7710718002081 19.7710718002081 19.3687230989957 8.65800865800866 14.9402390438247 14.9402390438247 5.54675118858954 6.64136622390892 6.64136622390892 6.64136622390892 6.64136622390892 7.64705882352941 7.64705882352941 7.64705882352941 7.64705882352941 7.64705882352941 12.5348189415042 12.5348189415042 12.5348189415042 16.8539325842697 5.08905852417303 5.08905852417303 5.1150895140665 5.1150895140665 5.1150895140665 5.1150895140665 10.5337078651685 10.5337078651685 10.5337078651685 10.5337078651685 10.5337078651685 26.2345679012346 26.2345679012346 26.2345679012346 26.2345679012346 16.7682926829268 19.0023752969121 8.09716599190283 8.09716599190283 8.09716599190283 8.09716599190283 8.09716599190283 16.4705882352941 16.4705882352941 16.4705882352941 16.4705882352941 14.1414141414141 14.1414141414141 14.1414141414141 21.2053571428571 21.2053571428571 21.2053571428571 8.82352941176471 8.82352941176471 8.82352941176471 2.97265160523187 12.5195618153365 11.2936344969199 11.2936344969199 6.19195046439629 6.19195046439629 8.17884405670665 8.17884405670665 8.17884405670665 9.22509225092251 11.070110701107 11.070110701107 8.9126559714795 8.9126559714795 17.6848874598071 10.3092783505155 10.3092783505155 10.3092783505155 10.3092783505155 10.3092783505155 10.3092783505155 10.3092783505155 -9999 -9999 -9999 -9999 0 0 0 0 0 0 0 0 0 -9999 -9999 -9999 -9999 -9999 -9999 -9999 -9999 -9999 -9999 -9999 -9999 -9999 9.46643717728055 11.4068441064639 11.4068441064639 7.02247191011236 3.7147102526003 3.7147102526003 3.7147102526003 3.7147102526003 9.06095551894563 3.34288443170965 3.34288443170965 5.8252427184466 5.8252427184466 3.34288443170965 3.34288443170965 3.34288443170965 10.0436681222707 13.3079847908745 13.3079847908745 13.3079847908745 -9999 -9999 -9999 -9999 -9999 -9999 -9999 -9999 -9999 -9999 -9999 -9999 -9999 -9999 -9999 -9999 -9999 -9999 -9999 -9999 -9999 -9999 -9999 -9999 -9999 -9999 -9999 -9999 -9999 -9999 -9999 -9999 -9999 -9999 -9999 -9999 -9999 -9999 -9999 -9999 -9999 -9999 -9999 -9999 -9999 -9999 -9999 -9999 -9999 -9999 -9999 -9999 -9999 -9999 -9999 -9999 -9999 -9999 -9999 -9999 -9999 -9999 -9999 -9999
-9999 -9999 -9999 -9999 -9999 -9999 -9999 -9999 -9999 -9999 -9999 -9999 -9999 -9999 -9999 -9999 -9999 -9999 -9999 -9999 -9999 -9999 -9999 -9999 -9999 -9999 -9999 -9999 -9999 -9999 -9999 -9999 -9999 -9999 -9999 -9999 -9999 -9999 -9999 -9999 -9999 -9999 -9999 -9999 -9999 -9999 -9999 -9999 -9999 -9999 -9999 -9999 -9999 12.781954887218 12.781954887218 12.781954887218 12.781954887218 12.781954887218 12.781954887218 12.781954887218 12.781954887218 12.781954887218 12.4037639007699 12.4037639007699 12.4037639007699 12.4037639007699 12.4037639007699 12.4037639007699 12.4037639007699 12.4037639007699 12.4037639007699 12.4037639007699 12.4037639007699 12.4037639007699 12.4037639007699 12.4037639007699 12.4037639007699 12.4037639007699 12.4037639007699 12.4037639007699 4.25367362722351 4.25367362722351 4.25367362722351 4.25367362722351 4.25367362722351 4.25367362722351 4.25367362722351 4.25367362722351 4.25367362722351 8.62068965517241 8.62068965517241 8.62068965517241 7.75547445255475 7.75547445255475 7.75547445255475 10.6117353308365 10.6117353308365 -9999 -9999 17.4825174825175 20.1342281879195 31.5126050420168 31.5126050420168 31.5126050420168 31.5126050420168 5.61797752808989 5.61797752808989 11.8279569892473 11.8279569892473 10.5820105820106 10.5820105820106 7.7639751552795 7.7639751552795 7.7639751552795 7.7639751552795 9.57446808510638 21.5827338129496 2.29621125143513 2.29621125143513 2.29621125143513 2.29621125143513 2.29621125143513 2.29621125143513 3.21888412017167 7.80487804878049 3.21888412017167 3.21888412017167 7.80487804878049 7.80487804878049 8.80626223091977 8.80626223091977 0 0 14.6627565982405 14.6627565982405 9.43396226415094 9.43396226415094 18.1159420289855 9.43396226415094 18.1159420289855 18.1159420289855 10.0446428571429 10.0446428571429 10.0446428571429 9.27835051546392 9.27835051546392 9.27835051546392 9.27835051546392 9.27835051546392 13.1914893617021 13.1914893617021 13.1914893617021 11.4854517611026 11.4854517611026 11.4854517611026 11.4854517611026 16.6666666666667 16.6666666666667 16.6666666666667 20.8816705336427 20.8816705336427 20.8816705336427 20.8816705336427 3.4435261707989 3.4435261707989 -9999 8.66336633663366 8.66336633663366 8.66336633663366 -9999 -9999 4.83425414364641 4.83425414364641 4.83425414364641 4.83425414364641 4.83425414364641 4.83425414364641 4.83425414364641 4.83425414364641 4.83425414364641 4.83425414364641 4.83425414364641 4.83425414364641 4.83425414364641 -9999 -9999 -9999 -9999 -9999 -9999 -9999 -9999 -9999 -9999 -9999 -9999 -9999 -9999 -9999 -9999 -9999 -9999 -9999 -9999 -9999 -9999 -9999 -9999 -9999 -9999 -9999 -9999 -9999 -9999 -9999 -9999 -9999 -9999 -9999 -9999 -9999 -9999 -9999 -9999 -9999 -9999 -9999 7.90960451977401 19.7710718002081 5.54675118858954 5.54675118858954 8.65800865800866 8.65800865800866 5.54675118858954 5.57620817843866 5.57620817843866 5.57620817843866 6.64136622390892 6.64136622390892 6.64136622390892 6.64136622390892 7.64705882352941 7.64705882352941 7.64705882352941 7.64705882352941 16.8539325842697 16.8539325842697 26.6524520255864 26.6524520255864 5.1150895140665 5.1150895140665 5.1150895140665 5.1150895140665 5.1150895140665 5.1150895140665 5.1150895140665 10.5337078651685 10.5337078651685 10.5337078651685 26.2345679012346 26.2345679012346 26.2345679012346 16.7682926829268 16.7682926829268 16.7682926829268 16.7682926829268 16.7682926829268 8.09716599190283 8.09716599190283 4.07830342577488 16.4705882352941 16.4705882352941 16.4705882352941 4.07830342577488 4.07830342577488 4.07830342577488 4.07830342577488 21.2053571428571 21.2053571428571 8.82352941176471 8.82352941176471 8.82352941176471 2.97265160523187 4.8828125 11.2936344969199 11.2936344969199 11.2936344969199 6.47948164146868 1.49700598802395 8.17884405670665 8.17884405670665 9.22509225092251 9.22509225092251 9.22509225092251 0 0 17.6848874598071 0 10.3092783505155 10.3092783505155 10.3092783505155 10.3092783505155 10.3092783505155 10.3092783505155 -9999 -9999 -9999 -9999 -9999 -9999 -9999 -9999 -9999 0 0 0 0 -9999 -9999 -9999 -9999 -9999 -9999 -9999 -9999 -9999 -9999 -9999 -9999 -9999 -9999 -9999 -9999 11.4068441064639 3.7147102526003 3.7147102526003 3.7147102526003 3.7147102526003 3.7147102526003 3.7147102526003 3.7147102526003 3.34288443170965 3.34288443170965 5.8252427184466 3.34288443170965 3.34288443170965 10.0436681222707 10.0436681222707 10.0436681222707 13.3079847908745 13.3079847908745 -9999 -9999 -9999 -9999 -9999 -9999 -9999 -9999 -9999 -9999 -9999 -9999 -9999 -9999 -9999 -9999 -9999 -9999 -9999 -9999 -9999 -9999 -9999 -9999 -9999 -9999 -9999 -9999 -9999 -9999 -9999 -9999 -9999 -9999 -9999 -9999 -9999 -9999 -9999 -9999 -9999 -9999 -9999 -9999 -9999 -9999 -9999 -9999 -9999 -9999 -9999 -9999 -9999 -9999 -9999 -9999 -9999 -9999 -9999 -9999 -9999 -9999 -9999 -9999
-9999 -9999 -9999 -9999 -9999 -9999 -9999 -9999 -9999 -9999 -9999 -9999 -9999 -9999 -9999 -9999 -9999 -9999 -9999 -9999 -9999 -9999 -9999 -9999 -9999 -9999 -9999 -9999 -9999 -9999 -9999 -9999 -9999 -9999 -9999 -9999 -9999 -9999 -9999 -9999 -9999 -9999 -9999 -9999 -9999 -9999 -9999 -9999 -9999 -9999 -9999 -9999 -9999 12.781954887218 12.781954887218 12.781954887218 12.781954887218 12.781954887218 12.781954887218 12.781954887218 12.781954887218 12.781954887218 12.781954887218 12.4037639007699 12.4037639007699 12.4037639007699 12.4037639007699 12.4037639007699 12.4037639007699 12.4037639007699 12.4037639007699 12.4037639007699 12.4037639007699 12.4037639007699 12.4037639007699 12.4037639007699 12.4037639007699 12.4037639007699 12.4037639007699 12.4037639007699 12.4037639007699 4.25367362722351 4.25367362722351 4.25367362722351 4.25367362722351 4.25367362722351 4.25367362722351 8.62068965517241 8.62068965517241 8.62068965517241 8.62068965517241 8.62068965517241 7.75547445255475 7.75547445255475 7.75547445255475 10.6117353308365 -9999 -9999 -9999 17.4825174825175 20.1342281879195 20.1342281879195 31.5126050420168 31.5126050420168 5.61797752808989 5.61797752808989 5.61797752808989 11.8279569892473 11.8279569892473 11.8279569892473 7.7639751552795 7.7639751552795 7.7639751552795 7.7639751552795 7.7639751552795 4.02144772117962 2.29621125143513 2.29621125143513 2.29621125143513 2.29621125143513 2.29621125143513 2.29621125143513 2.29621125143513 7.80487804878049 7.80487804878049 7.80487804878049 7.80487804878049 6.70498084291188 8.80626223091977 8.80626223091977 8.80626223091977 8.80626223091977 14.6627565982405 14.6627565982405 14.6627565982405 18.1159420289855 18.1159420289855 18.1159420289855 18.1159420289855 10.0446428571429 10.0446428571429 10.0446428571429 10.0446428571429 10.0446428571429 10.0446428571429 9.27835051546392 13.1914893617021 13.1914893617021 13.1914893617021 13.1914893617021 13.1914893617021 13.1914893617021 13.1914893617021 -9999 -9999 6.9060773480663 -9999 4.1816009557945 4.1816009557945 4.1816009557945 4.1816009557945 20.8816705336427 4.1816009557945 4.1816009557945 0 0 -9999 -9999 8.66336633663366 8.66336633663366 8.66336633663366 -9999 4.83425414364641 4.83425414364641 4.83425414364641 4.83425414364641 4.83425414364641 4.83425414364641 4.83425414364641 4.83425414364641 4.83425414364641 4.83425414364641 4.83425414364641 4.83425414364641 4.83425414364641 4.83425414364641 -9999 -9999 -9999 -9999 -9999 -9999 -9999 -9999 -9999 -9999 -9999 -9999 -9999 -9999 -9999 -9999 -9999 -9999 -9999 -9999 -9999 -9999 -9999 -9999 -9999 -9999 -9999 -9999 -9999 -9999 -9999 -9999 -9999 -9999 -9999 -9999 -9999 -9999 -9999 -9999 7.90960451977401 17.1717171717172 18.8470066518847 17.1717171717172 5.54675118858954 5.54675118858954 5.54675118858954 5.57620817843866 5.57620817843866 4.8661800486618 4.8661800486618 4.8661800486618 6.64136622390892 6.64136622390892 11.6959064327485 11.6959064327485 7.64705882352941 7.64705882352941 4.27350427350427 16.8539325842697 16.8539325842697 16.8539325842697 5.1150895140665 5.1150895140665 5.1150895140665 5.1150895140665 5.1150895140665 5.1150895140665 5.1150895140665 5.1150895140665 5.1150895140665 26.2345679012346 26.2345679012346 26.2345679012346 26.2345679012346 26.2345679012346 11.9496855345912 11.9496855345912 16.7682926829268 16.7682926829268 16.7682926829268 11.9496855345912 11.9496855345912 -9999 16.7682926829268 4.07830342577488 4.07830342577488 4.07830342577488 4.07830342577488 4.07830342577488 0 0 0 8.82352941176471 8.82352941176471 2.97265160523187 4.8828125 0 11.2936344969199 11.2936344969199 11.2936344969199 6.47948164146868 1.49700598802395 14.8619957537155 26.8924302788845 26.8924302788845 26.8924302788845 3.50262697022767 0 0 0 10.3092783505155 10.3092783505155 10.3092783505155 10.3092783505155 10.3092783505155 10.3092783505155 -9999 -9999 -9999 -9999 -9999 -9999 -9999 -9999 -9999 -9999 -9999 -9999 0 -9999 -9999 -9999 -9999 -9999 -9999 -9999 -9999 -9999 -9999 -9999 7.93650793650794 -9999 -9999 -9999 -9999 -9999 3.7147102526003 3.7147102526003 3.7147102526003 3.7147102526003 3.7147102526003 3.7147102526003 3.7147102526003 3.7147102526003 3.7147102526003 3.7147102526003 3.34288443170965 3.34288443170965 10.0436681222707 10.0436681222707 10.0436681222707 10.0436681222707 10.0436681222707 -9999 -9999 -9999 -9999 -9999 -9999 -9999 -9999 -9999 -9999 -9999 -9999 -9999 -9999 -9999 -9999 -9999 -9999 -9999 -9999 -9999 -9999 -9999 -9999 -9999 -9999 -9999 -9999 -9999 -9999 -9999 -9999 -9999 -9999 -9999 -9999 -9999 -9999 -9999 -9999 -9999 -9999 -9999 -9999 -9999 -9999 -9999 -9999 -9999 -9999 -9999 -9999 -9999 -9999 -9999 -9999 -9999 -9999 -9999 -9999 -9999 -9999 -9999 -9999 -9999
-9999 -9999 -9999 -9999 -9999 -9999 -9999 -9999 -9999 -9999 -9999 -9999 -9999 -9999 -9999 -9999 -9999 -9999 -9999 -9999 -9999 -9999 -9999 -9999 -9999 -9999 -9999 -9999 -9999 -9999 -9999 -9999 -9999 -9999 -9999 -9999 -9999 -9999 -9999 -9999 -9999 -9999 -9999 -9999 -9999 -9999 -9999 -9999 -9999 -9999 -9999 -9999 -9999 6.65399239543726 12.781954887218 12.781954887218 12.781954887218 12.781954887218 12.781954887218 12.781954887218 12.781954887218 12.781954887218 5.10948905109489 5.10948905109489 12.4037639007699 12.4037639007699 12.4037639007699 12.4037639007699 12.4037639007699 12.4037639007699 12.4037639007699 12.4037639007699 12.4037639007699 12.4037639007699 12.4037639007699 12.4037639007699 12.4037639007699 12.4037639007699 12.4037639007699 12.4037639007699 12.4037639007699 12.4037639007699 4.25367362722351 4.25367362722351 4.25367362722351 13.1332082551595 13.1332082551595 13.1332082551595 13.1332082551595 8.62068965517241 8.62068965517241 8.62068965517241 7.75547445255475 10.6117353308365 -9999 -9999 -9999 -9999 17.4825174825175 17.4825174825175 20.1342281879195 20.1342281879195 20.1342281879195 20.1342281879195 31.5126050420168 5.61797752808989 5.61797752808989 11.8279569892473 11.8279569892473 11.8279569892473 7.7639751552795 7.7639751552795 7.7639751552795 4.02144772117962 4.02144772117962 4.02144772117962 4.02144772117962 2.29621125143513 2.29621125143513 2.29621125143513 8.50661625708885 8.50661625708885 8.50661625708885 8.50661625708885 6.70498084291188 6.70498084291188 6.70498084291188 6.70498084291188 8.80626223091977 8.80626223091977 8.80626223091977 8.80626223091977 8.80626223091977 9.43396226415094 18.1159420289855 18.1159420289855 18.1159420289855 18.1159420289855 18.1159420289855 25.1396648044693 10.0446428571429 10.0446428571429 10.0446428571429 10.0446428571429 8.21596244131455 8.21596244131455 13.1914893617021 13.1914893617021 13.1914893617021 13.1914893617021 13.1914893617021 -9999 -9999 -9999 6.9060773480663 6.9060773480663 6.9060773480663 10.7731305449937 10.7731305449937 10.7731305449937 10.7731305449937 4.1816009557945 4.1816009557945 4.1816009557945 4.1816009557945 4.1816009557945 -9999 -9999 -9999 -9999 -9999 -9999 -9999 4.83425414364641 4.83425414364641 4.83425414364641 4.83425414364641 4.83425414364641 4.83425414364641 4.83425414364641 4.83425414364641 4.83425414364641 4.83425414364641 4.83425414364641 -9999 -9999 -9999 -9999 -9999 -9999 -9999 -9999 -9999 -9999 -9999 -9999 -9999 -9999 -9999 -9999 -9999 -9999 -9999 -9999 -9999 -9999 -9999 -9999 -9999 -9999 -9999 -9999 -9999 -9999 -9999 -9999 -9999 -9999 -9999 -9999 -9999 -9999 -9999 -9999 -9999 -9999 -9999 18.8470066518847 6.0790273556231 18.8470066518847 17.1717171717172 5.54675118858954 5.57620817843866 5.57620817843866 4.8661800486618 4.8661800486618 4.8661800486618 4.8661800486618 4.8661800486618 4.8661800486618 11.6959064327485 11.6959064327485 11.6959064327485 4.27350427350427 4.27350427350427 4.27350427350427 5.1150895140665 5.1150895140665 5.1150895140665 5.1150895140665 5.1150895140665 5.1150895140665 5.1150895140665 5.1150895140665 5.1150895140665 5.1150895140665 26.2345679012346 26.2345679012346 26.2345679012346 26.2345679012346 26.2345679012346 26.2345679012346 11.9496855345912 11.9496855345912 11.9496855345912 11.9496855345912 11.9496855345912 11.9496855345912 11.9496855345912 11.9496855345912 -9999 -9999 16.7682926829268 16.7682926829268 4.07830342577488 0 0 0 1.4367816091954 1.4367816091954 1.4367816091954 1.4367816091954 4.8828125 0 11.2936344969199 11.2936344969199 9.61538461538462 1.49700598802395 14.8619957537155 14.8619957537155 26.8924302788845 26.8924302788845 3.50262697022767 3.50262697022767 3.50262697022767 3.50262697022767 8.44854070660522 10.3092783505155 10.3092783505155 10.3092783505155 10.3092783505155 10.3092783505155 -9999 -9999 -9999 -9999 -9999 -9999 -9999 -9999 -9999 -9999 -9999 -9999 -9999 -9999 -9999 -9999 -9999 -9999 -9999 -9999 -9999 -9999 -9999 -9999 7.93650793650794 7.93650793650794 -9999 -9999 -9999 -9999 3.7147102526003 3.7147102526003 3.7147102526003 3.7147102526003 3.7147102526003 3.7147102526003 3.7147102526003 3.7147102526003 3.7147102526003 3.7147102526003 3.7147102526003 3.7147102526003 3.7147102526003 10.0436681222707 10.0436681222707 10.0436681222707 10.0436681222707 10.0436681222707 -9999 -9999 -9999 -9999 -9999 -9999 -9999 -9999 -9999 -9999 -9999 -9999 -9999 -9999 -9999 -9999 -9999 -9999 -9999 -9999 -9999 -9999 -9999 -9999 -9999 -9999 -9999 -9999 -9999 -9999 -9999 -9999 -9999 -9999 -9999 -9999 -9999 -9999 -9999 -9999 -9999 -9999 -9999 -9999 -9999 -9999 -9999 -9999 -9999 -9999 -9999 -9999 -9999 -9999 -9999 -9999 -9999 -9999 -9999 -9999 -9999 -9999 -9999 -9999 -9999
-9999 -9999 -9999 -9999 -9999 -9999 -9999 -9999 -9999 -9999 -9999 -9999 -9999 -9999 -9999 -9999 -9999 -9999 -9999 -9999 -9999 -9999 -9999 -9999 -9999 -9999 -9999 -9999 -9999 -9999 -9999 -9999 -9999 -9999 -9999 -9999 -9999 -9999 -9999 -9999 -9999 -9999 -9999 -9999 -9999 -9999 -9999 -9999 -9999 -9999 -9999 -9999 6.65399239543726 6.65399239543726 5.10948905109489 12.781954887218 12.781954887218 12.781954887218 12.781954887218 12.781954887218 5.10948905109489 5.10948905109489 5.10948905109489 5.10948905109489 5.10948905109489 5.10948905109489 12.4037639007699 12.4037639007699 12.4037639007699 12.4037639007699 12.4037639007699 12.4037639007699 12.4037639007699 12.4037639007699 12.4037639007699 12.4037639007699 12.4037639007699 12.4037639007699 12.4037639007699 12.4037639007699 12.4037639007699 12.4037639007699 12.4037639007699 4.25367362722351 4.25367362722351 4.25367362722351 13.1332082551595 13.1332082551595 13.1332082551595 13.1332082551595 4.98338870431894 4.98338870431894 4.98338870431894 10.6117353308365 -9999 -9999 -9999 -9999 17.4825174825175 17.4825174825175 20.1342281879195 20.1342281879195 20.1342281879195 20.1342281879195 20.1342281879195 31.5126050420168 5.61797752808989 5.61797752808989 11.8279569892473 12.7659574468085 12.7659574468085 12.7659574468085 4.02144772117962 4.02144772117962 4.02144772117962 4.02144772117962 5.1975051975052 5.1975051975052 5.1975051975052 5.1975051975052 5.1975051975052 5.1975051975052 8.50661625708885 6.70498084291188 6.70498084291188 6.70498084291188 6.70498084291188 6.70498084291188 6.70498084291188 8.80626223091977 8.80626223091977 8.80626223091977 4.4296788482835 4.4296788482835 4.4296788482835 18.1159420289855 25.1396648044693 25.1396648044693 25.1396648044693 25.1396648044693 10.0446428571429 10.0446428571429 8.21596244131455 8.21596244131455 8.21596244131455 8.21596244131455 13.1914893617021 13.1914893617021 13.1914893617021 -9999 -9999 12.2841965471448 12.2841965471448 -9999 -9999 6.9060773480663 6.9060773480663 10.7731305449937 10.7731305449937 6.31681243926142 6.31681243926142 6.31681243926142 4.1816009557945 4.1816009557945 0 0 4.1816009557945 -9999 -9999 0 -9999 -9999 -9999 -9999 -9999 -9999 -9999 -9999 4.83425414364641 4.83425414364641 -9999 4.83425414364641 -9999 -9999 -9999 -9999 -9999 -9999 -9999 -9999 -9999 -9999 -9999 -9999 -9999 -9999 -9999 -9999 -9999 -9999 -9999 -9999 -9999 -9999 -9999 -9999 -9999 -9999 -9999 -9999 -9999 -9999 -9999 -9999 -9999 -9999 -9999 -9999 -9999 -9999 -9999 -9999 -9999 -9999 16.6666666666667 16.6666666666667 -9999 -9999 6.0790273556231 16.6994106090373 10.9060402684564 10.9060402684564 -9999 -9999 3.96825396825397 3.96825396825397 3.96825396825397 4.8661800486618 4.8661800486618 6.16016427104723 6.16016427104723 6.16016427104723 4.27350427350427 4.27350427350427 4.27350427350427 6.16197183098592 6.16197183098592 6.16197183098592 5.1150895140665 5.1150895140665 5.1150895140665 5.1150895140665 5.1150895140665 5.1150895140665 5.1150895140665 26.2345679012346 26.2345679012346 26.2345679012346 26.2345679012346 26.2345679012346 11.9496855345912 11.9496855345912 11.9496855345912 11.9496855345912 11.9496855345912 11.9496855345912 11.9496855345912 11.9496855345912 11.9496855345912 11.9496855345912 -9999 -9999 -9999 -9999 0 0 0 0 1.4367816091954 1.4367816091954 1.4367816091954 1.4367816091954 0 5.66037735849057 11.2936344969199 9.61538461538462 5.04032258064516 8.11209439528024 6.80272108843537 26.8924302788845 26.8924302788845 26.8924302788845 3.50262697022767 3.50262697022767 3.50262697022767 8.44854070660522 10.6177606177606 10.3092783505155 10.3092783505155 10.3092783505155 10.3092783505155 -9999 -9999 -9999 -9999 -9999 -9999 -9999 -9999 -9999 -9999 -9999 -9999 -9999 -9999 -9999 -9999 -9999 -9999 -9999 -9999 -9999 -9999 -9999 -9999 7.93650793650794 7.93650793650794 -9999 -9999 -9999 -9999 8.29081632653061 3.7147102526003 3.7147102526003 3.7147102526003 3.7147102526003 3.7147102526003 3.7147102526003 3.7147102526003 3.7147102526003 3.7147102526003 3.7147102526003 3.7147102526003 3.7147102526003 10.0436681222707 10.0436681222707 10.0436681222707 10.0436681222707 10.4333868378812 10.4333868378812 -9999 -9999 -9999 -9999 -9999 -9999 -9999 -9999 -9999 -9999 -9999 -9999 -9999 -9999 -9999 -9999 -9999 -9999 -9999 -9999 -9999 -9999 -9999 -9999 -9999 -9999 -9999 -9999 -9999 -9999 -9999 -9999 -9999 -9999 -9999 -9999 -9999 -9999 -9999 -9999 -9999 -9999 -9999 -9999 -9999 -9999 -9999 -9999 -9999 -9999 -9999 -9999 -9999 -9999 -9999 -9999 -9999 -9999 -9999 -9999 -9999 -9999 -9999 -9999 -9999
-9999 -9999 -9999 -9999 -9999 -9999 -9999 -9999 -9999 -9999 -9999 -9999 -9999 -9999 -9999 -9999 -9999 -9999 -9999 -9999 -9999 -9999 -9999 -9999 -9999 -9999 -9999 -9999 -9999 -9999 -9999 -9999 -9999 -9999 -9999 -9999 -9999 -9999 -9999 -9999 -9999 -9999 -9999 -9999 -9999 -9999 6.65399239543726 6.65399239543726 6.65399239543726 6.65399239543726 6.65399239543726 6.65399239543726 6.65399239543726 5.10948905109489 12.781954887218 12.781954887218 12.781954887218 12.781954887218 5.10948905109489 5.10948905109489 5.10948905109489 5.10948905109489 5.10948905109489 5.10948905109489 5.10948905109489 5.10948905109489 5.10948905109489 12.4037639007699 12.4037639007699 12.4037639007699 12.4037639007699 12.4037639007699 12.4037639007699 12.4037639007699 12.4037639007699 12.4037639007699 12.4037639007699 12.4037639007699 12.4037639007699 12.4037639007699 12.4037639007699 12.4037639007699 4.25367362722351 4.25367362722351 4.25367362722351 4.25367362722351 4.25367362722351 13.1332082551595 13.1332082551595 4.98338870431894 4.98338870431894 4.98338870431894 4.98338870431894 10.6117353308365 -9999 -9999 -9999 17.4825174825175 17.4825174825175 17.4825174825175 17.4825174825175 20.1342281879195 11.2612612612613 20.1342281879195 20.1342281879195 11.2612612612613 31.5126050420168 12.7659574468085 12.7659574468085 12.7659574468085 12.7659574468085 12.7659574468085 12.7659574468085 12.7659574468085 5.1975051975052 5.1975051975052 5.1975051975052 8.50661625708885 5.1975051975052 8.50661625708885 8.35073068893528 8.35073068893528 8.35073068893528 12.7970749542962 12.7970749542962 6.70498084291188 6.70498084291188 6.70498084291188 10.7212475633528 10.7212475633528 4.4296788482835 4.4296788482835 4.4296788482835 4.4296788482835 4.4296788482835 18.1159420289855 25.1396648044693 25.1396648044693 25.1396648044693 25.1396648044693 8.21596244131455 8.21596244131455 8.21596244131455 8.21596244131455 13.1914893617021 13.1914893617021 13.1914893617021 -9999 12.2841965471448 12.2841965471448 10.3211009174312 10.3211009174312 10.3211009174312 -9999 0 0 6.06585788561525 9.93377483443709 10.7731305449937 6.31681243926142 6.31681243926142 6.31681243926142 6.31681243926142 6.31681243926142 6.94444444444444 0 0 0 0 0 -9999 -9999 -9999 -9999 -9999 -9999 -9999 -9999 -9999 -9999 -9999 -9999 -9999 -9999 -9999 -9999 -9999 -9999 -9999 -9999 -9999 -9999 -9999 -9999 -9999 -9999 -9999 -9999 -9999 -9999 -9999 -9999 -9999 -9999 -9999 -9999 -9999 -9999 -9999 -9999 -9999 -9999 -9999 -9999 -9999 -9999 -9999 -9999 -9999 -9999 -9999 -9999 -9999 -9999 -9999 -9999 16.6666666666667 16.6666666666667 16.6666666666667 10.1010101010101 10.9060402684564 10.1010101010101 10.9060402684564 -9999 3.96825396825397 3.96825396825397 3.96825396825397 3.96825396825397 3.96825396825397 6.16016427104723 6.16016427104723 6.16016427104723 6.16016427104723 4.27350427350427 6.16197183098592 6.16197183098592 6.16197183098592 5.1150895140665 5.1150895140665 5.1150895140665 5.1150895140665 5.1150895140665 5.1150895140665 5.1150895140665 26.2345679012346 26.2345679012346 26.2345679012346 26.2345679012346 26.2345679012346 26.2345679012346 26.2345679012346 11.9496855345912 11.9496855345912 11.9496855345912 11.9496855345912 11.9496855345912 11.9496855345912 11.9496855345912 11.9496855345912 10.025873221216 10.025873221216 -9999 -9999 0 0 0 0 0 0 0 1.4367816091954 0 5.66037735849057 5.66037735849057 8.27205882352941 8.27205882352941 8.11209439528024 8.11209439528024 16.6340508806262 16.6340508806262 20.1446280991736 3.50262697022767 3.50262697022767 3.50262697022767 8.44854070660522 10.6177606177606 10.6177606177606 10.3092783505155 10.3092783505155 10.3092783505155 -9999 -9999 -9999 -9999 -9999 -9999 -9999 -9999 -9999 -9999 -9999 -9999 -9999 -9999 -9999 -9999 -9999 -9999 -9999 -9999 -9999 -9999 -9999 -9999 7.93650793650794 7.93650793650794 -9999 -9999 -9999 -9999 8.29081632653061 8.29081632653061 8.29081632653061 8.29081632653061 3.7147102526003 3.7147102526003 3.7147102526003 3.7147102526003 3.7147102526003 3.7147102526003 3.7147102526003 3.7147102526003 3.7147102526003 5.82959641255605 5.82959641255605 -9999 -9999 10.0436681222707 10.4333868378812 10.4333868378812 10.4333868378812 -9999 -9999 -9999 -9999 -9999 -9999 -9999 -9999 -9999 -9999 -9999 -9999 -9999 -9999 -9999 -9999 -9999 -9999 -9999 -9999 -9999 -9999 -9999 -9999 -9999 -9999 -9999 -9999 -9999 -9999 -9999 -9999 -9999 -9999 -9999 -9999 -9999 -9999 -9999 -9999 -9999 -9999 -9999 -9999 -9999 -9999 -9999 -9999 -9999 -9999 -9999 -9999 -9999 -9999 -9999 -9999 -9999 -9999 -9999 -9999 -9999 -9999 -9999 -9999
-9999 -9999 -9999 -9999 -9999 -9999 -9999 -9999 -9999 -9999 -9999 -9999 -9999 -9999 -9999 -9999 -9999 -9999 -9999 -9999 -9999 -9999 -9999 -9999 -9999 -9999 -9999 -9999 -9999 -9999 -9999 -9999 -9999 -9999 -9999 -9999 -9999 -9999 -9999 -9999 -9999 -9999 -9999 -9999 6.65399239543726 6.65399239543726 6.65399239543726 6.65399239543726 5.10948905109489 6.65399239543726 6.65399239543726 5.10948905109489 5.10948905109489 12.781954887218 12.781954887218 12.781954887218 5.10948905109489 5.10948905109489 5.10948905109489 5.10948905109489 5.10948905109489 5.10948905109489 5.10948905109489 5.10948905109489 5.10948905109489 5.10948905109489 5.10948905109489 5.10948905109489 12.4037639007699 12.4037639007699 12.4037639007699 12.4037639007699 12.4037639007699 12.4037639007699 12.4037639007699 12.4037639007699 12.4037639007699 12.4037639007699 12.4037639007699 12.4037639007699 12.4037639007699 12.4037639007699 4.25367362722351 4.25367362722351 4.25367362722351 4.25367362722351 13.1332082551595 13.1332082551595 13.1332082551595 4.98338870431894 4.98338870431894 4.98338870431894 4.98338870431894 4.98338870431894 -9999 -9999 -9999 -9999 -9999 -9999 -9999 17.4825174825175 11.2612612612613 11.2612612612613 11.2612612612613 11.2612612612613 4.9645390070922 4.9645390070922 12.7659574468085 12.7659574468085 12.7659574468085 12.7659574468085 13.8297872340426 13.8297872340426 13.8297872340426 13.8297872340426 8.50661625708885 8.50661625708885 10.752688172043 8.35073068893528 8.35073068893528 12.7970749542962 12.7970749542962 12.7970749542962 12.7970749542962 12.7970749542962 10.7212475633528 10.7212475633528 10.7212475633528 10.7212475633528 10.7212475633528 4.4296788482835 4.4296788482835 4.4296788482835 4.4296788482835 8.27067669172932 25.1396648044693 25.1396648044693 13.1914893617021 8.21596244131455 8.21596244131455 8.21596244131455 13.1914893617021 12.2841965471448 12.2841965471448 12.2841965471448 12.2841965471448 12.2841965471448 12.2841965471448 10.3211009174312 10.3211009174312 10.3211009174312 10.3211009174312 10.3211009174312 0 6.06585788561525 6.06585788561525 9.93377483443709 9.93377483443709 10.7731305449937 10.7731305449937 6.94444444444444 6.94444444444444 6.94444444444444 6.94444444444444 6.94444444444444 12.3762376237624 12.3762376237624 0 12.3762376237624 -9999 -9999 -9999 -9999 -9999 -9999 -9999 -9999 -9999 -9999 -9999 -9999 -9999 -9999 -9999 -9999 -9999 -9999 -9999 -9999 -9999 -9999 -9999 -9999 -9999 -9999 -9999 -9999 -9999 -9999 -9999 -9999 -9999 -9999 -9999 -9999 -9999 -9999 -9999 -9999 -9999 -9999 -9999 -9999 -9999 -9999 -9999 -9999 -9999 -9999 -9999 -9999 -9999 -9999 -9999 -9999 -9999 -9999 10.1010101010101 10.1010101010101 10.1010101010101 10.1010101010101 10.1010101010101 10.1010101010101 10.1010101010101 10.1010101010101 10.1010101010101 3.96825396825397 3.96825396825397 6.16016427104723 9.38337801608579 9.38337801608579 6.16016427104723 -9999 -9999 6.16197183098592 -9999 -9999 5.1150895140665 5.1150895140665 5.1150895140665 5.1150895140665 5.1150895140665 26.2345679012346 26.2345679012346 26.2345679012346 26.2345679012346 26.2345679012346 26.2345679012346 26.2345679012346 10.8514190317195 10.8514190317195 11.9496855345912 10.8514190317195 10.8514190317195 10.025873221216 10.025873221216 10.025873221216 10.025873221216 -9999 -9999 -9999 0 0 0 0 -9999 0 0 7.65027322404372 0 0 5.66037735849057 8.27205882352941 8.27205882352941 8.27205882352941 17.5619834710744 0 20.1446280991736 20.1446280991736 7.47011952191235 7.47011952191235 7.47011952191235 8.44854070660522 10.6177606177606 10.6177606177606 10.3092783505155 10.3092783505155 10.3092783505155 -9999 -9999 -9999 -9999 -9999 -9999 -9999 -9999 -9999 -9999 -9999 -9999 -9999 -9999 -9999 -9999 -9999 -9999 -9999 -9999 -9999 -9999 -9999 -9999 -9999 7.93650793650794 11.2781954887218 11.2781954887218 11.2781954887218 -9999 8.29081632653061 8.29081632653061 8.29081632653061 8.29081632653061 8.29081632653061 0 0 3.7147102526003 3.7147102526003 3.7147102526003 3.7147102526003 3.7147102526003 3.7147102526003 5.82959641255605 5.82959641255605 -9999 -9999 -9999 -9999 -9999 -9999 10.4333868378812 -9999 -9999 -9999 -9999 -9999 -9999 -9999 -9999 -9999 -9999 -9999 -9999 -9999 -9999 -9999 -9999 -9999 -9999 -9999 -9999 -9999 -9999 -9999 -9999 -9999 -9999 -9999 -9999 -9999 -9999 -9999 -9999 -9999 -9999 -9999 -9999 -9999 -9999 -9999 -9999 -9999 -9999 -9999 -9999 -9999 -9999 -9999 -9999 -9999 -9999 -9999 -9999 -9999 -9999 -9999 -9999 -9999 -9999 -9999 -9999 -9999 -9999 -9999 -9999
-9999 -9999 -9999 -9999 -9999 -9999 -9999 -9999 -9999 -9999 -9999 -9999 -9999 -9999 -9999 -9999 -9999 -9999 -9999 -9999 -9999 -9999 -9999 -9999 -9999 -9999 -9999 -9999 -9999 -9999 -9999 -9999 -9999 -9999 -9999 -9999 -9999 -9999 -9999 -9999 -9999 -9999 -9999 -9999 6.65399239543726 6.65399239543726 6.65399239543726 5.10948905109489 5.10948905109489 5.10948905109489 5.10948905109489 5.10948905109489 5.10948905109489 5.10948905109489 5.10948905109489 5.10948905109489 5.10948905109489 5.10948905109489 5.10948905109489 5.10948905109489 5.10948905109489 5.10948905109489 5.10948905109489 5.10948905109489 5.10948905109489 5.10948905109489 5.10948905109489 5.10948905109489 5.10948905109489 5.10948905109489 12.4037639007699 12.4037639007699 12.4037639007699 12.4037639007699 12.4037639007699 12.4037639007699 12.4037639007699 6.78294573643411 6.78294573643411 6.78294573643411 6.78294573643411 12.4037639007699 9.2436974789916 9.2436974789916 9.2436974789916 4.25367362722351 13.1332082551595 13.1332082551595 13.1332082551595 6.39658848614073 4.98338870431894 4.98338870431894 4.98338870431894 4.98338870431894 10.6117353308365 -9999 -9999 -9999 -9999 -9999 -9999 17.4825174825175 11.2612612612613 11.2612612612613 11.2612612612613 11.2612612612613 4.9645390070922 4.9645390070922 4.9645390070922 13.8297872340426 13.8297872340426 13.8297872340426 13.8297872340426 13.8297872340426 13.8297872340426 10.752688172043 10.752688172043 10.752688172043 8.35073068893528 8.35073068893528 8.35073068893528 12.7970749542962 12.7970749542962 12.7970749542962 12.7970749542962 19.2697768762677 10.7212475633528 10.7212475633528 10.7212475633528 10.7212475633528 4.4296788482835 4.4296788482835 4.4296788482835 8.27067669172932 8.27067669172932 8.27067669172932 8.27067669172932 13.1914893617021 13.1914893617021 13.1914893617021 13.1914893617021 12.2841965471448 12.2841965471448 12.2841965471448 12.2841965471448 12.2841965471448 12.2841965471448 9.38189845474614 9.38189845474614 10.3211009174312 14.6276595744681 10.3211009174312 14.6276595744681 14.6276595744681 0 6.06585788561525 7.08215297450425 7.08215297450425 9.93377483443709 6.94444444444444 6.94444444444444 6.94444444444444 6.94444444444444 6.94444444444444 6.94444444444444 6.94444444444444 6.94444444444444 6.94444444444444 12.3762376237624 -9999 -9999 -9999 -9999 -9999 -9999 -9999 -9999 -9999 -9999 -9999 -9999 -9999 -9999 -9999 -9999 -9999 -9999 -9999 -9999 -9999 -9999 -9999 -9999 -9999 -9999 -9999 -9999 -9999 -9999 -9999 -9999 -9999 -9999 -9999 -9999 -9999 -9999 -9999 -9999 -9999 -9999 -9999 -9999 -9999 -9999 -9999 -9999 -9999 -9999 -9999 -9999 -9999 -9999 -9999 -9999 -9999 -9999 -9999 -9999 10.1010101010101 10.1010101010101 10.1010101010101 -9999 10.1010101010101 10.1010101010101 10.1010101010101 10.1010101010101 -9999 -9999 6.16016427104723 9.38337801608579 9.38337801608579 9.38337801608579 9.38337801608579 -9999 -9999 -9999 -9999 -9999 5.1150895140665 5.1150895140665 5.1150895140665 26.2345679012346 26.2345679012346 26.2345679012346 26.2345679012346 26.2345679012346 26.2345679012346 26.2345679012346 26.2345679012346 26.2345679012346 10.8514190317195 10.8514190317195 10.8514190317195 10.8514190317195 10.8514190317195 10.025873221216 10.025873221216 -9999 -9999 -9999 -9999 5.27549824150059 5.27549824150059 0 -9999 -9999 2.12765957446809 3.96039603960396 0 0 5.66037735849057 0 8.0091533180778 8.27205882352941 17.5619834710744 0 0 0 6.265664160401 9.4017094017094 9.4017094017094 3.88349514563107 18.2926829268293 8.39328537170264 10.6177606177606 10.3092783505155 10.3092783505155 -9999 -9999 -9999 -9999 -9999 -9999 -9999 -9999 -9999 -9999 -9999 -9999 -9999 -9999 -9999 -9999 -9999 -9999 -9999 -9999 -9999 -9999 -9999 -9999 -9999 24.8618784530387 -9999 -9999 11.2781954887218 11.2781954887218 8.29081632653061 8.29081632653061 8.29081632653061 8.29081632653061 8.29081632653061 0 0 0 0 0 3.7147102526003 3.7147102526003 3.7147102526003 5.82959641255605 5.82959641255605 5.82959641255605 -9999 -9999 -9999 -9999 -9999 -9999 -9999 -9999 -9999 -9999 -9999 -9999 -9999 -9999 -9999 -9999 -9999 -9999 -9999 -9999 -9999 -9999 -9999 -9999 -9999 -9999 -9999 -9999 -9999 -9999 -9999 -9999 -9999 -9999 -9999 -9999 -9999 -9999 -9999 -9999 -9999 -9999 -9999 -9999 -9999 -9999 -9999 -9999 -9999 -9999 -9999 -9999 -9999 -9999 -9999 -9999 -9999 -9999 -9999 -9999 -9999 -9999 -9999 -9999 -9999 -9999 -9999 -9999 -9999 -9999 -9999
-9999 -9999 -9999 -9999 -9999 -9999 -9999 -9999 -9999 -9999 -9999 -9999 -9999 -9999 -9999 -9999 -9999 -9999 -9999 -9999 -9999 -9999 -9999 -9999 -9999 -9999 -9999 -9999 -9999 -9999 -9999 -9999 -9999 -9999 -9999 -9999 -9999 -9999 -9999 -9999 -9999 -9999 -9999 6.65399239543726 6.65399239543726 6.65399239543726 5.10948905109489 5.10948905109489 5.10948905109489 5.10948905109489 5.10948905109489 5.10948905109489 5.10948905109489 5.10948905109489 5.10948905109489 5.10948905109489 5.10948905109489 5.10948905109489 5.10948905109489 5.10948905109489 5.10948905109489 5.10948905109489 5.10948905109489 5.10948905109489 5.10948905109489 5.10948905109489 5.10948905109489 5.10948905109489 5.10948905109489 5.10948905109489 5.10948905109489 12.4037639007699 12.4037639007699 12.4037639007699 12.4037639007699 12.4037639007699 6.78294573643411 6.78294573643411 6.78294573643411 6.78294573643411 9.2436974789916 9.2436974789916 9.2436974789916 9.2436974789916 9.2436974789916 9.2436974789916 13.1332082551595 3.6231884057971 3.6231884057971 6.39658848614073 6.39658848614073 6.39658848614073 6.39658848614073 6.39658848614073 10.6117353308365 10.6117353308365 -9999 -9999 -9999 -9999 -9999 -9999 17.4825174825175 11.2612612612613 11.2612612612613 15.224358974359 15.224358974359 4.9645390070922 4.9645390070922 7.46268656716418 13.8297872340426 13.8297872340426 6.92307692307692 6.92307692307692 6.92307692307692 10.752688172043 10.752688172043 10.752688172043 10.752688172043 8.35073068893528 8.35073068893528 12.7970749542962 12.7970749542962 19.2697768762677 19.2697768762677 19.2697768762677 19.2697768762677 19.2697768762677 10.7212475633528 4.4296788482835 4.4296788482835 4.4296788482835 5.38599640933573 8.27067669172932 8.27067669172932 8.27067669172932 8.27067669172932 8.27067669172932 12.2841965471448 12.2841965471448 12.2841965471448 12.2841965471448 12.2841965471448 12.2841965471448 12.2841965471448 12.2841965471448 12.2841965471448 9.38189845474614 9.38189845474614 9.38189845474614 14.6276595744681 14.6276595744681 14.6276595744681 14.6276595744681 7.08215297450425 7.08215297450425 7.08215297450425 8.81488736532811 8.81488736532811 6.94444444444444 6.94444444444444 6.94444444444444 6.94444444444444 6.94444444444444 6.94444444444444 6.94444444444444 6.94444444444444 6.94444444444444 6.94444444444444 -9999 -9999 -9999 -9999 -9999 -9999 -9999 -9999 -9999 -9999 -9999 -9999 -9999 -9999 -9999 -9999 -9999 -9999 -9999 -9999 -9999 -9999 -9999 -9999 -9999 -9999 -9999 -9999 -9999 -9999 -9999 -9999 -9999 -9999 -9999 -9999 -9999 -9999 -9999 -9999 -9999 -9999 -9999 -9999 -9999 -9999 -9999 -9999 -9999 -9999 -9999 -9999 -9999 -9999 -9999 -9999 -9999 -9999 -9999 -9999 10.1010101010101 10.1010101010101 10.1010101010101 -9999 -9999 -9999 10.1010101010101 -9999 -9999 -9999 -9999 -9999 9.38337801608579 -9999 -9999 -9999 -9999 -9999 -9999 -9999 -9999 26.2345679012346 26.2345679012346 26.2345679012346 26.2345679012346 26.2345679012346 26.2345679012346 26.2345679012346 26.2345679012346 26.2345679012346 26.2345679012346 26.2345679012346 26.2345679012346 10.8514190317195 10.8514190317195 10.8514190317195 10.8514190317195 10.8514190317195 -9999 -9999 -9999 5.27549824150059 5.27549824150059 5.27549824150059 5.27549824150059 5.27549824150059 5.91715976331361 2.12765957446809 3.96039603960396 0 5.19480519480519 2.73722627737226 0 0 8.0091533180778 0 14.0625 8.13008130081301 0 6.265664160401 5.23560209424084 5.23560209424084 5.23560209424084 15.7342657342657 8.39328537170264 8.39328537170264 8.39328537170264 5.28541226215645 10.3092783505155 -9999 -9999 -9999 -9999 -9999 -9999 -9999 -9999 -9999 -9999 -9999 -9999 -9999 -9999 -9999 -9999 -9999 -9999 -9999 -9999 -9999 -9999 -9999 -9999 24.8618784530387 -9999 -9999 9.29752066115702 9.29752066115702 8.29081632653061 8.29081632653061 8.29081632653061 8.29081632653061 8.29081632653061 0 0 0 0 0 0 0 5.82959641255605 5.82959641255605 5.82959641255605 5.82959641255605 -9999 -9999 -9999 -9999 -9999 -9999 -9999 -9999 -9999 -9999 -9999 -9999 -9999 -9999 -9999 -9999 -9999 -9999 -9999 -9999 -9999 -9999 -9999 -9999 -9999 -9999 -9999 -9999 -9999 -9999 -9999 -9999 -9999 -9999 -9999 -9999 -9999 -9999 -9999 -9999 -9999 -9999 -9999 -9999 -9999 -9999 -9999 -9999 -9999 -9999 -9999 -9999 -9999 -9999 -9999 -9999 -9999 -9999 -9999 -9999 -9999 -9999 -9999 -9999 -9999 -9999 -9999 -9999 -9999 -9999 -9999 -9999
-9999 -9999 -9999 -9999 -9999 -9999 -9999 -9999 -9999 -9999 -9999 -9999 -9999 -9999 -9999 -9999 -9999 -9999 -9999 -9999 -9999 -9999 -9999 -9999 -9999 -9999 -9999 -9999 -9999 -9999 -9999 -9999 -9999 -9999 -9999 -9999 -9999 -9999 -9999 -9999 -9999 -9999 6.65399239543726 6.65399239543726 5.10948905109489 5.10948905109489 5.10948905109489 5.10948905109489 5.10948905109489 5.10948905109489 5.10948905109489 5.10948905109489 5.10948905109489 5.10948905109489 5.10948905109489 5.10948905109489 5.10948905109489 5.10948905109489 5.10948905109489 5.10948905109489 5.10948905109489 5.10948905109489 5.10948905109489 5.10948905109489 5.10948905109489 5.10948905109489 5.10948905109489 5.10948905109489 5.10948905109489 5.10948905109489 5.10948905109489 5.10948905109489 12.4037639007699 12.4037639007699 12.4037639007699 8.15850815850816 6.78294573643411 6.78294573643411 6.94444444444444 6.94444444444444 9.2436974789916 9.2436974789916 9.2436974789916 9.2436974789916 9.2436974789916 0 0 3.6231884057971 3.6231884057971 3.6231884057971 6.39658848614073 6.39658848614073 6.39658848614073 10.6117353308365 10.6117353308365 -9999 -9999 -9999 -9999 -9999 -9999 -9999 17.4825174825175 17.4825174825175 15.224358974359 15.224358974359 15.224358974359 15.224358974359 7.46268656716418 7.46268656716418 7.46268656716418 7.46268656716418 6.92307692307692 6.92307692307692 6.92307692307692 6.92307692307692 10.752688172043 10.752688172043 10.752688172043 9.28217821782178 19.2697768762677 19.2697768762677 19.2697768762677 19.2697768762677 19.2697768762677 19.2697768762677 19.2697768762677 19.2697768762677 5.58659217877095 10.7212475633528 5.38599640933573 5.38599640933573 5.38599640933573 0 0 0 0 8.27067669172932 8.27067669172932 12.2841965471448 12.2841965471448 12.2841965471448 12.2841965471448 12.2841965471448 12.2841965471448 12.2841965471448 9.38189845474614 9.38189845474614 9.38189845474614 9.38189845474614 9.38189845474614 14.6276595744681 14.6276595744681 14.6276595744681 8.81488736532811 8.81488736532811 8.81488736532811 8.81488736532811 12.7877237851662 12.7877237851662 12.7877237851662 6.94444444444444 6.94444444444444 6.94444444444444 6.94444444444444 6.94444444444444 6.94444444444444 6.94444444444444 6.94444444444444 6.94444444444444 6.94444444444444 -9999 -9999 -9999 -9999 -9999 -9999 -9999 -9999 -9999 -9999 -9999 -9999 -9999 -9999 -9999 -9999 -9999 -9999 -9999 -9999 -9999 -9999 -9999 -9999 -9999 -9999 -9999 -9999 -9999 -9999 -9999 -9999 -9999 -9999 -9999 -9999 -9999 -9999 -9999 -9999 -9999 -9999 -9999 -9999 -9999 -9999 -9999 -9999 -9999 -9999 -9999 -9999 -9999 -9999 -9999 -9999 -9999 -9999 -9999 -9999 -9999 -9999 -9999 -9999 -9999 -9999 -9999 -9999 -9999 -9999 -9999 -9999 -9999 -9999 -9999 -9999 -9999 -9999 26.2345679012346 26.2345679012346 26.2345679012346 26.2345679012346 26.2345679012346 26.2345679012346 26.2345679012346 26.2345679012346 26.2345679012346 26.2345679012346 26.2345679012346 26.2345679012346 26.2345679012346 26.2345679012346 26.2345679012346 10.8514190317195 -9999 -9999 -9999 -9999 5.27549824150059 5.27549824150059 5.27549824150059 5.27549824150059 3.50467289719626 5.91715976331361 3.74064837905237 3.74064837905237 3.81679389312977 0 2.73722627737226 2.73722627737226 2.73722627737226 0 2.65486725663717 14.0625 8.13008130081301 8.13008130081301 7.89889415481833 7.31981981981982 5.23560209424084 5.23560209424084 15.7342657342657 15.7342657342657 15.7342657342657 -9999 5.28541226215645 5.28541226215645 8.35654596100279 8.35654596100279 -9999 -9999 -9999 -9999 -9999 -9999 -9999 -9999 -9999 -9999 -9999 -9999 -9999 -9999 -9999 -9999 -9999 -9999 -9999 -9999 -9999 -9999 -9999 -9999 -9999 -9999 -9999 10.3448275862069 -9999 -9999 0 0 0 0 0 0 0 0 0 5.82959641255605 5.82959641255605 5.82959641255605 5.82959641255605 5.82959641255605 -9999 -9999 -9999 -9999 -9999 -9999 -9999 -9999 -9999 -9999 -9999 -9999 -9999 -9999 -9999 -9999 -9999 -9999 -9999 -9999 -9999 -9999 -9999 -9999 -9999 -9999 -9999 -9999 -9999 -9999 -9999 -9999 -9999 -9999 -9999 -9999 -9999 -9999 -9999 -9999 -9999 -9999 -9999 -9999 -9999 -9999 -9999 -9999 -9999 -9999 -9999 -9999 -9999 -9999 -9999 -9999 -9999 -9999 -9999 -9999 -9999 -9999 -9999 -9999 -9999 -9999 -9999 -9999 -9999 -9999 -9999 -9999
-9999 -9999 -9999 -9999 -9999 -9999 -9999 -9999 -9999 -9999 -9999 -9999 -9999 -9999 -9999 -9999 -9999 -9999 -9999 -9999 -9999 -9999 -9999 -9999 -9999 -9999 -9999 -9999 -9999 -9999 -9999 -9999 -9999 -9999 -9999 -9999 -9999 -9999 -9999 -9999 -9999 6.65399239543726 6.65399239543726 5.10948905109489 5.10948905109489 5.10948905109489 5.10948905109489 5.10948905109489 5.10948905109489 5.10948905109489 5.10948905109489 5.10948905109489 5.10948905109489 5.10948905109489 5.10948905109489 5.10948905109489 5.10948905109489 5.10948905109489 5.10948905109489 5.10948905109489 5.10948905109489 5.10948905109489 5.10948905109489 5.10948905109489 5.10948905109489 5.10948905109489 5.10948905109489 5.10948905109489 5.10948905109489 5.10948905109489 5.10948905109489 5.10948905109489 5.10948905109489 12.4037639007699 12.4037639007699 8.15850815850816 8.15850815850816 6.94444444444444 6.94444444444444 6.94444444444444 6.94444444444444 9.2436974789916 9.2436974789916 9.2436974789916 0 0 3.6231884057971 3.6231884057971 3.6231884057971 6.39658848614073 6.39658848614073 6.39658848614073 10.6117353308365 10.6117353308365 -9999 -9999 -9999 -9999 -9999 -9999 -9999 8.47457627118644 17.4825174825175 15.224358974359 15.224358974359 15.224358974359 15.224358974359 15.224358974359 7.46268656716418 7.46268656716418 7.46268656716418 6.92307692307692 6.92307692307692 6.92307692307692 6.92307692307692 6.92307692307692 6.92307692307692 4.84094052558783 4.84094052558783 4.84094052558783 9.28217821782178 19.2697768762677 19.2697768762677 19.2697768762677 9.28217821782178 9.28217821782178 9.28217821782178 5.58659217877095 5.58659217877095 5.38599640933573 5.38599640933573 5.38599640933573 5.38599640933573 0 0 0 0 11.7340286831812 11.7340286831812 11.7340286831812 12.2841965471448 12.2841965471448 10.5337078651685 10.5337078651685 9.38189845474614 9.38189845474614 12.2841965471448 9.38189845474614 9.38189845474614 9.38189845474614 9.38189845474614 6.4 6.4 6.4 8.81488736532811 8.81488736532811 12.7877237851662 12.7877237851662 12.7877237851662 12.7877237851662 12.7877237851662 10.7084019769358 10.7084019769358 6.94444444444444 6.94444444444444 6.94444444444444 6.94444444444444 6.94444444444444 6.94444444444444 6.94444444444444 6.94444444444444 6.94444444444444 6.94444444444444 -9999 -9999 -9999 -9999 -9999 -9999 -9999 -9999 -9999 -9999 -9999 -9999 -9999 -9999 -9999 -9999 -9999 -9999 -9999 -9999 -9999 -9999 -9999 -9999 -9999 -9999 -9999 -9999 -9999 -9999 -9999 -9999 -9999 -9999 -9999 -9999 -9999 -9999 -9999 -9999 -9999 -9999 -9999 -9999 -9999 -9999 -9999 -9999 -9999 -9999 -9999 -9999 -9999 -9999 -9999 -9999 -9999 -9999 -9999 -9999 -9999 -9999 -9999 -9999 -9999 -9999 -9999 -9999 -9999 -9999 -9999 -9999 -9999 -9999 -9999 26.2345679012346 26.2345679012346 26.2345679012346 26.2345679012346 26.2345679012346 26.2345679012346 26.2345679012346 26.2345679012346 26.2345679012346 26.2345679012346 26.2345679012346 26.2345679012346 26.2345679012346 26.2345679012346 26.2345679012346 26.2345679012346 26.2345679012346 26.2345679012346 -9999 -9999 5.27549824150059 5.27549824150059 5.27549824150059 5.27549824150059 5.27549824150059 3.50467289719626 3.74064837905237 3.74064837905237 3.81679389312977 0 0 0 0 0 2.65486725663717 4.93218249075216 3.77155172413793 3.77155172413793 7.89889415481833 7.31981981981982 7.31981981981982 12.0772946859903 12.0772946859903 15.7342657342657 15.7342657342657 -9999 -9999 -9999 -9999 -9999 -9999 -9999 -9999 -9999 -9999 -9999 -9999 -9999 6.97211155378486 6.97211155378486 6.97211155378486 6.97211155378486 6.97211155378486 -9999 -9999 -9999 -9999 -9999 -9999 -9999 -9999 -9999 -9999 -9999 -9999 -9999 -9999 -9999 10.3448275862069 7.59219088937093 10.2523659305994 10.2523659305994 0 0 0 0 0 0 0 5.82959641255605 5.82959641255605 5.82959641255605 5.82959641255605 5.82959641255605 -9999 -9999 -9999 -9999 -9999 -9999 -9999 -9999 -9999 -9999 -9999 -9999 -9999 -9999 -9999 -9999 -9999 -9999 -9999 -9999 -9999 -9999 -9999 -9999 -9999 -9999 -9999 -9999 -9999 -9999 -9999 -9999 -9999 -9999 -9999 -9999 -9999 -9999 -9999 -9999 -9999 -9999 -9999 -9999 -9999 -9999 -9999 -9999 -9999 -9999 -9999 -9999 -9999 -9999 -9999 -9999 -9999 -9999 -9999 -9999 -9999 -9999 -9999 -9999 -9999 -9999 -9999 -9999 -9999 -9999 -9999 -9999 -9999
-9999 -9999 -9999 -9999 -9999 -9999 -9999 -9999 -9999 -9999 -9999 -9999 -9999 -9999 -9999 -9999 -9999 -9999 -9999 -9999 -9999 -9999 -9999 -9999 -9999 -9999 -9999 -9999 -9999 -9999 -9999 -9999 -9999 -9999 6.65399239543726 6.65399239543726 6.65399239543726 6.65399239543726 6.65399239543726 6.65399239543726 6.65399239543726 6.65399239543726 5.10948905109489 5.10948905109489 5.10948905109489 5.10948905109489 5.10948905109489 5.10948905109489 5.10948905109489 5.10948905109489 5.10948905109489 5.10948905109489 5.10948905109489 5.10948905109489 5.10948905109489 5.10948905109489 5.10948905109489 5.10948905109489 5.10948905109489 5.10948905109489 5.10948905109489 5.10948905109489 5.10948905109489 5.10948905109489 5.10948905109489 5.10948905109489 5.10948905109489 5.10948905109489 5.10948905109489 5.10948905109489 5.10948905109489 5.10948905109489 5.10948905109489 5.10948905109489 8.15850815850816 8.15850815850816 8.15850815850816 8.15850815850816 6.94444444444444 6.94444444444444 9.2436974789916 9.2436974789916 0 0 0 0 3.6231884057971 3.6231884057971 3.6231884057971 3.6231884057971 10.6117353308365 10.6117353308365 10.6117353308365 -9999 -9999 -9999 -9999 -9999 -9999 -9999 -9999 8.47457627118644 8.47457627118644 15.224358974359 15.224358974359 15.224358974359 15.224358974359 15.224358974359 15.224358974359 7.46268656716418 7.46268656716418 7.46268656716418 6.92307692307692 7.46268656716418 6.92307692307692 4.84094052558783 4.84094052558783 4.84094052558783 4.84094052558783 4.84094052558783 4.84094052558783 9.28217821782178 9.28217821782178 9.28217821782178 9.28217821782178 5.58659217877095 9.28217821782178 5.58659217877095 5.58659217877095 5.58659217877095 5.38599640933573 5.38599640933573 5.38599640933573 6.32911392405063 6.32911392405063 11.7340286831812 11.7340286831812 11.7340286831812 11.7340286831812 10.1641907740422 10.1641907740422 10.5337078651685 10.5337078651685 10.5337078651685 10.5337078651685 9.38189845474614 9.38189845474614 9.38189845474614 9.38189845474614 9.38189845474614 10.0502512562814 10.0502512562814 6.4 6.4 10.7084019769358 10.7084019769358 10.7084019769358 10.7084019769358 10.7084019769358 12.7877237851662 10.7084019769358 10.7084019769358 10.7084019769358 10.7084019769358 6.94444444444444 6.94444444444444 6.94444444444444 6.94444444444444 6.94444444444444 6.94444444444444 5.20833333333333 5.20833333333333 5.20833333333333 5.20833333333333 -9999 -9999 -9999 -9999 -9999 -9999 -9999 -9999 -9999 -9999 -9999 -9999 -9999 -9999 -9999 -9999 -9999 -9999 -9999 -9999 -9999 -9999 -9999 -9999 -9999 -9999 -9999 -9999 -9999 -9999 -9999 -9999 -9999 -9999 -9999 -9999 -9999 -9999 -9999 -9999 -9999 -9999 -9999 -9999 -9999 -9999 -9999 -9999 -9999 -9999 -9999 -9999 -9999 -9999 -9999 -9999 -9999 -9999 -9999 -9999 -9999 -9999 -9999 -9999 -9999 -9999 -9999 -9999 -9999 -9999 -9999 -9999 26.2345679012346 26.2345679012346 26.2345679012346 26.2345679012346 26.2345679012346 26.2345679012346 26.2345679012346 26.2345679012346 26.2345679012346 26.2345679012346 26.2345679012346 26.2345679012346 26.2345679012346 26.2345679012346 26.2345679012346 26.2345679012346 26.2345679012346 26.2345679012346 -9999 -9999 -9999 -9999 -9999 -9999 5.27549824150059 5.27549824150059 5.27549824150059 4.41501103752759 4.41501103752759 3.74064837905237 3.74064837905237 13.8648180242634 13.8648180242634 0 3.57142857142857 3.57142857142857 8.21167883211679 3.77155172413793 3.77155172413793 10.2880658436214 10.2880658436214 13.6138613861386 12.0772946859903 12.0772946859903 15.7342657342657 15.7342657342657 -9999 -9999 -9999 -9999 -9999 -9999 -9999 -9999 -9999 -9999 -9999 -9999 6.97211155378486 6.97211155378486 6.97211155378486 6.97211155378486 6.97211155378486 6.97211155378486 6.97211155378486 5.46021840873635 -9999 -9999 -9999 -9999 -9999 -9999 -9999 -9999 -9999 -9999 -9999 -9999 -9999 10.3448275862069 5.88235294117647 5.79470198675497 10.2523659305994 0 0 0 -9999 -9999 0 0 5.82959641255605 5.82959641255605 14.3288084464555 -9999 -9999 -9999 -9999 -9999 -9999 -9999 -9999 -9999 -9999 -9999 -9999 -9999 -9999 -9999 -9999 -9999 -9999 -9999 -9999 -9999 -9999 -9999 -9999 -9999 -9999 -9999 -9999 -9999 -9999 -9999 -9999 -9999 -9999 -9999 -9999 -9999 -9999 -9999 -9999 -9999 -9999 -9999 -9999 -9999 -9999 -9999 -9999 -9999 -9999 -9999 -9999 -9999 -9999 -9999 -9999 -9999 -9999 -9999 -9999 -9999 -9999 -9999 -9999 -9999 -9999 -9999 -9999 -9999 -9999 -9999 -9999 -9999 -9999 -9999 -9999
-9999 -9999 -9999 -9999 -9999 -9999 -9999 -9999 -9999 -9999 -9999 -9999 -9999 -9999 -9999 -9999 -9999 -9999 -9999 -9999 -9999 -9999 -9999 -9999 -9999 -9999 -9999 -9999 -9999 -9999 -9999 -9999 -9999 -9999 6.65399239543726 6.65399239543726 6.65399239543726 6.65399239543726 6.65399239543726 6.65399239543726 5.10948905109489 5.10948905109489 5.10948905109489 5.10948905109489 5.10948905109489 5.10948905109489 5.10948905109489 5.10948905109489 5.10948905109489 5.10948905109489 5.10948905109489 5.10948905109489 5.10948905109489 5.10948905109489 5.10948905109489 5.10948905109489 5.10948905109489 5.10948905109489 5.10948905109489 5.10948905109489 5.10948905109489 5.10948905109489 5.10948905109489 5.10948905109489 5.10948905109489 5.10948905109489 5.10948905109489 5.10948905109489 5.10948905109489 5.10948905109489 5.10948905109489 5.10948905109489 5.10948905109489 5.10948905109489 5.10948905109489 8.15850815850816 8.15850815850816 8.15850815850816 6.94444444444444 6.94444444444444 6.6079295154185 6.6079295154185 6.6079295154185 0 0 0 0 0 0 10.6117353308365 10.6117353308365 10.6117353308365 10.6117353308365 -9999 -9999 -9999 -9999 -9999 -9999 -9999 8.47457627118644 8.47457627118644 8.47457627118644 15.224358974359 15.224358974359 15.224358974359 15.224358974359 15.224358974359 15.224358974359 15.224358974359 7.46268656716418 7.46268656716418 7.46268656716418 4.84094052558783 4.84094052558783 4.84094052558783 4.84094052558783 4.84094052558783 4.84094052558783 4.84094052558783 4.84094052558783 9.28217821782178 9.28217821782178 9.28217821782178 9.28217821782178 5.58659217877095 5.58659217877095 5.58659217877095 5.58659217877095 5.58659217877095 6.32911392405063 6.32911392405063 6.32911392405063 11.7340286831812 11.7340286831812 11.7340286831812 8.58951175406871 10.1641907740422 10.1641907740422 10.1641907740422 10.1641907740422 10.1641907740422 10.5337078651685 10.5337078651685 10.5337078651685 9.38189845474614 9.38189845474614 9.38189845474614 11.5853658536585 11.5853658536585 6.4 6.4 4.96941896024465 4.96941896024465 10.7084019769358 10.7084019769358 10.7084019769358 10.7084019769358 10.7084019769358 10.7084019769358 13.5309278350515 10.7084019769358 10.7084019769358 13.5309278350515 13.5309278350515 6.94444444444444 6.94444444444444 6.94444444444444 5.20833333333333 5.20833333333333 5.20833333333333 5.20833333333333 5.20833333333333 5.20833333333333 5.20833333333333 -9999 -9999 -9999 -9999 -9999 -9999 -9999 -9999 -9999 -9999 -9999 -9999 -9999 -9999 -9999 -9999 -9999 -9999 -9999 -9999 -9999 -9999 -9999 -9999 -9999 -9999 -9999 -9999 -9999 -9999 -9999 -9999 -9999 -9999 -9999 -9999 -9999 -9999 -9999 -9999 -9999 -9999 -9999 -9999 -9999 -9999 -9999 -9999 -9999 -9999 -9999 -9999 -9999 -9999 -9999 -9999 -9999 -9999 -9999 -9999 -9999 -9999 -9999 -9999 -9999 -9999 -9999 -9999 -9999 -9999 26.2345679012346 26.2345679012346 26.2345679012346 26.2345679012346 26.2345679012346 26.2345679012346 26.2345679012346 26.2345679012346 26.2345679012346 26.2345679012346 26.2345679012346 26.2345679012346 26.2345679012346 26.2345679012346 26.2345679012346 26.2345679012346 26.2345679012346 26.2345679012346 -9999 -9999 -9999 -9999 -9999 -9999 -9999 -9999 -9999 4.41501103752759 4.41501103752759 4.41501103752759 7.73993808049536 7.73993808049536 13.8648180242634 13.8648180242634 3.57142857142857 3.57142857142857 8.21167883211679 3.26492537313433 3.26492537313433 6.11620795107034 10.2880658436214 13.6138613861386 12.218045112782 12.218045112782 -9999 -9999 -9999 -9999 -9999 -9999 -9999 -9999 -9999 -9999 6.97211155378486 6.97211155378486 6.97211155378486 -9999 6.97211155378486 6.97211155378486 6.97211155378486 6.97211155378486 6.97211155378486 6.97211155378486 6.97211155378486 5.46021840873635 5.46021840873635 5.46021840873635 5.46021840873635 -9999 9.46969696969697 9.46969696969697 -9999 -9999 -9999 -9999 -9999 -9999 -9999 -9999 -9999 -9999 6.54450261780105 6.54450261780105 9.1743119266055 6.28366247755835 -9999 -9999 -9999 0 0 5.82959641255605 14.3288084464555 14.3288084464555 14.3288084464555 -9999 -9999 -9999 -9999 -9999 -9999 -9999 -9999 -9999 -9999 -9999 -9999 -9999 -9999 -9999 -9999 -9999 -9999 -9999 -9999 -9999 -9999 -9999 -9999 -9999 -9999 -9999 -9999 -9999 -9999 -9999 -9999 -9999 -9999 -9999 -9999 -9999 -9999 -9999 -9999 -9999 -9999 -9999 -9999 -9999 -9999 -9999 -9999 -9999 -9999 -9999 -9999 -9999 -9999 -9999 -9999 -9999 -9999 -9999 -9999 -9999 -9999 -9999 -9999 -9999 -9999 -9999 -9999 -9999 -9999 -9999 -9999 -9999 -9999 -9999
-9999 -9999 -9999 -9999 -9999 -9999 -9999 -9999 -9999 -9999 -9999 -9999 -9999 -9999 -9999 -9999 -9999 -9999 -9999 -9999 -9999 -9999 -9999 -9999 -9999 -9999 -9999 -9999 -9999 -9999 -9999 -9999 6.65399239543726 6.65399239543726 6.65399239543726 6.65399239543726 5.10948905109489 5.10948905109489 5.10948905109489 5.10948905109489 5.10948905109489 5.10948905109489 5.10948905109489 5.10948905109489 5.10948905109489 5.10948905109489 5.10948905109489 5.10948905109489 5.10948905109489 5.10948905109489 5.10948905109489 5.10948905109489 5.10948905109489 5.10948905109489 5.10948905109489 5.10948905109489 5.10948905109489 5.10948905109489 5.10948905109489 5.10948905109489 5.10948905109489 5.10948905109489 5.10948905109489 5.10948905109489 5.10948905109489 5.10948905109489 5.10948905109489 5.10948905109489 5.10948905109489 5.10948905109489 5.10948905109489 5.10948905109489 5.10948905109489 5.10948905109489 5.10948905109489 5.10948905109489 8.15850815850816 8.15850815850816 0 0 0 6.6079295154185 6.6079295154185 6.6079295154185 6.6079295154185 6.6079295154185 6.6079295154185 10.6117353308365 10.6117353308365 10.6117353308365 10.6117353308365 10.6117353308365 -9999 -9999 -9999 -9999 -9999 -9999 -9999 8.47457627118644 8.47457627118644 8.47457627118644 7.83360345759049 7.83360345759049 15.224358974359 15.224358974359 15.224358974359 15.224358974359 15.224358974359 15.224358974359 15.224358974359 9.78915662650602 9.78915662650602 4.84094052558783 4.84094052558783 4.84094052558783 4.84094052558783 4.84094052558783 4.84094052558783 4.84094052558783 4.84094052558783 4.84094052558783 9.28217821782178 5.58659217877095 5.58659217877095 5.58659217877095 5.58659217877095 6.32911392405063 6.32911392405063 6.32911392405063 6.32911392405063 11.7340286831812 11.7340286831812 11.7340286831812 8.58951175406871 8.58951175406871 8.58951175406871 8.58951175406871 10.1641907740422 10.1641907740422 10.1641907740422 10.1641907740422 10.1641907740422 10.5337078651685 10.5337078651685 11.5853658536585 11.5853658536585 11.5853658536585 11.5853658536585 11.5853658536585 3.66748166259169 3.66748166259169 4.96941896024465 4.96941896024465 4.96941896024465 4.96941896024465 10.7084019769358 10.7084019769358 13.5309278350515 13.5309278350515 13.5309278350515 13.5309278350515 13.5309278350515 13.5309278350515 13.5309278350515 13.5309278350515 5.20833333333333 5.20833333333333 5.20833333333333 5.20833333333333 5.20833333333333 5.20833333333333 5.20833333333333 5.20833333333333 5.20833333333333 -9999 -9999 -9999 -9999 -9999 -9999 -9999 -9999 -9999 -9999 -9999 -9999 -9999 -9999 -9999 -9999 -9999 -9999 -9999 -9999 -9999 -9999 -9999 -9999 -9999 -9999 -9999 -9999 -9999 -9999 -9999 -9999 -9999 -9999 -9999 -9999 -9999 -9999 -9999 -9999 -9999 -9999 -9999 -9999 -9999 -9999 -9999 -9999 -9999 -9999 -9999 -9999 -9999 -9999 -9999 -9999 -9999 -9999 -9999 -9999 -9999 -9999 -9999 -9999 -9999 -9999 -9999 -9999 -9999 26.2345679012346 26.2345679012346 26.2345679012346 26.2345679012346 26.2345679012346 26.2345679012346 -9999 26.2345679012346 26.2345679012346 26.2345679012346 26.2345679012346 26.2345679012346 26.2345679012346 26.2345679012346 26.2345679012346 26.2345679012346 26.2345679012346 26.2345679012346 -9999 -9999 -9999 -9999 -9999 -9999 -9999 -9999 -9999 19.5530726256983 10.3986135181976 10.3986135181976 10.3986135181976 7.73993808049536 7.73993808049536 7.73993808049536 3.57142857142857 3.57142857142857 10.6382978723404 35.6083086053413 35.6083086053413 22.8136882129278 22.8136882129278 6.11620795107034 22.8136882129278 19.6540880503145 -9999 -9999 -9999 -9999 -9999 4.66417910447761 -9999 -9999 -9999 -9999 10.250569476082 10.250569476082 6.97211155378486 6.97211155378486 6.97211155378486 6.97211155378486 6.97211155378486 6.97211155378486 6.97211155378486 6.97211155378486 6.97211155378486 5.46021840873635 5.46021840873635 5.46021840873635 5.46021840873635 9.46969696969697 9.46969696969697 9.46969696969697 9.46969696969697 9.46969696969697 9.46969696969697 9.46969696969697 -9999 -9999 -9999 -9999 -9999 -9999 0 0 9.86842105263158 9.1743119266055 -9999 -9999 -9999 0 0 0 4.75285171102662 4.75285171102662 14.3288084464555 14.3288084464555 -9999 -9999 -9999 -9999 -9999 -9999 -9999 -9999 -9999 -9999 -9999 -9999 -9999 -9999 -9999 -9999 -9999 -9999 -9999 -9999 -9999 -9999 -9999 -9999 -9999 -9999 -9999 -9999 -9999 -9999 -9999 -9999 -9999 -9999 -9999 -9999 -9999 -9999 -9999 -9999 -9999 -9999 -9999 -9999 -9999 -9999 -9999 -9999 -9999 -9999 -9999 -9999 -9999 -9999 -9999 -9999 -9999 -9999 -9999 -9999 -9999 -9999 -9999 -9999 -9999 -9999 -9999 -9999 -9999 -9999 -9999 -9999 -9999 -9999 -9999
-9999 -9999 -9999 -9999 -9999 -9999 -9999 -9999 -9999 -9999 -9999 -9999 -9999 -9999 -9999 -9999 -9999 -9999 -9999 -9999 -9999 -9999 -9999 -9999 -9999 -9999 -9999 -9999 -9999 -9999 -9999 6.65399239543726 6.65399239543726 6.65399239543726 5.10948905109489 5.10948905109489 5.10948905109489 5.10948905109489 5.10948905109489 5.10948905109489 5.10948905109489 5.10948905109489 5.10948905109489 5.10948905109489 5.10948905109489 5.10948905109489 5.10948905109489 5.10948905109489 5.10948905109489 5.10948905109489 5.10948905109489 5.10948905109489 5.10948905109489 5.10948905109489 5.10948905109489 5.10948905109489 5.10948905109489 5.10948905109489 5.10948905109489 5.10948905109489 5.10948905109489 5.10948905109489 5.10948905109489 5.10948905109489 5.10948905109489 5.10948905109489 5.10948905109489 5.10948905109489 5.10948905109489 5.10948905109489 5.10948905109489 5.10948905109489 5.10948905109489 5.10948905109489 5.10948905109489 5.10948905109489 5.10948905109489 5.10948905109489 0 0 0 0 6.6079295154185 6.6079295154185 6.6079295154185 0 0 0 10.6117353308365 10.6117353308365 -9999 -9999 -9999 -9999 -9999 -9999 -9999 -9999 8.47457627118644 8.47457627118644 7.83360345759049 7.83360345759049 7.83360345759049 7.83360345759049 15.224358974359 15.224358974359 15.224358974359 15.224358974359 15.224358974359 9.78915662650602 9.78915662650602 9.78915662650602 9.78915662650602 9.78915662650602 4.84094052558783 4.84094052558783 7.04697986577181 7.04697986577181 4.84094052558783 4.84094052558783 4.84094052558783 4.84094052558783 4.84094052558783 5.58659217877095 5.58659217877095 8.56164383561644 8.56164383561644 8.56164383561644 8.58951175406871 6.32911392405063 6.32911392405063 8.58951175406871 8.58951175406871 8.58951175406871 8.58951175406871 8.58951175406871 8.58951175406871 8.58951175406871 8.58951175406871 10.1641907740422 10.1641907740422 10.1641907740422 10.1641907740422 10.1641907740422 11.5853658536585 11.5853658536585 11.5853658536585 11.5853658536585 3.66748166259169 3.66748166259169 3.66748166259169 3.66748166259169 4.96941896024465 4.96941896024465 -9999 4.96941896024465 10.7084019769358 13.5309278350515 -9999 13.5309278350515 13.5309278350515 13.5309278350515 13.5309278350515 13.5309278350515 5.20833333333333 5.20833333333333 5.20833333333333 5.20833333333333 5.20833333333333 5.20833333333333 5.20833333333333 5.20833333333333 5.20833333333333 5.20833333333333 5.20833333333333 -9999 -9999 -9999 -9999 -9999 -9999 -9999 -9999 -9999 -9999 -9999 -9999 -9999 -9999 -9999 -9999 -9999 -9999 -9999 -9999 -9999 -9999 -9999 -9999 -9999 -9999 -9999 -9999 -9999 -9999 -9999 -9999 -9999 -9999 -9999 -9999 -9999 -9999 -9999 -9999 -9999 -9999 -9999 -9999 -9999 -9999 -9999 -9999 -9999 -9999 -9999 -9999 -9999 -9999 -9999 -9999 -9999 -9999 -9999 -9999 -9999 -9999 -9999 -9999 -9999 -9999 26.2345679012346 26.2345679012346 26.2345679012346 26.2345679012346 26.2345679012346 26.2345679012346 26.2345679012346 26.2345679012346 26.2345679012346 -9999 -9999 26.2345679012346 26.2345679012346 26.2345679012346 26.2345679012346 26.2345679012346 26.2345679012346 26.2345679012346 26.2345679012346 -9999 -9999 -9999 -9999 -9999 -9999 -9999 -9999 -9999 -9999 19.5530726256983 19.5530726256983 19.5530726256983 4.23728813559322 10.3986135181976 10.3986135181976 10.3986135181976 14.3884892086331 14.3884892086331 14.3884892086331 3.57142857142857 28.5087719298246 28.5087719298246 22.8136882129278 22.8136882129278 22.8136882129278 19.6540880503145 19.6540880503145 19.6540880503145 4.44726810673443 -9999 -9999 10.3448275862069 4.66417910447761 10.3448275862069 10.3448275862069 -9999 10.250569476082 10.250569476082 10.250569476082 6.97211155378486 6.97211155378486 6.97211155378486 6.97211155378486 6.97211155378486 6.97211155378486 5.46021840873635 5.46021840873635 5.46021840873635 5.46021840873635 5.46021840873635 5.46021840873635 9.46969696969697 9.46969696969697 9.46969696969697 9.46969696969697 9.46969696969697 20.3619909502262 20.3619909502262 20.3619909502262 15.1515151515152 15.1515151515152 15.1515151515152 -9999 -9999 -9999 -9999 -9999 -9999 -9999 -9999 -9999 -9999 -9999 0 7.18132854578097 7.18132854578097 7.84929356357928 4.75285171102662 7.84929356357928 -9999 -9999 -9999 -9999 -9999 -9999 -9999 5.14705882352941 -9999 -9999 -9999 -9999 -9999 -9999 -9999 -9999 -9999 -9999 -9999 -9999 -9999 -9999 -9999 -9999 -9999 -9999 -9999 -9999 -9999 -9999 -9999 -9999 -9999 -9999 -9999 -9999 -9999 -9999 -9999 -9999 -9999 -9999 -9999 -9999 -9999 -9999 -9999 -9999 -9999 -9999 -9999 -9999 -9999 -9999 -9999 -9999 -9999 -9999 -9999 -9999 -9999 -9999 -9999 -9999 -9999 -9999 -9999 -9999 -9999 -9999 -9999 -9999 -9999 -9999 -9999
-9999 -9999 -9999 -9999 -9999 -9999 -9999 -9999 -9999 -9999 -9999 -9999 -9999 -9999 -9999 -9999 -9999 -9999 -9999 -9999 -9999 -9999 -9999 -9999 -9999 -9999 -9999 -9999 -9999 -9999 6.65399239543726 6.65399239543726 6.65399239543726 6.65399239543726 5.10948905109489 5.10948905109489 5.10948905109489 5.10948905109489 5.10948905109489 5.10948905109489 5.10948905109489 5.10948905109489 5.10948905109489 5.10948905109489 5.10948905109489 5.10948905109489 5.10948905109489 5.10948905109489 5.10948905109489 5.10948905109489 5.10948905109489 5.10948905109489 5.10948905109489 5.10948905109489 5.10948905109489 5.10948905109489 5.10948905109489 5.10948905109489 5.10948905109489 5.10948905109489 5.10948905109489 5.10948905109489 5.10948905109489 5.10948905109489 5.10948905109489 5.10948905109489 5.10948905109489 5.10948905109489 5.10948905109489 5.10948905109489 5.10948905109489 5.10948905109489 5.10948905109489 5.10948905109489 5.10948905109489 5.10948905109489 5.10948905109489 5.10948905109489 5.10948905109489 0 0 0 0 4.40528634361234 4.40528634361234 4.40528634361234 0 0 0 -9999 -9999 -9999 -9999 -9999 -9999 2.68456375838926 2.68456375838926 8.47457627118644 8.47457627118644 8.47457627118644 7.83360345759049 7.83360345759049 7.83360345759049 7.83360345759049 7.83360345759049 15.224358974359 15.224358974359 10.5509964830012 9.78915662650602 9.78915662650602 9.78915662650602 9.78915662650602 9.78915662650602 9.78915662650602 4.84094052558783 4.84094052558783 7.04697986577181 7.04697986577181 0 0 0 0 0 8.56164383561644 8.56164383561644 8.56164383561644 8.56164383561644 8.56164383561644 8.58951175406871 8.58951175406871 8.58951175406871 8.58951175406871 8.58951175406871 8.58951175406871 8.58951175406871 8.58951175406871 8.58951175406871 8.58951175406871 8.58951175406871 8.58951175406871 10.1641907740422 10.1641907740422 10.1641907740422 10.1641907740422 10.1641907740422 11.5853658536585 11.5853658536585 5.05050505050505 3.66748166259169 3.66748166259169 4.96941896024465 4.96941896024465 4.96941896024465 -9999 -9999 -9999 -9999 13.5309278350515 13.5309278350515 -9999 -9999 13.5309278350515 5.20833333333333 5.20833333333333 5.20833333333333 5.20833333333333 5.20833333333333 5.20833333333333 5.20833333333333 5.20833333333333 5.20833333333333 5.20833333333333 5.20833333333333 5.20833333333333 -9999 -9999 -9999 -9999 -9999 -9999 -9999 -9999 -9999 -9999 -9999 -9999 -9999 -9999 -9999 -9999 -9999 -9999 -9999 -9999 -9999 -9999 -9999 -9999 -9999 -9999 -9999 -9999 -9999 -9999 -9999 -9999 -9999 -9999 -9999 -9999 -9999 -9999 -9999 -9999 -9999 -9999 -9999 -9999 -9999 -9999 -9999 -9999 -9999 -9999 -9999 -9999 -9999 -9999 -9999 -9999 -9999 -9999 -9999 -9999 -9999 -9999 -9999 -9999 -9999 -9999 -9999 -9999 26.2345679012346 26.2345679012346 26.2345679012346 26.2345679012346 26.2345679012346 26.2345679012346 26.2345679012346 -9999 -9999 -9999 -9999 -9999 26.2345679012346 26.2345679012346 26.2345679012346 26.2345679012346 26.2345679012346 -9999 -9999 -9999 -9999 -9999 -9999 -9999 -9999 -9999 -9999 9.01803607214429 9.01803607214429 19.5530726256983 19.5530726256983 15.0093808630394 4.23728813559322 4.23728813559322 7.38916256157635 7.38916256157635 7.38916256157635 14.3884892086331 8.68725868725869 8.68725868725869 11.9047619047619 11.9047619047619 22.8136882129278 28.4431137724551 16.8161434977578 19.6540880503145 4.44726810673443 4.44726810673443 4.44726810673443 26.7379679144385 20.23988005997 20.23988005997 10.3448275862069 10.3448275862069 10.3448275862069 10.250569476082 10.250569476082 10.250569476082 10.250569476082 6.97211155378486 6.97211155378486 5.46021840873635 5.46021840873635 5.46021840873635 5.46021840873635 9.07258064516129 9.07258064516129 9.07258064516129 9.07258064516129 9.07258064516129 9.07258064516129 23.5602094240838 4.79616306954436 4.79616306954436 4.79616306954436 4.79616306954436 20.3619909502262 15.1515151515152 15.1515151515152 15.1515151515152 14.3929912390488 14.3929912390488 20.8 20.8 20.8 -9999 -9999 -9999 -9999 -9999 -9999 -9999 -9999 7.18132854578097 7.84929356357928 7.84929356357928 7.84929356357928 7.84929356357928 7.84929356357928 7.84929356357928 7.84929356357928 -9999 -9999 5.14705882352941 5.14705882352941 5.14705882352941 -9999 -9999 -9999 -9999 -9999 -9999 -9999 -9999 -9999 -9999 -9999 -9999 -9999 -9999 -9999 -9999 -9999 -9999 -9999 -9999 -9999 -9999 -9999 -9999 -9999 -9999 -9999 -9999 -9999 -9999 -9999 -9999 -9999 -9999 -9999 -9999 -9999 -9999 -9999 -9999 -9999 -9999 -9999 -9999 -9999 -9999 -9999 -9999 -9999 -9999 -9999 -9999 -9999 -9999 -9999 -9999 -9999 -9999 -9999 -9999 -9999 -9999 -9999 -9999 -9999 -9999 -9999
-9999 -9999 -9999 -9999 -9999 -9999 -9999 -9999 -9999 -9999 -9999 -9999 -9999 -9999 -9999 -9999 -9999 -9999 -9999 -9999 -9999 -9999 -9999 -9999 -9999 -9999 -9999 -9999 -9999 -9999 6.65399239543726 6.65399239543726 6.65399239543726 6.65399239543726 6.65399239543726 5.10948905109489 5.10948905109489 5.10948905109489 5.10948905109489 5.10948905109489 5.10948905109489 5.10948905109489 5.10948905109489 5.10948905109489 5.10948905109489 5.10948905109489 5.10948905109489 5.10948905109489 5.10948905109489 5.10948905109489 5.10948905109489 5.10948905109489 5.10948905109489 5.10948905109489 5.10948905109489 5.10948905109489 5.10948905109489 5.10948905109489 5.10948905109489 5.10948905109489 5.10948905109489 5.10948905109489 5.10948905109489 5.10948905109489 5.10948905109489 5.10948905109489 5.10948905109489 5.10948905109489 5.10948905109489 5.10948905109489 5.10948905109489 5.10948905109489 5.10948905109489 5.10948905109489 5.10948905109489 5.10948905109489 5.10948905109489 5.10948905109489 5.10948905109489 5.10948905109489 0 0 0 0 4.40528634361234 4.40528634361234 4.40528634361234 -9999 -9999 -9999 -9999 2.68456375838926 2.68456375838926 2.68456375838926 2.68456375838926 2.68456375838926 2.68456375838926 2.68456375838926 8.47457627118644 7.83360345759049 7.83360345759049 7.83360345759049 7.83360345759049 7.83360345759049 7.83360345759049 11.7130307467057 10.5509964830012 10.5509964830012 10.5509964830012 9.78915662650602 10.5509964830012 7.04697986577181 7.04697986577181 7.04697986577181 7.04697986577181 7.04697986577181 7.04697986577181 7.04697986577181 0 0 7.04697986577181 7.17213114754098 8.56164383561644 8.56164383561644 7.17213114754098 7.17213114754098 8.56164383561644 8.58951175406871 8.58951175406871 8.58951175406871 8.58951175406871 8.58951175406871 8.58951175406871 8.58951175406871 8.58951175406871 8.58951175406871 8.58951175406871 8.58951175406871 8.58951175406871 8.58951175406871 8.58951175406871 10.1641907740422 10.1641907740422 10.1641907740422 10.1641907740422 10.1641907740422 5.05050505050505 5.05050505050505 5.05050505050505 5.05050505050505 5.05050505050505 4.96941896024465 -9999 -9999 4.96941896024465 4.96941896024465 -9999 -9999 -9999 -9999 5.20833333333333 5.20833333333333 5.20833333333333 5.20833333333333 5.20833333333333 5.20833333333333 5.20833333333333 5.20833333333333 5.20833333333333 5.20833333333333 5.20833333333333 5.20833333333333 5.20833333333333 5.20833333333333 5.20833333333333 -9999 -9999 -9999 -9999 -9999 -9999 -9999 -9999 -9999 -9999 -9999 -9999 -9999 -9999 -9999 -9999 -9999 -9999 -9999 -9999 -9999 -9999 -9999 -9999 -9999 -9999 -9999 -9999 -9999 -9999 -9999 -9999 -9999 -9999 -9999 -9999 -9999 -9999 -9999 -9999 -9999 -9999 -9999 -9999 -9999 -9999 -9999 -9999 -9999 -9999 -9999 -9999 -9999 -9999 -9999 -9999 -9999 -9999 -9999 -9999 -9999 -9999 -9999 -9999 -9999 -9999 -9999 -9999 -9999 26.2345679012346 26.2345679012346 26.2345679012346 26.2345679012346 26.2345679012346 -9999 -9999 -9999 -9999 -9999 -9999 26.2345679012346 26.2345679012346 26.2345679012346 -9999 -9999 -9999 -9999 -9999 -9999 -9999 -9999 -9999 -9999 -9999 9.01803607214429 9.01803607214429 9.01803607214429 18.7376725838264 15.0093808630394 15.0093808630394 12.621359223301 12.621359223301 7.38916256157635 7.38916256157635 7.16845878136201 7.16845878136201 10.0502512562814 10.0502512562814 11.9047619047619 11.9047619047619 11.9047619047619 16.8161434977578 16.8161434977578 20.8747514910537 20.8747514910537 26.7379679144385 26.7379679144385 26.7379679144385 26.7379679144385 20.23988005997 20.23988005997 10.3448275862069 10.3448275862069 10.3448275862069 10.250569476082 16.9082125603865 16.9082125603865 5.46021840873635 5.46021840873635 3.85356454720617 3.85356454720617 3.85356454720617 3.85356454720617 9.07258064516129 9.07258064516129 9.07258064516129 9.07258064516129 23.5602094240838 23.5602094240838 23.5602094240838 23.5602094240838 4.79616306954436 9.63855421686747 15.1515151515152 15.1515151515152 15.1515151515152 12.8369704749679 12.8369704749679 20.8 20.8 20.8 20.8 -9999 -9999 -9999 -9999 15.1228733459357 15.1228733459357 -9999 7.18132854578097 7.84929356357928 7.84929356357928 7.84929356357928 7.84929356357928 7.84929356357928 7.84929356357928 7.84929356357928 -9999 5.14705882352941 5.14705882352941 5.14705882352941 5.14705882352941 3.96039603960396 3.96039603960396 -9999 -9999 -9999 -9999 -9999 -9999 -9999 -9999 -9999 3.96039603960396 3.96039603960396 3.96039603960396 3.96039603960396 3.96039603960396 -9999 -9999 -9999 -9999 -9999 -9999 -9999 -9999 -9999 -9999 -9999 -9999 -9999 -9999 -9999 -9999 -9999 -9999 -9999 -9999 -9999 -9999 -9999 -9999 -9999 -9999 -9999 -9999 -9999 -9999 -9999 -9999 -9999 -9999 -9999 -9999 -9999 -9999 -9999 -9999 -9999 -9999 -9999 -9999 -9999 -9999 -9999 -9999 -9999 -9999 -9999 -9999
-9999 -9999 -9999 -9999 -9999 -9999 -9999 -9999 -9999 -9999 -9999 -9999 -9999 -9999 -9999 -9999 -9999 -9999 -9999 -9999 -9999 -9999 -9999 -9999 -9999 -9999 -9999 -9999 -9999 6.65399239543726 6.65399239543726 6.65399239543726 6.65399239543726 6.65399239543726 6.65399239543726 6.65399239543726 5.10948905109489 5.10948905109489 5.10948905109489 5.10948905109489 5.10948905109489 5.10948905109489 5.10948905109489 5.10948905109489 5.10948905109489 5.10948905109489 5.10948905109489 5.10948905109489 5.10948905109489 5.10948905109489 5.10948905109489 5.10948905109489 5.10948905109489 5.10948905109489 5.10948905109489 5.10948905109489 5.10948905109489 5.10948905109489 5.10948905109489 5.10948905109489 5.10948905109489 5.10948905109489 5.10948905109489 5.10948905109489 5.10948905109489 5.10948905109489 5.10948905109489 5.10948905109489 5.10948905109489 5.10948905109489 5.10948905109489 5.10948905109489 5.10948905109489 5.10948905109489 5.10948905109489 5.10948905109489 5.10948905109489 5.10948905109489 5.10948905109489 5.10948905109489 6.65399239543726 6.65399239543726 -9999 -9999 -9999 0 0 -9999 -9999 11.5062761506276 11.5062761506276 2.68456375838926 2.68456375838926 2.68456375838926 2.68456375838926 2.68456375838926 9.32642487046632 9.32642487046632 8.47457627118644 7.83360345759049 7.83360345759049 7.83360345759049 7.83360345759049 7.83360345759049 7.83360345759049 11.7130307467057 11.7130307467057 10.5509964830012 10.5509964830012 10.5509964830012 7.04697986577181 7.04697986577181 7.04697986577181 7.04697986577181 7.04697986577181 7.04697986577181 7.04697986577181 7.04697986577181 7.04697986577181 0 7.17213114754098 7.17213114754098 7.17213114754098 7.17213114754098 7.17213114754098 7.17213114754098 8.58951175406871 8.58951175406871 8.58951175406871 8.58951175406871 8.58951175406871 8.58951175406871 8.58951175406871 8.58951175406871 8.58951175406871 8.58951175406871 8.58951175406871 8.58951175406871 8.58951175406871 8.58951175406871 8.58951175406871 10.1641907740422 10.1641907740422 10.1641907740422 7.41839762611276 7.41839762611276 7.41839762611276 5.05050505050505 5.05050505050505 5.05050505050505 5.05050505050505 5.05050505050505 4.96941896024465 4.96941896024465 -9999 -9999 -9999 -9999 5.20833333333333 5.20833333333333 5.20833333333333 5.20833333333333 5.20833333333333 5.20833333333333 5.20833333333333 5.20833333333333 5.20833333333333 5.20833333333333 5.20833333333333 5.20833333333333 5.20833333333333 5.20833333333333 5.20833333333333 -9999 -9999 -9999 -9999 -9999 -9999 -9999 -9999 -9999 -9999 -9999 -9999 -9999 -9999 -9999 -9999 -9999 -9999 -9999 -9999 -9999 -9999 -9999 -9999 -9999 -9999 -9999 -9999 -9999 -9999 -9999 -9999 -9999 -9999 -9999 -9999 -9999 -9999 -9999 -9999 -9999 -9999 -9999 -9999 -9999 -9999 -9999 -9999 -9999 -9999 -9999 -9999 -9999 -9999 -9999 -9999 -9999 -9999 -9999 -9999 -9999 -9999 -9999 -9999 -9999 -9999 -9999 -9999 -9999 -9999 -9999 -9999 26.2345679012346 26.2345679012346 26.2345679012346 26.2345679012346 -9999 -9999 -9999 -9999 -9999 -9999 -9999 -9999 -9999 -9999 -9999 -9999 -9999 -9999 -9999 -9999 -9999 -9999 -9999 9.01803607214429 9.01803607214429 9.01803607214429 18.7376725838264 18.7376725838264 18.7376725838264 7.46268656716418 12.621359223301 12.621359223301 12.621359223301 15.9362549800797 21.2550607287449 21.2550607287449 21.2550607287449 15.7284768211921 10.989010989011 10.989010989011 11.9047619047619 10.989010989011 20.8747514910537 20.8747514910537 29.2338709677419 29.2338709677419 29.2338709677419 12.987012987013 12.987012987013 12.987012987013 18.6757215619694 20.23988005997 20.23988005997 10.3448275862069 16.9082125603865 16.9082125603865 16.9082125603865 9.51683748169839 3.85356454720617 3.85356454720617 3.85356454720617 3.85356454720617 6.27615062761506 6.27615062761506 6.27615062761506 6.27615062761506 23.5602094240838 23.5602094240838 23.5602094240838 23.5602094240838 17.1606864274571 9.63855421686747 9.63855421686747 9.63855421686747 9.63855421686747 12.8369704749679 12.8369704749679 20.8 20.8 20.8 20.8 20.8 20.8 -9999 -9999 15.1228733459357 15.1228733459357 2.25563909774436 2.25563909774436 0 0 0 7.84929356357928 7.84929356357928 7.84929356357928 7.84929356357928 5.14705882352941 5.14705882352941 5.14705882352941 5.14705882352941 5.14705882352941 5.14705882352941 3.96039603960396 3.96039603960396 3.96039603960396 3.96039603960396 3.96039603960396 3.96039603960396 3.96039603960396 3.96039603960396 3.96039603960396 3.96039603960396 3.96039603960396 3.96039603960396 3.96039603960396 3.96039603960396 3.96039603960396 3.96039603960396 3.96039603960396 -9999 -9999 -9999 -9999 -9999 -9999 -9999 -9999 -9999 -9999 -9999 -9999 -9999 -9999 -9999 -9999 -9999 -9999 -9999 -9999 -9999 -9999 -9999 -9999 -9999 -9999 -9999 -9999 -9999 -9999 -9999 -9999 -9999 -9999 -9999 -9999 -9999 -9999 -9999 -9999 -9999 -9999 -9999 -9999 -9999 -9999 -9999 -9999 -9999 -9999 -9999
-9999 -9999 -9999 -9999 -9999 -9999 -9999 -9999 -9999 -9999 -9999 -9999 -9999 -9999 -9999 -9999 -9999 -9999 -9999 -9999 -9999 -9999 -9999 -9999 -9999 -9999 -9999 -9999 -9999 6.65399239543726 6.65399239543726 6.65399239543726 6.65399239543726 6.65399239543726 6.65399239543726 6.65399239543726 6.65399239543726 5.10948905109489 5.10948905109489 5.10948905109489 5.10948905109489 5.10948905109489 5.10948905109489 5.10948905109489 5.10948905109489 5.10948905109489 5.10948905109489 5.10948905109489 5.10948905109489 5.10948905109489 5.10948905109489 5.10948905109489 5.10948905109489 5.10948905109489 5.10948905109489 5.10948905109489 5.10948905109489 5.10948905109489 5.10948905109489 5.10948905109489 5.10948905109489 5.10948905109489 5.10948905109489 5.10948905109489 5.10948905109489 5.10948905109489 5.10948905109489 5.10948905109489 5.10948905109489 5.10948905109489 5.10948905109489 5.10948905109489 5.10948905109489 5.10948905109489 5.10948905109489 5.10948905109489 5.10948905109489 5.10948905109489 5.10948905109489 5.99400599400599 6.65399239543726 6.65399239543726 -9999 -9999 -9999 -9999 -9999 -9999 11.5062761506276 11.5062761506276 11.5062761506276 11.5062761506276 12.0898100172712 2.68456375838926 2.68456375838926 9.32642487046632 9.32642487046632 9.32642487046632 7.83360345759049 7.83360345759049 7.83360345759049 7.83360345759049 7.83360345759049 7.83360345759049 7.83360345759049 11.7130307467057 11.7130307467057 11.7130307467057 10.5509964830012 10.5509964830012 7.04697986577181 7.04697986577181 7.04697986577181 7.04697986577181 7.04697986577181 7.04697986577181 7.04697986577181 8.40336134453782 8.40336134453782 0 0 0 0 7.17213114754098 6.18131868131868 8.58951175406871 8.58951175406871 8.58951175406871 8.58951175406871 8.58951175406871 8.58951175406871 8.58951175406871 8.58951175406871 8.58951175406871 8.58951175406871 8.58951175406871 8.58951175406871 8.58951175406871 8.58951175406871 8.58951175406871 8.58951175406871 10.1641907740422 7.41839762611276 7.41839762611276 7.41839762611276 7.41839762611276 7.41839762611276 7.41839762611276 5.05050505050505 5.05050505050505 5.05050505050505 4.96941896024465 4.96941896024465 4.96941896024465 -9999 -9999 5.20833333333333 5.20833333333333 5.20833333333333 5.20833333333333 5.20833333333333 5.20833333333333 5.20833333333333 5.20833333333333 5.20833333333333 5.20833333333333 5.20833333333333 5.20833333333333 5.20833333333333 5.20833333333333 5.20833333333333 5.20833333333333 5.20833333333333 -9999 -9999 -9999 -9999 -9999 -9999 -9999 -9999 -9999 -9999 -9999 -9999 -9999 -9999 -9999 -9999 -9999 -9999 -9999 -9999 -9999 -9999 -9999 -9999 -9999 -9999 -9999 -9999 -9999 -9999 -9999 -9999 -9999 -9999 -9999 -9999 -9999 -9999 -9999 -9999 -9999 -9999 -9999 -9999 -9999 -9999 -9999 -9999 -9999 -9999 -9999 -9999 -9999 -9999 -9999 -9999 -9999 -9999 -9999 -9999 -9999 -9999 -9999 -9999 -9999 -9999 -9999 -9999 -9999 -9999 -9999 -9999 -9999 -9999 26.2345679012346 -9999 -9999 -9999 -9999 -9999 -9999 -9999 -9999 -9999 -9999 -9999 -9999 -9999 -9999 -9999 -9999 -9999 8.31946755407654 8.31946755407654 8.31946755407654 9.01803607214429 18.7376725838264 18.7376725838264 18.7376725838264 18.7376725838264 7.46268656716418 7.46268656716418 7.46268656716418 7.46268656716418 15.9362549800797 15.9362549800797 15.9362549800797 15.9362549800797 15.7284768211921 15.7284768211921 15.7284768211921 15.7284768211921 8.51581508515815 10.989010989011 10.989010989011 10.989010989011 7.27272727272727 29.2338709677419 29.2338709677419 12.987012987013 12.987012987013 12.987012987013 12.987012987013 -9999 18.6757215619694 16.9082125603865 16.9082125603865 16.9082125603865 9.51683748169839 9.51683748169839 9.51683748169839 9.51683748169839 9.51683748169839 6.27615062761506 6.27615062761506 6.27615062761506 6.27615062761506 6.27615062761506 6.27615062761506 17.1606864274571 17.1606864274571 17.1606864274571 9.91189427312775 9.91189427312775 9.91189427312775 9.91189427312775 -9999 -9999 -9999 -9999 -9999 20.8 20.8 20.8 0 5.43478260869565 5.43478260869565 24.4328097731239 24.4328097731239 2.25563909774436 9.14076782449726 9.14076782449726 9.14076782449726 7.84929356357928 7.84929356357928 7.84929356357928 -9999 5.14705882352941 5.14705882352941 5.14705882352941 5.14705882352941 5.14705882352941 5.14705882352941 0 3.96039603960396 3.96039603960396 3.96039603960396 3.96039603960396 3.96039603960396 3.96039603960396 3.96039603960396 3.96039603960396 3.96039603960396 3.96039603960396 3.96039603960396 3.96039603960396 3.96039603960396 3.96039603960396 3.96039603960396 3.96039603960396 3.96039603960396 -9999 -9999 -9999 -9999 -9999 -9999 -9999 -9999 -9999 -9999 -9999 -9999 -9999 -9999 -9999 -9999 -9999 -9999 -9999 -9999 -9999 -9999 -9999 -9999 -9999 -9999 -9999 -9999 -9999 -9999 -9999 -9999 -9999 -9999 -9999 -9999 -9999 -9999 -9999 -9999 -9999 -9999 -9999 -9999 -9999 -9999 -9999 -9999 -9999 -9999 -9999
-9999 -9999 -9999 -9999 -9999 -9999 -9999 -9999 -9999 -9999 -9999 -9999 -9999 -9999 -9999 -9999 -9999 -9999 -9999 -9999 -9999 -9999 -9999 -9999 -9999 -9999 -9999 6.65399239543726 6.65399239543726 6.65399239543726 6.65399239543726 6.65399239543726 6.65399239543726 6.65399239543726 6.65399239543726 6.65399239543726 6.65399239543726 6.65399239543726 6.65399239543726 5.10948905109489 5.10948905109489 5.10948905109489 5.10948905109489 5.10948905109489 5.10948905109489 5.10948905109489 5.10948905109489 5.10948905109489 5.10948905109489 5.10948905109489 5.10948905109489 5.10948905109489 5.10948905109489 5.10948905109489 5.10948905109489 5.10948905109489 5.10948905109489 5.10948905109489 5.10948905109489 5.10948905109489 5.10948905109489 5.10948905109489 5.10948905109489 5.10948905109489 5.10948905109489 5.10948905109489 5.10948905109489 5.10948905109489 5.10948905109489 5.10948905109489 5.10948905109489 5.10948905109489 5.10948905109489 5.10948905109489 5.10948905109489 5.10948905109489 5.10948905109489 5.10948905109489 5.99400599400599 5.99400599400599 5.99400599400599 -9999 6.65399239543726 6.65399239543726 -9999 -9999 -9999 -9999 11.5062761506276 11.5062761506276 12.0898100172712 12.0898100172712 12.0898100172712 12.0898100172712 9.32642487046632 9.32642487046632 9.32642487046632 7.83360345759049 15.2057245080501 14.0845070422535 14.0845070422535 7.83360345759049 7.83360345759049 7.83360345759049 7.83360345759049 7.83360345759049 11.7130307467057 11.7130307467057 11.7130307467057 10.5509964830012 10.5509964830012 7.04697986577181 7.04697986577181 7.04697986577181 10.5555555555556 10.5555555555556 8.40336134453782 8.40336134453782 8.40336134453782 0 0 0 0 0 6.18131868131868 6.18131868131868 6.18131868131868 6.18131868131868 10.8267716535433 8.58951175406871 8.58951175406871 8.58951175406871 7.41839762611276 7.41839762611276 8.58951175406871 8.58951175406871 8.58951175406871 8.58951175406871 8.58951175406871 8.58951175406871 7.41839762611276 7.41839762611276 7.41839762611276 7.41839762611276 7.41839762611276 7.41839762611276 7.41839762611276 7.41839762611276 7.41839762611276 5.05050505050505 4.96941896024465 4.96941896024465 4.96941896024465 4.96941896024465 5.20833333333333 5.20833333333333 5.20833333333333 5.20833333333333 5.20833333333333 5.20833333333333 5.20833333333333 5.20833333333333 5.20833333333333 5.20833333333333 5.20833333333333 5.20833333333333 5.20833333333333 5.20833333333333 5.20833333333333 5.20833333333333 5.20833333333333 -9999 -9999 -9999 -9999 -9999 -9999 -9999 -9999 -9999 -9999 -9999 -9999 -9999 -9999 -9999 -9999 -9999 -9999 -9999 -9999 -9999 -9999 -9999 -9999 -9999 -9999 -9999 -9999 -9999 -9999 -9999 -9999 -9999 -9999 -9999 -9999 -9999 -9999 -9999 -9999 -9999 -9999 -9999 -9999 -9999 -9999 -9999 -9999 -9999 -9999 -9999 -9999 -9999 -9999 -9999 -9999 -9999 -9999 -9999 -9999 -9999 -9999 -9999 -9999 -9999 -9999 -9999 -9999 -9999 -9999 -9999 -9999 -9999 -9999 -9999 -9999 -9999 -9999 -9999 -9999 -9999 -9999 -9999 -9999 -9999 -9999 -9999 -9999 -9999 -9999 -9999 -9999 -9999 -9999 8.31946755407654 8.31946755407654 8.31946755407654 8.31946755407654 18.7376725838264 18.7376725838264 18.7376725838264 18.7376725838264 7.46268656716418 7.46268656716418 7.46268656716418 7.46268656716418 7.46268656716418 7.46268656716418 7.46268656716418 15.7284768211921 15.7284768211921 15.7284768211921 15.7284768211921 8.51581508515815 8.51581508515815 8.51581508515815 8.51581508515815 7.27272727272727 7.27272727272727 7.27272727272727 7.26744186046512 29.2338709677419 12.987012987013 12.987012987013 -9999 -9999 -9999 -9999 7.66129032258065 12.2249388753056 9.51683748169839 9.51683748169839 9.51683748169839 9.51683748169839 6.27615062761506 6.27615062761506 6.27615062761506 6.27615062761506 15.3429602888087 17.1606864274571 17.1606864274571 17.1606864274571 8.6342229199372 8.6342229199372 8.6342229199372 8.6342229199372 -9999 -9999 -9999 -9999 -9999 -9999 -9999 -9999 -9999 3.21888412017167 0 0 24.4328097731239 24.4328097731239 4.87329434697856 4.87329434697856 9.14076782449726 9.14076782449726 10.7398568019093 10.7398568019093 7.84929356357928 0 0 4.74683544303798 4.74683544303798 4.74683544303798 5.14705882352941 5.14705882352941 0 0 3.96039603960396 3.96039603960396 3.96039603960396 3.96039603960396 3.96039603960396 3.96039603960396 3.96039603960396 3.96039603960396 3.96039603960396 3.96039603960396 3.96039603960396 3.96039603960396 3.96039603960396 3.96039603960396 3.96039603960396 3.96039603960396 3.96039603960396 -9999 -9999 -9999 -9999 -9999 -9999 -9999 -9999 -9999 -9999 -9999 -9999 -9999 -9999 -9999 -9999 -9999 -9999 -9999 -9999 -9999 -9999 -9999 -9999 -9999 -9999 -9999 -9999 -9999 -9999 -9999 -9999 -9999 -9999 -9999 -9999 -9999 -9999 -9999 -9999 -9999 -9999 -9999 -9999 -9999 -9999 -9999 -9999 -9999 -9999 -9999
-9999 -9999 -9999 -9999 -9999 -9999 -9999 -9999 -9999 -9999 -9999 -9999 -9999 -9999 -9999 -9999 -9999 -9999 -9999 -9999 -9999 -9999 -9999 -9999 -9999 -9999 -9999 -9999 -9999 -9999 6.65399239543726 6.65399239543726 6.65399239543726 6.65399239543726 6.65399239543726 6.65399239543726 6.65399239543726 6.65399239543726 6.65399239543726 6.65399239543726 5.10948905109489 5.10948905109489 5.10948905109489 5.10948905109489 5.10948905109489 5.10948905109489 5.10948905109489 5.10948905109489 5.10948905109489 5.10948905109489 5.10948905109489 5.10948905109489 5.10948905109489 5.10948905109489 5.10948905109489 5.10948905109489 5.10948905109489 5.10948905109489 5.10948905109489 5.10948905109489 5.10948905109489 5.10948905109489 5.10948905109489 5.10948905109489 5.10948905109489 5.10948905109489 5.10948905109489 5.10948905109489 5.10948905109489 5.10948905109489 5.10948905109489 5.10948905109489 5.10948905109489 5.10948905109489 5.10948905109489 5.10948905109489 5.99400599400599 5.99400599400599 5.10948905109489 5.99400599400599 5.99400599400599 -9999 6.65399239543726 6.65399239543726 -9999 -9999 -9999 11.5062761506276 11.5062761506276 12.0898100172712 12.0898100172712 12.0898100172712 12.0898100172712 9.32642487046632 9.32642487046632 9.32642487046632 9.32642487046632 9.32642487046632 15.2057245080501 15.2057245080501 15.2057245080501 14.0845070422535 14.0845070422535 14.0845070422535 10.1214574898785 10.1214574898785 11.7130307467057 11.7130307467057 11.7130307467057 11.7130307467057 10.5509964830012 10.5509964830012 10.5509964830012 10.5555555555556 10.5555555555556 10.5555555555556 10.5555555555556 -9999 -9999 -9999 0 0 0 6.18131868131868 6.18131868131868 6.18131868131868 6.18131868131868 10.8267716535433 10.8267716535433 10.8267716535433 7.41839762611276 7.41839762611276 7.41839762611276 7.41839762611276 7.41839762611276 7.41839762611276 7.41839762611276 7.41839762611276 7.41839762611276 7.41839762611276 7.41839762611276 7.41839762611276 7.41839762611276 7.41839762611276 7.41839762611276 7.41839762611276 7.41839762611276 7.41839762611276 7.41839762611276 6.60611065235343 4.96941896024465 4.96941896024465 5.20833333333333 5.20833333333333 5.20833333333333 5.20833333333333 5.20833333333333 5.20833333333333 5.20833333333333 5.20833333333333 5.20833333333333 5.20833333333333 5.20833333333333 5.20833333333333 5.20833333333333 5.20833333333333 5.20833333333333 5.20833333333333 5.20833333333333 -9999 -9999 -9999 -9999 -9999 -9999 -9999 -9999 -9999 -9999 -9999 -9999 -9999 -9999 -9999 -9999 -9999 -9999 -9999 -9999 -9999 -9999 -9999 -9999 -9999 -9999 -9999 -9999 -9999 -9999 -9999 -9999 -9999 -9999 -9999 -9999 -9999 -9999 -9999 -9999 -9999 -9999 -9999 -9999 -9999 -9999 -9999 -9999 -9999 -9999 -9999 -9999 -9999 -9999 -9999 -9999 -9999 -9999 -9999 -9999 -9999 -9999 -9999 -9999 -9999 -9999 -9999 -9999 -9999 -9999 -9999 -9999 -9999 -9999 -9999 -9999 -9999 -9999 -9999 13.7551581843191 13.7551581843191 -9999 13.7551581843191 13.7551581843191 20.5066344993969 20.5066344993969 13.7551581843191 -9999 -9999 -9999 -9999 -9999 -9999 -9999 -9999 -9999 8.31946755407654 8.31946755407654 8.7260034904014 8.7260034904014 8.7260034904014 8.7260034904014 8.7260034904014 7.46268656716418 7.46268656716418 7.46268656716418 7.46268656716418 7.46268656716418 7.46268656716418 7.46268656716418 7.51072961373391 7.51072961373391 17.7890724269377 15.7284768211921 15.7593123209169 15.7593123209169 15.7593123209169 8.51581508515815 10.5124835742444 10.5124835742444 10.5124835742444 7.26744186046512 7.26744186046512 -9999 -9999 -9999 7.66129032258065 7.66129032258065 7.66129032258065 7.66129032258065 7.66129032258065 7.66129032258065 12.2249388753056 12.2249388753056 9.51683748169839 12.2249388753056 6.27615062761506 6.27615062761506 5.58659217877095 15.3429602888087 15.3429602888087 15.3429602888087 15.3429602888087 8.08314087759815 8.08314087759815 8.08314087759815 8.6342229199372 8.6342229199372 11.8613138686131 11.8613138686131 14.7727272727273 -9999 -9999 -9999 0 3.21888412017167 3.21888412017167 3.21888412017167 0 0 0 4.87329434697856 4.87329434697856 10.7398568019093 10.7398568019093 10.7398568019093 10.7398568019093 -9999 0 0 0 4.74683544303798 4.74683544303798 4.74683544303798 7.90229885057471 0 0 0 3.96039603960396 3.96039603960396 3.96039603960396 3.96039603960396 3.96039603960396 3.96039603960396 3.96039603960396 3.96039603960396 3.96039603960396 3.96039603960396 3.96039603960396 3.96039603960396 3.96039603960396 3.96039603960396 3.96039603960396 3.96039603960396 -9999 -9999 -9999 -9999 -9999 -9999 -9999 -9999 -9999 -9999 -9999 -9999 -9999 -9999 -9999 -9999 -9999 -9999 -9999 -9999 -9999 -9999 -9999 -9999 -9999 -9999 -9999 -9999 -9999 -9999 -9999 -9999 -9999 -9999 -9999 -9999 -9999 -9999 -9999 -9999 -9999 -9999 -9999 -9999 -9999 -9999 -9999 -9999 -9999 -9999 -9999 -9999
-9999 -9999 -9999 -9999 -9999 -9999 -9999 -9999 -9999 -9999 -9999 -9999 -9999 -9999 -9999 -9999 -9999 -9999 -9999 -9999 -9999 -9999 -9999 -9999 -9999 -9999 -9999 -9999 -9999 -9999 -9999 6.65399239543726 6.65399239543726 6.65399239543726 6.65399239543726 6.65399239543726 6.65399239543726 6.65399239543726 6.65399239543726 6.65399239543726 6.65399239543726 5.10948905109489 5.10948905109489 5.10948905109489 5.10948905109489 5.10948905109489 5.10948905109489 5.10948905109489 5.10948905109489 5.10948905109489 5.10948905109489 5.10948905109489 5.10948905109489 5.10948905109489 5.10948905109489 5.10948905109489 5.10948905109489 5.10948905109489 5.10948905109489 5.10948905109489 5.10948905109489 5.10948905109489 5.10948905109489 5.10948905109489 5.10948905109489 5.10948905109489 5.10948905109489 5.10948905109489 5.10948905109489 5.10948905109489 5.10948905109489 5.10948905109489 5.10948905109489 5.10948905109489 5.10948905109489 5.99400599400599 5.99400599400599 5.99400599400599 5.99400599400599 5.10948905109489 5.99400599400599 -9999 -9999 -9999 -9999 -9999 11.5062761506276 11.5062761506276 12.0898100172712 12.0898100172712 12.0898100172712 12.0481927710843 9.32642487046632 13.0718954248366 13.0718954248366 9.32642487046632 15.2057245080501 15.2057245080501 15.2057245080501 15.2057245080501 15.2057245080501 14.0845070422535 14.0845070422535 14.0845070422535 14.0845070422535 10.1214574898785 10.1214574898785 11.7130307467057 11.7130307467057 11.7130307467057 11.7130307467057 10.5509964830012 10.5509964830012 10.5555555555556 6.43776824034335 6.43776824034335 -9999 -9999 -9999 -9999 -9999 9.86842105263158 6.18131868131868 6.18131868131868 6.18131868131868 6.18131868131868 10.8267716535433 10.8267716535433 10.8267716535433 10.8267716535433 5.81395348837209 7.41839762611276 7.41839762611276 7.41839762611276 7.41839762611276 7.41839762611276 7.41839762611276 7.41839762611276 7.41839762611276 7.41839762611276 7.41839762611276 7.41839762611276 7.41839762611276 7.41839762611276 7.41839762611276 7.41839762611276 6.60611065235343 6.60611065235343 6.60611065235343 6.60611065235343 6.60611065235343 5.20833333333333 5.20833333333333 5.20833333333333 5.20833333333333 5.20833333333333 5.20833333333333 5.20833333333333 5.20833333333333 5.20833333333333 5.20833333333333 5.20833333333333 5.20833333333333 5.20833333333333 5.20833333333333 5.20833333333333 5.20833333333333 5.20833333333333 5.20833333333333 -9999 -9999 -9999 -9999 -9999 -9999 -9999 -9999 -9999 -9999 -9999 -9999 -9999 -9999 -9999 -9999 -9999 -9999 -9999 -9999 -9999 -9999 -9999 -9999 -9999 -9999 -9999 -9999 -9999 -9999 -9999 -9999 -9999 -9999 -9999 -9999 -9999 -9999 -9999 -9999 2.9296875 2.9296875 -9999 -9999 -9999 -9999 -9999 -9999 -9999 -9999 -9999 -9999 -9999 -9999 -9999 -9999 -9999 -9999 -9999 -9999 -9999 -9999 -9999 -9999 -9999 -9999 -9999 -9999 -9999 -9999 -9999 -9999 -9999 -9999 -9999 -9999 -9999 -9999 13.7551581843191 13.7551581843191 13.7551581843191 13.7551581843191 13.7551581843191 20.5066344993969 20.5066344993969 20.5066344993969 30.4568527918782 13.7551581843191 13.7551581843191 -9999 -9999 -9999 -9999 -9999 -9999 -9999 8.31946755407654 6.46551724137931 6.46551724137931 6.46551724137931 8.7260034904014 8.7260034904014 8.7260034904014 7.46268656716418 7.46268656716418 5.68181818181818 5.68181818181818 5.68181818181818 7.51072961373391 7.51072961373391 7.51072961373391 7.51072961373391 7.51072961373391 12.9076086956522 19.9115044247788 15.7593123209169 15.7593123209169 10.5124835742444 10.5124835742444 10.5124835742444 13.353115727003 7.76053215077605 7.76053215077605 7.26744186046512 7.66129032258065 7.66129032258065 7.66129032258065 7.66129032258065 7.66129032258065 7.66129032258065 7.66129032258065 7.66129032258065 12.2249388753056 12.2249388753056 12.2249388753056 12.2249388753056 12.2249388753056 10.2362204724409 5.58659217877095 5.58659217877095 5.58659217877095 15.3429602888087 8.08314087759815 8.08314087759815 8.08314087759815 8.08314087759815 8.08314087759815 8.08314087759815 8.6342229199372 14.7727272727273 -9999 -9999 0 0 8.84244372990354 8.84244372990354 8.84244372990354 0 0 0 5.52486187845304 4.33526011560694 4.33526011560694 4.33526011560694 4.33526011560694 10.7398568019093 -9999 0 0 0 0 0 8.46153846153846 7.90229885057471 7.90229885057471 7.90229885057471 5.64174894217207 2.83018867924528 2.83018867924528 0 0 0 3.96039603960396 3.96039603960396 3.96039603960396 3.96039603960396 3.96039603960396 3.96039603960396 3.96039603960396 3.96039603960396 3.96039603960396 3.96039603960396 3.96039603960396 3.96039603960396 -9999 -9999 -9999 -9999 -9999 -9999 -9999 -9999 -9999 -9999 -9999 -9999 -9999 -9999 -9999 -9999 -9999 -9999 -9999 -9999 -9999 -9999 -9999 -9999 -9999 -9999 -9999 -9999 -9999 -9999 -9999 -9999 -9999 -9999 -9999 -9999 -9999 -9999 -9999 -9999 -9999 -9999 -9999 -9999 -9999 -9999 -9999 -9999 -9999 -9999 -9999 -9999
-9999 -9999 -9999 -9999 -9999 -9999 -9999 -9999 -9999 -9999 -9999 -9999 -9999 -9999 -9999 -9999 -9999 -9999 -9999 -9999 -9999 -9999 -9999 -9999 -9999 -9999 -9999 -9999 -9999 -9999 -9999 6.65399239543726 6.65399239543726 6.65399239543726 6.65399239543726 6.65399239543726 6.65399239543726 6.65399239543726 6.65399239543726 6.65399239543726 6.65399239543726 6.65399239543726 5.10948905109489 5.10948905109489 5.10948905109489 5.10948905109489 5.10948905109489 5.10948905109489 5.10948905109489 5.10948905109489 5.10948905109489 5.10948905109489 5.10948905109489 5.10948905109489 5.10948905109489 5.10948905109489 5.10948905109489 5.10948905109489 5.10948905109489 5.10948905109489 5.10948905109489 5.10948905109489 5.10948905109489 5.10948905109489 5.10948905109489 5.10948905109489 5.10948905109489 5.10948905109489 5.10948905109489 5.10948905109489 5.10948905109489 5.10948905109489 5.99400599400599 5.10948905109489 5.99400599400599 5.10948905109489 5.99400599400599 5.99400599400599 5.99400599400599 -9999 -9999 -9999 -9999 -9999 -9999 11.5062761506276 11.5062761506276 12.0898100172712 12.0898100172712 12.0898100172712 12.0481927710843 12.0481927710843 12.0481927710843 13.0718954248366 13.0718954248366 13.0718954248366 13.0718954248366 15.2057245080501 12.5260960334029 12.5260960334029 12.5260960334029 12.5260960334029 14.0845070422535 14.0845070422535 14.0845070422535 10.1214574898785 10.1214574898785 10.1214574898785 11.7130307467057 11.7130307467057 11.7130307467057 6.14439324116743 10.5555555555556 6.43776824034335 6.43776824034335 6.43776824034335 6.43776824034335 6.43776824034335 -9999 -9999 9.86842105263158 9.86842105263158 4.01929260450161 4.01929260450161 4.01929260450161 10.8267716535433 10.8267716535433 10.8267716535433 5.81395348837209 5.81395348837209 5.81395348837209 5.81395348837209 7.41839762611276 7.41839762611276 7.41839762611276 7.41839762611276 7.41839762611276 7.41839762611276 7.41839762611276 7.41839762611276 7.41839762611276 7.41839762611276 7.41839762611276 7.41839762611276 6.60611065235343 6.60611065235343 6.60611065235343 6.60611065235343 6.60611065235343 6.60611065235343 6.60611065235343 6.60611065235343 5.20833333333333 5.20833333333333 5.20833333333333 5.20833333333333 5.20833333333333 5.20833333333333 5.20833333333333 5.20833333333333 5.20833333333333 5.20833333333333 5.20833333333333 5.20833333333333 5.20833333333333 5.20833333333333 5.20833333333333 5.20833333333333 5.20833333333333 5.20833333333333 -9999 -9999 -9999 -9999 -9999 -9999 -9999 -9999 -9999 -9999 -9999 -9999 -9999 -9999 -9999 -9999 -9999 -9999 -9999 -9999 -9999 -9999 -9999 -9999 -9999 -9999 -9999 -9999 -9999 -9999 -9999 -9999 -9999 -9999 -9999 -9999 -9999 2.9296875 2.9296875 2.9296875 2.9296875 2.9296875 2.9296875 -9999 -9999 -9999 -9999 -9999 -9999 -9999 -9999 -9999 -9999 -9999 -9999 -9999 -9999 -9999 -9999 -9999 -9999 -9999 -9999 -9999 -9999 -9999 -9999 -9999 -9999 -9999 -9999 -9999 -9999 -9999 -9999 -9999 -9999 13.7551581843191 13.7551581843191 13.7551581843191 13.7551581843191 13.7551581843191 20.5066344993969 20.5066344993969 30.4568527918782 30.4568527918782 -9999 -9999 -9999 -9999 -9999 -9999 -9999 -9999 -9999 8.31946755407654 6.46551724137931 6.46551724137931 6.46551724137931 6.46551724137931 8.7260034904014 10.9536082474227 10.9536082474227 10.9536082474227 5.68181818181818 5.68181818181818 5.68181818181818 5.68181818181818 5.68181818181818 5.68181818181818 7.51072961373391 12.9076086956522 12.9076086956522 12.9076086956522 12.9076086956522 19.9115044247788 8.03212851405623 8.03212851405623 22.5505443234837 22.5505443234837 13.353115727003 13.353115727003 7.76053215077605 7.42857142857143 9.75177304964539 7.66129032258065 7.66129032258065 7.66129032258065 7.66129032258065 8.18639798488665 7.66129032258065 12.2249388753056 12.2249388753056 12.2249388753056 12.2249388753056 10.2362204724409 10.2362204724409 10.2362204724409 10.2362204724409 5.58659217877095 9.9388379204893 9.9388379204893 9.9388379204893 8.08314087759815 8.08314087759815 8.08314087759815 14.7727272727273 14.7727272727273 -9999 -9999 0 0 8.84244372990354 8.84244372990354 8.84244372990354 5.98802395209581 5.98802395209581 5.98802395209581 5.52486187845304 5.52486187845304 5.52486187845304 4.33526011560694 4.33526011560694 4.33526011560694 -9999 0 0 22.8102189781022 22.8102189781022 8.46153846153846 8.46153846153846 8.46153846153846 7.90229885057471 7.90229885057471 5.64174894217207 5.64174894217207 2.83018867924528 2.83018867924528 0 0 0 3.96039603960396 3.96039603960396 3.96039603960396 3.96039603960396 3.96039603960396 3.96039603960396 3.96039603960396 3.96039603960396 3.96039603960396 3.96039603960396 3.96039603960396 3.96039603960396 -9999 -9999 -9999 -9999 -9999 -9999 -9999 -9999 -9999 -9999 -9999 -9999 -9999 -9999 -9999 -9999 -9999 -9999 -9999 -9999 -9999 -9999 -9999 -9999 -9999 -9999 -9999 -9999 -9999 -9999 -9999 -9999 -9999 -9999 -9999 -9999 -9999 -9999 -9999 -9999 -9999 -9999 -9999 -9999 -9999 -9999 -9999 -9999 -9999 -9999 -9999 -9999
-9999 -9999 -9999 -9999 -9999 -9999 -9999 -9999 -9999 -9999 -9999 -9999 -9999 -9999 -9999 -9999 -9999 -9999 -9999 -9999 -9999 -9999 -9999 -9999 -9999 -9999 -9999 -9999 6.65399239543726 6.65399239543726 6.65399239543726 6.65399239543726 6.65399239543726 6.65399239543726 6.65399239543726 6.65399239543726 6.65399239543726 6.65399239543726 6.65399239543726 6.65399239543726 6.65399239543726 6.65399239543726 6.65399239543726 5.10948905109489 5.10948905109489 5.10948905109489 5.10948905109489 5.10948905109489 5.10948905109489 5.10948905109489 5.10948905109489 5.10948905109489 5.10948905109489 5.10948905109489 5.10948905109489 5.10948905109489 5.10948905109489 5.10948905109489 5.10948905109489 5.10948905109489 5.10948905109489 5.10948905109489 5.10948905109489 5.10948905109489 5.10948905109489 5.10948905109489 5.10948905109489 5.10948905109489 5.10948905109489 5.99400599400599 5.99400599400599 5.99400599400599 5.99400599400599 5.99400599400599 5.10948905109489 5.99400599400599 5.99400599400599 -9999 -9999 -9999 -9999 -9999 -9999 -9999 12.3674911660777 11.5062761506276 12.0898100172712 12.0898100172712 12.0898100172712 12.0481927710843 12.0481927710843 12.0481927710843 13.0718954248366 13.0718954248366 13.0718954248366 12.0320855614973 13.0718954248366 13.0718954248366 5.48245614035088 5.48245614035088 12.5260960334029 12.5260960334029 12.5260960334029 10.1214574898785 10.1214574898785 10.1214574898785 10.1214574898785 11.7130307467057 6.14439324116743 6.14439324116743 6.14439324116743 6.14439324116743 6.14439324116743 10.5555555555556 10.5555555555556 6.43776824034335 6.43776824034335 11.4573785517874 11.4573785517874 11.4573785517874 9.86842105263158 9.86842105263158 9.86842105263158 4.01929260450161 4.01929260450161 4.01929260450161 13.9211136890951 5.81395348837209 5.81395348837209 5.81395348837209 5.81395348837209 5.81395348837209 5.81395348837209 7.41839762611276 7.41839762611276 7.41839762611276 7.41839762611276 7.41839762611276 7.41839762611276 7.41839762611276 7.41839762611276 7.41839762611276 6.60611065235343 6.60611065235343 6.60611065235343 6.60611065235343 6.60611065235343 6.60611065235343 6.60611065235343 6.60611065235343 6.60611065235343 6.60611065235343 6.60611065235343 5.20833333333333 5.20833333333333 5.20833333333333 5.20833333333333 5.20833333333333 5.20833333333333 5.20833333333333 5.20833333333333 5.20833333333333 5.20833333333333 5.20833333333333 5.20833333333333 5.20833333333333 5.20833333333333 5.20833333333333 5.20833333333333 5.20833333333333 5.20833333333333 5.20833333333333 -9999 -9999 -9999 -9999 -9999 -9999 -9999 -9999 -9999 -9999 -9999 -9999 -9999 -9999 -9999 -9999 -9999 -9999 -9999 -9999 -9999 -9999 -9999 -9999 -9999 -9999 -9999 -9999 -9999 -9999 -9999 -9999 -9999 -9999 2.9296875 2.9296875 2.9296875 2.9296875 2.9296875 2.9296875 2.9296875 2.9296875 2.9296875 -9999 -9999 -9999 -9999 -9999 -9999 -9999 -9999 -9999 -9999 -9999 -9999 -9999 -9999 -9999 -9999 -9999 -9999 -9999 -9999 -9999 -9999 -9999 -9999 -9999 -9999 -9999 -9999 -9999 -9999 -9999 -9999 13.7551581843191 13.7551581843191 13.7551581843191 13.7551581843191 13.7551581843191 13.7551581843191 20.5066344993969 -9999 -9999 30.4568527918782 -9999 -9999 -9999 -9999 13.8713745271122 -9999 19.8019801980198 19.8019801980198 11.7370892018779 8.31946755407654 6.46551724137931 6.46551724137931 8.7260034904014 8.7260034904014 10.9536082474227 10.9536082474227 10.9536082474227 10.9536082474227 5.68181818181818 5.68181818181818 5.68181818181818 5.68181818181818 6.36942675159236 6.36942675159236 6.36942675159236 6.36942675159236 12.9076086956522 13.595166163142 13.595166163142 13.595166163142 27.1828665568369 27.1828665568369 7.6219512195122 7.6219512195122 7.42857142857143 7.42857142857143 7.42857142857143 7.42857142857143 9.75177304964539 -9999 -9999 -9999 7.66129032258065 8.18639798488665 8.18639798488665 8.18639798488665 7.28155339805825 11.7845117845118 11.7845117845118 11.7845117845118 11.7845117845118 10.2362204724409 8.81057268722467 9.9388379204893 9.9388379204893 9.9388379204893 10.4347826086957 8.08314087759815 -9999 -9999 -9999 -9999 4.41501103752759 4.41501103752759 3.17460317460317 3.17460317460317 3.17460317460317 8.84244372990354 5.98802395209581 14.0086206896552 14.0086206896552 14.0086206896552 2.55972696245734 5.52486187845304 5.52486187845304 6 -9999 8.41968911917098 8.41968911917098 8.41968911917098 22.8102189781022 0 0 8.46153846153846 0 3.125 5.64174894217207 3.53982300884956 3.53982300884956 3.47222222222222 3.47222222222222 7.40740740740741 7.40740740740741 7.40740740740741 6.57894736842105 6.57894736842105 3.96039603960396 3.96039603960396 3.96039603960396 3.96039603960396 3.96039603960396 3.96039603960396 3.96039603960396 3.96039603960396 3.96039603960396 -9999 -9999 -9999 -9999 -9999 -9999 -9999 -9999 -9999 -9999 -9999 -9999 -9999 -9999 -9999 -9999 -9999 -9999 -9999 -9999 -9999 -9999 -9999 -9999 -9999 -9999 -9999 -9999 -9999 -9999 -9999 -9999 -9999 -9999 -9999 -9999 -9999 -9999 -9999 -9999 -9999 -9999 -9999 -9999 -9999 -9999 -9999 -9999 -9999 -9999 -9999 -9999 -9999
-9999 -9999 -9999 -9999 -9999 -9999 -9999 -9999 -9999 -9999 -9999 -9999 -9999 -9999 -9999 -9999 -9999 -9999 -9999 -9999 -9999 -9999 -9999 -9999 -9999 -9999 -9999 6.65399239543726 6.65399239543726 6.65399239543726 6.65399239543726 6.65399239543726 6.65399239543726 6.65399239543726 6.65399239543726 6.65399239543726 6.65399239543726 -9999 6.65399239543726 6.65399239543726 6.65399239543726 6.65399239543726 5.99400599400599 5.99400599400599 5.99400599400599 5.10948905109489 5.10948905109489 5.10948905109489 5.10948905109489 5.10948905109489 5.10948905109489 5.10948905109489 5.10948905109489 5.10948905109489 5.10948905109489 5.10948905109489 5.10948905109489 5.10948905109489 5.10948905109489 5.10948905109489 5.10948905109489 5.10948905109489 5.10948905109489 5.10948905109489 5.10948905109489 5.99400599400599 5.99400599400599 5.99400599400599 5.99400599400599 5.99400599400599 5.99400599400599 5.99400599400599 5.99400599400599 5.99400599400599 5.99400599400599 5.99400599400599 -9999 -9999 -9999 -9999 -9999 -9999 -9999 -9999 12.3674911660777 15.7894736842105 12.0898100172712 12.0481927710843 12.0481927710843 12.0481927710843 4.28265524625268 4.28265524625268 12.0481927710843 12.0320855614973 12.0320855614973 12.0320855614973 6.00600600600601 5.48245614035088 5.48245614035088 5.48245614035088 5.48245614035088 12.5260960334029 12.5260960334029 10.1214574898785 12.5260960334029 6.14439324116743 6.14439324116743 6.14439324116743 6.14439324116743 6.14439324116743 6.14439324116743 6.14439324116743 6.14439324116743 6.14439324116743 10.5555555555556 10.5555555555556 11.4573785517874 11.4573785517874 11.4573785517874 11.4573785517874 9.71428571428571 4.01929260450161 4.01929260450161 4.01929260450161 13.9211136890951 13.9211136890951 12.52408477842 5.81395348837209 5.81395348837209 5.81395348837209 5.81395348837209 12.52408477842 6.60611065235343 6.60611065235343 7.41839762611276 7.41839762611276 7.41839762611276 7.41839762611276 7.41839762611276 6.60611065235343 6.60611065235343 6.60611065235343 6.60611065235343 6.60611065235343 6.60611065235343 6.60611065235343 6.60611065235343 6.60611065235343 6.60611065235343 6.60611065235343 6.60611065235343 6.60611065235343 6.60611065235343 6.60611065235343 5.20833333333333 5.20833333333333 5.20833333333333 5.20833333333333 5.20833333333333 5.20833333333333 5.20833333333333 5.20833333333333 5.20833333333333 5.20833333333333 5.20833333333333 5.20833333333333 5.20833333333333 5.20833333333333 5.20833333333333 5.20833333333333 5.20833333333333 5.20833333333333 5.20833333333333 -9999 -9999 -9999 -9999 -9999 -9999 -9999 -9999 -9999 -9999 -9999 -9999 -9999 -9999 -9999 -9999 -9999 -9999 -9999 -9999 -9999 -9999 -9999 -9999 -9999 -9999 -9999 -9999 -9999 -9999 -9999 -9999 2.9296875 2.9296875 2.9296875 2.9296875 2.9296875 2.9296875 2.9296875 2.9296875 2.9296875 2.9296875 2.9296875 -9999 -9999 -9999 -9999 -9999 -9999 -9999 -9999 -9999 -9999 -9999 -9999 -9999 -9999 -9999 -9999 -9999 -9999 -9999 -9999 -9999 -9999 -9999 -9999 -9999 -9999 -9999 -9999 -9999 -9999 13.7551581843191 13.7551581843191 13.7551581843191 13.7551581843191 13.7551581843191 13.7551581843191 13.7551581843191 8.22368421052632 -9999 -9999 26.6323024054983 26.6323024054983 -9999 -9999 -9999 -9999 13.8713745271122 13.8713745271122 19.8019801980198 11.7370892018779 11.7370892018779 11.7370892018779 8.31946755407654 8.31946755407654 17.8907721280603 17.8907721280603 10.9536082474227 10.9536082474227 10.9536082474227 10.9536082474227 5.68181818181818 6.36942675159236 6.36942675159236 6.36942675159236 6.36942675159236 6.36942675159236 12.9076086956522 12.9076086956522 14.2276422764228 14.2276422764228 14.2276422764228 19.3321616871705 7.6219512195122 7.6219512195122 7.6219512195122 18.4294871794872 18.4294871794872 4.82315112540193 4.82315112540193 4.82315112540193 9.75177304964539 9.75177304964539 9.75177304964539 8.18639798488665 8.18639798488665 8.18639798488665 -9999 7.28155339805825 7.28155339805825 7.28155339805825 11.7845117845118 11.7845117845118 8.81057268722467 8.81057268722467 8.81057268722467 8.81057268722467 10.4347826086957 10.4347826086957 -9999 -9999 -9999 -9999 0 2.33281493001555 3.17460317460317 3.17460317460317 3.17460317460317 3.17460317460317 6 6 6 14.0086206896552 2.55972696245734 2.55972696245734 6 6 1.21212121212121 8.41968911917098 8.41968911917098 8.41968911917098 6.12745098039216 6.12745098039216 6.12745098039216 0 0 3.125 3.125 5.64174894217207 3.53982300884956 3.53982300884956 0 0 3.96039603960396 3.96039603960396 3.96039603960396 3.96039603960396 3.96039603960396 3.96039603960396 3.96039603960396 3.96039603960396 3.96039603960396 3.96039603960396 3.96039603960396 3.96039603960396 3.96039603960396 3.96039603960396 -9999 -9999 -9999 -9999 -9999 -9999 -9999 -9999 -9999 -9999 -9999 -9999 -9999 -9999 -9999 -9999 -9999 -9999 -9999 -9999 -9999 -9999 -9999 -9999 -9999 -9999 -9999 -9999 -9999 -9999 -9999 -9999 -9999 -9999 -9999 -9999 -9999 -9999 -9999 -9999 -9999 -9999 -9999 -9999 -9999 -9999 -9999 -9999 -9999 -9999 -9999 -9999 -9999
-9999 -9999 -9999 -9999 -9999 -9999 -9999 -9999 -9999 -9999 -9999 -9999 -9999 -9999 -9999 -9999 -9999 -9999 -9999 -9999 -9999 -9999 -9999 -9999 -9999 -9999 -9999 6.65399239543726 6.65399239543726 6.65399239543726 6.65399239543726 6.65399239543726 6.65399239543726 -9999 -9999 6.65399239543726 -9999 -9999 -9999 -9999 -9999 -9999 -9999 -9999 5.99400599400599 5.99400599400599 5.10948905109489 5.10948905109489 5.10948905109489 5.10948905109489 5.10948905109489 5.10948905109489 5.10948905109489 5.10948905109489 5.10948905109489 5.10948905109489 5.10948905109489 5.10948905109489 5.10948905109489 5.10948905109489 5.10948905109489 5.10948905109489 5.99400599400599 5.99400599400599 5.99400599400599 5.99400599400599 5.99400599400599 5.99400599400599 5.99400599400599 5.99400599400599 5.99400599400599 5.99400599400599 5.99400599400599 5.99400599400599 -9999 -9999 -9999 -9999 -9999 -9999 -9999 -9999 -9999 -9999 12.3674911660777 15.7894736842105 12.0481927710843 12.0481927710843 4.28265524625268 4.28265524625268 4.28265524625268 4.28265524625268 12.0481927710843 12.0481927710843 12.0320855614973 12.0320855614973 12.0320855614973 6.00600600600601 5.48245614035088 5.48245614035088 5.48245614035088 5.48245614035088 12.5260960334029 5.42005420054201 5.73770491803279 5.73770491803279 5.73770491803279 6.14439324116743 6.14439324116743 6.14439324116743 6.14439324116743 6.14439324116743 6.14439324116743 6.14439324116743 15.4373927958834 9.71428571428571 11.4573785517874 11.4573785517874 11.4573785517874 9.71428571428571 9.71428571428571 9.71428571428571 13.9211136890951 13.9211136890951 13.9211136890951 12.52408477842 12.52408477842 12.52408477842 5.81395348837209 12.52408477842 6.60611065235343 6.60611065235343 6.60611065235343 6.60611065235343 6.60611065235343 7.41839762611276 7.41839762611276 6.60611065235343 6.60611065235343 6.60611065235343 6.60611065235343 6.60611065235343 6.60611065235343 6.60611065235343 6.60611065235343 6.60611065235343 6.60611065235343 6.60611065235343 6.60611065235343 6.60611065235343 6.60611065235343 6.60611065235343 6.60611065235343 6.60611065235343 6.60611065235343 5.20833333333333 5.20833333333333 5.20833333333333 5.20833333333333 5.20833333333333 5.20833333333333 5.20833333333333 5.20833333333333 5.20833333333333 5.20833333333333 5.20833333333333 5.20833333333333 5.20833333333333 5.20833333333333 5.20833333333333 5.20833333333333 5.20833333333333 5.20833333333333 5.20833333333333 -9999 -9999 -9999 -9999 -9999 -9999 -9999 -9999 -9999 -9999 -9999 -9999 -9999 -9999 -9999 -9999 -9999 -9999 -9999 -9999 -9999 -9999 -9999 -9999 -9999 -9999 -9999 -9999 -9999 -9999 2.9296875 2.9296875 2.9296875 2.9296875 2.9296875 2.9296875 2.9296875 2.9296875 2.9296875 2.9296875 2.9296875 2.9296875 2.9296875 2.9296875 -9999 -9999 -9999 -9999 -9999 -9999 -9999 -9999 -9999 -9999 -9999 -9999 -9999 -9999 -9999 -9999 -9999 -9999 -9999 -9999 -9999 -9999 -9999 -9999 -9999 -9999 -9999 -9999 13.7551581843191 13.7551581843191 13.7551581843191 13.7551581843191 13.7551581843191 13.7551581843191 13.7551581843191 8.22368421052632 8.22368421052632 8.22368421052632 26.6323024054983 26.6323024054983 26.6323024054983 26.6323024054983 -9999 19.8019801980198 19.8019801980198 13.8713745271122 19.8019801980198 19.8019801980198 11.7370892018779 11.7370892018779 11.7370892018779 9.68992248062016 9.68992248062016 17.8907721280603 17.8907721280603 17.8907721280603 17.8907721280603 10.9536082474227 10.9536082474227 10.9536082474227 10.9536082474227 16.5912518853695 17.0068027210884 17.0068027210884 17.0068027210884 17.0068027210884 17.0068027210884 17.0068027210884 14.2276422764228 19.3321616871705 19.3321616871705 19.3321616871705 9.69827586206897 9.69827586206897 18.4294871794872 18.4294871794872 16.7731629392971 4.82315112540193 4.82315112540193 7.40740740740741 9.75177304964539 9.75177304964539 9.75177304964539 12.2549019607843 -9999 -9999 -9999 7.28155339805825 7.28155339805825 5.87084148727984 5.87084148727984 8.81057268722467 8.81057268722467 8.90207715133531 8.90207715133531 8.90207715133531 8.90207715133531 -9999 -9999 0 0 2.33281493001555 2.33281493001555 -9999 -9999 -9999 6 6 6 6 6 6 6 1.21212121212121 1.21212121212121 1.21212121212121 6.12745098039216 6.12745098039216 6.12745098039216 6.12745098039216 6.12745098039216 2.9585798816568 3.125 3.125 5.76923076923077 5.91715976331361 3.53982300884956 0 0 3.96039603960396 3.96039603960396 3.96039603960396 3.96039603960396 3.96039603960396 3.96039603960396 3.96039603960396 3.96039603960396 3.96039603960396 3.96039603960396 3.96039603960396 3.96039603960396 3.96039603960396 -9999 -9999 -9999 -9999 -9999 -9999 -9999 -9999 -9999 -9999 -9999 -9999 -9999 -9999 -9999 -9999 -9999 -9999 -9999 -9999 -9999 -9999 -9999 -9999 -9999 -9999 -9999 -9999 -9999 -9999 -9999 -9999 -9999 -9999 -9999 -9999 -9999 -9999 -9999 -9999 -9999 -9999 -9999 -9999 -9999 -9999 -9999 -9999 -9999 -9999 -9999 -9999 -9999 -9999 -9999
-9999 -9999 -9999 -9999 -9999 -9999 -9999 -9999 -9999 -9999 -9999 -9999 -9999 -9999 -9999 -9999 -9999 -9999 -9999 -9999 -9999 -9999 -9999 -9999 -9999 -9999 -9999 -9999 -9999 -9999 -9999 -9999 -9999 -9999 -9999 -9999 -9999 -9999 -9999 -9999 -9999 -9999 -9999 -9999 -9999 5.99400599400599 5.99400599400599 5.10948905109489 5.10948905109489 5.10948905109489 5.10948905109489 5.10948905109489 5.10948905109489 5.10948905109489 5.10948905109489 5.10948905109489 5.10948905109489 5.99400599400599 5.99400599400599 5.99400599400599 5.99400599400599 5.99400599400599 5.99400599400599 5.99400599400599 5.99400599400599 5.99400599400599 5.99400599400599 5.99400599400599 5.99400599400599 5.99400599400599 5.99400599400599 5.99400599400599 5.99400599400599 -9999 -9999 -9999 -9999 -9999 -9999 -9999 -9999 -9999 -9999 12.3674911660777 12.3674911660777 15.7894736842105 12.0481927710843 13.5309278350515 13.5309278350515 13.5309278350515 4.28265524625268 4.28265524625268 4.28265524625268 12.0481927710843 12.0481927710843 12.0320855614973 12.0320855614973 6.00600600600601 5.48245614035088 5.48245614035088 12.5260960334029 5.42005420054201 35.3982300884956 35.3982300884956 35.3982300884956 5.73770491803279 5.73770491803279 5.73770491803279 5.73770491803279 6.14439324116743 6.14439324116743 6.14439324116743 13.4770889487871 13.4770889487871 15.4373927958834 15.4373927958834 9.71428571428571 9.71428571428571 9.71428571428571 9.71428571428571 9.71428571428571 9.71428571428571 13.9211136890951 13.9211136890951 13.9211136890951 13.9211136890951 12.52408477842 12.52408477842 6.60611065235343 6.60611065235343 6.60611065235343 6.60611065235343 6.60611065235343 6.60611065235343 6.60611065235343 6.60611065235343 6.60611065235343 6.60611065235343 6.60611065235343 6.60611065235343 6.60611065235343 6.60611065235343 6.60611065235343 6.60611065235343 6.60611065235343 6.60611065235343 6.60611065235343 6.60611065235343 6.60611065235343 6.60611065235343 6.60611065235343 6.60611065235343 6.60611065235343 6.60611065235343 6.60611065235343 6.60611065235343 5.20833333333333 5.20833333333333 5.20833333333333 5.20833333333333 5.20833333333333 5.20833333333333 5.20833333333333 5.20833333333333 5.20833333333333 5.20833333333333 5.20833333333333 5.20833333333333 5.20833333333333 5.20833333333333 5.20833333333333 5.20833333333333 5.20833333333333 -9999 -9999 -9999 -9999 -9999 -9999 -9999 -9999 -9999 -9999 -9999 -9999 -9999 -9999 -9999 -9999 -9999 -9999 -9999 -9999 -9999 -9999 -9999 -9999 -9999 -9999 -9999 -9999 -9999 2.9296875 2.9296875 2.9296875 2.9296875 2.9296875 2.9296875 2.9296875 2.9296875 2.9296875 2.9296875 2.9296875 2.9296875 2.9296875 2.9296875 2.9296875 2.9296875 2.9296875 -9999 -9999 -9999 -9999 -9999 -9999 -9999 -9999 -9999 -9999 -9999 -9999 -9999 -9999 -9999 -9999 -9999 -9999 -9999 -9999 -9999 -9999 -9999 -9999 -9999 -9999 -9999 0 0 13.7551581843191 13.7551581843191 13.7551581843191 13.7551581843191 13.7551581843191 13.7551581843191 8.22368421052632 8.22368421052632 26.6323024054983 26.6323024054983 26.6323024054983 26.6323024054983 26.6323024054983 -9999 -9999 19.8019801980198 19.8019801980198 19.8019801980198 11.7370892018779 11.7370892018779 9.68992248062016 9.68992248062016 9.68992248062016 9.68992248062016 19.7841726618705 17.8907721280603 17.8907721280603 17.8907721280603 17.8907721280603 16.5912518853695 16.5912518853695 16.5912518853695 16.5912518853695 16.5912518853695 17.0068027210884 17.0068027210884 17.0068027210884 17.0068027210884 5.25210084033613 5.25210084033613 19.3321616871705 16.2213740458015 16.2213740458015 9.69827586206897 9.69827586206897 7.93650793650794 16.7731629392971 16.7731629392971 16.7731629392971 7.40740740740741 7.40740740740741 7.40740740740741 17.5 21.3849287169043 21.3849287169043 12.2549019607843 -9999 12.9449838187702 12.9449838187702 12.9449838187702 12.9449838187702 12.9449838187702 12.9449838187702 8.90207715133531 8.90207715133531 8.90207715133531 8.90207715133531 8.90207715133531 0 0 0 0 0 0 0 -9999 -9999 -9999 6 6 6 6 1.21212121212121 1.21212121212121 1.21212121212121 1.21212121212121 1.21212121212121 1.21212121212121 1.21212121212121 2.9585798816568 2.9585798816568 2.9585798816568 2.9585798816568 2.9585798816568 5.91715976331361 5.91715976331361 3.96039603960396 3.96039603960396 3.96039603960396 3.96039603960396 3.96039603960396 3.96039603960396 3.96039603960396 3.96039603960396 3.96039603960396 3.96039603960396 3.96039603960396 3.96039603960396 3.96039603960396 3.96039603960396 -9999 -9999 -9999 -9999 -9999 -9999 -9999 -9999 -9999 -9999 -9999 -9999 -9999 -9999 -9999 -9999 -9999 -9999 -9999 -9999 -9999 -9999 -9999 -9999 -9999 -9999 -9999 -9999 -9999 -9999 -9999 -9999 -9999 -9999 -9999 -9999 -9999 -9999 -9999 -9999 -9999 -9999 -9999 -9999 -9999 -9999 -9999 -9999 -9999 -9999 -9999 -9999 -9999 -9999 -9999 -9999 -9999
-9999 -9999 -9999 -9999 -9999 -9999 -9999 -9999 -9999 -9999 -9999 -9999 -9999 -9999 -9999 -9999 -9999 -9999 -9999 -9999 -9999 -9999 -9999 -9999 -9999 -9999 -9999 -9999 -9999 -9999 -9999 -9999 -9999 -9999 -9999 -9999 -9999 -9999 -9999 -9999 -9999 15.0905432595573 -9999 -9999 -9999 5.99400599400599 5.99400599400599 5.99400599400599 5.10948905109489 5.10948905109489 5.10948905109489 5.10948905109489 5.10948905109489 5.99400599400599 5.99400599400599 5.99400599400599 5.99400599400599 5.99400599400599 5.99400599400599 5.99400599400599 5.99400599400599 5.99400599400599 5.99400599400599 5.99400599400599 5.99400599400599 5.99400599400599 5.99400599400599 5.99400599400599 5.99400599400599 5.99400599400599 5.99400599400599 5.99400599400599 5.99400599400599 -9999 -9999 -9999 -9999 -9999 -9999 -9999 -9999 -9999 12.3674911660777 12.3674911660777 12.3674911660777 7.12250712250712 7.12250712250712 6.62544169611307 13.5309278350515 13.5309278350515 18.4331797235023 18.4331797235023 18.4331797235023 18.4331797235023 18.4331797235023 4.79846449136276 6.00600600600601 6.00600600600601 6.00600600600601 5.42005420054201 5.42005420054201 5.42005420054201 5.42005420054201 35.3982300884956 35.3982300884956 5.73770491803279 5.73770491803279 5.73770491803279 5.73770491803279 5.73770491803279 13.4770889487871 13.4770889487871 13.4770889487871 13.4770889487871 15.4373927958834 15.4373927958834 15.4373927958834 9.71428571428571 9.71428571428571 9.71428571428571 9.71428571428571 9.71428571428571 13.9211136890951 13.9211136890951 13.9211136890951 12.52408477842 6.60611065235343 6.60611065235343 6.60611065235343 6.60611065235343 6.60611065235343 6.60611065235343 6.60611065235343 6.60611065235343 6.60611065235343 6.60611065235343 6.60611065235343 6.60611065235343 6.60611065235343 6.60611065235343 6.60611065235343 6.60611065235343 6.60611065235343 6.60611065235343 6.60611065235343 6.60611065235343 6.60611065235343 6.60611065235343 6.60611065235343 6.60611065235343 6.60611065235343 6.60611065235343 6.60611065235343 6.60611065235343 6.60611065235343 6.60611065235343 6.60611065235343 5.20833333333333 5.20833333333333 5.20833333333333 5.20833333333333 5.20833333333333 5.20833333333333 5.20833333333333 5.20833333333333 5.20833333333333 5.20833333333333 5.20833333333333 5.20833333333333 5.20833333333333 5.20833333333333 5.20833333333333 5.20833333333333 -9999 -9999 -9999 -9999 -9999 -9999 -9999 -9999 -9999 -9999 -9999 -9999 -9999 -9999 -9999 -9999 -9999 -9999 -9999 -9999 -9999 -9999 -9999 -9999 -9999 -9999 -9999 -9999 2.9296875 2.9296875 2.9296875 2.9296875 2.9296875 2.9296875 2.9296875 2.9296875 2.9296875 2.9296875 2.9296875 2.9296875 2.9296875 2.9296875 2.9296875 2.9296875 2.9296875 2.9296875 2.9296875 2.9296875 -9999 -9999 -9999 -9999 -9999 -9999 -9999 -9999 -9999 -9999 -9999 -9999 -9999 -9999 -9999 -9999 -9999 -9999 -9999 -9999 -9999 -9999 -9999 -9999 -9999 0 0 0 0 0 13.7551581843191 13.7551581843191 13.7551581843191 13.7551581843191 13.7551581843191 26.6323024054983 26.6323024054983 26.6323024054983 26.6323024054983 -9999 -9999 -9999 7.46268656716418 7.46268656716418 23.2974910394265 23.2974910394265 9.36329588014981 9.36329588014981 9.36329588014981 9.68992248062016 9.68992248062016 19.7841726618705 19.7841726618705 19.7841726618705 15.990159901599 15.990159901599 15.990159901599 15.990159901599 16.5912518853695 16.5912518853695 16.5912518853695 16.5912518853695 16.5912518853695 17.0068027210884 6.6079295154185 6.6079295154185 5.25210084033613 20.1900237529691 20.1900237529691 16.2213740458015 16.2213740458015 8.86917960088692 7.93650793650794 7.93650793650794 7.93650793650794 16.7731629392971 18.4397163120567 18.4397163120567 7.40740740740741 7.40740740740741 7.40740740740741 17.5 17.5 18.9655172413793 12.9449838187702 12.9449838187702 12.9449838187702 12.9449838187702 12.9449838187702 4.69043151969981 4.69043151969981 4.69043151969981 4.69043151969981 4.69043151969981 0 0 0 0 0 0 0 0 8.19672131147541 8.19672131147541 6.17283950617284 6 6 6 1.21212121212121 1.21212121212121 1.21212121212121 1.21212121212121 1.21212121212121 1.21212121212121 10.840108401084 10.840108401084 7.17079530638853 7.17079530638853 2.9585798816568 2.9585798816568 0 0 5.91715976331361 3.96039603960396 3.96039603960396 3.96039603960396 3.96039603960396 3.96039603960396 3.96039603960396 3.96039603960396 3.96039603960396 3.96039603960396 3.96039603960396 3.96039603960396 3.96039603960396 -9999 -9999 -9999 8.79120879120879 8.7719298245614 8.7719298245614 8.7719298245614 8.7719298245614 -9999 -9999 -9999 -9999 -9999 -9999 -9999 -9999 -9999 -9999 -9999 -9999 -9999 -9999 -9999 -9999 -9999 -9999 -9999 -9999 -9999 -9999 -9999 -9999 -9999 -9999 -9999 -9999 -9999 -9999 -9999 -9999 -9999 -9999 -9999 -9999 -9999 -9999 -9999 -9999 -9999 -9999 -9999 -9999 -9999 -9999 -9999 -9999 -9999 -9999 -9999
-9999 -9999 -9999 -9999 -9999 -9999 -9999 -9999 -9999 -9999 -9999 -9999 -9999 -9999 -9999 -9999 -9999 -9999 -9999 -9999 -9999 -9999 -9999 -9999 -9999 -9999 -9999 -9999 -9999 -9999 -9999 -9999 -9999 -9999 15.0905432595573 15.0905432595573 15.0905432595573 15.0905432595573 15.0905432595573 15.0905432595573 15.0905432595573 15.0905432595573 -9999 -9999 -9999 -9999 -9999 -9999 5.99400599400599 5.99400599400599 5.99400599400599 5.99400599400599 5.99400599400599 5.99400599400599 5.99400599400599 5.99400599400599 5.99400599400599 5.99400599400599 5.99400599400599 5.99400599400599 5.99400599400599 5.99400599400599 5.99400599400599 5.99400599400599 5.99400599400599 5.99400599400599 5.99400599400599 5.99400599400599 5.99400599400599 5.99400599400599 5.99400599400599 5.99400599400599 -9999 -9999 -9999 -9999 -9999 -9999 -9999 -9999 -9999 12.3674911660777 12.3674911660777 12.3674911660777 7.12250712250712 7.12250712250712 6.62544169611307 13.5309278350515 13.5309278350515 13.5309278350515 18.4331797235023 18.4331797235023 18.4331797235023 18.4331797235023 4.79846449136276 4.79846449136276 8.62068965517241 8.62068965517241 8.62068965517241 10.2420856610801 5.42005420054201 5.42005420054201 10.2420856610801 10.2420856610801 5.73770491803279 5.73770491803279 5.73770491803279 5.73770491803279 5.73770491803279 13.347022587269 13.4770889487871 13.4770889487871 13.347022587269 15.4373927958834 15.4373927958834 15.4373927958834 6.59133709981168 6.59133709981168 9.71428571428571 9.71428571428571 9.71428571428571 13.9211136890951 13.9211136890951 12.52408477842 6.60611065235343 6.60611065235343 6.60611065235343 6.60611065235343 6.60611065235343 6.60611065235343 6.60611065235343 6.60611065235343 6.60611065235343 6.60611065235343 6.60611065235343 6.60611065235343 6.60611065235343 6.60611065235343 6.60611065235343 6.60611065235343 6.60611065235343 6.60611065235343 6.60611065235343 6.60611065235343 6.60611065235343 6.60611065235343 6.60611065235343 6.60611065235343 6.60611065235343 6.60611065235343 6.60611065235343 6.60611065235343 6.60611065235343 6.60611065235343 6.60611065235343 6.60611065235343 6.60611065235343 6.60611065235343 5.20833333333333 5.20833333333333 5.20833333333333 5.20833333333333 5.20833333333333 5.20833333333333 5.20833333333333 5.20833333333333 5.20833333333333 5.20833333333333 5.20833333333333 5.20833333333333 5.20833333333333 5.20833333333333 5.20833333333333 5.20833333333333 -9999 -9999 -9999 -9999 -9999 -9999 -9999 -9999 -9999 -9999 -9999 -9999 -9999 -9999 -9999 -9999 -9999 -9999 -9999 -9999 -9999 -9999 -9999 -9999 -9999 -9999 2.9296875 2.9296875 2.9296875 2.9296875 2.9296875 2.9296875 2.9296875 2.9296875 2.9296875 2.9296875 2.9296875 2.9296875 2.9296875 2.9296875 2.9296875 2.9296875 2.9296875 2.9296875 2.9296875 2.9296875 2.9296875 2.9296875 -9999 -9999 -9999 -9999 -9999 -9999 -9999 -9999 -9999 -9999 -9999 -9999 -9999 -9999 -9999 -9999 -9999 -9999 -9999 -9999 -9999 -9999 -9999 0 0 0 0 0 0 0 0 0 0 -9999 -9999 26.6323024054983 26.6323024054983 -9999 -9999 -9999 7.46268656716418 7.46268656716418 7.46268656716418 23.2974910394265 9.36329588014981 9.36329588014981 9.36329588014981 9.36329588014981 19.774011299435 19.774011299435 9.68992248062016 6.32911392405063 6.32911392405063 15.990159901599 15.990159901599 15.990159901599 15.990159901599 25.830258302583 25.830258302583 25.830258302583 16.5912518853695 16.5912518853695 29.3040293040293 6.6079295154185 6.6079295154185 9.64630225080386 9.64630225080386 20.1900237529691 20.1900237529691 9.13838120104439 8.86917960088692 8.86917960088692 8.86917960088692 7.93650793650794 18.4397163120567 18.4397163120567 10.7296137339056 10.7296137339056 10.7296137339056 10.7296137339056 2.96208530805687 2.96208530805687 18.9655172413793 18.9655172413793 18.9655172413793 18.9655172413793 4.69043151969981 4.69043151969981 4.69043151969981 4.69043151969981 4.69043151969981 4.69043151969981 -9999 0 0 0 0 4.59558823529412 4.59558823529412 0 0 0 0 6.17283950617284 6.17283950617284 6.17283950617284 1.21212121212121 1.21212121212121 1.21212121212121 1.21212121212121 1.21212121212121 1.21212121212121 1.21212121212121 10.840108401084 10.840108401084 7.17079530638853 7.17079530638853 7.17079530638853 7.17079530638853 7.17079530638853 2.9585798816568 3.96039603960396 3.96039603960396 3.96039603960396 3.96039603960396 3.96039603960396 3.96039603960396 3.96039603960396 3.96039603960396 3.96039603960396 3.96039603960396 3.96039603960396 -9999 -9999 -9999 -9999 8.79120879120879 8.7719298245614 8.7719298245614 8.7719298245614 8.7719298245614 8.7719298245614 8.7719298245614 -9999 -9999 -9999 -9999 -9999 -9999 -9999 -9999 -9999 -9999 -9999 -9999 -9999 -9999 -9999 -9999 -9999 -9999 -9999 -9999 -9999 -9999 -9999 -9999 -9999 -9999 -9999 -9999 -9999 -9999 -9999 -9999 -9999 -9999 -9999 -9999 -9999 -9999 -9999 -9999 -9999 -9999 -9999 -9999 -9999 -9999 -9999 -9999 -9999 -9999
-9999 -9999 -9999 -9999 -9999 -9999 -9999 -9999 -9999 -9999 -9999 -9999 -9999 -9999 -9999 -9999 -9999 -9999 -9999 -9999 -9999 -9999 -9999 -9999 -9999 -9999 -9999 -9999 -9999 -9999 -9999 -9999 15.0905432595573 15.0905432595573 15.0905432595573 15.0905432595573 15.0905432595573 15.0905432595573 15.0905432595573 15.0905432595573 15.0905432595573 15.0905432595573 15.0905432595573 -9999 -9999 -9999 -9999 -9999 5.99400599400599 5.99400599400599 5.99400599400599 5.99400599400599 5.99400599400599 5.99400599400599 5.99400599400599 5.99400599400599 5.99400599400599 5.99400599400599 5.99400599400599 5.99400599400599 5.99400599400599 5.99400599400599 5.99400599400599 -9999 -9999 -9999 -9999 -9999 -9999 -9999 -9999 -9999 -9999 -9999 -9999 -9999 -9999 15.0905432595573 15.0905432595573 15.0905432595573 15.0905432595573 12.3674911660777 7.12250712250712 6.62544169611307 6.62544169611307 6.62544169611307 6.62544169611307 13.5309278350515 13.5309278350515 13.5309278350515 13.5309278350515 18.4331797235023 4.79846449136276 4.79846449136276 4.79846449136276 4.79846449136276 4.79846449136276 19.9600798403194 19.9600798403194 19.9600798403194 10.2420856610801 10.2420856610801 10.2420856610801 10.2420856610801 10.2420856610801 10.2420856610801 26.0521042084168 5.73770491803279 13.347022587269 13.347022587269 13.347022587269 13.347022587269 13.347022587269 13.347022587269 6.59133709981168 6.59133709981168 8.10810810810811 6.59133709981168 6.59133709981168 12.52408477842 12.52408477842 12.52408477842 6.60611065235343 6.60611065235343 6.60611065235343 6.60611065235343 6.60611065235343 6.60611065235343 6.60611065235343 6.60611065235343 6.60611065235343 6.60611065235343 6.60611065235343 6.60611065235343 6.60611065235343 6.60611065235343 6.60611065235343 6.60611065235343 6.60611065235343 6.60611065235343 6.60611065235343 6.60611065235343 6.60611065235343 6.60611065235343 6.60611065235343 6.60611065235343 6.60611065235343 6.60611065235343 6.60611065235343 6.60611065235343 6.60611065235343 6.60611065235343 6.60611065235343 6.60611065235343 6.60611065235343 6.60611065235343 6.60611065235343 6.60611065235343 6.60611065235343 5.20833333333333 5.20833333333333 5.20833333333333 5.20833333333333 5.20833333333333 5.20833333333333 5.20833333333333 5.20833333333333 5.20833333333333 5.20833333333333 5.20833333333333 5.20833333333333 5.20833333333333 5.20833333333333 5.20833333333333 5.20833333333333 -9999 -9999 -9999 -9999 -9999 -9999 -9999 -9999 -9999 -9999 -9999 -9999 -9999 -9999 -9999 -9999 -9999 -9999 -9999 -9999 -9999 -9999 -9999 2.9296875 2.9296875 2.9296875 2.9296875 2.9296875 2.9296875 2.9296875 2.9296875 2.9296875 2.9296875 2.9296875 2.9296875 2.9296875 2.9296875 2.9296875 2.9296875 2.9296875 2.9296875 2.9296875 2.9296875 2.9296875 2.9296875 4.03877221324717 4.03877221324717 4.03877221324717 4.03877221324717 -9999 -9999 -9999 -9999 -9999 -9999 -9999 -9999 -9999 -9999 -9999 -9999 -9999 -9999 -9999 -9999 -9999 -9999 -9999 -9999 -9999 0 0 0 0 0 0 0 0 0 -9999 -9999 -9999 -9999 -9999 -9999 -9999 10.2249488752556 10.2249488752556 10.2249488752556 7.46268656716418 23.2974910394265 9.36329588014981 9.36329588014981 9.36329588014981 16.6083916083916 16.6083916083916 16.6083916083916 6.32911392405063 6.32911392405063 6.32911392405063 11.2994350282486 11.2994350282486 11.2994350282486 15.990159901599 25.830258302583 25.830258302583 8.89679715302491 25.830258302583 8.89679715302491 29.3040293040293 29.3040293040293 7.93650793650794 9.64630225080386 9.64630225080386 9.64630225080386 9.13838120104439 9.13838120104439 9.13838120104439 9.13838120104439 9.13838120104439 18.4397163120567 18.4397163120567 10.7296137339056 10.7296137339056 10.7296137339056 7.00280112044818 2.96208530805687 2.96208530805687 2.96208530805687 2.96208530805687 2.96208530805687 4.69043151969981 4.69043151969981 4.69043151969981 4.69043151969981 4.69043151969981 4.69043151969981 -9999 -9999 0 0 5.8027079303675 0 4.59558823529412 4.59558823529412 4.59558823529412 0 0 6.17283950617284 6.17283950617284 6.17283950617284 6.17283950617284 1.21212121212121 1.21212121212121 1.21212121212121 1.21212121212121 1.21212121212121 1.21212121212121 1.21212121212121 1.21212121212121 10.840108401084 6.60377358490566 6.60377358490566 4.3630017452007 4.3630017452007 4.3630017452007 0 2.17864923747277 2.17864923747277 3.96039603960396 3.96039603960396 3.96039603960396 3.96039603960396 3.96039603960396 3.96039603960396 3.96039603960396 3.96039603960396 -9999 -9999 -9999 -9999 8.79120879120879 8.79120879120879 8.7719298245614 8.7719298245614 8.7719298245614 8.7719298245614 8.7719298245614 8.7719298245614 8.7719298245614 8.7719298245614 -9999 -9999 -9999 -9999 -9999 -9999 -9999 -9999 -9999 -9999 -9999 -9999 -9999 -9999 -9999 -9999 -9999 -9999 -9999 -9999 -9999 -9999 -9999 -9999 -9999 -9999 -9999 -9999 -9999 -9999 -9999 -9999 -9999 -9999 -9999 -9999 -9999 -9999 -9999 -9999 -9999 -9999 -9999 -9999 -9999 -9999 -9999 -9999 -9999
-9999 -9999 -9999 -9999 -9999 -9999 -9999 -9999 -9999 -9999 -9999 -9999 -9999 -9999 -9999 -9999 -9999 -9999 -9999 -9999 -9999 -9999 -9999 -9999 -9999 -9999 -9999 -9999 -9999 -9999 -9999 15.0905432595573 15.0905432595573 15.0905432595573 15.0905432595573 15.0905432595573 15.0905432595573 15.0905432595573 15.0905432595573 15.0905432595573 15.0905432595573 15.0905432595573 15.0905432595573 15.0905432595573 15.0905432595573 -9999 -9999 -9999 -9999 -9999 5.99400599400599 5.99400599400599 5.99400599400599 5.99400599400599 5.99400599400599 5.99400599400599 5.99400599400599 5.99400599400599 5.99400599400599 5.99400599400599 5.99400599400599 5.99400599400599 5.99400599400599 -9999 -9999 -9999 -9999 -9999 -9999 -9999 -9999 -9999 -9999 -9999 -9999 -9999 15.0905432595573 15.0905432595573 7.15563506261181 15.0905432595573 7.15563506261181 7.15563506261181 8.91089108910891 6.62544169611307 6.62544169611307 6.62544169611307 14.4717800289436 14.4717800289436 13.5309278350515 14.4717800289436 14.4717800289436 14.4717800289436 8.62068965517241 4.79846449136276 8.62068965517241 4.79846449136276 8.62068965517241 19.9600798403194 19.9600798403194 19.9600798403194 19.9600798403194 10.2420856610801 10.2420856610801 10.2420856610801 10.2420856610801 26.0521042084168 26.0521042084168 26.0521042084168 10.6382978723404 10.6382978723404 10.6382978723404 13.347022587269 6.59133709981168 6.59133709981168 8.10810810810811 8.10810810810811 8.10810810810811 8.10810810810811 6.59133709981168 6.59133709981168 6.60611065235343 6.60611065235343 6.60611065235343 6.60611065235343 6.60611065235343 6.60611065235343 6.60611065235343 6.60611065235343 6.60611065235343 6.60611065235343 6.60611065235343 6.60611065235343 6.60611065235343 6.60611065235343 6.60611065235343 6.60611065235343 6.60611065235343 6.60611065235343 6.60611065235343 6.60611065235343 6.60611065235343 6.60611065235343 6.60611065235343 6.60611065235343 6.60611065235343 6.60611065235343 6.60611065235343 6.60611065235343 6.60611065235343 6.60611065235343 6.60611065235343 6.60611065235343 6.60611065235343 6.60611065235343 6.60611065235343 6.60611065235343 6.60611065235343 6.60611065235343 6.60611065235343 6.60611065235343 5.20833333333333 5.20833333333333 5.20833333333333 5.20833333333333 5.20833333333333 5.20833333333333 5.20833333333333 5.20833333333333 5.20833333333333 5.20833333333333 5.20833333333333 5.20833333333333 5.20833333333333 5.20833333333333 5.20833333333333 5.20833333333333 -9999 -9999 -9999 -9999 -9999 -9999 -9999 -9999 -9999 -9999 -9999 -9999 -9999 -9999 -9999 -9999 -9999 -9999 -9999 -9999 -9999 2.9296875 2.9296875 2.9296875 2.9296875 2.9296875 2.9296875 2.9296875 2.9296875 2.9296875 2.9296875 2.9296875 2.9296875 2.9296875 2.9296875 2.9296875 2.9296875 2.9296875 2.9296875 2.9296875 2.9296875 2.9296875 2.9296875 4.03877221324717 4.03877221324717 4.03877221324717 4.03877221324717 4.03877221324717 4.03877221324717 4.03877221324717 -9999 -9999 -9999 -9999 -9999 -9999 -9999 -9999 -9999 4.03877221324717 -9999 -9999 -9999 -9999 -9999 -9999 -9999 -9999 -9999 0 0 0 0 0 0 0 0 -9999 -9999 -9999 -9999 -9999 -9999 -9999 -9999 10.2249488752556 10.2249488752556 10.2249488752556 10.2249488752556 23.2974910394265 9.36329588014981 9.36329588014981 9.36329588014981 16.6083916083916 16.6083916083916 15.9817351598174 15.9817351598174 15.9817351598174 11.0584518167457 11.0584518167457 11.0584518167457 11.2994350282486 18.9274447949527 18.9274447949527 25.830258302583 25.830258302583 13.4228187919463 8.89679715302491 8.89679715302491 7.71869639794168 7.93650793650794 7.93650793650794 7.93650793650794 9.13838120104439 9.13838120104439 9.13838120104439 9.13838120104439 9.13838120104439 8.51788756388416 8.51788756388416 8.51788756388416 10.7296137339056 2.22222222222222 2.22222222222222 7.00280112044818 7.00280112044818 7.00280112044818 2.96208530805687 10.6877323420074 10.6877323420074 4.69043151969981 4.69043151969981 4.69043151969981 4.69043151969981 4.69043151969981 -9999 -9999 -9999 5.8027079303675 5.8027079303675 0 0 0 5.0125313283208 0 6.17283950617284 6.17283950617284 6.17283950617284 6.17283950617284 -9999 1.21212121212121 1.21212121212121 1.21212121212121 1.21212121212121 -9999 1.21212121212121 1.21212121212121 1.21212121212121 1.21212121212121 0 0 6.60377358490566 11.3636363636364 11.3636363636364 0 2.17864923747277 2.17864923747277 2.17864923747277 2.17864923747277 2.17864923747277 3.96039603960396 3.96039603960396 3.96039603960396 3.96039603960396 -9999 -9999 -9999 -9999 -9999 8.79120879120879 8.79120879120879 8.7719298245614 8.7719298245614 8.7719298245614 8.7719298245614 8.7719298245614 8.7719298245614 8.7719298245614 8.7719298245614 8.7719298245614 -9999 -9999 -9999 -9999 -9999 -9999 -9999 -9999 -9999 -9999 -9999 -9999 -9999 -9999 -9999 -9999 -9999 -9999 -9999 -9999 -9999 -9999 -9999 -9999 -9999 -9999 -9999 -9999 -9999 -9999 -9999 -9999 -9999 -9999 -9999 -9999 -9999 -9999 -9999 -9999 -9999 -9999 -9999 -9999 -9999 -9999 -9999 -9999 -9999
-9999 -9999 -9999 -9999 -9999 -9999 -9999 -9999 -9999 -9999 -9999 -9999 -9999 -9999 -9999 -9999 -9999 -9999 -9999 -9999 -9999 -9999 -9999 -9999 -9999 -9999 -9999 -9999 -9999 -9999 15.0905432595573 15.0905432595573 15.0905432595573 15.0905432595573 15.0905432595573 15.0905432595573 15.0905432595573 15.0905432595573 15.0905432595573 15.0905432595573 15.0905432595573 15.0905432595573 15.0905432595573 15.0905432595573 15.0905432595573 -9999 -9999 -9999 -9999 -9999 -9999 -9999 -9999 5.99400599400599 5.99400599400599 5.99400599400599 -9999 -9999 -9999 -9999 5.99400599400599 5.99400599400599 5.99400599400599 5.99400599400599 -9999 -9999 -9999 -9999 -9999 -9999 -9999 -9999 -9999 -9999 10.5633802816901 10.5633802816901 10.5633802816901 15.0905432595573 10.5633802816901 7.15563506261181 7.15563506261181 7.15563506261181 8.91089108910891 6.62544169611307 6.62544169611307 14.4717800289436 14.4717800289436 14.4717800289436 14.4717800289436 14.4717800289436 14.4717800289436 14.4717800289436 14.4717800289436 8.62068965517241 8.62068965517241 8.62068965517241 19.9600798403194 19.9600798403194 19.9600798403194 19.9600798403194 6.74373795761079 6.74373795761079 26.0521042084168 26.0521042084168 26.0521042084168 26.0521042084168 26.0521042084168 26.0521042084168 10.6382978723404 10.6382978723404 6.59133709981168 6.59133709981168 3.21199143468951 8.10810810810811 8.10810810810811 8.10810810810811 8.10810810810811 6.59133709981168 -9999 10.7361963190184 10.7361963190184 6.60611065235343 6.60611065235343 6.60611065235343 6.60611065235343 6.60611065235343 6.60611065235343 6.60611065235343 6.60611065235343 6.60611065235343 6.60611065235343 6.60611065235343 6.60611065235343 6.60611065235343 6.60611065235343 6.60611065235343 6.60611065235343 6.60611065235343 6.60611065235343 6.60611065235343 6.60611065235343 6.60611065235343 6.60611065235343 6.60611065235343 6.60611065235343 6.60611065235343 6.60611065235343 6.60611065235343 6.60611065235343 6.60611065235343 6.60611065235343 6.60611065235343 6.60611065235343 6.60611065235343 6.60611065235343 6.60611065235343 6.60611065235343 6.60611065235343 6.60611065235343 6.60611065235343 6.60611065235343 5.20833333333333 5.20833333333333 5.20833333333333 5.20833333333333 5.20833333333333 5.20833333333333 5.20833333333333 5.20833333333333 5.20833333333333 5.20833333333333 5.20833333333333 5.20833333333333 5.20833333333333 5.20833333333333 5.20833333333333 5.20833333333333 -9999 -9999 -9999 -9999 -9999 -9999 -9999 -9999 -9999 -9999 -9999 -9999 -9999 -9999 -9999 -9999 -9999 -9999 -9999 2.9296875 2.9296875 2.9296875 2.9296875 2.9296875 2.9296875 2.9296875 2.9296875 2.9296875 2.9296875 2.9296875 2.9296875 2.9296875 2.9296875 2.9296875 2.9296875 2.9296875 2.9296875 2.9296875 2.9296875 2.9296875 2.9296875 4.03877221324717 4.03877221324717 4.03877221324717 4.03877221324717 4.03877221324717 4.03877221324717 4.03877221324717 4.03877221324717 4.03877221324717 4.03877221324717 -9999 -9999 -9999 -9999 -9999 -9999 -9999 4.03877221324717 4.03877221324717 -9999 -9999 -9999 -9999 -9999 -9999 -9999 -9999 0 0 0 0 0 0 0 0 -9999 -9999 -9999 -9999 -9999 -9999 -9999 7.46268656716418 7.46268656716418 7.46268656716418 10.2249488752556 10.2249488752556 23.2974910394265 23.2974910394265 23.2974910394265 18.7032418952618 18.7032418952618 28.2442748091603 4.44444444444444 4.44444444444444 11.7328519855596 11.7328519855596 11.0584518167457 11.0584518167457 14.003294892916 14.003294892916 18.9274447949527 18.9274447949527 13.4228187919463 13.4228187919463 13.4228187919463 13.4228187919463 7.71869639794168 7.71869639794168 7.71869639794168 11.1111111111111 11.1111111111111 11.1111111111111 11.1111111111111 9.13838120104439 8.51788756388416 8.51788756388416 8.51788756388416 8.51788756388416 7.25952813067151 17.6282051282051 2.22222222222222 2.22222222222222 2.22222222222222 10.6877323420074 10.6877323420074 7.33496332518337 7.33496332518337 7.33496332518337 10.6877323420074 7.53424657534247 7.53424657534247 -9999 -9999 -9999 5.8027079303675 5.8027079303675 5.8027079303675 5.8027079303675 5.0125313283208 5.0125313283208 5.0125313283208 5.0125313283208 5.0125313283208 6.17283950617284 6.17283950617284 -9999 1.21212121212121 1.21212121212121 1.21212121212121 1.21212121212121 1.21212121212121 1.21212121212121 1.21212121212121 1.21212121212121 1.21212121212121 1.21212121212121 0 0 6.60377358490566 11.3636363636364 11.3636363636364 0 2.17864923747277 2.17864923747277 2.17864923747277 2.17864923747277 2.17864923747277 2.17864923747277 -9999 -9999 -9999 -9999 -9999 -9999 -9999 8.79120879120879 8.79120879120879 8.79120879120879 8.7719298245614 8.7719298245614 8.7719298245614 8.7719298245614 8.7719298245614 8.7719298245614 8.7719298245614 8.7719298245614 8.7719298245614 -9999 -9999 -9999 -9999 -9999 -9999 -9999 -9999 -9999 -9999 -9999 -9999 -9999 -9999 -9999 -9999 -9999 -9999 -9999 -9999 -9999 -9999 -9999 -9999 -9999 -9999 -9999 -9999 -9999 -9999 -9999 -9999 -9999 -9999 -9999 -9999 -9999 -9999 -9999 -9999 -9999 -9999 -9999 -9999 -9999 -9999 -9999 -9999 -9999
-9999 -9999 -9999 -9999 -9999 -9999 -9999 -9999 -9999 -9999 -9999 -9999 -9999 -9999 -9999 -9999 -9999 -9999 -9999 -9999 -9999 -9999 -9999 -9999 -9999 -9999 -9999 -9999 -9999 -9999 15.0905432595573 15.0905432595573 15.0905432595573 15.0905432595573 15.0905432595573 15.0905432595573 15.0905432595573 15.0905432595573 15.0905432595573 15.0905432595573 15.0905432595573 15.0905432595573 15.0905432595573 15.0905432595573 15.0905432595573 15.0905432595573 -9999 -9999 -9999 -9999 -9999 -9999 -9999 -9999 -9999 -9999 -9999 -9999 -9999 -9999 -9999 5.99400599400599 -9999 -9999 -9999 -9999 -9999 -9999 -9999 -9999 15.0905432595573 15.0905432595573 15.0905432595573 15.0905432595573 10.5633802816901 10.5633802816901 10.5633802816901 10.5633802816901 10.5633802816901 7.15563506261181 7.15563506261181 7.15563506261181 8.91089108910891 8.91089108910891 6.62544169611307 6.62544169611307 14.4717800289436 14.4717800289436 14.4717800289436 14.4717800289436 14.4717800289436 14.4717800289436 14.4717800289436 14.4717800289436 8.62068965517241 19.9600798403194 19.9600798403194 19.9600798403194 20.952380952381 20.952380952381 20.952380952381 6.74373795761079 6.74373795761079 26.0521042084168 26.0521042084168 26.0521042084168 10.6382978723404 10.6382978723404 10.6382978723404 6.59133709981168 6.59133709981168 3.21199143468951 3.21199143468951 3.21199143468951 6.59133709981168 6.59133709981168 -9999 -9999 10.7361963190184 10.7361963190184 10.7361963190184 10.7361963190184 6.60611065235343 6.60611065235343 6.60611065235343 6.60611065235343 6.60611065235343 6.60611065235343 6.60611065235343 6.60611065235343 6.60611065235343 6.60611065235343 6.60611065235343 6.60611065235343 6.60611065235343 6.60611065235343 6.60611065235343 6.60611065235343 6.60611065235343 6.60611065235343 6.60611065235343 9.14634146341463 9.14634146341463 6.60611065235343 6.60611065235343 6.60611065235343 6.60611065235343 6.60611065235343 6.60611065235343 6.60611065235343 6.60611065235343 6.60611065235343 6.60611065235343 6.60611065235343 6.60611065235343 6.60611065235343 6.60611065235343 6.60611065235343 6.60611065235343 6.60611065235343 6.60611065235343 6.60611065235343 5.20833333333333 5.20833333333333 5.20833333333333 5.20833333333333 5.20833333333333 5.20833333333333 5.20833333333333 5.20833333333333 5.20833333333333 5.20833333333333 5.20833333333333 5.20833333333333 5.20833333333333 5.20833333333333 5.20833333333333 5.20833333333333 5.20833333333333 -9999 -9999 -9999 -9999 -9999 -9999 -9999 -9999 -9999 -9999 -9999 -9999 -9999 -9999 -9999 -9999 2.9296875 2.9296875 2.9296875 2.9296875 2.9296875 2.9296875 2.9296875 2.9296875 2.9296875 2.9296875 2.9296875 2.9296875 2.9296875 2.9296875 2.9296875 2.9296875 2.9296875 2.9296875 2.9296875 2.9296875 2.9296875 4.03877221324717 4.03877221324717 4.03877221324717 4.03877221324717 4.03877221324717 4.03877221324717 4.03877221324717 4.03877221324717 4.03877221324717 4.03877221324717 4.03877221324717 4.03877221324717 4.03877221324717 -9999 -9999 -9999 -9999 -9999 -9999 4.03877221324717 4.03877221324717 4.03877221324717 4.03877221324717 -9999 -9999 -9999 -9999 -9999 0 0 0 0 0 0 0 0 0 6.17283950617284 6.17283950617284 6.17283950617284 8.63557858376511 8.63557858376511 8.63557858376511 -9999 7.46268656716418 7.46268656716418 7.46268656716418 7.46268656716418 7.46268656716418 23.2974910394265 23.2974910394265 23.2974910394265 23.2974910394265 28.2442748091603 28.2442748091603 28.2442748091603 39.1459074733096 13.1795716639209 13.1795716639209 11.7328519855596 6.36942675159236 14.003294892916 14.003294892916 14.003294892916 13.4228187919463 13.4228187919463 13.4228187919463 13.4228187919463 20.3094777562863 20.3094777562863 20.3094777562863 7.71869639794168 7.71869639794168 7.71869639794168 11.1111111111111 11.1111111111111 8.63723608445297 8.63723608445297 8.63723608445297 6.0790273556231 0 7.25952813067151 7.25952813067151 7.25952813067151 13.2743362831858 10.6877323420074 10.6877323420074 24.0700218818381 7.33496332518337 7.33496332518337 7.33496332518337 7.53424657534247 -9999 -9999 -9999 -9999 -9999 5.8027079303675 5.8027079303675 5.8027079303675 5.8027079303675 5.0125313283208 5.0125313283208 5.0125313283208 5.0125313283208 -9999 -9999 1.21212121212121 1.21212121212121 1.21212121212121 1.21212121212121 1.21212121212121 1.21212121212121 1.21212121212121 1.21212121212121 1.21212121212121 1.21212121212121 1.21212121212121 1.21212121212121 5.70342205323194 5.70342205323194 4.78927203065134 4.78927203065134 4.78927203065134 2.17864923747277 2.17864923747277 2.17864923747277 2.17864923747277 2.17864923747277 2.17864923747277 -9999 -9999 -9999 -9999 -9999 -9999 8.79120879120879 8.79120879120879 8.79120879120879 8.79120879120879 7.15488215488215 8.7719298245614 8.7719298245614 8.7719298245614 8.7719298245614 8.7719298245614 8.7719298245614 8.7719298245614 8.7719298245614 -9999 -9999 -9999 -9999 -9999 -9999 -9999 -9999 -9999 -9999 -9999 -9999 -9999 -9999 -9999 -9999 -9999 -9999 -9999 -9999 -9999 -9999 -9999 -9999 -9999 -9999 -9999 -9999 -9999 -9999 -9999 -9999 -9999 -9999 -9999 -9999 -9999 -9999 -9999 -9999 -9999 -9999 -9999 -9999 -9999 -9999 -9999 -9999 -9999 -9999
-9999 -9999 -9999 -9999 -9999 -9999 -9999 -9999 -9999 -9999 -9999 -9999 -9999 -9999 -9999 -9999 -9999 -9999 -9999 -9999 -9999 -9999 -9999 -9999 -9999 -9999 -9999 -9999 -9999 -9999 -9999 15.0905432595573 15.0905432595573 15.0905432595573 15.0905432595573 15.0905432595573 15.0905432595573 15.0905432595573 15.0905432595573 15.0905432595573 15.0905432595573 15.0905432595573 15.0905432595573 15.0905432595573 15.0905432595573 15.0905432595573 -9999 -9999 -9999 -9999 -9999 -9999 -9999 -9999 -9999 -9999 -9999 -9999 -9999 -9999 -9999 -9999 -9999 -9999 -9999 -9999 -9999 -9999 15.0905432595573 -9999 15.0905432595573 15.0905432595573 15.0905432595573 15.0905432595573 6.72268907563025 6.72268907563025 6.72268907563025 6.72268907563025 10.5633802816901 10.5633802816901 10.5633802816901 6.43382352941176 7.46268656716418 8.91089108910891 8.91089108910891 6.62544169611307 7.99086757990868 7.99086757990868 14.4717800289436 14.4717800289436 14.4717800289436 14.4717800289436 14.4717800289436 14.4717800289436 6.17283950617284 19.9600798403194 6.17283950617284 20.952380952381 20.952380952381 20.952380952381 6.74373795761079 6.74373795761079 6.74373795761079 5.26315789473684 10.6382978723404 10.6382978723404 10.6382978723404 6.59133709981168 6.59133709981168 6.59133709981168 3.21199143468951 3.21199143468951 3.21199143468951 6.59133709981168 -9999 -9999 10.7361963190184 10.7361963190184 10.7361963190184 10.7361963190184 -9999 -9999 -9999 6.60611065235343 6.60611065235343 6.60611065235343 6.60611065235343 6.60611065235343 6.60611065235343 6.60611065235343 6.60611065235343 6.60611065235343 6.60611065235343 6.60611065235343 6.60611065235343 6.60611065235343 6.60611065235343 6.60611065235343 6.60611065235343 6.60611065235343 9.14634146341463 9.14634146341463 12.987012987013 9.14634146341463 0 0 0 6.60611065235343 6.60611065235343 6.60611065235343 6.60611065235343 6.60611065235343 6.60611065235343 6.60611065235343 6.60611065235343 6.60611065235343 6.60611065235343 6.60611065235343 6.60611065235343 6.60611065235343 6.60611065235343 6.60611065235343 5.20833333333333 5.20833333333333 5.20833333333333 5.20833333333333 5.20833333333333 5.20833333333333 5.20833333333333 5.20833333333333 5.20833333333333 5.20833333333333 5.20833333333333 5.20833333333333 5.20833333333333 5.20833333333333 5.20833333333333 5.20833333333333 5.20833333333333 5.20833333333333 -9999 -9999 -9999 -9999 -9999 -9999 -9999 -9999 -9999 -9999 -9999 -9999 -9999 2.9296875 2.9296875 2.9296875 2.9296875 2.9296875 2.9296875 2.9296875 2.9296875 2.9296875 2.9296875 2.9296875 2.9296875 2.9296875 2.9296875 2.9296875 2.9296875 2.9296875 2.9296875 2.9296875 2.9296875 2.9296875 2.9296875 4.03877221324717 4.03877221324717 4.03877221324717 4.03877221324717 4.03877221324717 4.03877221324717 4.03877221324717 4.03877221324717 4.03877221324717 4.03877221324717 4.03877221324717 4.03877221324717 4.03877221324717 4.03877221324717 4.03877221324717 4.03877221324717 -9999 -9999 -9999 -9999 4.03877221324717 4.03877221324717 4.03877221324717 4.03877221324717 4.03877221324717 4.03877221324717 -9999 -9999 -9999 0 0 0 0 0 0 0 0 0 14.7058823529412 6.17283950617284 6.17283950617284 8.63557858376511 8.63557858376511 8.63557858376511 6.2015503875969 6.2015503875969 6.2015503875969 7.46268656716418 7.46268656716418 30.6122448979592 23.2974910394265 23.2974910394265 23.2974910394265 29.8611111111111 29.8611111111111 29.8611111111111 29.8611111111111 14.6627565982405 14.6627565982405 39.1459074733096 39.1459074733096 13.765541740675 6.36942675159236 6.36942675159236 6.36942675159236 11.4503816793893 11.4503816793893 11.4503816793893 20.3094777562863 20.3094777562863 20.3094777562863 7.94392523364486 7.94392523364486 7.71869639794168 8.06451612903226 8.06451612903226 8.06451612903226 8.63723608445297 13.8297872340426 13.8297872340426 13.8297872340426 6.0790273556231 6.0790273556231 13.2743362831858 13.2743362831858 13.2743362831858 7.82608695652174 24.0700218818381 24.0700218818381 7.53424657534247 7.53424657534247 -9999 -9999 -9999 -9999 -9999 -9999 -9999 -9999 5.8027079303675 5.8027079303675 5.8027079303675 5.0125313283208 5.0125313283208 -9999 1.21212121212121 1.21212121212121 1.21212121212121 1.21212121212121 1.21212121212121 1.21212121212121 1.21212121212121 1.21212121212121 1.21212121212121 1.21212121212121 10.507880910683 10.507880910683 1.21212121212121 1.21212121212121 1.21212121212121 5.37634408602151 2.55754475703325 2.55754475703325 0 0 4.42477876106195 4.42477876106195 2.17864923747277 2.17864923747277 2.17864923747277 -9999 -9999 -9999 -9999 8.79120879120879 8.79120879120879 8.79120879120879 8.79120879120879 8.79120879120879 7.15488215488215 7.15488215488215 7.15488215488215 8.7719298245614 8.7719298245614 8.7719298245614 8.7719298245614 8.7719298245614 8.7719298245614 10 10 10 -9999 -9999 -9999 -9999 -9999 -9999 -9999 -9999 -9999 -9999 -9999 -9999 -9999 -9999 -9999 -9999 -9999 -9999 -9999 -9999 -9999 -9999 -9999 -9999 -9999 -9999 -9999 -9999 -9999 -9999 -9999 -9999 -9999 -9999 -9999 -9999 -9999 -9999 -9999 -9999 -9999 -9999 -9999 -9999 -9999 -9999 -9999 -9999 -9999
-9999 -9999 -9999 -9999 -9999 -9999 -9999 -9999 -9999 -9999 -9999 -9999 -9999 -9999 -9999 -9999 -9999 -9999 -9999 -9999 -9999 -9999 -9999 -9999 -9999 -9999 -9999 -9999 15.0905432595573 15.0905432595573 15.0905432595573 15.0905432595573 15.0905432595573 15.0905432595573 15.0905432595573 15.0905432595573 15.0905432595573 15.0905432595573 15.0905432595573 15.0905432595573 15.0905432595573 15.0905432595573 15.0905432595573 15.0905432595573 15.0905432595573 15.0905432595573 -9999 -9999 -9999 -9999 -9999 -9999 -9999 -9999 -9999 -9999 -9999 -9999 -9999 -9999 -9999 -9999 -9999 -9999 -9999 15.0905432595573 15.0905432595573 15.0905432595573 15.0905432595573 15.0905432595573 15.0905432595573 -9999 -9999 -9999 -9999 6.72268907563025 6.72268907563025 6.72268907563025 10.5633802816901 6.43382352941176 6.43382352941176 6.43382352941176 6.43382352941176 7.46268656716418 8.91089108910891 7.46268656716418 7.99086757990868 7.99086757990868 7.99086757990868 14.4717800289436 14.4717800289436 14.4717800289436 14.4717800289436 6.17283950617284 6.17283950617284 6.17283950617284 20.952380952381 20.952380952381 6.74373795761079 6.74373795761079 6.74373795761079 5.26315789473684 5.26315789473684 5.26315789473684 5.26315789473684 6.59133709981168 6.59133709981168 6.59133709981168 3.21199143468951 3.21199143468951 3.21199143468951 6.59133709981168 -9999 10.7361963190184 -9999 10.7361963190184 10.7361963190184 10.7361963190184 10.7361963190184 -9999 -9999 -9999 -9999 -9999 6.60611065235343 6.60611065235343 6.60611065235343 6.60611065235343 6.60611065235343 6.60611065235343 6.60611065235343 6.60611065235343 6.60611065235343 6.60611065235343 6.60611065235343 6.60611065235343 6.60611065235343 6.60611065235343 9.14634146341463 9.14634146341463 9.14634146341463 12.987012987013 12.987012987013 12.987012987013 0 0 0 6.2402496099844 6.2402496099844 6.60611065235343 6.60611065235343 6.60611065235343 6.60611065235343 6.60611065235343 6.60611065235343 6.60611065235343 6.60611065235343 6.60611065235343 6.60611065235343 6.60611065235343 5.20833333333333 5.20833333333333 5.20833333333333 5.20833333333333 5.20833333333333 5.20833333333333 5.20833333333333 5.20833333333333 5.20833333333333 5.20833333333333 5.20833333333333 5.20833333333333 5.20833333333333 5.20833333333333 5.20833333333333 5.20833333333333 5.20833333333333 5.20833333333333 5.20833333333333 5.20833333333333 2.9296875 2.9296875 -9999 -9999 -9999 -9999 -9999 -9999 -9999 -9999 -9999 -9999 2.9296875 2.9296875 2.9296875 2.9296875 2.9296875 2.9296875 2.9296875 2.9296875 2.9296875 2.9296875 2.9296875 2.9296875 2.9296875 2.9296875 2.9296875 2.9296875 2.9296875 2.9296875 2.9296875 2.9296875 2.9296875 2.9296875 4.03877221324717 4.03877221324717 4.03877221324717 4.03877221324717 4.03877221324717 4.03877221324717 4.03877221324717 4.03877221324717 4.03877221324717 4.03877221324717 4.03877221324717 4.03877221324717 4.03877221324717 4.03877221324717 4.03877221324717 4.03877221324717 4.03877221324717 4.03877221324717 -9999 -9999 -9999 4.03877221324717 4.03877221324717 4.03877221324717 4.03877221324717 4.03877221324717 4.03877221324717 4.03877221324717 -9999 -9999 0 0 0 0 0 0 0 0 14.7058823529412 14.7058823529412 14.7058823529412 16.4359861591695 16.4359861591695 8.63557858376511 6.2015503875969 6.2015503875969 6.2015503875969 6.2015503875969 6.2015503875969 30.6122448979592 30.6122448979592 23.2974910394265 23.2974910394265 29.8611111111111 29.8611111111111 29.8611111111111 29.8611111111111 8.64553314121038 8.64553314121038 14.6627565982405 14.6627565982405 13.765541740675 13.765541740675 13.765541740675 13.765541740675 -9999 -9999 11.4503816793893 10.2739726027397 10.2739726027397 10.2739726027397 7.94392523364486 7.94392523364486 7.94392523364486 7.94392523364486 7.94392523364486 8.06451612903226 12.6760563380282 8.12064965197216 8.12064965197216 8.12064965197216 13.8297872340426 13.2743362831858 7.82608695652174 7.82608695652174 7.82608695652174 7.82608695652174 7.82608695652174 7.53424657534247 7.53424657534247 -9999 -9999 -9999 -9999 -9999 -9999 -9999 -9999 -9999 -9999 -9999 -9999 -9999 1.21212121212121 1.21212121212121 1.21212121212121 1.21212121212121 1.21212121212121 1.21212121212121 1.21212121212121 1.21212121212121 1.21212121212121 1.21212121212121 1.21212121212121 10.507880910683 10.507880910683 10.507880910683 10.507880910683 10.507880910683 10.507880910683 10.507880910683 5.37634408602151 2.55754475703325 2.55754475703325 0 4.42477876106195 4.42477876106195 5.90551181102362 2.17864923747277 2.17864923747277 2.17864923747277 -9999 -9999 -9999 8.79120879120879 8.79120879120879 15.0375939849624 15.0375939849624 14.0073081607795 14.0073081607795 7.15488215488215 7.15488215488215 7.15488215488215 7.15488215488215 8.7719298245614 8.7719298245614 8.7719298245614 -9999 8.7719298245614 -9999 10 -9999 -9999 -9999 -9999 -9999 -9999 -9999 -9999 -9999 -9999 -9999 -9999 -9999 -9999 -9999 -9999 -9999 -9999 -9999 -9999 -9999 -9999 -9999 -9999 -9999 -9999 -9999 -9999 -9999 -9999 -9999 -9999 -9999 -9999 -9999 -9999 -9999 -9999 -9999 -9999 -9999 -9999 -9999 -9999 -9999 -9999 -9999 -9999 -9999 -9999
-9999 -9999 -9999 -9999 -9999 -9999 -9999 -9999 -9999 -9999 -9999 -9999 -9999 -9999 -9999 -9999 -9999 -9999 -9999 -9999 -9999 -9999 -9999 -9999 -9999 15.0905432595573 15.0905432595573 15.0905432595573 15.0905432595573 15.0905432595573 15.0905432595573 15.0905432595573 15.0905432595573 15.0905432595573 15.0905432595573 15.0905432595573 15.0905432595573 15.0905432595573 15.0905432595573 15.0905432595573 15.0905432595573 15.0905432595573 15.0905432595573 15.0905432595573 15.0905432595573 15.0905432595573 15.0905432595573 -9999 -9999 -9999 -9999 -9999 -9999 -9999 -9999 -9999 -9999 -9999 -9999 -9999 -9999 -9999 -9999 -9999 15.0905432595573 15.0905432595573 15.0905432595573 15.0905432595573 15.0905432595573 -9999 -9999 -9999 -9999 -9999 -9999 -9999 -9999 6.72268907563025 8.06451612903226 8.06451612903226 6.43382352941176 6.43382352941176 6.43382352941176 7.46268656716418 7.46268656716418 7.46268656716418 7.99086757990868 7.99086757990868 7.99086757990868 7.99086757990868 14.4717800289436 14.4717800289436 6.17283950617284 6.17283950617284 20.952380952381 20.952380952381 20.952380952381 13.5396518375242 5.26315789473684 5.26315789473684 5.26315789473684 5.26315789473684 5.26315789473684 5.98290598290598 5.26315789473684 9.375 6.59133709981168 6.59133709981168 6.59133709981168 6.59133709981168 -9999 10.7361963190184 -9999 10.7361963190184 10.7361963190184 10.7361963190184 10.7361963190184 -9999 -9999 -9999 -9999 -9999 -9999 -9999 -9999 6.60611065235343 6.60611065235343 6.60611065235343 6.60611065235343 6.60611065235343 6.60611065235343 6.60611065235343 6.60611065235343 6.60611065235343 6.60611065235343 6.60611065235343 5.91715976331361 5.91715976331361 9.14634146341463 9.14634146341463 9.14634146341463 9.14634146341463 12.987012987013 12.987012987013 12.987012987013 12.987012987013 6.2402496099844 6.2402496099844 6.2402496099844 6.2402496099844 6.60611065235343 6.60611065235343 6.60611065235343 6.60611065235343 6.60611065235343 6.60611065235343 6.60611065235343 9.51086956521739 9.51086956521739 9.51086956521739 5.20833333333333 5.20833333333333 5.20833333333333 5.20833333333333 5.20833333333333 5.20833333333333 5.20833333333333 5.20833333333333 5.20833333333333 5.20833333333333 5.20833333333333 5.20833333333333 5.20833333333333 5.20833333333333 5.20833333333333 5.20833333333333 5.20833333333333 5.20833333333333 5.20833333333333 2.9296875 2.9296875 2.9296875 2.9296875 -9999 -9999 -9999 -9999 -9999 -9999 -9999 -9999 2.9296875 2.9296875 2.9296875 2.9296875 2.9296875 2.9296875 2.9296875 2.9296875 2.9296875 2.9296875 2.9296875 2.9296875 2.9296875 2.9296875 2.9296875 2.9296875 2.9296875 2.9296875 2.9296875 2.9296875 2.9296875 4.03877221324717 4.03877221324717 4.03877221324717 4.03877221324717 4.03877221324717 4.03877221324717 4.03877221324717 4.03877221324717 4.03877221324717 4.03877221324717 4.03877221324717 4.03877221324717 4.03877221324717 4.03877221324717 4.03877221324717 4.03877221324717 4.03877221324717 4.03877221324717 4.03877221324717 4.03877221324717 4.03877221324717 4.03877221324717 4.03877221324717 4.03877221324717 4.03877221324717 4.03877221324717 4.03877221324717 4.03877221324717 4.03877221324717 4.03877221324717 4.03877221324717 0 0 0 0 0 0 0 0 13.7130801687764 13.7130801687764 14.7058823529412 16.4359861591695 16.4359861591695 16.4359861591695 13.0260521042084 13.0260521042084 13.0260521042084 6.2015503875969 6.2015503875969 30.6122448979592 34.1753343239227 30.6122448979592 23.2974910394265 23.2974910394265 18.5185185185185 18.5185185185185 18.5185185185185 8.64553314121038 8.64553314121038 8.64553314121038 8.64553314121038 40.6779661016949 13.765541740675 13.765541740675 13.765541740675 -9999 -9999 -9999 10.2739726027397 10.2739726027397 10.2739726027397 10.2739726027397 4.26687354538402 4.26687354538402 7.94392523364486 7.94392523364486 -9999 -9999 18.5567010309278 12.6760563380282 12.6760563380282 7.53424657534247 7.53424657534247 7.53424657534247 7.53424657534247 7.53424657534247 7.53424657534247 7.53424657534247 7.53424657534247 -9999 -9999 -9999 -9999 -9999 -9999 -9999 -9999 -9999 -9999 -9999 -9999 -9999 6.51658767772512 6.51658767772512 1.21212121212121 1.21212121212121 1.21212121212121 1.21212121212121 1.21212121212121 1.21212121212121 1.21212121212121 1.21212121212121 1.21212121212121 1.21212121212121 1.21212121212121 10.507880910683 10.507880910683 6.46950092421442 4.6875 4.6875 10.8459869848156 10.8459869848156 5.37634408602151 6.00961538461539 6.00961538461539 0 6.64451827242525 6.64451827242525 5.90551181102362 5.90551181102362 2.17864923747277 2.17864923747277 -9999 -9999 -9999 8.79120879120879 8.79120879120879 15.0375939849624 14.0073081607795 14.0073081607795 7.15488215488215 7.15488215488215 7.15488215488215 7.15488215488215 8.7719298245614 8.7719298245614 8.7719298245614 8.7719298245614 -9999 -9999 -9999 -9999 -9999 -9999 -9999 -9999 -9999 -9999 -9999 -9999 -9999 -9999 -9999 -9999 -9999 -9999 -9999 -9999 -9999 -9999 -9999 -9999 -9999 -9999 -9999 -9999 -9999 -9999 -9999 -9999 -9999 -9999 -9999 -9999 -9999 -9999 -9999 -9999 -9999 -9999 -9999 -9999 -9999 -9999 -9999 -9999 -9999 -9999 -9999 -9999 -9999 -9999
-9999 -9999 -9999 -9999 -9999 -9999 -9999 -9999 -9999 -9999 -9999 -9999 -9999 -9999 -9999 -9999 -9999 -9999 -9999 -9999 -9999 -9999 -9999 -9999 -9999 -9999 15.0905432595573 15.0905432595573 15.0905432595573 15.0905432595573 15.0905432595573 15.0905432595573 15.0905432595573 15.0905432595573 15.0905432595573 15.0905432595573 15.0905432595573 15.0905432595573 15.0905432595573 15.0905432595573 15.0905432595573 15.0905432595573 15.0905432595573 15.0905432595573 15.0905432595573 15.0905432595573 15.0905432595573 -9999 -9999 -9999 -9999 -9999 -9999 -9999 -9999 -9999 -9999 -9999 -9999 -9999 -9999 -9999 -9999 -9999 15.0905432595573 -9999 -9999 -9999 -9999 -9999 -9999 -9999 -9999 -9999 -9999 -9999 11.6504854368932 11.6504854368932 8.06451612903226 8.06451612903226 8.06451612903226 6.43382352941176 6.43382352941176 7.46268656716418 8.30815709969789 7.46268656716418 7.46268656716418 7.46268656716418 7.99086757990868 7.99086757990868 6.17283950617284 6.17283950617284 20.952380952381 20.952380952381 20.952380952381 13.5396518375242 13.5396518375242 5.26315789473684 5.26315789473684 5.26315789473684 5.26315789473684 5.98290598290598 5.98290598290598 9.375 9.375 9.375 9.375 6.59133709981168 -9999 -9999 10.7361963190184 10.7361963190184 10.7361963190184 10.7361963190184 10.7361963190184 -9999 -9999 -9999 -9999 -9999 -9999 -9999 -9999 8.16070307595731 8.16070307595731 8.16070307595731 6.60611065235343 6.60611065235343 6.60611065235343 6.60611065235343 6.60611065235343 6.60611065235343 6.60611065235343 6.60611065235343 11.5606936416185 5.91715976331361 5.91715976331361 5.91715976331361 5.91715976331361 5.91715976331361 9.14634146341463 12.987012987013 12.987012987013 12.987012987013 12.987012987013 12.987012987013 12.987012987013 6.2402496099844 6.2402496099844 6.2402496099844 6.2402496099844 6.2402496099844 6.60611065235343 6.60611065235343 6.60611065235343 9.51086956521739 9.51086956521739 9.51086956521739 9.51086956521739 9.51086956521739 5.20833333333333 5.20833333333333 5.20833333333333 5.20833333333333 5.20833333333333 5.20833333333333 5.20833333333333 5.20833333333333 5.20833333333333 5.20833333333333 5.20833333333333 5.20833333333333 5.20833333333333 5.20833333333333 5.20833333333333 5.20833333333333 5.20833333333333 5.20833333333333 2.9296875 2.9296875 2.9296875 2.9296875 2.9296875 2.9296875 2.9296875 -9999 -9999 -9999 -9999 2.9296875 2.9296875 2.9296875 2.9296875 2.9296875 2.9296875 2.9296875 2.9296875 2.9296875 2.9296875 2.9296875 2.9296875 2.9296875 2.9296875 2.9296875 2.9296875 2.9296875 2.9296875 2.9296875 2.9296875 2.9296875 2.9296875 4.03877221324717 4.03877221324717 4.03877221324717 4.03877221324717 4.03877221324717 4.03877221324717 4.03877221324717 4.03877221324717 4.03877221324717 4.03877221324717 4.03877221324717 4.03877221324717 4.03877221324717 4.03877221324717 4.03877221324717 4.03877221324717 4.03877221324717 4.03877221324717 4.03877221324717 4.03877221324717 4.03877221324717 4.03877221324717 4.03877221324717 4.03877221324717 4.03877221324717 4.03877221324717 4.03877221324717 4.03877221324717 4.03877221324717 4.03877221324717 4.03877221324717 4.03877221324717 0 0 0 0 0 0 0 13.7130801687764 13.7130801687764 13.7130801687764 7.6530612244898 7.6530612244898 7.6530612244898 13.0260521042084 13.0260521042084 13.0260521042084 13.0260521042084 13.0260521042084 30.6122448979592 34.1753343239227 34.1753343239227 30.6122448979592 23.2974910394265 29.2841648590022 29.2841648590022 18.5185185185185 18.5185185185185 18.5185185185185 18.5185185185185 18.5185185185185 40.6779661016949 40.6779661016949 40.6779661016949 40.6779661016949 -9999 -9999 -9999 15.2963671128107 15.2963671128107 10.2739726027397 10.2739726027397 4.26687354538402 4.26687354538402 4.26687354538402 11.1358574610245 11.1358574610245 -9999 -9999 -9999 7.53424657534247 7.53424657534247 7.53424657534247 7.53424657534247 7.53424657534247 7.53424657534247 7.53424657534247 7.53424657534247 -9999 -9999 -9999 -9999 -9999 -9999 -9999 -9999 -9999 -9999 -9999 -9999 -9999 15.6695156695157 6.51658767772512 6.51658767772512 6.51658767772512 6.51658767772512 13.1291028446389 13.1291028446389 13.1291028446389 13.1291028446389 6.9204152249135 6.9204152249135 6.9204152249135 0 0 0 -9999 -9999 -9999 -9999 0 0 10.8459869848156 5.37634408602151 6.00961538461539 6.00961538461539 0 6.64451827242525 6.64451827242525 6.64451827242525 5.90551181102362 2.17864923747277 2.17864923747277 -9999 -9999 -9999 8.79120879120879 8.79120879120879 14.0073081607795 14.0073081607795 7.15488215488215 7.15488215488215 7.15488215488215 7.15488215488215 9.98003992015968 6.89655172413793 6.89655172413793 8.7719298245614 -9999 -9999 -9999 -9999 -9999 -9999 -9999 -9999 -9999 -9999 -9999 -9999 -9999 -9999 -9999 -9999 -9999 -9999 -9999 -9999 -9999 -9999 -9999 -9999 -9999 -9999 -9999 -9999 -9999 -9999 -9999 -9999 -9999 -9999 -9999 -9999 -9999 -9999 -9999 -9999 -9999 -9999 -9999 -9999 -9999 -9999 -9999 -9999 -9999 -9999 -9999 -9999 -9999 -9999 -9999
-9999 -9999 -9999 -9999 -9999 -9999 -9999 -9999 -9999 -9999 -9999 -9999 -9999 -9999 -9999 -9999 -9999 -9999 -9999 -9999 -9999 -9999 -9999 -9999 -9999 -9999 -9999 -9999 -9999 15.0905432595573 15.0905432595573 15.0905432595573 15.0905432595573 15.0905432595573 15.0905432595573 15.0905432595573 15.0905432595573 15.0905432595573 15.0905432595573 15.0905432595573 15.0905432595573 15.0905432595573 15.0905432595573 15.0905432595573 15.0905432595573 15.0905432595573 15.0905432595573 15.0905432595573 -9999 15.0905432595573 15.0905432595573 -9999 -9999 -9999 -9999 -9999 15.0905432595573 -9999 -9999 -9999 -9999 15.0905432595573 15.0905432595573 -9999 -9999 -9999 -9999 -9999 -9999 -9999 -9999 -9999 -9999 -9999 11.6504854368932 11.6504854368932 11.6504854368932 11.6504854368932 11.6504854368932 8.06451612903226 8.06451612903226 8.06451612903226 8.30815709969789 8.30815709969789 8.30815709969789 8.30815709969789 8.30815709969789 7.46268656716418 17.1232876712329 17.1232876712329 6.17283950617284 20.952380952381 20.952380952381 20.952380952381 13.5396518375242 13.5396518375242 13.5396518375242 13.5396518375242 5.26315789473684 5.98290598290598 5.98290598290598 5.98290598290598 5.98290598290598 9.375 9.375 9.375 9.375 9.375 -9999 -9999 -9999 10.7361963190184 10.7361963190184 -9999 -9999 -9999 -9999 -9999 -9999 -9999 -9999 8.16070307595731 8.16070307595731 8.16070307595731 8.16070307595731 8.16070307595731 8.16070307595731 6.60611065235343 6.60611065235343 6.60611065235343 6.60611065235343 6.60611065235343 11.5606936416185 11.5606936416185 11.5606936416185 5.91715976331361 5.91715976331361 5.91715976331361 5.91715976331361 2.83018867924528 2.83018867924528 12.987012987013 12.987012987013 12.987012987013 12.987012987013 12.3762376237624 12.3762376237624 12.3762376237624 6.2402496099844 6.2402496099844 6.2402496099844 6.2402496099844 9.51086956521739 9.51086956521739 0 0 9.51086956521739 9.51086956521739 9.51086956521739 9.51086956521739 9.51086956521739 5.20833333333333 5.20833333333333 5.20833333333333 5.20833333333333 5.20833333333333 5.20833333333333 5.20833333333333 5.20833333333333 5.20833333333333 5.20833333333333 5.20833333333333 5.20833333333333 5.20833333333333 5.20833333333333 5.20833333333333 2.9296875 2.9296875 2.9296875 2.9296875 2.9296875 2.9296875 2.9296875 2.9296875 2.9296875 2.9296875 2.9296875 -9999 2.9296875 2.9296875 2.9296875 2.9296875 2.9296875 2.9296875 2.9296875 2.9296875 2.9296875 2.9296875 2.9296875 2.9296875 2.9296875 2.9296875 2.9296875 2.9296875 2.9296875 2.9296875 2.9296875 2.9296875 2.9296875 2.9296875 4.03877221324717 4.03877221324717 4.03877221324717 4.03877221324717 4.03877221324717 4.03877221324717 4.03877221324717 4.03877221324717 4.03877221324717 4.03877221324717 4.03877221324717 4.03877221324717 4.03877221324717 4.03877221324717 4.03877221324717 4.03877221324717 4.03877221324717 4.03877221324717 4.03877221324717 4.03877221324717 4.03877221324717 4.03877221324717 4.03877221324717 4.03877221324717 4.03877221324717 4.03877221324717 4.03877221324717 4.03877221324717 4.03877221324717 4.03877221324717 4.03877221324717 4.03877221324717 4.03877221324717 0 0 0 0 0 0 9.21658986175115 13.7130801687764 13.7130801687764 13.7130801687764 7.6530612244898 7.6530612244898 7.6530612244898 24.8161764705882 13.0260521042084 13.0260521042084 13.0260521042084 30.6122448979592 33.3333333333333 33.3333333333333 33.4051724137931 8.04455445544554 8.04455445544554 29.2841648590022 29.2841648590022 12.6939351198872 12.6939351198872 12.6939351198872 12.6939351198872 13.719512195122 13.719512195122 13.719512195122 40.6779661016949 -9999 -9999 -9999 -9999 15.2963671128107 15.2963671128107 15.2963671128107 15.2963671128107 15.2963671128107 25.7731958762887 25.7731958762887 21.4899713467049 11.1358574610245 11.1358574610245 7.53424657534247 7.53424657534247 7.53424657534247 7.53424657534247 7.53424657534247 7.53424657534247 7.53424657534247 -9999 -9999 -9999 -9999 -9999 -9999 -9999 -9999 -9999 -9999 -9999 -9999 -9999 -9999 15.6695156695157 15.6695156695157 0 6.51658767772512 0 0 0 4.51467268623025 4.51467268623025 0 0 4.9645390070922 6.9204152249135 6.9204152249135 0 0 0 -9999 -9999 -9999 -9999 0 0 0 0 4.13223140495868 4.13223140495868 4.13223140495868 7.15746421267894 2.62237762237762 2.62237762237762 2.62237762237762 7.15746421267894 7.15746421267894 -9999 -9999 -9999 8.79120879120879 14.0073081607795 14.0073081607795 14.0073081607795 14.0073081607795 7.15488215488215 7.15488215488215 9.98003992015968 6.89655172413793 6.89655172413793 6.89655172413793 29.0697674418605 -9999 -9999 -9999 -9999 -9999 -9999 -9999 -9999 -9999 -9999 -9999 -9999 -9999 -9999 -9999 -9999 -9999 -9999 -9999 -9999 -9999 -9999 -9999 -9999 -9999 -9999 -9999 -9999 -9999 -9999 -9999 -9999 -9999 -9999 -9999 -9999 -9999 -9999 -9999 -9999 -9999 -9999 -9999 -9999 -9999 -9999 -9999 -9999 -9999 -9999 -9999 -9999 -9999 -9999 -9999
-9999 -9999 -9999 -9999 -9999 -9999 -9999 -9999 -9999 -9999 -9999 -9999 -9999 -9999 -9999 -9999 -9999 -9999 -9999 -9999 -9999 -9999 -9999 -9999 -9999 -9999 -9999 -9999 15.0905432595573 15.0905432595573 15.0905432595573 15.0905432595573 15.0905432595573 15.0905432595573 15.0905432595573 15.0905432595573 15.0905432595573 15.0905432595573 15.0905432595573 15.0905432595573 15.0905432595573 15.0905432595573 15.0905432595573 15.0905432595573 15.0905432595573 15.0905432595573 -9999 -9999 -9999 -9999 -9999 -9999 15.0905432595573 -9999 15.0905432595573 -9999 15.0905432595573 15.0905432595573 15.0905432595573 -9999 15.0905432595573 -9999 -9999 -9999 -9999 -9999 -9999 -9999 -9999 -9999 -9999 3.64077669902913 3.64077669902913 2.41935483870968 19 19 19 19 11.6504854368932 8.06451612903226 8.06451612903226 8.30815709969789 8.30815709969789 8.30815709969789 8.30815709969789 17.1232876712329 17.1232876712329 17.1232876712329 17.1232876712329 17.1232876712329 17.1232876712329 20.952380952381 13.5396518375242 13.5396518375242 13.5396518375242 13.5396518375242 13.5396518375242 13.5396518375242 4.60593654042989 4.60593654042989 5.98290598290598 5.98290598290598 5.98290598290598 9.375 9.375 9.375 9.375 9.375 9.375 -9999 -9999 -9999 -9999 -9999 -9999 -9999 -9999 -9999 -9999 8.16070307595731 8.16070307595731 8.16070307595731 8.16070307595731 8.16070307595731 8.16070307595731 8.16070307595731 8.16070307595731 6.60611065235343 6.60611065235343 6.60611065235343 11.5606936416185 11.5606936416185 11.5606936416185 11.5606936416185 11.5606936416185 11.5606936416185 5.91715976331361 2.83018867924528 2.83018867924528 2.83018867924528 2.83018867924528 2.83018867924528 12.987012987013 12.3762376237624 12.3762376237624 12.3762376237624 12.3762376237624 12.3762376237624 12.3762376237624 9.51086956521739 9.51086956521739 9.51086956521739 16.6112956810631 0 0 0 0 0 9.51086956521739 9.51086956521739 9.51086956521739 5.20833333333333 5.20833333333333 5.20833333333333 5.20833333333333 5.20833333333333 5.20833333333333 5.20833333333333 5.20833333333333 5.20833333333333 5.20833333333333 5.20833333333333 5.20833333333333 5.20833333333333 5.20833333333333 2.9296875 2.9296875 2.9296875 2.9296875 2.9296875 2.9296875 2.9296875 2.9296875 2.9296875 2.9296875 2.9296875 2.9296875 2.9296875 2.9296875 2.9296875 2.9296875 2.9296875 2.9296875 2.9296875 2.9296875 2.9296875 2.9296875 2.9296875 2.9296875 2.9296875 2.9296875 2.9296875 2.9296875 2.9296875 2.9296875 2.9296875 2.9296875 2.9296875 2.9296875 4.03877221324717 4.03877221324717 4.03877221324717 4.03877221324717 4.03877221324717 4.03877221324717 4.03877221324717 4.03877221324717 4.03877221324717 4.03877221324717 4.03877221324717 4.03877221324717 4.03877221324717 4.03877221324717 4.03877221324717 4.03877221324717 4.03877221324717 4.03877221324717 4.03877221324717 4.03877221324717 4.03877221324717 4.03877221324717 4.03877221324717 4.03877221324717 4.03877221324717 4.03877221324717 4.03877221324717 4.03877221324717 4.03877221324717 4.03877221324717 4.03877221324717 4.03877221324717 4.03877221324717 4.03877221324717 0 0 0 0 9.21658986175115 0 9.21658986175115 9.21658986175115 9.21658986175115 7.6530612244898 7.6530612244898 7.6530612244898 24.8161764705882 24.8161764705882 24.8161764705882 13.0260521042084 30.6122448979592 39.6341463414634 25.9009009009009 33.4051724137931 33.4051724137931 8.04455445544554 8.04455445544554 29.2841648590022 29.2841648590022 12.6939351198872 12.6939351198872 12.6939351198872 12.6939351198872 13.719512195122 13.719512195122 13.719512195122 13.719512195122 6.39658848614073 6.39658848614073 -9999 11.6666666666667 11.6666666666667 11.6666666666667 11.6666666666667 5.6390977443609 25.7731958762887 25.7731958762887 25.7731958762887 25.7731958762887 11.1358574610245 7.53424657534247 7.53424657534247 7.53424657534247 7.53424657534247 7.53424657534247 7.53424657534247 -9999 -9999 -9999 -9999 -9999 -9999 -9999 -9999 -9999 -9999 -9999 -9999 -9999 -9999 15.6695156695157 15.6695156695157 15.6695156695157 15.6695156695157 0 0 1.6 1.6 1.6 11.4638447971781 11.4638447971781 6.78294573643411 0 4.9645390070922 4.9645390070922 4.9645390070922 4.66417910447761 4.66417910447761 0 -9999 -9999 -9999 -9999 9.22509225092251 9.22509225092251 9.22509225092251 9.22509225092251 6.04838709677419 6.04838709677419 6.04838709677419 10.5386416861827 10.5386416861827 10.5386416861827 10.5386416861827 7.15746421267894 7.15746421267894 -9999 -9999 -9999 8.79120879120879 8.79120879120879 3.2258064516129 3.2258064516129 3.2258064516129 9.98003992015968 9.98003992015968 11.2085769980507 11.2085769980507 6.89655172413793 6.89655172413793 -9999 -9999 -9999 -9999 -9999 -9999 -9999 -9999 -9999 -9999 -9999 -9999 -9999 -9999 -9999 -9999 -9999 -9999 -9999 -9999 -9999 -9999 -9999 -9999 -9999 -9999 -9999 -9999 -9999 -9999 -9999 -9999 -9999 -9999 -9999 -9999 -9999 -9999 -9999 -9999 -9999 -9999 -9999 -9999 -9999 -9999 -9999 -9999 -9999 -9999 -9999 -9999 -9999 -9999 -9999 -9999
-9999 -9999 -9999 -9999 -9999 -9999 -9999 -9999 -9999 -9999 -9999 -9999 -9999 -9999 -9999 -9999 -9999 -9999 -9999 -9999 -9999 -9999 -9999 -9999 -9999 -9999 15.0905432595573 15.0905432595573 15.0905432595573 15.0905432595573 15.0905432595573 15.0905432595573 15.0905432595573 15.0905432595573 15.0905432595573 15.0905432595573 15.0905432595573 15.0905432595573 15.0905432595573 15.0905432595573 15.0905432595573 15.0905432595573 15.0905432595573 -9999 -9999 -9999 -9999 -9999 -9999 -9999 -9999 -9999 -9999 -9999 -9999 -9999 -9999 -9999 -9999 -9999 -9999 -9999 -9999 -9999 -9999 -9999 -9999 -9999 -9999 3.64077669902913 3.64077669902913 3.64077669902913 2.41935483870968 2.41935483870968 2.41935483870968 19 19 19 11.71875 11.71875 11.71875 11.71875 8.30815709969789 8.30815709969789 8.30815709969789 8.30815709969789 17.1232876712329 17.1232876712329 17.1232876712329 17.1232876712329 12.7952755905512 12.7952755905512 13.5396518375242 13.5396518375242 13.5396518375242 4.60593654042989 4.60593654042989 4.60593654042989 4.60593654042989 4.60593654042989 4.60593654042989 5.98290598290598 5.98290598290598 5.98290598290598 9.375 9.375 9.375 9.375 9.375 9.375 -9999 -9999 -9999 -9999 -9999 -9999 -9999 8.16070307595731 8.16070307595731 8.16070307595731 8.16070307595731 8.16070307595731 8.16070307595731 8.16070307595731 8.16070307595731 8.16070307595731 8.16070307595731 8.16070307595731 11.5606936416185 11.5606936416185 11.5606936416185 11.5606936416185 11.5606936416185 11.5606936416185 19.9600798403194 19.9600798403194 2.83018867924528 2.83018867924528 2.83018867924528 2.83018867924528 2.83018867924528 12.3762376237624 12.3762376237624 12.3762376237624 12.3762376237624 12.3762376237624 12.3762376237624 9.51086956521739 9.51086956521739 9.51086956521739 16.6112956810631 16.6112956810631 16.6112956810631 0 0 0 0 0 9.51086956521739 9.51086956521739 9.51086956521739 5.20833333333333 5.20833333333333 5.20833333333333 5.20833333333333 5.20833333333333 5.20833333333333 5.20833333333333 5.20833333333333 5.20833333333333 5.20833333333333 5.20833333333333 5.20833333333333 5.20833333333333 5.20833333333333 2.9296875 2.9296875 2.9296875 2.9296875 2.9296875 2.9296875 2.9296875 2.9296875 2.9296875 2.9296875 2.9296875 2.9296875 2.9296875 2.9296875 2.9296875 2.9296875 2.9296875 2.9296875 2.9296875 2.9296875 2.9296875 2.9296875 2.9296875 2.9296875 2.9296875 2.9296875 2.9296875 2.9296875 2.9296875 2.9296875 2.9296875 2.9296875 2.9296875 2.9296875 4.03877221324717 4.03877221324717 4.03877221324717 4.03877221324717 4.03877221324717 4.03877221324717 4.03877221324717 4.03877221324717 4.03877221324717 4.03877221324717 4.03877221324717 4.03877221324717 4.03877221324717 4.03877221324717 4.03877221324717 4.03877221324717 4.03877221324717 4.03877221324717 4.03877221324717 4.03877221324717 4.03877221324717 4.03877221324717 4.03877221324717 4.03877221324717 4.03877221324717 4.03877221324717 4.03877221324717 4.03877221324717 4.03877221324717 4.03877221324717 4.03877221324717 4.03877221324717 4.03877221324717 13.28125 13.28125 13.28125 13.28125 0 0 13.28125 9.21658986175115 9.21658986175115 13.28125 7.6530612244898 7.6530612244898 24.8161764705882 24.8161764705882 24.8161764705882 24.8161764705882 14.9925037481259 14.9925037481259 25.9009009009009 28.4495021337127 33.4051724137931 33.4051724137931 8.04455445544554 8.04455445544554 8.04455445544554 32.7022375215146 32.7022375215146 32.7022375215146 32.7022375215146 13.719512195122 13.719512195122 13.719512195122 13.719512195122 6.39658848614073 6.39658848614073 6.39658848614073 6.39658848614073 6.39658848614073 6.39658848614073 16.5929203539823 16.5929203539823 16.5929203539823 16.5929203539823 5.6390977443609 16.5929203539823 7.53424657534247 7.53424657534247 7.53424657534247 7.53424657534247 7.53424657534247 7.53424657534247 -9999 -9999 -9999 -9999 -9999 -9999 -9999 -9999 -9999 -9999 -9999 -9999 -9999 15.6695156695157 15.6695156695157 15.6695156695157 15.6695156695157 15.6695156695157 15.6695156695157 15.6695156695157 5.98802395209581 5.98802395209581 0 0 0 11.4638447971781 11.4638447971781 6.78294573643411 6.78294573643411 4.9645390070922 4.9645390070922 4.66417910447761 4.66417910447761 4.66417910447761 0 -9999 4.16088765603329 4.16088765603329 4.16088765603329 12.6404494382022 12.6404494382022 12.6404494382022 6.91244239631336 2.98210735586481 2.98210735586481 2.98210735586481 0 0 0 7.15746421267894 7.15746421267894 7.15746421267894 -9999 -9999 8.79120879120879 8.79120879120879 8.79120879120879 3.2258064516129 3.2258064516129 3.2258064516129 11.2085769980507 11.2085769980507 11.2085769980507 11.2085769980507 11.2085769980507 7.38916256157635 7.38916256157635 7.38916256157635 -9999 -9999 -9999 -9999 -9999 -9999 -9999 -9999 -9999 -9999 -9999 -9999 -9999 -9999 -9999 -9999 -9999 -9999 -9999 -9999 -9999 -9999 -9999 -9999 -9999 -9999 -9999 -9999 -9999 -9999 -9999 -9999 -9999 -9999 -9999 -9999 -9999 -9999 -9999 -9999 -9999 -9999 -9999 -9999 -9999 -9999 -9999 -9999 -9999 -9999 -9999 -9999 -9999 -9999
-9999 -9999 -9999 -9999 -9999 -9999 -9999 -9999 -9999 -9999 -9999 -9999 -9999 -9999 -9999 -9999 -9999 -9999 -9999 -9999 -9999 -9999 -9999 -9999 15.0905432595573 15.0905432595573 15.0905432595573 15.0905432595573 15.0905432595573 15.0905432595573 15.0905432595573 15.0905432595573 15.0905432595573 15.0905432595573 15.0905432595573 15.0905432595573 15.0905432595573 15.0905432595573 15.0905432595573 15.0905432595573 -9999 -9999 -9999 -9999 -9999 -9999 -9999 -9999 -9999 -9999 -9999 -9999 -9999 -9999 -9999 -9999 -9999 -9999 -9999 -9999 -9999 -9999 -9999 -9999 -9999 -9999 -9999 -9999 -9999 -9999 -9999 2.41935483870968 2.41935483870968 2.41935483870968 2.41935483870968 5.17464424320828 5.17464424320828 5.17464424320828 5.17464424320828 11.71875 11.71875 11.71875 11.71875 8.30815709969789 8.30815709969789 8.30815709969789 17.1232876712329 17.1232876712329 12.7952755905512 12.7952755905512 12.7952755905512 12.7952755905512 12.7952755905512 13.5396518375242 4.60593654042989 4.60593654042989 4.60593654042989 4.60593654042989 4.60593654042989 4.60593654042989 4.60593654042989 5.98290598290598 5.98290598290598 5.98290598290598 9.375 9.375 9.375 9.375 9.375 9.375 9.375 -9999 -9999 -9999 -9999 8.16070307595731 8.16070307595731 8.16070307595731 8.16070307595731 8.16070307595731 8.16070307595731 8.16070307595731 8.16070307595731 8.16070307595731 8.16070307595731 8.16070307595731 8.16070307595731 8.16070307595731 11.5606936416185 11.5606936416185 19.9600798403194 19.9600798403194 19.9600798403194 19.9600798403194 19.9600798403194 12.962962962963 12.962962962963 2.83018867924528 2.83018867924528 12.3762376237624 12.3762376237624 12.3762376237624 12.3762376237624 12.3762376237624 12.3762376237624 16.4948453608247 16.4948453608247 9.51086956521739 9.51086956521739 16.4948453608247 16.4948453608247 16.6112956810631 16.6112956810631 0 0 0 0 4.56204379562044 4.56204379562044 4.56204379562044 9.51086956521739 9.51086956521739 5.20833333333333 5.20833333333333 5.20833333333333 5.20833333333333 5.20833333333333 5.20833333333333 5.20833333333333 5.20833333333333 5.20833333333333 5.20833333333333 5.20833333333333 5.20833333333333 5.20833333333333 2.9296875 2.9296875 2.9296875 2.9296875 2.9296875 2.9296875 2.9296875 2.9296875 2.9296875 2.9296875 2.9296875 2.9296875 2.9296875 2.9296875 2.9296875 2.9296875 2.9296875 2.9296875 2.9296875 2.9296875 2.9296875 2.9296875 2.9296875 2.9296875 2.9296875 2.9296875 2.9296875 2.9296875 2.9296875 2.9296875 2.9296875 2.9296875 2.9296875 2.9296875 4.03877221324717 4.03877221324717 4.03877221324717 4.03877221324717 4.03877221324717 4.03877221324717 4.03877221324717 4.03877221324717 4.03877221324717 4.03877221324717 4.03877221324717 4.03877221324717 4.03877221324717 4.03877221324717 4.03877221324717 4.03877221324717 4.03877221324717 4.03877221324717 4.03877221324717 4.03877221324717 4.03877221324717 4.03877221324717 4.03877221324717 4.03877221324717 4.03877221324717 4.03877221324717 4.03877221324717 4.03877221324717 4.03877221324717 4.03877221324717 4.03877221324717 4.03877221324717 13.28125 13.28125 13.28125 13.28125 13.28125 13.28125 13.28125 13.28125 13.28125 13.28125 13.28125 13.28125 24.8161764705882 24.8161764705882 24.8161764705882 14.9925037481259 14.9925037481259 18.1268882175227 18.1268882175227 14.9925037481259 14.9925037481259 16.0642570281125 16.0642570281125 16.0642570281125 16.0642570281125 5.85480093676815 32.7022375215146 32.7022375215146 32.7022375215146 11.5511551155116 13.719512195122 13.719512195122 13.719512195122 18.9243027888446 6.39658848614073 6.39658848614073 6.39658848614073 6.39658848614073 6.39658848614073 16.5929203539823 16.5929203539823 16.5929203539823 16.5929203539823 16.5929203539823 7.53424657534247 7.53424657534247 7.53424657534247 7.53424657534247 7.53424657534247 7.53424657534247 7.53424657534247 -9999 -9999 -9999 -9999 -9999 -9999 -9999 -9999 -9999 -9999 -9999 15.6695156695157 15.6695156695157 15.6695156695157 15.6695156695157 15.6695156695157 15.6695156695157 5.64971751412429 0 0 9.34579439252336 9.34579439252336 5.98802395209581 0 0 0 0 0 6.78294573643411 6.78294573643411 16.1290322580645 16.1290322580645 0 0 0 0 -9999 4.16088765603329 4.16088765603329 4.16088765603329 12.6404494382022 12.6404494382022 12.6404494382022 6.64136622390892 6.64136622390892 6.64136622390892 6.64136622390892 0 0 0 11.6086235489221 11.6086235489221 -9999 -9999 -9999 11.0849056603774 8.79120879120879 3.2258064516129 11.2085769980507 11.2085769980507 11.2085769980507 11.2085769980507 11.2085769980507 11.2085769980507 11.2085769980507 24.0793201133144 24.0793201133144 -9999 -9999 -9999 -9999 -9999 -9999 -9999 -9999 -9999 -9999 -9999 -9999 -9999 -9999 -9999 -9999 -9999 -9999 -9999 -9999 -9999 -9999 -9999 -9999 -9999 -9999 -9999 -9999 -9999 -9999 -9999 -9999 -9999 -9999 -9999 -9999 -9999 -9999 -9999 -9999 -9999 -9999 -9999 -9999 -9999 -9999 -9999 -9999 -9999 -9999 -9999 -9999 -9999 -9999 -9999 -9999
-9999 -9999 -9999 -9999 -9999 -9999 -9999 -9999 -9999 -9999 -9999 -9999 -9999 -9999 -9999 -9999 -9999 -9999 -9999 -9999 -9999 -9999 -9999 -9999 -9999 -9999 -9999 15.0905432595573 15.0905432595573 15.0905432595573 15.0905432595573 15.0905432595573 15.0905432595573 15.0905432595573 15.0905432595573 15.0905432595573 15.0905432595573 15.0905432595573 -9999 -9999 -9999 -9999 -9999 -9999 -9999 -9999 -9999 -9999 -9999 -9999 -9999 -9999 -9999 -9999 -9999 -9999 -9999 -9999 -9999 -9999 -9999 -9999 -9999 -9999 -9999 -9999 -9999 -9999 -9999 -9999 -9999 -9999 5.17464424320828 5.17464424320828 5.17464424320828 5.17464424320828 5.17464424320828 5.17464424320828 5.17464424320828 5.44323483670296 5.44323483670296 11.71875 11.71875 11.71875 8.30815709969789 6.74536256323777 12.7952755905512 12.7952755905512 12.7952755905512 12.7952755905512 12.7952755905512 12.7952755905512 12.7952755905512 12.7952755905512 4.60593654042989 4.60593654042989 4.60593654042989 4.60593654042989 4.60593654042989 4.60593654042989 4.60593654042989 4.60593654042989 9.375 9.375 9.375 9.375 9.375 9.375 9.375 9.375 9.375 9.375 -9999 8.16070307595731 8.16070307595731 8.16070307595731 8.16070307595731 8.16070307595731 8.16070307595731 8.16070307595731 8.16070307595731 8.16070307595731 8.16070307595731 8.16070307595731 8.16070307595731 8.16070307595731 8.16070307595731 8.16070307595731 8.16070307595731 7.68049155145929 7.68049155145929 19.9600798403194 19.9600798403194 19.9600798403194 12.962962962963 12.962962962963 12.962962962963 12.962962962963 12.3762376237624 12.3762376237624 12.3762376237624 12.3762376237624 12.3762376237624 16.4948453608247 16.4948453608247 16.4948453608247 16.4948453608247 16.4948453608247 16.4948453608247 16.4948453608247 16.4948453608247 16.6112956810631 16.6112956810631 4.56204379562044 4.56204379562044 4.56204379562044 4.56204379562044 4.56204379562044 4.56204379562044 4.75285171102662 4.17362270450751 9.51086956521739 5.20833333333333 5.20833333333333 10.2272727272727 5.20833333333333 5.20833333333333 5.20833333333333 5.20833333333333 5.20833333333333 5.20833333333333 5.20833333333333 5.20833333333333 5.20833333333333 5.20833333333333 5.20833333333333 2.9296875 2.9296875 2.9296875 2.9296875 2.9296875 2.9296875 2.9296875 2.9296875 2.9296875 2.9296875 2.9296875 2.9296875 2.9296875 2.9296875 2.9296875 2.9296875 2.9296875 2.9296875 2.9296875 2.9296875 2.9296875 2.9296875 2.9296875 2.9296875 2.9296875 2.9296875 2.9296875 2.9296875 2.9296875 2.9296875 2.9296875 2.9296875 2.9296875 2.9296875 4.03877221324717 4.03877221324717 4.03877221324717 4.03877221324717 4.03877221324717 4.03877221324717 4.03877221324717 4.03877221324717 4.03877221324717 4.03877221324717 4.03877221324717 4.03877221324717 4.03877221324717 4.03877221324717 4.03877221324717 4.03877221324717 4.03877221324717 4.03877221324717 4.03877221324717 4.03877221324717 4.03877221324717 4.03877221324717 4.03877221324717 4.03877221324717 4.03877221324717 4.03877221324717 4.03877221324717 4.03877221324717 4.03877221324717 4.03877221324717 4.03877221324717 13.28125 13.28125 13.28125 13.28125 13.28125 13.28125 13.28125 13.28125 13.28125 13.28125 13.28125 13.28125 13.6612021857924 13.6612021857924 14.9925037481259 11.4345114345114 14.9925037481259 18.1268882175227 18.1268882175227 18.1268882175227 18.1268882175227 16.0642570281125 16.0642570281125 -9999 -9999 5.85480093676815 5.85480093676815 5.85480093676815 5.77557755775578 11.5511551155116 11.5511551155116 11.5511551155116 18.9243027888446 18.9243027888446 18.9243027888446 6.39658848614073 6.39658848614073 6.39658848614073 16.5929203539823 16.5929203539823 16.5929203539823 16.5929203539823 7.53424657534247 7.53424657534247 7.53424657534247 7.53424657534247 7.53424657534247 7.53424657534247 7.53424657534247 7.53424657534247 -9999 -9999 -9999 -9999 -9999 -9999 -9999 -9999 -9999 15.6537753222836 15.6537753222836 15.6695156695157 15.6695156695157 15.6695156695157 15.6695156695157 15.6695156695157 15.6695156695157 15.6695156695157 5.64971751412429 5.64971751412429 0 9.34579439252336 9.34579439252336 5.98802395209581 5.98802395209581 0 0 0 0 0 0 16.1290322580645 16.1290322580645 8.43881856540084 8.43881856540084 8.43881856540084 0 4.16088765603329 4.16088765603329 4.16088765603329 4.16088765603329 10.840108401084 0 0 0 0 0 0 0 0 0 11.6086235489221 11.6086235489221 -9999 -9999 11.0849056603774 11.0849056603774 11.0849056603774 11.0849056603774 11.0849056603774 11.0849056603774 11.0849056603774 21.8270008084074 21.8270008084074 21.8270008084074 21.8270008084074 24.0793201133144 24.0793201133144 -9999 -9999 -9999 -9999 -9999 -9999 -9999 -9999 -9999 -9999 -9999 -9999 -9999 -9999 -9999 -9999 -9999 -9999 -9999 -9999 -9999 -9999 -9999 -9999 -9999 -9999 -9999 -9999 -9999 -9999 -9999 -9999 -9999 -9999 -9999 -9999 -9999 -9999 -9999 -9999 -9999 -9999 -9999 -9999 -9999 -9999 -9999 -9999 -9999 -9999 -9999 -9999 -9999 -9999 -9999 -9999
-9999 -9999 -9999 -9999 -9999 -9999 -9999 -9999 -9999 -9999 -9999 -9999 -9999 -9999 -9999 -9999 -9999 -9999 -9999 -9999 -9999 -9999 -9999 -9999 -9999 -9999 -9999 -9999 -9999 -9999 15.0905432595573 15.0905432595573 15.0905432595573 15.0905432595573 15.0905432595573 -9999 -9999 -9999 -9999 -9999 -9999 -9999 -9999 -9999 -9999 -9999 -9999 -9999 -9999 -9999 -9999 -9999 -9999 -9999 -9999 -9999 -9999 -9999 -9999 -9999 -9999 -9999 -9999 -9999 -9999 -9999 -9999 -9999 -9999 5.55555555555556 5.55555555555556 5.17464424320828 5.17464424320828 5.17464424320828 5.17464424320828 5.17464424320828 5.44323483670296 5.44323483670296 5.44323483670296 5.44323483670296 5.44323483670296 11.71875 11.71875 6.74536256323777 8.6848635235732 8.6848635235732 8.6848635235732 12.7952755905512 12.7952755905512 12.7952755905512 20.8333333333333 20.8333333333333 20.8333333333333 20.8333333333333 7.33496332518337 4.60593654042989 4.60593654042989 4.60593654042989 4.60593654042989 4.60593654042989 4.60593654042989 4.60593654042989 4.60593654042989 9.375 9.375 9.375 9.375 9.375 11.3895216400911 11.3895216400911 11.3895216400911 11.3895216400911 11.3895216400911 11.3895216400911 8.16070307595731 8.16070307595731 8.16070307595731 8.16070307595731 8.16070307595731 8.16070307595731 8.16070307595731 8.16070307595731 8.16070307595731 8.16070307595731 8.16070307595731 8.16070307595731 8.16070307595731 8.16070307595731 8.16070307595731 7.68049155145929 7.68049155145929 7.68049155145929 19.9600798403194 19.9600798403194 19.9600798403194 12.962962962963 12.962962962963 12.3762376237624 12.3762376237624 12.3762376237624 12.3762376237624 18.2291666666667 6.98080279232112 6.98080279232112 6.98080279232112 6.98080279232112 6.98080279232112 16.4948453608247 16.4948453608247 16.4948453608247 16.4948453608247 16.4948453608247 4.56204379562044 4.56204379562044 4.56204379562044 4.56204379562044 4.75285171102662 4.75285171102662 4.75285171102662 4.75285171102662 4.17362270450751 4.17362270450751 10.2272727272727 10.2272727272727 10.2272727272727 10.2272727272727 10.2272727272727 5.20833333333333 5.20833333333333 5.20833333333333 5.20833333333333 5.20833333333333 5.20833333333333 5.20833333333333 5.20833333333333 5.20833333333333 2.9296875 2.9296875 2.9296875 2.9296875 2.9296875 2.9296875 2.9296875 2.9296875 2.9296875 2.9296875 2.9296875 2.9296875 2.9296875 2.9296875 2.9296875 2.9296875 2.9296875 2.9296875 2.9296875 2.9296875 2.9296875 2.9296875 2.9296875 2.9296875 2.9296875 2.9296875 2.9296875 2.9296875 2.9296875 2.9296875 2.9296875 2.9296875 2.9296875 2.9296875 4.03877221324717 4.03877221324717 4.03877221324717 4.03877221324717 4.03877221324717 4.03877221324717 4.03877221324717 4.03877221324717 4.03877221324717 4.03877221324717 4.03877221324717 4.03877221324717 4.03877221324717 4.03877221324717 4.03877221324717 4.03877221324717 4.03877221324717 4.03877221324717 4.03877221324717 4.03877221324717 4.03877221324717 4.03877221324717 4.03877221324717 4.03877221324717 4.03877221324717 4.03877221324717 4.03877221324717 4.03877221324717 4.03877221324717 4.03877221324717 13.28125 13.28125 13.28125 13.28125 13.28125 13.28125 13.28125 13.28125 13.28125 13.28125 13.28125 13.28125 13.28125 13.6612021857924 14.9925037481259 15.7618213660245 -9999 -9999 11.4345114345114 11.4345114345114 14.9925037481259 18.1268882175227 14.9925037481259 14.9925037481259 -9999 -9999 5.85480093676815 5.85480093676815 5.77557755775578 5.77557755775578 5.77557755775578 5.77557755775578 11.5511551155116 11.5511551155116 11.5511551155116 18.9243027888446 18.9243027888446 18.9243027888446 8.45410628019324 16.5929203539823 16.5929203539823 7.53424657534247 7.53424657534247 7.53424657534247 7.53424657534247 7.53424657534247 7.53424657534247 7.53424657534247 7.53424657534247 -9999 -9999 -9999 -9999 -9999 -9999 -9999 -9999 -9999 15.6537753222836 15.6537753222836 15.6537753222836 15.6537753222836 15.6537753222836 15.6537753222836 15.6695156695157 15.6695156695157 15.6695156695157 15.6695156695157 15.6695156695157 5.64971751412429 5.64971751412429 12.7768313458262 15.625 6.68896321070234 14.6604938271605 14.6604938271605 7.69230769230769 0 0 0 0 0 0 0 8.43881856540084 8.43881856540084 8.43881856540084 -9999 0 0 0 0 0 0 0 7.7720207253886 7.7720207253886 7.7720207253886 7.7720207253886 7.28862973760933 7.28862973760933 7.28862973760933 11.6086235489221 -9999 -9999 -9999 11.0849056603774 11.0849056603774 11.0849056603774 11.0849056603774 11.0849056603774 11.0849056603774 11.0849056603774 11.0849056603774 21.8270008084074 21.8270008084074 21.8270008084074 21.8270008084074 -9999 -9999 -9999 -9999 -9999 -9999 -9999 -9999 -9999 -9999 -9999 -9999 -9999 -9999 -9999 -9999 -9999 -9999 -9999 -9999 -9999 -9999 -9999 -9999 -9999 -9999 -9999 -9999 -9999 -9999 -9999 -9999 -9999 -9999 -9999 -9999 -9999 -9999 -9999 -9999 -9999 -9999 -9999 -9999 -9999 -9999 -9999 -9999 -9999 -9999 -9999 -9999 -9999 -9999 -9999 -9999 -9999
-9999 -9999 -9999 -9999 -9999 -9999 -9999 -9999 -9999 -9999 -9999 -9999 -9999 -9999 -9999 -9999 -9999 -9999 -9999 -9999 -9999 -9999 -9999 -9999 -9999 -9999 -9999 -9999 -9999 -9999 -9999 15.0905432595573 15.0905432595573 -9999 -9999 -9999 -9999 -9999 -9999 -9999 -9999 -9999 -9999 -9999 -9999 -9999 -9999 -9999 -9999 -9999 -9999 -9999 -9999 -9999 -9999 -9999 -9999 -9999 -9999 -9999 -9999 -9999 -9999 -9999 -9999 -9999 -9999 5.55555555555556 5.55555555555556 5.55555555555556 5.55555555555556 5.55555555555556 5.17464424320828 5.17464424320828 6.74536256323777 6.74536256323777 6.74536256323777 5.44323483670296 5.44323483670296 11.71875 11.71875 6.74536256323777 8.6848635235732 8.6848635235732 8.6848635235732 8.6848635235732 8.6848635235732 12.7952755905512 20.8333333333333 20.8333333333333 20.8333333333333 20.8333333333333 7.33496332518337 7.33496332518337 7.33496332518337 7.33496332518337 4.60593654042989 4.60593654042989 4.60593654042989 4.60593654042989 4.60593654042989 4.60593654042989 4.60593654042989 11.3895216400911 11.3895216400911 11.3895216400911 11.3895216400911 11.3895216400911 11.3895216400911 11.3895216400911 11.3895216400911 11.3895216400911 11.3895216400911 11.3895216400911 11.3895216400911 8.16070307595731 8.16070307595731 8.16070307595731 8.16070307595731 8.16070307595731 8.16070307595731 8.16070307595731 14.6627565982405 14.6627565982405 8.16070307595731 8.16070307595731 8.16070307595731 8.16070307595731 5.54785020804438 7.68049155145929 7.68049155145929 7.68049155145929 7.68049155145929 12.962962962963 12.962962962963 12.962962962963 12.962962962963 12.962962962963 12.3762376237624 18.2291666666667 18.2291666666667 18.2291666666667 6.98080279232112 6.98080279232112 6.98080279232112 6.98080279232112 6.98080279232112 16.4948453608247 16.4948453608247 16.4948453608247 16.4948453608247 16.4948453608247 16.4948453608247 4.56204379562044 4.75285171102662 4.75285171102662 4.75285171102662 4.75285171102662 4.75285171102662 4.75285171102662 4.17362270450751 12.218045112782 12.218045112782 12.218045112782 10.2272727272727 10.2272727272727 10.2272727272727 5.20833333333333 5.20833333333333 5.20833333333333 5.20833333333333 5.11247443762781 5.11247443762781 5.11247443762781 5.11247443762781 2.9296875 2.9296875 2.9296875 2.9296875 2.9296875 2.9296875 2.9296875 2.9296875 2.9296875 2.9296875 2.9296875 2.9296875 2.9296875 2.9296875 2.9296875 2.9296875 2.9296875 2.9296875 2.9296875 2.9296875 2.9296875 2.9296875 2.9296875 2.9296875 2.9296875 2.9296875 2.9296875 2.9296875 2.9296875 2.9296875 2.9296875 2.9296875 2.9296875 2.9296875 2.9296875 4.03877221324717 4.03877221324717 4.03877221324717 4.03877221324717 4.03877221324717 4.03877221324717 4.03877221324717 4.03877221324717 4.03877221324717 4.03877221324717 4.03877221324717 4.03877221324717 4.03877221324717 4.03877221324717 4.03877221324717 4.03877221324717 4.03877221324717 4.03877221324717 4.03877221324717 4.03877221324717 4.03877221324717 4.03877221324717 4.03877221324717 4.03877221324717 4.03877221324717 4.03877221324717 4.03877221324717 4.03877221324717 4.03877221324717 4.03877221324717 4.03877221324717 13.28125 13.28125 13.28125 13.28125 13.28125 13.28125 13.28125 13.28125 13.28125 13.28125 13.28125 13.28125 14.9925037481259 15.7618213660245 15.7618213660245 15.7618213660245 15.7618213660245 15.7618213660245 -9999 -9999 11.4345114345114 11.4345114345114 11.4345114345114 -9999 -9999 -9999 -9999 -9999 5.77557755775578 12.216404886562 12.216404886562 5.77557755775578 13.0023640661939 5.77557755775578 11.5511551155116 11.5511551155116 8.45410628019324 8.45410628019324 7.53424657534247 20.2797202797203 20.2797202797203 20.2797202797203 7.53424657534247 7.53424657534247 7.53424657534247 7.53424657534247 7.53424657534247 -9999 -9999 -9999 -9999 -9999 -9999 -9999 15.6537753222836 15.6537753222836 15.6537753222836 15.6537753222836 15.6537753222836 15.6537753222836 15.6537753222836 15.6537753222836 15.6537753222836 15.6537753222836 15.6537753222836 15.6695156695157 15.6695156695157 15.6695156695157 6.52985074626866 12.7768313458262 12.7768313458262 15.625 15.625 6.68896321070234 14.6604938271605 14.6604938271605 7.69230769230769 4.51263537906137 4.51263537906137 4.51263537906137 21.4067278287462 21.4067278287462 21.4067278287462 13.1578947368421 13.1578947368421 13.1578947368421 0 0 0 0 2.34741784037559 2.34741784037559 2.34741784037559 2.34741784037559 0 0 0 0 11.6086235489221 11.6086235489221 11.6086235489221 -9999 -9999 -9999 11.0849056603774 11.0849056603774 11.0849056603774 11.0849056603774 11.0849056603774 11.0849056603774 11.0849056603774 11.0849056603774 11.0849056603774 11.0849056603774 21.8270008084074 21.8270008084074 -9999 -9999 -9999 -9999 -9999 -9999 -9999 -9999 -9999 -9999 -9999 -9999 -9999 -9999 -9999 -9999 -9999 -9999 -9999 -9999 -9999 -9999 -9999 -9999 -9999 -9999 -9999 -9999 -9999 -9999 -9999 -9999 -9999 -9999 -9999 -9999 -9999 -9999 -9999 -9999 -9999 -9999 -9999 -9999 -9999 -9999 -9999 -9999 -9999 -9999 -9999 -9999 -9999 -9999 -9999 -9999 -9999 -9999
-9999 -9999 -9999 -9999 -9999 -9999 -9999 -9999 -9999 -9999 -9999 -9999 -9999 -9999 -9999 -9999 -9999 -9999 -9999 -9999 -9999 -9999 -9999 -9999 -9999 -9999 -9999 -9999 -9999 -9999 -9999 -9999 -9999 15.0905432595573 -9999 -9999 -9999 -9999 -9999 -9999 -9999 -9999 -9999 -9999 -9999 -9999 -9999 -9999 -9999 -9999 -9999 -9999 -9999 -9999 -9999 -9999 -9999 -9999 -9999 -9999 -9999 -9999 -9999 -9999 -9999 -9999 -9999 5.55555555555556 5.55555555555556 5.55555555555556 5.55555555555556 5.55555555555556 5.55555555555556 5.17464424320828 6.74536256323777 6.74536256323777 6.74536256323777 6.74536256323777 5.44323483670296 6.74536256323777 8.6848635235732 8.6848635235732 8.6848635235732 8.6848635235732 8.6848635235732 8.6848635235732 8.6848635235732 12.4555160142349 20.8333333333333 20.8333333333333 8.06451612903226 7.33496332518337 7.33496332518337 7.33496332518337 7.33496332518337 7.33496332518337 7.33496332518337 4.60593654042989 4.60593654042989 11.3895216400911 11.3895216400911 11.3895216400911 11.3895216400911 11.3895216400911 11.3895216400911 11.3895216400911 11.3895216400911 11.3895216400911 11.3895216400911 11.3895216400911 11.3895216400911 11.3895216400911 11.3895216400911 11.3895216400911 11.3895216400911 11.3895216400911 8.16070307595731 8.16070307595731 8.16070307595731 8.16070307595731 8.16070307595731 8.16070307595731 14.6627565982405 14.6627565982405 14.6627565982405 8.16070307595731 5.54785020804438 5.54785020804438 5.54785020804438 5.54785020804438 7.68049155145929 7.68049155145929 7.68049155145929 7.68049155145929 12.962962962963 12.962962962963 12.962962962963 18.2291666666667 18.2291666666667 18.2291666666667 18.2291666666667 18.2291666666667 18.2291666666667 6.98080279232112 6.98080279232112 6.98080279232112 6.98080279232112 16.4948453608247 16.4948453608247 16.4948453608247 16.4948453608247 6.44567219152855 6.44567219152855 6.44567219152855 4.75285171102662 4.75285171102662 4.75285171102662 4.75285171102662 4.17362270450751 4.17362270450751 4.17362270450751 12.218045112782 12.218045112782 12.218045112782 6.96055684454756 10.2272727272727 6.96055684454756 6.96055684454756 5.20833333333333 5.20833333333333 5.11247443762781 5.11247443762781 5.11247443762781 5.11247443762781 5.11247443762781 2.9296875 2.9296875 2.9296875 2.9296875 2.9296875 2.9296875 2.9296875 2.9296875 2.9296875 2.9296875 2.9296875 2.9296875 2.9296875 2.9296875 2.9296875 2.9296875 2.9296875 2.9296875 2.9296875 2.9296875 2.9296875 2.9296875 2.9296875 2.9296875 2.9296875 2.9296875 2.9296875 2.9296875 2.9296875 2.9296875 2.9296875 2.9296875 2.9296875 2.9296875 2.9296875 2.9296875 4.03877221324717 4.03877221324717 4.03877221324717 4.03877221324717 4.03877221324717 4.03877221324717 4.03877221324717 4.03877221324717 4.03877221324717 4.03877221324717 4.03877221324717 4.03877221324717 4.03877221324717 4.03877221324717 4.03877221324717 4.03877221324717 4.03877221324717 4.03877221324717 4.03877221324717 4.03877221324717 4.03877221324717 4.03877221324717 4.03877221324717 4.03877221324717 4.03877221324717 4.03877221324717 4.03877221324717 4.03877221324717 4.03877221324717 4.03877221324717 4.03877221324717 4.03877221324717 4.03877221324717 4.03877221324717 13.28125 13.28125 13.28125 13.28125 13.28125 13.28125 13.28125 14.9925037481259 15.7618213660245 15.7618213660245 15.7618213660245 15.7618213660245 15.7618213660245 15.7618213660245 15.7618213660245 15.7618213660245 15.7618213660245 -9999 11.4345114345114 -9999 -9999 -9999 -9999 -9999 12.216404886562 12.216404886562 12.216404886562 12.216404886562 13.0023640661939 13.0023640661939 13.0023640661939 -9999 20.7956600361664 20.7956600361664 20.7956600361664 20.7956600361664 7.61421319796954 7.61421319796954 7.61421319796954 7.53424657534247 7.53424657534247 7.53424657534247 -9999 -9999 -9999 -9999 -9999 -9999 15.6537753222836 15.6537753222836 15.6537753222836 15.6537753222836 15.6537753222836 15.6537753222836 15.6537753222836 15.6537753222836 15.6537753222836 15.6537753222836 15.6537753222836 15.6537753222836 15.6537753222836 15.6537753222836 15.6695156695157 6.52985074626866 6.52985074626866 6.52985074626866 12.7768313458262 15.625 15.625 0 18.75 18.75 7.69230769230769 12.6742712294043 12.6742712294043 12.6742712294043 7.75193798449612 7.75193798449612 21.4067278287462 13.1578947368421 13.1578947368421 0 3.93081761006289 3.93081761006289 3.93081761006289 3.93081761006289 2.34741784037559 2.34741784037559 2.34741784037559 2.34741784037559 3.2258064516129 3.2258064516129 3.2258064516129 3.2258064516129 0 0 0 -9999 -9999 -9999 11.0849056603774 11.0849056603774 11.0849056603774 11.0849056603774 11.0849056603774 11.0849056603774 11.0849056603774 11.0849056603774 11.0849056603774 11.0849056603774 11.0849056603774 -9999 -9999 -9999 -9999 -9999 -9999 -9999 -9999 -9999 -9999 -9999 -9999 -9999 -9999 -9999 -9999 -9999 -9999 -9999 -9999 -9999 -9999 -9999 -9999 -9999 -9999 -9999 -9999 -9999 -9999 -9999 -9999 -9999 -9999 -9999 -9999 -9999 -9999 -9999 -9999 -9999 -9999 -9999 -9999 -9999 -9999 -9999 -9999 -9999 -9999 -9999 -9999 -9999 -9999 -9999 -9999 -9999 -9999 -9999
-9999 -9999 -9999 -9999 -9999 -9999 -9999 -9999 -9999 -9999 -9999 -9999 -9999 -9999 -9999 -9999 -9999 -9999 -9999 -9999 -9999 -9999 -9999 -9999 -9999 -9999 -9999 -9999 -9999 -9999 -9999 -9999 -9999 -9999 -9999 -9999 -9999 -9999 -9999 -9999 -9999 -9999 -9999 -9999 -9999 -9999 -9999 -9999 -9999 -9999 -9999 -9999 -9999 -9999 -9999 -9999 -9999 -9999 -9999 -9999 -9999 -9999 -9999 -9999 -9999 -9999 -9999 -9999 -9999 -9999 -9999 5.55555555555556 5.55555555555556 -9999 -9999 6.74536256323777 9.58702064896755 8.6848635235732 8.6848635235732 8.6848635235732 8.6848635235732 8.6848635235732 8.6848635235732 12.4555160142349 12.4555160142349 12.4555160142349 12.4555160142349 12.4555160142349 8.06451612903226 8.06451612903226 8.06451612903226 7.33496332518337 7.33496332518337 7.33496332518337 7.33496332518337 7.33496332518337 7.33496332518337 13.7085137085137 11.3895216400911 11.3895216400911 11.3895216400911 11.3895216400911 11.3895216400911 11.3895216400911 11.3895216400911 11.3895216400911 11.3895216400911 11.3895216400911 11.3895216400911 11.3895216400911 11.3895216400911 11.3895216400911 11.3895216400911 11.3895216400911 11.3895216400911 11.3895216400911 11.3895216400911 7.0281124497992 7.0281124497992 7.0281124497992 7.0281124497992 7.0281124497992 14.6627565982405 14.6627565982405 16.0599571734475 16.0599571734475 16.0599571734475 5.54785020804438 5.54785020804438 5.54785020804438 7.68049155145929 7.68049155145929 7.68049155145929 7.68049155145929 7.68049155145929 18.2291666666667 18.2291666666667 18.2291666666667 18.2291666666667 18.2291666666667 18.2291666666667 18.2291666666667 18.2291666666667 6.98080279232112 6.98080279232112 6.98080279232112 6.98080279232112 6.98080279232112 11.5163147792706 6.44567219152855 6.44567219152855 6.44567219152855 6.44567219152855 6.44567219152855 6.44567219152855 6.44567219152855 6.44567219152855 6.44567219152855 4.17362270450751 4.17362270450751 4.17362270450751 12.218045112782 12.218045112782 12.218045112782 12.218045112782 6.96055684454756 6.96055684454756 6.96055684454756 6.96055684454756 3.64963503649635 3.64963503649635 5.11247443762781 5.11247443762781 5.11247443762781 2.9296875 2.9296875 2.9296875 2.9296875 2.9296875 2.9296875 2.9296875 2.9296875 2.9296875 2.9296875 2.9296875 2.9296875 2.9296875 2.9296875 2.9296875 2.9296875 2.9296875 2.9296875 2.9296875 2.9296875 2.9296875 2.9296875 2.9296875 2.9296875 2.9296875 2.9296875 2.9296875 2.9296875 2.9296875 2.9296875 2.9296875 2.9296875 2.9296875 2.9296875 2.9296875 2.9296875 2.9296875 4.03877221324717 4.03877221324717 4.03877221324717 4.03877221324717 4.03877221324717 4.03877221324717 4.03877221324717 4.03877221324717 4.03877221324717 4.03877221324717 4.03877221324717 4.03877221324717 4.03877221324717 4.03877221324717 4.03877221324717 4.03877221324717 4.03877221324717 4.03877221324717 4.03877221324717 4.03877221324717 4.03877221324717 4.03877221324717 4.03877221324717 4.03877221324717 4.03877221324717 4.03877221324717 4.03877221324717 4.03877221324717 4.03877221324717 4.03877221324717 4.03877221324717 4.03877221324717 4.03877221324717 4.03877221324717 4.03877221324717 4.03877221324717 4.03877221324717 4.03877221324717 4.03877221324717 4.03877221324717 4.03877221324717 4.03877221324717 -9999 15.7618213660245 15.7618213660245 15.7618213660245 15.7618213660245 15.7618213660245 15.7618213660245 15.7618213660245 15.7618213660245 15.7618213660245 15.7618213660245 15.7618213660245 -9999 -9999 -9999 -9999 12.216404886562 12.216404886562 12.216404886562 13.0023640661939 13.0023640661939 -9999 -9999 3.84615384615385 3.84615384615385 3.84615384615385 12.3106060606061 7.61421319796954 7.61421319796954 7.61421319796954 7.61421319796954 7.53424657534247 -9999 -9999 -9999 -9999 -9999 -9999 -9999 15.6537753222836 15.6537753222836 15.6537753222836 15.6537753222836 15.6537753222836 15.6537753222836 15.6537753222836 15.6537753222836 15.6537753222836 15.6537753222836 15.6537753222836 15.6537753222836 15.6537753222836 15.6537753222836 15.6537753222836 11.0619469026549 11.0619469026549 8.05152979066023 9.66608084358524 9.66608084358524 6.02409638554217 12.2199592668024 0 18.75 18.75 7.69230769230769 7.69230769230769 13.1782945736434 13.1782945736434 7.75193798449612 7.75193798449612 7.75193798449612 0 0 0 7.11237553342817 7.11237553342817 7.11237553342817 7.11237553342817 2.74725274725275 1.78890876565295 1.78890876565295 1.78890876565295 4.95750708215297 4.95750708215297 4.95750708215297 0 0 0 -9999 -9999 -9999 -9999 11.0849056603774 11.0849056603774 11.0849056603774 11.0849056603774 11.0849056603774 11.0849056603774 11.0849056603774 11.0849056603774 11.0849056603774 11.0849056603774 11.0849056603774 11.0849056603774 -9999 -9999 -9999 -9999 -9999 -9999 -9999 -9999 -9999 -9999 -9999 -9999 -9999 -9999 -9999 -9999 -9999 -9999 -9999 -9999 -9999 -9999 -9999 -9999 -9999 -9999 -9999 -9999 -9999 -9999 -9999 -9999 -9999 -9999 -9999 -9999 -9999 -9999 -9999 -9999 -9999 -9999 -9999 -9999 -9999 -9999 -9999 -9999 -9999 -9999 -9999 -9999 -9999 -9999 -9999 -9999 -9999 -9999
-9999 -9999 -9999 -9999 -9999 -9999 -9999 -9999 -9999 -9999 -9999 -9999 -9999 -9999 -9999 -9999 -9999 -9999 -9999 -9999 -9999 -9999 -9999 -9999 -9999 -9999 -9999 -9999 -9999 -9999 -9999 -9999 -9999 -9999 -9999 -9999 -9999 -9999 -9999 -9999 -9999 -9999 -9999 -9999 -9999 -9999 -9999 -9999 -9999 -9999 -9999 -9999 -9999 -9999 -9999 -9999 -9999 -9999 -9999 -9999 -9999 -9999 -9999 -9999 -9999 -9999 -9999 -9999 0 5.55555555555556 0 0 -9999 -9999 -9999 9.58702064896755 9.58702064896755 9.58702064896755 9.58702064896755 8.6848635235732 8.6848635235732 8.6848635235732 12.4555160142349 12.4555160142349 12.4555160142349 12.4555160142349 8.06451612903226 8.06451612903226 8.06451612903226 8.06451612903226 7.33496332518337 7.33496332518337 7.33496332518337 7.33496332518337 7.33496332518337 13.7085137085137 13.7085137085137 13.7085137085137 13.7085137085137 11.3895216400911 11.3895216400911 11.3895216400911 11.3895216400911 11.3895216400911 11.3895216400911 11.3895216400911 11.3895216400911 11.3895216400911 11.3895216400911 11.3895216400911 11.3895216400911 11.3895216400911 11.3895216400911 11.3895216400911 19.8237885462555 19.8237885462555 11.3895216400911 11.3895216400911 18.3585313174946 18.3585313174946 18.3585313174946 7.0281124497992 7.0281124497992 16.0599571734475 16.0599571734475 16.0599571734475 16.0599571734475 16.0599571734475 5.54785020804438 3.2967032967033 3.2967032967033 7.68049155145929 7.68049155145929 7.68049155145929 7.68049155145929 18.2291666666667 18.2291666666667 18.2291666666667 18.2291666666667 18.2291666666667 18.2291666666667 18.2291666666667 18.2291666666667 18.2291666666667 6.98080279232112 6.98080279232112 11.5163147792706 11.5163147792706 11.5163147792706 11.5163147792706 6.44567219152855 6.44567219152855 6.44567219152855 6.44567219152855 6.44567219152855 6.44567219152855 6.44567219152855 4.17362270450751 4.17362270450751 4.17362270450751 4.17362270450751 4.17362270450751 12.218045112782 12.218045112782 12.218045112782 12.218045112782 6.96055684454756 6.96055684454756 6.96055684454756 3.64963503649635 3.64963503649635 3.64963503649635 3.64963503649635 3.64963503649635 3.64963503649635 2.9296875 2.9296875 2.9296875 2.9296875 2.9296875 2.9296875 2.9296875 2.9296875 2.9296875 2.9296875 2.9296875 2.9296875 2.9296875 2.9296875 2.9296875 2.9296875 2.9296875 2.9296875 2.9296875 2.9296875 2.9296875 2.9296875 2.9296875 2.9296875 2.9296875 2.9296875 2.9296875 2.9296875 2.9296875 2.9296875 2.9296875 2.9296875 2.9296875 2.9296875 2.9296875 2.9296875 4.03877221324717 4.03877221324717 4.03877221324717 4.03877221324717 4.03877221324717 4.03877221324717 4.03877221324717 4.03877221324717 4.03877221324717 4.03877221324717 4.03877221324717 4.03877221324717 4.03877221324717 4.03877221324717 4.03877221324717 4.03877221324717 4.03877221324717 4.03877221324717 4.03877221324717 4.03877221324717 4.03877221324717 4.03877221324717 4.03877221324717 4.03877221324717 4.03877221324717 4.03877221324717 4.03877221324717 4.03877221324717 4.03877221324717 4.03877221324717 4.03877221324717 4.03877221324717 4.03877221324717 4.03877221324717 4.03877221324717 4.03877221324717 4.03877221324717 4.03877221324717 4.03877221324717 4.03877221324717 4.03877221324717 4.03877221324717 -9999 -9999 -9999 -9999 15.7618213660245 15.7618213660245 15.7618213660245 15.7618213660245 15.7618213660245 15.7618213660245 15.7618213660245 15.7618213660245 15.7618213660245 15.7618213660245 15.7618213660245 -9999 -9999 -9999 -9999 -9999 3.84615384615385 3.84615384615385 3.84615384615385 3.84615384615385 12.3106060606061 12.3106060606061 12.3106060606061 12.3106060606061 12.3106060606061 7.61421319796954 -9999 -9999 -9999 -9999 -9999 -9999 -9999 -9999 15.6537753222836 15.6537753222836 15.6537753222836 15.6537753222836 15.6537753222836 15.6537753222836 15.6537753222836 15.6537753222836 15.6537753222836 15.6537753222836 15.6537753222836 15.6537753222836 15.6537753222836 15.6537753222836 15.6537753222836 -9999 11.0619469026549 11.0619469026549 8.05152979066023 8.05152979066023 9.66608084358524 6.02409638554217 12.2199592668024 12.2199592668024 0 18.75 3.62976406533575 13.1782945736434 13.1782945736434 13.1782945736434 13.1782945736434 13.1782945736434 -9999 0 0 3.7037037037037 3.7037037037037 3.7037037037037 3.7037037037037 7.11237553342817 4.27350427350427 4.27350427350427 4.27350427350427 4.27350427350427 0 0 0 0 0 -9999 -9999 -9999 -9999 11.0849056603774 11.0849056603774 11.0849056603774 11.0849056603774 11.0849056603774 11.0849056603774 11.0849056603774 11.0849056603774 11.0849056603774 11.0849056603774 11.0849056603774 11.0849056603774 -9999 -9999 -9999 -9999 -9999 -9999 -9999 -9999 -9999 -9999 -9999 -9999 -9999 -9999 -9999 -9999 -9999 -9999 -9999 -9999 -9999 -9999 -9999 -9999 -9999 -9999 -9999 -9999 -9999 -9999 -9999 -9999 -9999 -9999 -9999 -9999 -9999 -9999 -9999 -9999 -9999 -9999 -9999 -9999 -9999 -9999 -9999 -9999 -9999 -9999 -9999 -9999 -9999 -9999 -9999 -9999 -9999 -9999 -9999
-9999 -9999 -9999 -9999 -9999 -9999 -9999 -9999 -9999 -9999 -9999 -9999 -9999 -9999 -9999 -9999 -9999 -9999 -9999 -9999 -9999 -9999 14.5228215767635 14.5228215767635 14.5228215767635 -9999 14.5228215767635 -9999 -9999 -9999 -9999 14.5228215767635 14.5228215767635 14.5228215767635 -9999 -9999 -9999 -9999 -9999 -9999 -9999 -9999 -9999 -9999 -9999 -9999 -9999 -9999 -9999 -9999 -9999 -9999 -9999 -9999 -9999 -9999 -9999 -9999 -9999 -9999 -9999 -9999 -9999 -9999 -9999 -9999 -9999 -9999 0 0 -9999 -9999 -9999 9.58702064896755 -9999 9.58702064896755 9.58702064896755 9.58702064896755 9.58702064896755 9.58702064896755 8.6848635235732 12.4555160142349 12.4555160142349 12.4555160142349 8.73362445414847 8.73362445414847 8.73362445414847 8.06451612903226 7.33496332518337 7.33496332518337 7.33496332518337 7.33496332518337 7.33496332518337 11.265164644714 13.7085137085137 13.7085137085137 13.7085137085137 13.7085137085137 13.7085137085137 13.7085137085137 7.56533700137552 7.56533700137552 7.56533700137552 7.56533700137552 7.56533700137552 11.3895216400911 11.3895216400911 11.3895216400911 4.25531914893617 4.25531914893617 4.25531914893617 19.8237885462555 8.97435897435897 19.8237885462555 19.8237885462555 19.8237885462555 15 15 15 7.0281124497992 16.0599571734475 16.0599571734475 16.0599571734475 16.0599571734475 16.0599571734475 16.0599571734475 16.0599571734475 13.0522088353414 13.0522088353414 13.0522088353414 3.2967032967033 7.68049155145929 7.68049155145929 18.2291666666667 18.2291666666667 18.2291666666667 18.2291666666667 18.2291666666667 18.2291666666667 18.2291666666667 18.2291666666667 18.2291666666667 18.2291666666667 3.6101083032491 11.5163147792706 11.5163147792706 11.5163147792706 11.5163147792706 11.5163147792706 11.5163147792706 6.44567219152855 6.44567219152855 18.2291666666667 4.17362270450751 8.9126559714795 8.9126559714795 8.9126559714795 8.9126559714795 8.9126559714795 8.9126559714795 8.9126559714795 8.9126559714795 8.9126559714795 6.65680473372781 6.65680473372781 6.65680473372781 6.65680473372781 6.65680473372781 6.65680473372781 6.65680473372781 6.65680473372781 3.64963503649635 3.64963503649635 3.64963503649635 2.9296875 2.9296875 2.9296875 2.9296875 2.9296875 2.9296875 2.9296875 2.9296875 2.9296875 2.9296875 2.9296875 2.9296875 2.9296875 2.9296875 2.9296875 2.9296875 2.9296875 2.9296875 2.9296875 2.9296875 2.9296875 2.9296875 2.9296875 2.9296875 2.9296875 2.9296875 2.9296875 2.9296875 2.9296875 2.9296875 2.9296875 2.9296875 2.9296875 2.9296875 2.9296875 2.9296875 2.9296875 2.9296875 4.03877221324717 4.03877221324717 4.03877221324717 4.03877221324717 4.03877221324717 4.03877221324717 4.03877221324717 4.03877221324717 4.03877221324717 4.03877221324717 4.03877221324717 4.03877221324717 4.03877221324717 4.03877221324717 4.03877221324717 4.03877221324717 4.03877221324717 4.03877221324717 4.03877221324717 4.03877221324717 4.03877221324717 4.03877221324717 4.03877221324717 4.03877221324717 4.03877221324717 4.03877221324717 4.03877221324717 4.03877221324717 4.03877221324717 4.03877221324717 4.03877221324717 4.03877221324717 4.03877221324717 4.03877221324717 4.03877221324717 4.03877221324717 4.03877221324717 4.03877221324717 4.03877221324717 4.03877221324717 4.03877221324717 -9999 -9999 -9999 -9999 15.7618213660245 15.7618213660245 15.7618213660245 15.7618213660245 15.7618213660245 15.7618213660245 15.7618213660245 15.7618213660245 15.7618213660245 15.7618213660245 15.7618213660245 15.7618213660245 15.7618213660245 15.7618213660245 -9999 3.84615384615385 3.84615384615385 3.84615384615385 3.84615384615385 3.84615384615385 12.3106060606061 12.3106060606061 12.3106060606061 12.3106060606061 12.3106060606061 12.3106060606061 12.3106060606061 12.3106060606061 -9999 -9999 -9999 -9999 -9999 15.6537753222836 15.6537753222836 15.6537753222836 15.6537753222836 15.6537753222836 15.6537753222836 15.6537753222836 15.6537753222836 15.6537753222836 15.6537753222836 15.6537753222836 15.6537753222836 15.6537753222836 15.6537753222836 15.6537753222836 15.6537753222836 -9999 -9999 11.0619469026549 8.05152979066023 8.05152979066023 11.0619469026549 24.3190661478599 5.39956803455724 5.39956803455724 5.39956803455724 3.62976406533575 3.62976406533575 11.2781954887218 13.1782945736434 13.1782945736434 13.1782945736434 -9999 2.90275761973875 2.90275761973875 2.90275761973875 2.90275761973875 3.7037037037037 3.7037037037037 3.7037037037037 3.7037037037037 0 0 0 0 2.72232304900181 2.72232304900181 2.72232304900181 0 0 -9999 -9999 -9999 -9999 11.0849056603774 11.0849056603774 11.0849056603774 11.0849056603774 11.0849056603774 11.0849056603774 11.0849056603774 11.0849056603774 11.0849056603774 11.0849056603774 11.0849056603774 11.0849056603774 -9999 -9999 -9999 -9999 -9999 -9999 -9999 -9999 -9999 -9999 -9999 -9999 -9999 -9999 -9999 -9999 -9999 -9999 -9999 -9999 -9999 -9999 -9999 -9999 -9999 -9999 -9999 -9999 -9999 -9999 -9999 -9999 -9999 -9999 -9999 -9999 -9999 -9999 -9999 -9999 -9999 -9999 -9999 -9999 -9999 -9999 -9999 -9999 -9999 -9999 -9999 -9999 -9999 -9999 -9999 -9999 -9999 -9999 -9999
-9999 -9999 -9999 -9999 -9999 -9999 -9999 -9999 -9999 -9999 -9999 -9999 -9999 -9999 -9999 -9999 -9999 -9999 -9999 -9999 14.5228215767635 14.5228215767635 14.5228215767635 14.5228215767635 14.5228215767635 14.5228215767635 14.5228215767635 14.5228215767635 14.5228215767635 14.5228215767635 14.5228215767635 14.5228215767635 14.5228215767635 14.5228215767635 14.5228215767635 -9999 -9999 -9999 -9999 -9999 -9999 -9999 -9999 -9999 -9999 -9999 -9999 -9999 -9999 -9999 -9999 -9999 -9999 -9999 -9999 -9999 -9999 -9999 -9999 -9999 -9999 -9999 -9999 -9999 -9999 -9999 -9999 -9999 -9999 -9999 -9999 -9999 -9999 9.58702064896755 9.58702064896755 9.58702064896755 9.58702064896755 9.58702064896755 9.58702064896755 9.58702064896755 9.58702064896755 8.73362445414847 8.73362445414847 8.73362445414847 8.73362445414847 8.73362445414847 8.73362445414847 8.73362445414847 7.33496332518337 7.33496332518337 11.265164644714 11.265164644714 11.265164644714 11.265164644714 11.265164644714 13.7085137085137 13.7085137085137 13.7085137085137 13.7085137085137 13.7085137085137 13.7085137085137 7.56533700137552 7.56533700137552 11.3895216400911 11.3895216400911 11.3895216400911 11.3895216400911 11.3895216400911 4.25531914893617 4.25531914893617 4.25531914893617 8.97435897435897 19.8237885462555 8.97435897435897 19.8237885462555 19.8237885462555 15 15 20.1863354037267 20.1863354037267 16.0599571734475 20.1863354037267 20.1863354037267 20.1863354037267 16.0599571734475 13.0522088353414 13.0522088353414 13.0522088353414 13.0522088353414 13.0522088353414 24.4399185336049 24.4399185336049 18.2291666666667 18.2291666666667 18.2291666666667 18.2291666666667 18.2291666666667 18.2291666666667 18.2291666666667 18.2291666666667 3.6101083032491 3.6101083032491 3.6101083032491 3.6101083032491 11.5163147792706 11.5163147792706 11.5163147792706 18.2291666666667 8.9126559714795 8.9126559714795 8.9126559714795 8.9126559714795 8.9126559714795 8.9126559714795 8.9126559714795 8.54700854700855 8.54700854700855 8.54700854700855 8.54700854700855 8.54700854700855 8.54700854700855 8.54700854700855 8.54700854700855 14.9384885764499 14.9384885764499 14.9384885764499 6.65680473372781 6.65680473372781 6.65680473372781 6.65680473372781 6.65680473372781 6.65680473372781 6.65680473372781 7.23140495867769 7.23140495867769 7.23140495867769 12.5858123569794 12.5858123569794 9.53678474114441 9.53678474114441 9.53678474114441 9.53678474114441 2.94117647058824 2.94117647058824 10.655737704918 10.655737704918 10.655737704918 10.655737704918 10.655737704918 10.655737704918 10.655737704918 10.655737704918 10.655737704918 10.655737704918 13.4310134310134 13.4310134310134 13.4310134310134 13.4310134310134 13.4310134310134 13.4310134310134 13.4310134310134 13.4310134310134 13.4310134310134 13.4310134310134 13.4310134310134 13.4310134310134 13.4310134310134 13.4310134310134 13.4310134310134 13.4310134310134 13.4310134310134 19 5.05050505050505 5.05050505050505 5.05050505050505 5.05050505050505 5.05050505050505 5.05050505050505 5.05050505050505 5.05050505050505 5.05050505050505 5.05050505050505 5.05050505050505 5.05050505050505 5.05050505050505 5.05050505050505 5.05050505050505 5.05050505050505 5.05050505050505 4.03877221324717 4.03877221324717 4.03877221324717 4.03877221324717 4.03877221324717 4.03877221324717 4.03877221324717 4.03877221324717 4.03877221324717 4.03877221324717 4.03877221324717 4.03877221324717 4.03877221324717 4.03877221324717 4.03877221324717 4.03877221324717 4.03877221324717 4.03877221324717 4.03877221324717 4.03877221324717 4.03877221324717 4.03877221324717 4.03877221324717 4.03877221324717 -9999 -9999 -9999 -9999 -9999 15.7618213660245 15.7618213660245 15.7618213660245 15.7618213660245 15.7618213660245 15.7618213660245 15.7618213660245 15.7618213660245 15.7618213660245 15.7618213660245 15.7618213660245 15.7618213660245 15.7618213660245 15.7618213660245 15.7618213660245 15.7618213660245 3.84615384615385 3.84615384615385 12.3106060606061 12.3106060606061 12.3106060606061 12.3106060606061 12.3106060606061 12.3106060606061 12.3106060606061 7.13266761768902 7.13266761768902 7.13266761768902 7.13266761768902 -9999 15.6537753222836 15.6537753222836 15.6537753222836 15.6537753222836 15.6537753222836 15.6537753222836 15.6537753222836 15.6537753222836 15.6537753222836 15.6537753222836 15.6537753222836 15.6537753222836 15.6537753222836 15.6537753222836 15.6537753222836 15.6537753222836 15.6537753222836 -9999 -9999 -9999 9.5440084835631 9.5440084835631 9.5440084835631 11.0619469026549 24.3190661478599 24.3190661478599 5.39956803455724 5.39956803455724 5.39956803455724 3.62976406533575 11.2781954887218 13.1782945736434 11.2781954887218 -9999 0 0 0 0 0 0 2.90275761973875 2.90275761973875 2.90275761973875 0 0 0 0 0 0 0 -9999 -9999 -9999 -9999 -9999 -9999 11.0849056603774 11.0849056603774 11.0849056603774 11.0849056603774 11.0849056603774 11.0849056603774 11.0849056603774 11.0849056603774 11.0849056603774 -9999 -9999 -9999 -9999 -9999 -9999 -9999 -9999 -9999 -9999 -9999 -9999 -9999 -9999 -9999 -9999 -9999 -9999 -9999 -9999 -9999 -9999 -9999 -9999 -9999 -9999 -9999 -9999 -9999 -9999 -9999 -9999 -9999 -9999 -9999 -9999 -9999 -9999 -9999 -9999 -9999 -9999 -9999 -9999 -9999 -9999 -9999 -9999 -9999 -9999 -9999 -9999 -9999 -9999 -9999 -9999 -9999 -9999 -9999 -9999 -9999 -9999
-9999 -9999 -9999 -9999 -9999 -9999 -9999 -9999 -9999 -9999 -9999 -9999 -9999 -9999 -9999 -9999 -9999 -9999 -9999 -9999 -9999 -9999 14.5228215767635 14.5228215767635 14.5228215767635 14.5228215767635 14.5228215767635 14.5228215767635 14.5228215767635 14.5228215767635 14.5228215767635 14.5228215767635 14.5228215767635 14.5228215767635 14.5228215767635 14.5228215767635 -9999 -9999 -9999 -9999 -9999 -9999 -9999 -9999 -9999 -9999 -9999 -9999 -9999 -9999 -9999 -9999 -9999 -9999 -9999 -9999 3.6563071297989 3.6563071297989 3.6563071297989 -9999 -9999 -9999 -9999 -9999 9.80392156862745 -9999 -9999 -9999 -9999 -9999 -9999 -9999 -9999 10.6194690265487 10.6194690265487 10.6194690265487 9.58702064896755 9.58702064896755 9.58702064896755 9.58702064896755 9.58702064896755 9.58702064896755 8.73362445414847 8.73362445414847 8.73362445414847 8.73362445414847 8.73362445414847 8.73362445414847 8 11.265164644714 11.265164644714 11.265164644714 11.265164644714 11.265164644714 11.265164644714 11.265164644714 13.7085137085137 13.7085137085137 12.7768313458262 13.7085137085137 13.7085137085137 13.7085137085137 7.56533700137552 7.56533700137552 11.3895216400911 11.3895216400911 11.3895216400911 11.3895216400911 4.25531914893617 4.25531914893617 4.25531914893617 4.25531914893617 8.97435897435897 8.97435897435897 8.97435897435897 8.97435897435897 15 15 20.1863354037267 20.1863354037267 20.1863354037267 20.1863354037267 20.1863354037267 13.0522088353414 13.0522088353414 13.0522088353414 13.0522088353414 13.0522088353414 24.4399185336049 24.4399185336049 24.4399185336049 24.4399185336049 18.2291666666667 18.2291666666667 18.2291666666667 18.2291666666667 18.2291666666667 18.2291666666667 18.2291666666667 18.2291666666667 3.6101083032491 18.2291666666667 3.6101083032491 18.2291666666667 8.9126559714795 8.9126559714795 8.9126559714795 8.9126559714795 8.9126559714795 12.6353790613718 -9999 -9999 -9999 -9999 -9999 -9999 -9999 -9999 -9999 12.6353790613718 8.54700854700855 8.54700854700855 8.54700854700855 14.9384885764499 14.9384885764499 14.9384885764499 14.9384885764499 6.65680473372781 6.65680473372781 6.65680473372781 6.65680473372781 6.65680473372781 6.65680473372781 7.23140495867769 7.23140495867769 7.23140495867769 7.23140495867769 12.5858123569794 12.5858123569794 4.17827298050139 4.17827298050139 4.17827298050139 4.17827298050139 2.94117647058824 2.94117647058824 2.94117647058824 2.94117647058824 10.655737704918 10.655737704918 10.655737704918 10.655737704918 10.655737704918 10.655737704918 10.655737704918 13.4310134310134 13.4310134310134 13.4310134310134 5.54785020804438 5.54785020804438 5.54785020804438 5.54785020804438 13.4310134310134 13.4310134310134 13.4310134310134 13.4310134310134 13.4310134310134 13.4310134310134 13.4310134310134 13.4310134310134 8.67678958785249 8.67678958785249 19 5.05050505050505 5.73770491803279 5.73770491803279 5.73770491803279 5.73770491803279 5.73770491803279 5.73770491803279 5.73770491803279 0 0 0 0 0 5.05050505050505 5.05050505050505 5.05050505050505 5.05050505050505 15.2671755725191 -9999 -9999 -9999 -9999 -9999 6.57894736842105 6.57894736842105 6.57894736842105 6.57894736842105 6.57894736842105 6.57894736842105 4.03877221324717 4.03877221324717 4.03877221324717 4.03877221324717 4.03877221324717 4.03877221324717 4.03877221324717 0 0 0 0 0 -9999 -9999 -9999 -9999 -9999 -9999 -9999 15.7618213660245 15.7618213660245 15.7618213660245 15.7618213660245 15.7618213660245 15.7618213660245 2.35478806907378 2.35478806907378 2.35478806907378 15.7618213660245 2.35478806907378 0 0 0 0 0 7.13266761768902 7.13266761768902 12.3106060606061 12.3106060606061 7.13266761768902 7.13266761768902 7.13266761768902 7.13266761768902 7.13266761768902 7.13266761768902 -9999 15.6537753222836 15.6537753222836 15.6537753222836 15.6537753222836 15.6537753222836 15.6537753222836 15.6537753222836 15.6537753222836 15.6537753222836 15.6537753222836 15.6537753222836 15.6537753222836 15.6537753222836 15.6537753222836 15.6537753222836 15.6537753222836 15.6537753222836 -9999 -9999 -9999 9.5440084835631 9.5440084835631 9.5440084835631 9.5440084835631 11.0619469026549 11.0619469026549 24.3190661478599 23.5081374321881 23.5081374321881 6.1652281134402 6.1652281134402 6.1652281134402 11.2781954887218 -9999 0 0 0 0 5.10204081632653 5.10204081632653 5.10204081632653 5.43478260869565 0 0 0 0 0 0 4.24929178470255 4.24929178470255 0 -9999 -9999 -9999 -9999 -9999 -9999 11.0849056603774 11.0849056603774 11.0849056603774 11.0849056603774 11.0849056603774 11.0849056603774 -9999 -9999 -9999 -9999 -9999 -9999 -9999 -9999 -9999 -9999 -9999 -9999 -9999 -9999 -9999 -9999 -9999 -9999 -9999 -9999 -9999 -9999 -9999 -9999 -9999 -9999 -9999 -9999 -9999 -9999 -9999 -9999 -9999 -9999 -9999 -9999 -9999 -9999 -9999 -9999 -9999 -9999 -9999 -9999 -9999 -9999 -9999 -9999 -9999 -9999 -9999 -9999 -9999 -9999 -9999 -9999 -9999 -9999 -9999 -9999 -9999 -9999 -9999 -9999 -9999
-9999 -9999 -9999 -9999 -9999 -9999 -9999 -9999 -9999 -9999 -9999 -9999 -9999 14.5228215767635 -9999 14.5228215767635 14.5228215767635 -9999 -9999 -9999 14.5228215767635 14.5228215767635 14.5228215767635 14.5228215767635 14.5228215767635 14.5228215767635 14.5228215767635 14.5228215767635 14.5228215767635 14.5228215767635 14.5228215767635 14.5228215767635 14.5228215767635 14.5228215767635 14.5228215767635 14.5228215767635 14.5228215767635 -9999 -9999 -9999 -9999 -9999 -9999 -9999 -9999 -9999 -9999 -9999 -9999 -9999 -9999 -9999 -9999 3.6563071297989 3.6563071297989 3.6563071297989 3.6563071297989 3.6563071297989 3.6563071297989 3.6563071297989 9.80392156862745 9.80392156862745 9.80392156862745 12.1753246753247 12.1753246753247 -9999 -9999 -9999 -9999 -9999 -9999 -9999 -9999 -9999 10.6194690265487 10.6194690265487 9.58702064896755 9.58702064896755 9.58702064896755 9.58702064896755 9.58702064896755 -9999 -9999 8.73362445414847 8.73362445414847 8.73362445414847 8 8 8 8 11.265164644714 11.265164644714 11.265164644714 11.265164644714 11.265164644714 11.265164644714 11.265164644714 12.7768313458262 12.7768313458262 12.7768313458262 13.7085137085137 13.7085137085137 13.7085137085137 7.56533700137552 7.56533700137552 7.56533700137552 7.56533700137552 7.56533700137552 7.56533700137552 4.25531914893617 7.56533700137552 4.25531914893617 8.97435897435897 8.97435897435897 8.97435897435897 8.97435897435897 8.97435897435897 15 15 20.1863354037267 20.1863354037267 20.1863354037267 20.1863354037267 20.1863354037267 13.0522088353414 13.0522088353414 24.4399185336049 24.4399185336049 24.4399185336049 24.4399185336049 24.4399185336049 24.4399185336049 18.2291666666667 18.2291666666667 18.2291666666667 18.2291666666667 18.2291666666667 18.2291666666667 18.2291666666667 18.2291666666667 8.9126559714795 8.9126559714795 8.9126559714795 8.9126559714795 8.9126559714795 8.9126559714795 8.9126559714795 12.6353790613718 -9999 -9999 -9999 -9999 -9999 -9999 -9999 -9999 -9999 -9999 -9999 -9999 -9999 -9999 12.6353790613718 8.54700854700855 14.9384885764499 14.9384885764499 14.9384885764499 7.69230769230769 7.69230769230769 6.65680473372781 6.65680473372781 6.65680473372781 6.65680473372781 6.65680473372781 7.23140495867769 7.23140495867769 7.23140495867769 12.5858123569794 12.5858123569794 4.17827298050139 4.17827298050139 4.17827298050139 4.17827298050139 4.17827298050139 2.94117647058824 2.94117647058824 2.94117647058824 2.94117647058824 10.655737704918 5.66893424036281 10.655737704918 10.655737704918 10.655737704918 10.655737704918 10.655737704918 5.54785020804438 5.54785020804438 5.54785020804438 5.54785020804438 5.54785020804438 5.54785020804438 5.54785020804438 5.54785020804438 13.6157337367625 13.6157337367625 13.4310134310134 13.4310134310134 13.4310134310134 13.4310134310134 8.67678958785249 4.26136363636364 19 19 5.05050505050505 5.73770491803279 5.73770491803279 5.73770491803279 5.73770491803279 5.73770491803279 5.73770491803279 0 0 0 0 0 5.05050505050505 5.05050505050505 5.05050505050505 5.05050505050505 15.2671755725191 -9999 -9999 -9999 -9999 -9999 6.57894736842105 23.5955056179775 23.5955056179775 23.5955056179775 6.57894736842105 6.57894736842105 0 4.03877221324717 4.03877221324717 4.35865504358655 4.35865504358655 4.35865504358655 4.03877221324717 0 0 0 0 0 -9999 -9999 -9999 -9999 -9999 -9999 -9999 -9999 -9999 -9999 -9999 15.7618213660245 15.7618213660245 0 2.35478806907378 2.35478806907378 2.35478806907378 2.35478806907378 2.35478806907378 0 0 0 7.13266761768902 7.13266761768902 7.13266761768902 7.13266761768902 7.13266761768902 7.13266761768902 7.13266761768902 7.13266761768902 7.13266761768902 -9999 15.6537753222836 15.6537753222836 15.6537753222836 15.6537753222836 15.6537753222836 15.6537753222836 15.6537753222836 15.6537753222836 15.6537753222836 15.6537753222836 15.6537753222836 15.6537753222836 15.6537753222836 15.6537753222836 15.6537753222836 15.6537753222836 15.6537753222836 -9999 -9999 -9999 -9999 -9999 -9999 -9999 -9999 -9999 -9999 -9999 23.5081374321881 23.5081374321881 23.5081374321881 6.1652281134402 6.1652281134402 6.1652281134402 -9999 0 0 0 0 0 0 0 0 5.43478260869565 5.43478260869565 5.43478260869565 4.24929178470255 4.24929178470255 4.24929178470255 4.24929178470255 4.24929178470255 -9999 -9999 -9999 -9999 -9999 -9999 -9999 -9999 -9999 11.0849056603774 11.0849056603774 11.0849056603774 11.0849056603774 11.0849056603774 -9999 -9999 -9999 -9999 -9999 -9999 -9999 -9999 -9999 -9999 -9999 -9999 -9999 -9999 -9999 -9999 -9999 -9999 -9999 -9999 -9999 -9999 -9999 -9999 -9999 -9999 -9999 -9999 -9999 -9999 -9999 -9999 -9999 -9999 -9999 -9999 -9999 -9999 -9999 -9999 -9999 -9999 -9999 -9999 -9999 -9999 -9999 -9999 -9999 -9999 -9999 -9999 -9999 -9999 -9999 -9999 -9999 -9999 -9999 -9999 -9999 -9999 -9999 -9999 -9999
-9999 -9999 -9999 -9999 -9999 -9999 -9999 -9999 -9999 -9999 -9999 -9999 -9999 -9999 14.5228215767635 14.5228215767635 14.5228215767635 14.5228215767635 14.5228215767635 14.5228215767635 14.5228215767635 14.5228215767635 14.5228215767635 14.5228215767635 14.5228215767635 14.5228215767635 14.5228215767635 14.5228215767635 14.5228215767635 14.5228215767635 14.5228215767635 14.5228215767635 14.5228215767635 14.5228215767635 14.5228215767635 14.5228215767635 14.5228215767635 14.5228215767635 -9999 -9999 -9999 -9999 -9999 -9999 -9999 -9999 -9999 -9999 -9999 -9999 3.6563071297989 3.6563071297989 3.6563071297989 3.6563071297989 3.6563071297989 3.6563071297989 3.6563071297989 3.6563071297989 3.6563071297989 9.80392156862745 9.80392156862745 9.80392156862745 12.1753246753247 12.1753246753247 12.1753246753247 12.1753246753247 -9999 -9999 -9999 -9999 -9999 -9999 10.6194690265487 10.6194690265487 10.6194690265487 10.6194690265487 10.6194690265487 9.58702064896755 9.58702064896755 -9999 -9999 -9999 -9999 -9999 8 8 8 8 8 8 11.265164644714 11.265164644714 11.265164644714 11.265164644714 11.265164644714 3.89863547758285 12.7768313458262 12.7768313458262 12.7768313458262 12.7768313458262 12.7768313458262 13.7085137085137 33.5648148148148 8.26446280991736 8.26446280991736 8.26446280991736 8.26446280991736 8.26446280991736 8.26446280991736 14.4927536231884 14.4927536231884 14.4927536231884 8.26446280991736 8.26446280991736 8.26446280991736 20.1863354037267 20.1863354037267 20.1863354037267 20.1863354037267 20.1863354037267 20.1863354037267 20.1863354037267 20.1863354037267 20.1863354037267 9.53389830508475 24.4399185336049 24.4399185336049 24.4399185336049 24.4399185336049 24.4399185336049 7.32217573221757 7.32217573221757 7.32217573221757 18.2291666666667 18.2291666666667 18.2291666666667 18.2291666666667 8.9126559714795 8.9126559714795 8.9126559714795 8.9126559714795 11.0544217687075 11.0544217687075 11.0544217687075 11.0544217687075 8.9126559714795 8.9126559714795 12.6353790613718 -9999 -9999 -9999 -9999 -9999 -9999 -9999 -9999 -9999 -9999 -9999 -9999 -9999 -9999 -9999 -9999 7.69230769230769 14.9384885764499 14.9384885764499 7.69230769230769 7.69230769230769 6.65680473372781 6.65680473372781 6.65680473372781 6.65680473372781 9.74658869395711 9.74658869395711 9.74658869395711 9.74658869395711 12.5858123569794 12.5858123569794 12.621359223301 12.621359223301 12.621359223301 4.17827298050139 2.94117647058824 2.94117647058824 2.94117647058824 2.94117647058824 2.94117647058824 10.655737704918 5.66893424036281 5.66893424036281 10.655737704918 10.655737704918 10.655737704918 10.655737704918 5.54785020804438 5.54785020804438 5.54785020804438 5.54785020804438 5.54785020804438 3.64963503649635 5.54785020804438 5.54785020804438 13.6157337367625 13.6157337367625 13.6157337367625 13.6157337367625 13.6157337367625 13.6157337367625 13.6157337367625 4.26136363636364 13.4310134310134 19 5.05050505050505 4.3956043956044 4.3956043956044 4.3956043956044 4.3956043956044 4.3956043956044 4.3956043956044 4.3956043956044 8.27205882352941 8.27205882352941 8.27205882352941 3.29489291598023 3.29489291598023 3.29489291598023 5.05050505050505 5.05050505050505 15.2671755725191 -9999 -9999 -9999 -9999 -9999 6.57894736842105 6.57894736842105 6.57894736842105 6.57894736842105 6.57894736842105 6.57894736842105 0 0 0 0 0 0 0 0 0 0 4.04858299595142 4.04858299595142 -9999 -9999 -9999 -9999 -9999 -9999 -9999 -9999 -9999 -9999 -9999 -9999 -9999 0 0 0 0 0 0 0 0 7.13266761768902 7.13266761768902 7.13266761768902 7.13266761768902 7.13266761768902 7.13266761768902 7.13266761768902 7.13266761768902 -9999 15.6537753222836 15.6537753222836 15.6537753222836 15.6537753222836 15.6537753222836 15.6537753222836 15.6537753222836 15.6537753222836 15.6537753222836 15.6537753222836 15.6537753222836 15.6537753222836 15.6537753222836 15.6537753222836 15.6537753222836 15.6537753222836 15.6537753222836 15.6537753222836 -9999 -9999 -9999 -9999 -9999 -9999 -9999 -9999 -9999 -9999 -9999 -9999 -9999 -9999 -9999 -9999 -9999 -9999 -9999 -9999 -9999 -9999 -9999 -9999 0 0 0 0 0 7.88091068301226 7.88091068301226 7.88091068301226 4.24929178470255 4.24929178470255 -9999 -9999 -9999 -9999 -9999 -9999 -9999 -9999 -9999 -9999 -9999 -9999 -9999 -9999 -9999 -9999 -9999 -9999 -9999 -9999 -9999 -9999 -9999 -9999 -9999 -9999 -9999 -9999 -9999 -9999 -9999 -9999 -9999 -9999 -9999 -9999 -9999 -9999 -9999 -9999 -9999 -9999 -9999 -9999 -9999 -9999 -9999 -9999 -9999 -9999 -9999 -9999 -9999 -9999 -9999 -9999 -9999 -9999 -9999 -9999 -9999 -9999 -9999 -9999 -9999 -9999 -9999 -9999 -9999 -9999 -9999 -9999 -9999 -9999 -9999 -9999 -9999 -9999 -9999 -9999
-9999 -9999 -9999 -9999 -9999 -9999 -9999 -9999 -9999 -9999 -9999 -9999 -9999 -9999 -9999 14.5228215767635 14.5228215767635 14.5228215767635 14.5228215767635 14.5228215767635 14.5228215767635 14.5228215767635 14.5228215767635 14.5228215767635 14.5228215767635 14.5228215767635 14.5228215767635 14.5228215767635 14.5228215767635 14.5228215767635 14.5228215767635 14.5228215767635 14.5228215767635 14.5228215767635 14.5228215767635 14.5228215767635 14.5228215767635 14.5228215767635 14.5228215767635 14.5228215767635 -9999 -9999 -9999 -9999 -9999 -9999 3.6563071297989 3.6563071297989 3.6563071297989 3.6563071297989 3.6563071297989 3.6563071297989 3.6563071297989 3.6563071297989 3.6563071297989 3.6563071297989 3.6563071297989 3.6563071297989 3.6563071297989 9.80392156862745 9.80392156862745 9.80392156862745 12.1753246753247 12.1753246753247 12.1753246753247 -9999 -9999 -9999 -9999 -9999 -9999 -9999 10.6194690265487 10.6194690265487 10.6194690265487 10.6194690265487 -9999 -9999 -9999 -9999 -9999 -9999 14.1176470588235 14.1176470588235 8 8 8 8 8 8 8 11.265164644714 3.89863547758285 3.89863547758285 3.89863547758285 3.89863547758285 3.89863547758285 12.7768313458262 12.7768313458262 12.7768313458262 33.5648148148148 33.5648148148148 33.5648148148148 33.5648148148148 8.26446280991736 8.26446280991736 8.26446280991736 8.26446280991736 14.4927536231884 14.4927536231884 14.4927536231884 14.4927536231884 8.26446280991736 8.26446280991736 8.26446280991736 20.1863354037267 20.1863354037267 20.1863354037267 20.1863354037267 20.1863354037267 20.1863354037267 20.1863354037267 20.1863354037267 9.53389830508475 9.53389830508475 9.53389830508475 24.4399185336049 24.4399185336049 7.32217573221757 7.32217573221757 7.32217573221757 7.32217573221757 7.32217573221757 18.2291666666667 8.9126559714795 8.9126559714795 8.9126559714795 8.9126559714795 8.9126559714795 20.5673758865248 11.0544217687075 11.0544217687075 11.0544217687075 11.0544217687075 11.0544217687075 -9999 -9999 -9999 -9999 -9999 -9999 -9999 -9999 -9999 -9999 -9999 -9999 -9999 -9999 -9999 -9999 -9999 -9999 -9999 -9999 -9999 7.69230769230769 7.69230769230769 10.8303249097473 10.8303249097473 10.8303249097473 10.8303249097473 10.8303249097473 9.74658869395711 9.74658869395711 9.74658869395711 9.74658869395711 9.74658869395711 12.5858123569794 12.621359223301 12.621359223301 12.621359223301 12.621359223301 12.621359223301 12.621359223301 12.621359223301 10.8225108225108 10.8225108225108 10.8225108225108 5.66893424036281 5.66893424036281 5.66893424036281 10.655737704918 10.655737704918 10.655737704918 13.3928571428571 13.3928571428571 13.3928571428571 13.3928571428571 13.3928571428571 3.64963503649635 3.64963503649635 3.64963503649635 3.64963503649635 13.6157337367625 13.6157337367625 13.6157337367625 13.6157337367625 13.6157337367625 13.6157337367625 13.6157337367625 13.6157337367625 3.37837837837838 3.37837837837838 3.37837837837838 4.3956043956044 4.3956043956044 4.3956043956044 4.3956043956044 4.3956043956044 4.3956043956044 8.27205882352941 8.27205882352941 8.27205882352941 8.27205882352941 3.29489291598023 3.29489291598023 3.29489291598023 3.29489291598023 15.2671755725191 15.2671755725191 -9999 -9999 -9999 -9999 10.482180293501 10.482180293501 8.53889943074004 8.53889943074004 15.7342657342657 15.7342657342657 0 0 0 0 0 0 0 0 0 0 4.04858299595142 4.04858299595142 -9999 -9999 -9999 -9999 -9999 -9999 -9999 -9999 -9999 -9999 -9999 -9999 -9999 15.7618213660245 0 0 0 0 0 7.13266761768902 7.13266761768902 7.13266761768902 7.13266761768902 7.13266761768902 7.13266761768902 7.13266761768902 -9999 16.1616161616162 16.1616161616162 16.1616161616162 16.1616161616162 16.1616161616162 16.1616161616162 15.6537753222836 15.6537753222836 15.6537753222836 15.6537753222836 15.6537753222836 15.6537753222836 15.6537753222836 15.6537753222836 15.6537753222836 15.6537753222836 15.6537753222836 15.6537753222836 15.6537753222836 15.6537753222836 -9999 -9999 -9999 -9999 -9999 -9999 -9999 -9999 -9999 -9999 -9999 -9999 -9999 -9999 -9999 -9999 -9999 -9999 -9999 -9999 -9999 -9999 -9999 -9999 -9999 -9999 -9999 -9999 -9999 -9999 -9999 -9999 7.88091068301226 7.88091068301226 -9999 -9999 -9999 -9999 -9999 -9999 -9999 -9999 -9999 -9999 -9999 -9999 -9999 -9999 -9999 -9999 -9999 -9999 -9999 -9999 -9999 -9999 -9999 -9999 -9999 -9999 -9999 -9999 -9999 -9999 -9999 -9999 -9999 -9999 -9999 -9999 -9999 -9999 -9999 -9999 -9999 -9999 -9999 -9999 -9999 -9999 -9999 -9999 -9999 -9999 -9999 -9999 -9999 -9999 -9999 -9999 -9999 -9999 -9999 -9999 -9999 -9999 -9999 -9999 -9999 -9999 -9999 -9999 -9999 -9999 -9999 -9999 -9999 -9999 -9999 -9999 -9999 -9999 -9999 -9999 -9999
-9999 -9999 -9999 -9999 -9999 -9999 -9999 14.5228215767635 -9999 -9999 -9999 -9999 14.5228215767635 14.5228215767635 14.5228215767635 14.5228215767635 14.5228215767635 14.5228215767635 14.5228215767635 14.5228215767635 14.5228215767635 14.5228215767635 14.5228215767635 14.5228215767635 14.5228215767635 14.5228215767635 14.5228215767635 14.5228215767635 14.5228215767635 14.5228215767635 14.5228215767635 14.5228215767635 14.5228215767635 14.5228215767635 14.5228215767635 14.5228215767635 14.5228215767635 14.5228215767635 14.5228215767635 14.5228215767635 14.5228215767635 -9999 -9999 -9999 3.6563071297989 3.6563071297989 3.6563071297989 3.6563071297989 3.6563071297989 3.6563071297989 3.6563071297989 3.6563071297989 3.6563071297989 3.6563071297989 3.6563071297989 3.6563071297989 3.6563071297989 3.6563071297989 3.6563071297989 9.80392156862745 9.80392156862745 9.80392156862745 9.80392156862745 12.1753246753247 12.1753246753247 -9999 -9999 -9999 -9999 -9999 -9999 -9999 -9999 10.6194690265487 -9999 -9999 -9999 -9999 -9999 -9999 14.1176470588235 14.1176470588235 14.1176470588235 14.1176470588235 8 11.2704918032787 8 8 8 11.2704918032787 8 3.89863547758285 3.89863547758285 3.89863547758285 3.89863547758285 3.89863547758285 12.7768313458262 12.7768313458262 13.5416666666667 13.5416666666667 13.5416666666667 33.5648148148148 33.5648148148148 33.5648148148148 6.74536256323777 6.74536256323777 6.74536256323777 8.26446280991736 14.4927536231884 14.4927536231884 14.4927536231884 14.4927536231884 14.4927536231884 8.26446280991736 8.26446280991736 20.1863354037267 20.1863354037267 20.1863354037267 20.1863354037267 20.1863354037267 20.1863354037267 20.1863354037267 20.1863354037267 9.53389830508475 9.53389830508475 9.53389830508475 24.4399185336049 9.53389830508475 7.32217573221757 7.32217573221757 20.5673758865248 20.5673758865248 20.5673758865248 20.5673758865248 8.9126559714795 11.0544217687075 11.0544217687075 20.5673758865248 20.5673758865248 20.5673758865248 11.0544217687075 11.0544217687075 11.0544217687075 11.0544217687075 -9999 -9999 -9999 -9999 -9999 -9999 -9999 -9999 -9999 -9999 -9999 -9999 -9999 -9999 -9999 -9999 -9999 -9999 -9999 -9999 -9999 -9999 -9999 7.69230769230769 10.8303249097473 10.8303249097473 10.8303249097473 10.8303249097473 10.8303249097473 9.74658869395711 9.74658869395711 9.74658869395711 9.74658869395711 9.74658869395711 12.5858123569794 12.621359223301 12.621359223301 12.621359223301 12.621359223301 12.621359223301 12.621359223301 12.621359223301 12.621359223301 10.8225108225108 10.8225108225108 10.8225108225108 5.66893424036281 5.66893424036281 5.66893424036281 5.66893424036281 5.66893424036281 5.66893424036281 13.3928571428571 13.3928571428571 13.3928571428571 13.3928571428571 3.64963503649635 3.64963503649635 3.64963503649635 7.2289156626506 7.2289156626506 7.2289156626506 13.6157337367625 13.6157337367625 13.6157337367625 13.6157337367625 13.6157337367625 13.6157337367625 3.37837837837838 3.37837837837838 3.37837837837838 6.38297872340426 6.38297872340426 6.38297872340426 6.38297872340426 6.38297872340426 4.3956043956044 8.27205882352941 8.27205882352941 8.27205882352941 8.27205882352941 3.29489291598023 3.29489291598023 3.29489291598023 3.29489291598023 15.2671755725191 15.2671755725191 -9999 -9999 -9999 -9999 10.482180293501 0 0 0 15.7342657342657 15.7342657342657 0 0 0 0 0 0 0 0 0 0 4.04858299595142 4.04858299595142 -9999 -9999 -9999 -9999 -9999 -9999 -9999 -9999 -9999 -9999 -9999 -9999 -9999 -9999 -9999 -9999 0 0 0 0 7.13266761768902 7.13266761768902 7.13266761768902 7.13266761768902 -9999 16.1616161616162 16.1616161616162 16.1616161616162 16.1616161616162 16.1616161616162 16.1616161616162 16.1616161616162 16.1616161616162 16.1616161616162 16.1616161616162 15.6537753222836 15.6537753222836 15.6537753222836 15.6537753222836 15.6537753222836 15.6537753222836 15.6537753222836 15.6537753222836 15.6537753222836 15.6537753222836 -9999 -9999 -9999 -9999 -9999 -9999 -9999 -9999 -9999 -9999 -9999 -9999 -9999 -9999 -9999 -9999 -9999 -9999 -9999 -9999 -9999 -9999 -9999 -9999 -9999 -9999 -9999 -9999 -9999 -9999 -9999 -9999 -9999 -9999 -9999 -9999 -9999 -9999 -9999 -9999 -9999 -9999 -9999 -9999 -9999 -9999 -9999 -9999 -9999 -9999 -9999 -9999 -9999 -9999 -9999 -9999 -9999 -9999 -9999 -9999 -9999 -9999 -9999 -9999 -9999 -9999 -9999 -9999 -9999 -9999 -9999 -9999 -9999 -9999 -9999 -9999 -9999 -9999 -9999 -9999 -9999 -9999 -9999 -9999 -9999 -9999 -9999 -9999 -9999 -9999 -9999 -9999 -9999 -9999 -9999 -9999 -9999 -9999 -9999 -9999 -9999 -9999 -9999 -9999 -9999 -9999 -9999 -9999 -9999 -9999 -9999 -9999 -9999 -9999 -9999 -9999 -9999
-9999 -9999 -9999 -9999 -9999 -9999 -9999 14.5228215767635 14.5228215767635 14.5228215767635 14.5228215767635 14.5228215767635 14.5228215767635 14.5228215767635 14.5228215767635 14.5228215767635 14.5228215767635 14.5228215767635 14.5228215767635 14.5228215767635 14.5228215767635 14.5228215767635 14.5228215767635 14.5228215767635 14.5228215767635 14.5228215767635 14.5228215767635 14.5228215767635 14.5228215767635 14.5228215767635 14.5228215767635 14.5228215767635 14.5228215767635 14.5228215767635 14.5228215767635 14.5228215767635 14.5228215767635 14.5228215767635 14.5228215767635 14.5228215767635 14.5228215767635 14.5228215767635 -9999 3.6563071297989 3.6563071297989 3.6563071297989 3.6563071297989 3.6563071297989 3.6563071297989 3.6563071297989 3.6563071297989 3.6563071297989 3.6563071297989 3.6563071297989 3.6563071297989 3.6563071297989 3.6563071297989 3.6563071297989 3.6563071297989 9.80392156862745 4.3956043956044 4.3956043956044 9.80392156862745 12.1753246753247 12.1753246753247 12.1753246753247 -9999 -9999 -9999 -9999 -9999 -9999 -9999 -9999 -9999 -9999 -9999 -9999 14.1176470588235 14.1176470588235 14.1176470588235 14.1176470588235 14.1176470588235 9.00163666121113 11.2704918032787 11.2704918032787 11.2704918032787 11.2704918032787 11.2704918032787 11.2704918032787 11.2704918032787 3.89863547758285 14.030612244898 14.030612244898 14.030612244898 14.030612244898 13.5416666666667 13.5416666666667 13.5416666666667 13.5416666666667 13.5416666666667 33.5648148148148 33.5648148148148 33.5648148148148 33.5648148148148 6.74536256323777 6.74536256323777 6.74536256323777 6.74536256323777 14.4927536231884 14.4927536231884 14.4927536231884 6.57894736842105 8.26446280991736 8.26446280991736 8.26446280991736 20.1863354037267 20.1863354037267 20.1863354037267 20.1863354037267 20.1863354037267 20.1863354037267 20.1863354037267 20.1863354037267 9.53389830508475 20.1863354037267 20.5673758865248 20.5673758865248 20.5673758865248 20.5673758865248 20.5673758865248 20.5673758865248 20.5673758865248 20.5673758865248 20.5673758865248 11.0544217687075 11.0544217687075 20.5673758865248 20.5673758865248 20.5673758865248 11.0544217687075 11.0544217687075 11.0544217687075 11.0544217687075 -9999 -9999 -9999 -9999 -9999 -9999 -9999 -9999 -9999 -9999 -9999 -9999 -9999 -9999 -9999 -9999 -9999 -9999 -9999 -9999 -9999 -9999 -9999 7.69230769230769 7.69230769230769 7.69230769230769 10.8303249097473 10.8303249097473 10.8303249097473 10.8303249097473 7.69230769230769 7.69230769230769 7.69230769230769 9.74658869395711 12.621359223301 12.621359223301 12.621359223301 12.621359223301 12.621359223301 12.621359223301 12.621359223301 12.621359223301 12.621359223301 10.8225108225108 10.8225108225108 10.8225108225108 10.8225108225108 6.88816855753647 6.88816855753647 6.88816855753647 -9999 6.88816855753647 13.3928571428571 13.3928571428571 13.3928571428571 13.3928571428571 3.64963503649635 3.64963503649635 3.64963503649635 7.2289156626506 7.2289156626506 7.2289156626506 13.6157337367625 13.6157337367625 13.6157337367625 13.6157337367625 13.6157337367625 13.6157337367625 13.6157337367625 3.37837837837838 3.37837837837838 6.38297872340426 6.38297872340426 3.89408099688473 3.89408099688473 9.9236641221374 9.9236641221374 9.9236641221374 9.9236641221374 5.13950073421439 8.27205882352941 3.29489291598023 3.29489291598023 3.29489291598023 3.29489291598023 13.1868131868132 13.1868131868132 12.0056497175141 12.0056497175141 12.0056497175141 12.0056497175141 1.78731009830206 13.2398753894081 13.2398753894081 13.2398753894081 13.2398753894081 13.2398753894081 0 0 0 0 0 0 0 0 0 0 0 0 -9999 -9999 -9999 -9999 -9999 -9999 -9999 -9999 -9999 -9999 -9999 -9999 -9999 -9999 -9999 -9999 -9999 0 0 0 0 -9999 16.1616161616162 16.1616161616162 16.1616161616162 16.1616161616162 16.1616161616162 16.1616161616162 16.1616161616162 16.1616161616162 16.1616161616162 16.1616161616162 16.1616161616162 16.1616161616162 19.6078431372549 19.6078431372549 15.6537753222836 15.6537753222836 15.6537753222836 15.6537753222836 15.6537753222836 15.6537753222836 15.6537753222836 -9999 -9999 -9999 -9999 -9999 -9999 -9999 -9999 -9999 -9999 -9999 -9999 -9999 -9999 -9999 -9999 -9999 -9999 -9999 -9999 -9999 -9999 -9999 -9999 -9999 -9999 -9999 -9999 -9999 -9999 -9999 -9999 -9999 -9999 -9999 -9999 -9999 -9999 -9999 -9999 -9999 -9999 -9999 -9999 -9999 -9999 -9999 -9999 -9999 -9999 -9999 -9999 -9999 -9999 -9999 -9999 -9999 -9999 -9999 -9999 -9999 -9999 -9999 -9999 -9999 -9999 -9999 -9999 -9999 -9999 -9999 -9999 -9999 -9999 -9999 -9999 -9999 -9999 -9999 -9999 -9999 -9999 -9999 -9999 -9999 -9999 -9999 -9999 -9999 -9999 -9999 -9999 -9999 -9999 -9999 -9999 -9999 -9999 -9999 -9999 -9999 -9999 -9999 -9999 -9999 -9999 -9999 -9999 -9999 -9999 -9999 -9999 -9999 -9999 -9999 -9999 -9999 -9999 -9999
-9999 -9999 -9999 -9999 -9999 -9999 -9999 14.5228215767635 14.5228215767635 14.5228215767635 14.5228215767635 14.5228215767635 14.5228215767635 14.5228215767635 14.5228215767635 14.5228215767635 14.5228215767635 14.5228215767635 14.5228215767635 14.5228215767635 14.5228215767635 14.5228215767635 14.5228215767635 14.5228215767635 14.5228215767635 14.5228215767635 14.5228215767635 14.5228215767635 14.5228215767635 14.5228215767635 14.5228215767635 14.5228215767635 14.5228215767635 14.5228215767635 14.5228215767635 14.5228215767635 14.5228215767635 14.5228215767635 3.6563071297989 9.27835051546392 9.27835051546392 3.6563071297989 3.6563071297989 3.6563071297989 3.6563071297989 3.6563071297989 3.6563071297989 3.6563071297989 3.6563071297989 3.6563071297989 3.6563071297989 3.6563071297989 3.6563071297989 3.6563071297989 3.6563071297989 3.6563071297989 3.6563071297989 3.6563071297989 3.6563071297989 3.6563071297989 9.80392156862745 4.3956043956044 4.3956043956044 4.3956043956044 4.3956043956044 4.3956043956044 -9999 -9999 -9999 -9999 -9999 -9999 -9999 -9999 -9999 -9999 14.1176470588235 14.1176470588235 14.1176470588235 14.1176470588235 14.1176470588235 14.1176470588235 14.1176470588235 9.00163666121113 11.2704918032787 11.2704918032787 11.2704918032787 10.9090909090909 10.9090909090909 10.9090909090909 10.9090909090909 9.63597430406852 14.030612244898 14.030612244898 9.63597430406852 9.63597430406852 9.63597430406852 13.5416666666667 13.5416666666667 13.5416666666667 13.5416666666667 13.5416666666667 33.5648148148148 33.5648148148148 33.5648148148148 6.74536256323777 6.74536256323777 6.74536256323777 6.74536256323777 6.57894736842105 6.57894736842105 6.57894736842105 6.57894736842105 6.57894736842105 8.26446280991736 8.26446280991736 20.1863354037267 20.1863354037267 20.1863354037267 20.1863354037267 20.1863354037267 20.1863354037267 20.1863354037267 20.5673758865248 20.5673758865248 20.5673758865248 20.5673758865248 20.5673758865248 6.1576354679803 6.1576354679803 6.1576354679803 6.1576354679803 20.5673758865248 20.5673758865248 20.5673758865248 11.0544217687075 11.0544217687075 11.0544217687075 20.5673758865248 7.32899022801303 7.32899022801303 12.6353790613718 12.6353790613718 -9999 -9999 -9999 -9999 -9999 -9999 -9999 -9999 -9999 -9999 -9999 -9999 -9999 -9999 -9999 -9999 -9999 -9999 -9999 -9999 -9999 -9999 -9999 -9999 7.69230769230769 7.69230769230769 -9999 -9999 -9999 -9999 7.69230769230769 7.69230769230769 7.69230769230769 7.69230769230769 7.69230769230769 7.69230769230769 12.621359223301 12.621359223301 12.621359223301 12.621359223301 12.621359223301 12.621359223301 12.621359223301 12.621359223301 10.8225108225108 10.8225108225108 10.8225108225108 10.8225108225108 6.88816855753647 6.88816855753647 6.88816855753647 -9999 6.88816855753647 11.4678899082569 11.4678899082569 11.4678899082569 11.4678899082569 8.61008610086101 8.61008610086101 8.61008610086101 8.61008610086101 8.61008610086101 7.2289156626506 7.2289156626506 7.2289156626506 7.2289156626506 8.61008610086101 8.61008610086101 13.6157337367625 13.6157337367625 3.37837837837838 3.37837837837838 6.38297872340426 6.38297872340426 3.89408099688473 3.89408099688473 9.9236641221374 9.9236641221374 9.9236641221374 9.9236641221374 5.13950073421439 5.13950073421439 15.5440414507772 15.5440414507772 18.75 18.75 13.1868131868132 13.1868131868132 12.0056497175141 12.0056497175141 12.0056497175141 12.0056497175141 1.78731009830206 1.78731009830206 1.78731009830206 1.78731009830206 13.2398753894081 13.2398753894081 0 0 0 0 0 0 0 0 0 0 0 0 -9999 -9999 -9999 -9999 -9999 -9999 -9999 -9999 -9999 -9999 -9999 -9999 -9999 -9999 -9999 -9999 -9999 0 0 -9999 1.60513643659711 1.60513643659711 16.1616161616162 16.1616161616162 16.1616161616162 16.1616161616162 16.1616161616162 16.1616161616162 16.1616161616162 16.1616161616162 16.1616161616162 16.1616161616162 15.8415841584158 15.8415841584158 15.8415841584158 19.6078431372549 12.8593040847201 12.8593040847201 15.6537753222836 15.6537753222836 15.6537753222836 10.1626016260163 10.1626016260163 10.1626016260163 10.1626016260163 10.1626016260163 -9999 -9999 -9999 -9999 -9999 -9999 -9999 -9999 -9999 -9999 -9999 -9999 -9999 -9999 -9999 -9999 2.33644859813084 2.33644859813084 2.33644859813084 2.33644859813084 0 0 -9999 -9999 -9999 -9999 -9999 -9999 -9999 -9999 -9999 -9999 -9999 -9999 -9999 -9999 -9999 -9999 -9999 -9999 -9999 -9999 -9999 -9999 -9999 -9999 -9999 -9999 -9999 -9999 -9999 -9999 -9999 -9999 -9999 -9999 -9999 -9999 -9999 -9999 -9999 -9999 -9999 -9999 -9999 -9999 -9999 -9999 -9999 -9999 -9999 -9999 -9999 -9999 -9999 -9999 -9999 -9999 -9999 -9999 -9999 -9999 -9999 -9999 -9999 -9999 -9999 -9999 -9999 -9999 -9999 -9999 -9999 -9999 -9999 -9999 -9999 -9999 -9999 -9999 -9999 -9999 -9999 -9999 -9999 -9999 -9999 -9999 -9999 -9999 -9999 -9999 -9999 -9999 -9999 -9999
-9999 -9999 -9999 -9999 -9999 -9999 -9999 14.5228215767635 14.5228215767635 14.5228215767635 14.5228215767635 14.5228215767635 14.5228215767635 14.5228215767635 14.5228215767635 14.5228215767635 14.5228215767635 14.5228215767635 14.5228215767635 14.5228215767635 14.5228215767635 14.5228215767635 14.5228215767635 14.5228215767635 14.5228215767635 14.5228215767635 14.5228215767635 14.5228215767635 14.5228215767635 14.5228215767635 14.5228215767635 14.5228215767635 14.5228215767635 14.5228215767635 14.5228215767635 14.5228215767635 14.5228215767635 3.6563071297989 9.27835051546392 9.27835051546392 9.27835051546392 9.27835051546392 3.6563071297989 3.6563071297989 3.6563071297989 3.6563071297989 3.6563071297989 3.6563071297989 3.6563071297989 3.6563071297989 3.6563071297989 3.6563071297989 3.6563071297989 3.6563071297989 3.6563071297989 3.6563071297989 3.6563071297989 3.6563071297989 3.6563071297989 3.6563071297989 3.6563071297989 9.80392156862745 4.3956043956044 4.3956043956044 4.3956043956044 -9999 -9999 -9999 -9999 -9999 -9999 -9999 -9999 14.1176470588235 14.1176470588235 14.1176470588235 14.1176470588235 14.1176470588235 14.1176470588235 9.00163666121113 14.1176470588235 14.1176470588235 14.1176470588235 9.00163666121113 11.2704918032787 11.2704918032787 10.9090909090909 10.9090909090909 10.9090909090909 10.9090909090909 10.9090909090909 9.63597430406852 9.63597430406852 9.63597430406852 9.63597430406852 9.63597430406852 9.63597430406852 13.5416666666667 13.5416666666667 13.5416666666667 13.5416666666667 13.5416666666667 33.5648148148148 11.7753623188406 11.7753623188406 6.74536256323777 6.74536256323777 6.74536256323777 6.74536256323777 6.57894736842105 6.57894736842105 6.57894736842105 6.57894736842105 6.57894736842105 8.26446280991736 8.26446280991736 20.1863354037267 20.1863354037267 20.1863354037267 20.5673758865248 20.5673758865248 13.6239782016349 13.6239782016349 13.6239782016349 8.08823529411765 8.08823529411765 6.1576354679803 6.1576354679803 6.1576354679803 6.1576354679803 6.1576354679803 6.1576354679803 20.5673758865248 20.5673758865248 20.5673758865248 20.5673758865248 20.5673758865248 7.32899022801303 7.32899022801303 7.32899022801303 7.32899022801303 12.6353790613718 12.6353790613718 -9999 -9999 -9999 -9999 -9999 -9999 -9999 -9999 -9999 -9999 -9999 -9999 -9999 -9999 -9999 -9999 -9999 -9999 -9999 -9999 -9999 -9999 -9999 -9999 -9999 -9999 -9999 -9999 -9999 -9999 -9999 -9999 -9999 -9999 -9999 -9999 -9999 -9999 16.3265306122449 16.3265306122449 16.3265306122449 16.3265306122449 16.3265306122449 16.3265306122449 16.3265306122449 16.3265306122449 16.3265306122449 16.3265306122449 16.3265306122449 6.88816855753647 6.88816855753647 6.88816855753647 6.88816855753647 8.61008610086101 8.61008610086101 8.61008610086101 8.61008610086101 8.61008610086101 8.61008610086101 8.61008610086101 8.61008610086101 8.61008610086101 8.61008610086101 7.2289156626506 7.2289156626506 -9999 8.61008610086101 8.61008610086101 8.61008610086101 9.9601593625498 3.37837837837838 3.37837837837838 6.38297872340426 3.89408099688473 3.89408099688473 3.89408099688473 3.89408099688473 9.9236641221374 9.9236641221374 9.9236641221374 5.13950073421439 5.13950073421439 15.5440414507772 15.5440414507772 18.75 18.75 18.75 18.75 0 7.43801652892562 7.43801652892562 20.1342281879195 20.1342281879195 1.78731009830206 1.78731009830206 1.78731009830206 1.78731009830206 1.78731009830206 0 0 0 5.12163892445583 5.12163892445583 5.45851528384279 0 0 0 0 0 0 -9999 -9999 -9999 -9999 -9999 -9999 -9999 -9999 -9999 -9999 -9999 -9999 -9999 -9999 -9999 -9999 -9999 -9999 1.60513643659711 1.60513643659711 1.60513643659711 1.60513643659711 1.60513643659711 16.1616161616162 16.1616161616162 16.1616161616162 16.1616161616162 16.1616161616162 16.1616161616162 16.1616161616162 16.1616161616162 4.67914438502674 4.67914438502674 15.8415841584158 15.8415841584158 12.8593040847201 12.8593040847201 7.40740740740741 16.4948453608247 16.4948453608247 21.4285714285714 21.4285714285714 10.1626016260163 10.1626016260163 10.1626016260163 -9999 -9999 -9999 -9999 -9999 0 0 -9999 -9999 -9999 -9999 -9999 -9999 -9999 -9999 2.33644859813084 2.33644859813084 2.33644859813084 2.33644859813084 2.33644859813084 2.33644859813084 2.33644859813084 0 0 0 7.06214689265537 7.06214689265537 7.06214689265537 7.06214689265537 4.47761194029851 -9999 -9999 -9999 -9999 -9999 -9999 -9999 -9999 -9999 -9999 -9999 -9999 -9999 -9999 -9999 -9999 -9999 -9999 -9999 -9999 -9999 -9999 -9999 -9999 -9999 -9999 -9999 -9999 -9999 -9999 -9999 -9999 -9999 -9999 -9999 -9999 -9999 -9999 -9999 -9999 -9999 -9999 -9999 -9999 -9999 -9999 -9999 -9999 -9999 -9999 -9999 -9999 -9999 -9999 -9999 -9999 -9999 -9999 -9999 -9999 -9999 -9999 -9999 -9999 -9999 -9999 -9999 -9999 -9999 -9999 -9999 -9999 -9999 -9999 -9999 -9999 -9999 -9999 -9999 -9999 -9999 -9999 -9999 -9999 -9999 -9999 -9999
-9999 -9999 -9999 -9999 -9999 14.5228215767635 14.5228215767635 14.5228215767635 14.5228215767635 14.5228215767635 14.5228215767635 14.5228215767635 14.5228215767635 14.5228215767635 14.5228215767635 14.5228215767635 14.5228215767635 14.5228215767635 14.5228215767635 14.5228215767635 14.5228215767635 14.5228215767635 14.5228215767635 14.5228215767635 14.5228215767635 14.5228215767635 3.6563071297989 14.5228215767635 14.5228215767635 3.6563071297989 3.6563071297989 14.5228215767635 14.5228215767635 3.6563071297989 14.5228215767635 3.6563071297989 3.6563071297989 9.27835051546392 9.27835051546392 9.27835051546392 9.27835051546392 9.27835051546392 3.6563071297989 3.6563071297989 3.6563071297989 3.6563071297989 3.6563071297989 3.6563071297989 3.6563071297989 3.6563071297989 3.6563071297989 3.6563071297989 3.6563071297989 3.6563071297989 3.6563071297989 3.6563071297989 3.6563071297989 3.6563071297989 3.6563071297989 3.6563071297989 3.6563071297989 3.6563071297989 4.3956043956044 4.3956043956044 -9999 -9999 -9999 -9999 -9999 14.1176470588235 14.1176470588235 14.1176470588235 14.1176470588235 14.1176470588235 14.1176470588235 3.90625 3.90625 14.1176470588235 14.1176470588235 9.00163666121113 9.00163666121113 9.00163666121113 7.7720207253886 7.7720207253886 7.7720207253886 7.7720207253886 7.7720207253886 10.9090909090909 10.9090909090909 10.9090909090909 10.9090909090909 10.9090909090909 9.63597430406852 9.63597430406852 9.63597430406852 9.63597430406852 9.63597430406852 9.63597430406852 13.5416666666667 13.5416666666667 13.5416666666667 13.5416666666667 11.7753623188406 11.7753623188406 11.7753623188406 11.7753623188406 6.74536256323777 6.74536256323777 6.74536256323777 10.2974828375286 10.2974828375286 10.2974828375286 6.57894736842105 6.57894736842105 10.2974828375286 8.35322195704057 8.35322195704057 13.6239782016349 13.6239782016349 13.6239782016349 13.6239782016349 13.6239782016349 13.6239782016349 13.6239782016349 8.08823529411765 8.08823529411765 6.1576354679803 8.08823529411765 6.1576354679803 6.1576354679803 6.1576354679803 6.1576354679803 20.5673758865248 20.5673758865248 12.3558484349259 12.3558484349259 7.32899022801303 7.32899022801303 7.32899022801303 7.32899022801303 7.32899022801303 7.32899022801303 12.6353790613718 -9999 -9999 -9999 -9999 -9999 -9999 -9999 -9999 -9999 -9999 -9999 -9999 -9999 -9999 -9999 -9999 -9999 -9999 -9999 -9999 -9999 -9999 -9999 -9999 -9999 -9999 -9999 -9999 -9999 -9999 -9999 -9999 -9999 -9999 -9999 -9999 -9999 -9999 -9999 16.3265306122449 16.3265306122449 16.3265306122449 -9999 16.3265306122449 16.3265306122449 16.3265306122449 16.3265306122449 16.3265306122449 16.3265306122449 -9999 -9999 -9999 -9999 -9999 -9999 8.61008610086101 8.61008610086101 8.61008610086101 8.61008610086101 8.61008610086101 8.61008610086101 8.61008610086101 8.61008610086101 8.61008610086101 -9999 -9999 -9999 -9999 -9999 -9999 -9999 -9999 -9999 9.9601593625498 3.89408099688473 3.89408099688473 3.89408099688473 3.89408099688473 9.9236641221374 9.9236641221374 5.13950073421439 15.5440414507772 15.5440414507772 15.5440414507772 18.75 18.75 18.75 18.75 0 18.6480186480186 18.6480186480186 20.1342281879195 20.1342281879195 1.78731009830206 1.78731009830206 1.78731009830206 1.78731009830206 1.78731009830206 5.12163892445583 5.12163892445583 5.12163892445583 5.12163892445583 5.12163892445583 5.45851528384279 0 0 0 0 0 0 -9999 -9999 -9999 -9999 -9999 -9999 -9999 -9999 -9999 -9999 -9999 -9999 -9999 -9999 -9999 -9999 8.96551724137931 8.96551724137931 1.60513643659711 1.60513643659711 1.60513643659711 1.60513643659711 1.60513643659711 1.60513643659711 16.1616161616162 16.1616161616162 16.1616161616162 16.1616161616162 16.1616161616162 16.1616161616162 16.1616161616162 4.67914438502674 4.67914438502674 4.67914438502674 15.8415841584158 23.3415233415233 16.4948453608247 16.4948453608247 16.4948453608247 21.4285714285714 21.4285714285714 22.2634508348794 10.1626016260163 10.1626016260163 -9999 -9999 -9999 -9999 -9999 25.9615384615385 25.9615384615385 25.9615384615385 25.9615384615385 25.9615384615385 25.9615384615385 18.8679245283019 18.8679245283019 -9999 -9999 -9999 -9999 2.33644859813084 2.33644859813084 2.33644859813084 2.33644859813084 2.33644859813084 2.33644859813084 0 0 0 4.47761194029851 7.06214689265537 7.06214689265537 4.47761194029851 4.47761194029851 -9999 -9999 -9999 -9999 -9999 -9999 -9999 -9999 -9999 -9999 -9999 -9999 -9999 -9999 -9999 -9999 -9999 -9999 -9999 -9999 -9999 -9999 -9999 -9999 -9999 -9999 -9999 -9999 -9999 -9999 -9999 -9999 -9999 -9999 -9999 -9999 -9999 -9999 -9999 -9999 -9999 -9999 -9999 -9999 -9999 -9999 -9999 -9999 -9999 -9999 -9999 -9999 -9999 -9999 -9999 -9999 -9999 -9999 -9999 -9999 -9999 -9999 -9999 -9999 -9999 -9999 -9999 -9999 -9999 -9999 -9999 -9999 -9999 -9999 -9999 -9999 -9999 -9999 -9999 -9999 -9999 -9999 -9999 -9999 -9999 -9999 -9999
-9999 -9999 -9999 14.5228215767635 14.5228215767635 14.5228215767635 14.5228215767635 14.5228215767635 14.5228215767635 14.5228215767635 14.5228215767635 14.5228215767635 14.5228215767635 14.5228215767635 14.5228215767635 14.5228215767635 14.5228215767635 14.5228215767635 14.5228215767635 14.5228215767635 14.5228215767635 14.5228215767635 14.5228215767635 14.5228215767635 14.5228215767635 3.6563071297989 3.6563071297989 3.6563071297989 3.6563071297989 3.6563071297989 3.6563071297989 3.6563071297989 3.6563071297989 3.6563071297989 3.6563071297989 3.6563071297989 3.6563071297989 3.6563071297989 9.27835051546392 5.2790346907994 5.2790346907994 5.2790346907994 5.2790346907994 3.6563071297989 3.6563071297989 3.6563071297989 3.6563071297989 3.6563071297989 3.6563071297989 3.6563071297989 3.6563071297989 3.6563071297989 3.6563071297989 3.6563071297989 3.6563071297989 3.6563071297989 3.6563071297989 3.6563071297989 3.6563071297989 3.6563071297989 3.6563071297989 3.6563071297989 -9999 -9999 -9999 -9999 5.71679859278804 5.71679859278804 14.1176470588235 14.1176470588235 5.71679859278804 5.71679859278804 5.71679859278804 5.71679859278804 3.90625 3.90625 3.90625 9.00163666121113 9.00163666121113 9.00163666121113 7.7720207253886 7.7720207253886 7.7720207253886 7.7720207253886 7.7720207253886 7.7720207253886 7.7720207253886 4.93827160493827 4.93827160493827 4.93827160493827 4.93827160493827 8.07899461400359 12.9224652087475 12.9224652087475 12.9224652087475 12.9224652087475 12.9224652087475 12.9224652087475 12.9224652087475 12.9224652087475 12.9224652087475 11.7753623188406 11.7753623188406 11.7753623188406 11.7753623188406 11.7753623188406 10.2974828375286 10.2974828375286 10.2974828375286 10.2974828375286 6.57894736842105 10.2974828375286 8.35322195704057 8.35322195704057 8.35322195704057 18.2926829268293 18.2926829268293 13.6239782016349 13.6239782016349 13.6239782016349 13.6239782016349 13.6239782016349 13.6239782016349 13.6239782016349 8.08823529411765 8.08823529411765 8.08823529411765 8.08823529411765 8.08823529411765 6.1576354679803 6.1576354679803 12.3558484349259 12.3558484349259 12.3558484349259 12.3558484349259 12.3558484349259 12.3558484349259 7.32899022801303 7.32899022801303 7.32899022801303 7.32899022801303 11.5789473684211 12.6353790613718 -9999 -9999 -9999 -9999 -9999 -9999 -9999 -9999 -9999 -9999 -9999 -9999 -9999 -9999 -9999 -9999 -9999 -9999 -9999 -9999 -9999 -9999 -9999 -9999 -9999 -9999 -9999 -9999 -9999 -9999 -9999 -9999 -9999 -9999 -9999 -9999 -9999 -9999 -9999 -9999 16.3265306122449 -9999 -9999 -9999 -9999 16.3265306122449 16.3265306122449 -9999 -9999 -9999 -9999 -9999 -9999 -9999 -9999 -9999 -9999 -9999 -9999 -9999 8.61008610086101 8.61008610086101 -9999 -9999 -9999 -9999 -9999 -9999 -9999 -9999 -9999 -9999 -9999 -9999 -9999 9.9601593625498 3.89408099688473 3.89408099688473 9.9236641221374 9.9601593625498 9.9601593625498 15.5440414507772 15.5440414507772 9.9601593625498 9.9601593625498 9.9601593625498 0 0 0 18.6480186480186 18.6480186480186 18.6480186480186 3.59342915811088 3.59342915811088 1.78731009830206 1.78731009830206 1.78731009830206 1.78731009830206 5.12163892445583 5.12163892445583 5.12163892445583 5.12163892445583 5.12163892445583 5.45851528384279 0 0 -9999 -9999 -9999 -9999 -9999 -9999 -9999 -9999 -9999 -9999 -9999 -9999 -9999 -9999 -9999 -9999 -9999 -9999 8.96551724137931 8.96551724137931 8.96551724137931 1.60513643659711 1.60513643659711 1.60513643659711 1.60513643659711 1.60513643659711 1.60513643659711 1.60513643659711 1.60513643659711 16.1616161616162 16.1616161616162 16.1616161616162 16.1616161616162 16.1616161616162 16.1616161616162 23.3968804159445 23.3968804159445 6.50759219088937 6.50759219088937 15.3340635268346 15.3340635268346 15.3340635268346 21.4285714285714 21.4285714285714 21.4285714285714 22.2634508348794 22.2634508348794 10.1626016260163 21.3963963963964 21.3963963963964 21.3963963963964 25.0431778929188 -9999 25.9615384615385 25.9615384615385 25.9615384615385 25.9615384615385 25.9615384615385 25.9615384615385 25.9615384615385 25.9615384615385 25.9615384615385 25.9615384615385 -9999 6.52173913043478 6.52173913043478 6.52173913043478 6.52173913043478 6.52173913043478 2.33644859813084 2.33644859813084 0 0 0 4.47761194029851 4.47761194029851 4.47761194029851 4.47761194029851 -9999 -9999 -9999 -9999 -9999 -9999 -9999 -9999 -9999 -9999 -9999 -9999 -9999 -9999 -9999 -9999 -9999 -9999 -9999 -9999 -9999 -9999 -9999 -9999 -9999 -9999 -9999 -9999 -9999 -9999 -9999 -9999 -9999 -9999 -9999 -9999 -9999 -9999 -9999 -9999 -9999 -9999 -9999 -9999 -9999 -9999 -9999 -9999 -9999 -9999 -9999 -9999 -9999 -9999 -9999 -9999 -9999 -9999 -9999 -9999 -9999 -9999 -9999 -9999 -9999 -9999 -9999 -9999 -9999 -9999 -9999 -9999 -9999 -9999 -9999 -9999 -9999 -9999 -9999 -9999 -9999 -9999 -9999 -9999 -9999 -9999 -9999 -9999
-9999 -9999 -9999 14.5228215767635 14.5228215767635 14.5228215767635 14.5228215767635 14.5228215767635 14.5228215767635 14.5228215767635 14.5228215767635 14.5228215767635 14.5228215767635 14.5228215767635 14.5228215767635 14.5228215767635 14.5228215767635 14.5228215767635 14.5228215767635 14.5228215767635 14.5228215767635 14.5228215767635 14.5228215767635 14.5228215767635 14.5228215767635 3.6563071297989 3.6563071297989 3.6563071297989 3.6563071297989 3.6563071297989 3.6563071297989 3.6563071297989 3.6563071297989 3.6563071297989 3.6563071297989 3.6563071297989 3.6563071297989 3.6563071297989 5.2790346907994 5.2790346907994 5.2790346907994 5.2790346907994 5.2790346907994 3.6563071297989 3.6563071297989 3.6563071297989 3.6563071297989 3.6563071297989 3.6563071297989 3.6563071297989 3.6563071297989 3.6563071297989 3.6563071297989 3.6563071297989 3.6563071297989 3.6563071297989 3.6563071297989 3.6563071297989 3.6563071297989 3.6563071297989 3.6563071297989 3.6563071297989 15.4471544715447 5.71679859278804 5.71679859278804 5.71679859278804 5.71679859278804 5.71679859278804 5.71679859278804 5.71679859278804 5.71679859278804 5.71679859278804 5.71679859278804 5.71679859278804 5.71679859278804 3.90625 3.90625 5.71679859278804 9.00163666121113 9.00163666121113 7.7720207253886 7.7720207253886 7.7720207253886 7.7720207253886 7.7720207253886 11.8279569892473 7.7720207253886 4.93827160493827 8.07899461400359 8.07899461400359 8.07899461400359 8.07899461400359 8.07899461400359 12.9224652087475 12.9224652087475 12.9224652087475 12.9224652087475 12.9224652087475 12.9224652087475 11.7753623188406 11.7753623188406 11.7753623188406 11.7753623188406 11.7753623188406 11.7753623188406 10.2974828375286 10.2974828375286 10.2974828375286 8.35322195704057 8.35322195704057 8.35322195704057 8.35322195704057 18.2926829268293 18.2926829268293 18.2926829268293 18.2926829268293 18.2926829268293 8.35322195704057 13.6239782016349 13.6239782016349 13.6239782016349 13.6239782016349 13.6239782016349 13.6239782016349 13.6239782016349 8.08823529411765 8.08823529411765 8.08823529411765 8.08823529411765 12.3558484349259 12.3558484349259 12.3558484349259 12.3558484349259 12.3558484349259 12.3558484349259 12.3558484349259 12.3558484349259 7.32899022801303 7.32899022801303 11.5789473684211 11.5789473684211 11.5789473684211 11.5789473684211 12.6353790613718 -9999 -9999 -9999 -9999 -9999 -9999 -9999 -9999 -9999 -9999 -9999 -9999 -9999 -9999 -9999 -9999 -9999 -9999 -9999 -9999 -9999 -9999 -9999 -9999 -9999 -9999 -9999 -9999 -9999 -9999 -9999 -9999 -9999 -9999 -9999 -9999 -9999 -9999 -9999 -9999 -9999 16.3265306122449 -9999 -9999 -9999 -9999 -9999 -9999 -9999 -9999 -9999 -9999 -9999 -9999 -9999 -9999 -9999 -9999 -9999 -9999 -9999 -9999 -9999 -9999 -9999 -9999 -9999 -9999 -9999 -9999 -9999 -9999 -9999 -9999 -9999 -9999 -9999 -9999 -9999 -9999 9.9601593625498 9.9601593625498 9.9601593625498 9.9601593625498 9.9601593625498 0 0 0 18.6480186480186 18.6480186480186 3.59342915811088 3.59342915811088 3.59342915811088 3.59342915811088 3.59342915811088 3.59342915811088 6.12472160356347 6.12472160356347 6.12472160356347 6.12472160356347 6.12472160356347 6.12472160356347 6.12472160356347 6.12472160356347 -9999 -9999 -9999 -9999 -9999 -9999 -9999 -9999 -9999 -9999 -9999 -9999 -9999 -9999 -9999 -9999 -9999 5.33333333333333 8.96551724137931 8.96551724137931 8.96551724137931 8.96551724137931 1.60513643659711 1.60513643659711 1.60513643659711 1.60513643659711 1.60513643659711 1.60513643659711 1.60513643659711 1.60513643659711 9.1743119266055 16.1616161616162 16.1616161616162 16.1616161616162 16.1616161616162 9.71922246220302 9.71922246220302 6.73854447439353 6.73854447439353 15.3340635268346 15.3340635268346 15.3340635268346 11.0921501706485 11.0921501706485 21.4723926380368 8.39328537170264 8.39328537170264 8.39328537170264 21.3963963963964 18.2926829268293 18.2926829268293 25.0431778929188 25.0431778929188 17.6056338028169 17.6056338028169 17.6056338028169 10 10 10 25.9615384615385 25.9615384615385 25.9615384615385 25.9615384615385 -9999 0 0 5.29100529100529 5.29100529100529 0 0 6.52173913043478 14.7368421052632 14.7368421052632 14.7368421052632 14.7368421052632 14.7368421052632 4.47761194029851 4.47761194029851 -9999 -9999 -9999 -9999 -9999 -9999 -9999 -9999 -9999 -9999 -9999 -9999 -9999 -9999 -9999 -9999 -9999 -9999 -9999 -9999 -9999 -9999 -9999 -9999 -9999 -9999 -9999 -9999 -9999 -9999 -9999 -9999 -9999 -9999 -9999 -9999 -9999 -9999 -9999 -9999 -9999 -9999 -9999 -9999 -9999 -9999 -9999 -9999 -9999 -9999 -9999 -9999 -9999 -9999 -9999 -9999 -9999 -9999 -9999 -9999 -9999 -9999 -9999 -9999 -9999 -9999 -9999 -9999 -9999 -9999 -9999 -9999 -9999 -9999 -9999 -9999 -9999 -9999 -9999 -9999 -9999 -9999 -9999 -9999 -9999 -9999 -9999 -9999 -9999
-9999 -9999 -9999 14.5228215767635 14.5228215767635 14.5228215767635 14.5228215767635 14.5228215767635 14.5228215767635 14.5228215767635 14.5228215767635 14.5228215767635 14.5228215767635 14.5228215767635 14.5228215767635 14.5228215767635 14.5228215767635 14.5228215767635 14.5228215767635 14.5228215767635 14.5228215767635 14.5228215767635 14.5228215767635 3.6563071297989 3.6563071297989 3.6563071297989 3.6563071297989 3.6563071297989 3.6563071297989 3.6563071297989 3.6563071297989 3.6563071297989 3.6563071297989 3.6563071297989 3.6563071297989 3.6563071297989 3.6563071297989 3.6563071297989 3.6563071297989 5.2790346907994 5.2790346907994 3.6563071297989 3.6563071297989 3.6563071297989 3.6563071297989 3.6563071297989 3.6563071297989 3.6563071297989 3.6563071297989 3.6563071297989 3.6563071297989 3.6563071297989 3.6563071297989 3.6563071297989 3.6563071297989 3.6563071297989 3.6563071297989 3.6563071297989 3.6563071297989 3.6563071297989 15.4471544715447 15.4471544715447 15.4471544715447 5.71679859278804 5.71679859278804 5.71679859278804 5.71679859278804 5.71679859278804 5.71679859278804 5.71679859278804 5.71679859278804 5.71679859278804 5.71679859278804 5.71679859278804 5.71679859278804 3.90625 3.90625 5.71679859278804 9.00163666121113 9.00163666121113 9.00163666121113 7.7720207253886 11.8279569892473 11.8279569892473 11.8279569892473 11.8279569892473 11.8279569892473 4.93827160493827 4.93827160493827 8.07899461400359 8.07899461400359 8.07899461400359 8.07899461400359 12.9224652087475 12.9224652087475 10.2974828375286 10.2974828375286 10.2974828375286 10.2974828375286 11.7753623188406 11.7753623188406 11.7753623188406 11.7753623188406 10.2974828375286 5.72519083969466 5.72519083969466 5.72519083969466 8.35322195704057 7.46268656716418 7.46268656716418 7.46268656716418 18.2926829268293 18.2926829268293 18.2926829268293 18.2926829268293 18.2926829268293 8.35322195704057 8.35322195704057 13.6239782016349 13.6239782016349 13.6239782016349 13.6239782016349 13.6239782016349 13.6239782016349 13.6239782016349 8.08823529411765 7.01402805611222 7.01402805611222 7.01402805611222 12.3558484349259 12.3558484349259 12.3558484349259 12.3558484349259 12.3558484349259 12.3558484349259 12.3558484349259 12.3558484349259 12.3558484349259 11.5789473684211 11.5789473684211 -9999 -9999 11.5789473684211 -9999 -9999 -9999 -9999 -9999 -9999 -9999 -9999 -9999 -9999 -9999 -9999 -9999 -9999 -9999 -9999 -9999 -9999 -9999 -9999 -9999 -9999 -9999 -9999 -9999 -9999 -9999 -9999 -9999 -9999 -9999 -9999 -9999 -9999 -9999 -9999 -9999 -9999 -9999 -9999 -9999 -9999 -9999 -9999 -9999 -9999 -9999 -9999 -9999 -9999 -9999 -9999 -9999 -9999 -9999 -9999 -9999 -9999 -9999 -9999 -9999 -9999 -9999 -9999 -9999 -9999 -9999 -9999 -9999 -9999 -9999 -9999 -9999 -9999 -9999 -9999 -9999 -9999 -9999 -9999 -9999 -9999 -9999 -9999 -9999 -9999 -9999 -9999 9.9601593625498 3.59342915811088 3.59342915811088 3.59342915811088 3.59342915811088 3.59342915811088 6.12472160356347 6.12472160356347 6.12472160356347 6.12472160356347 6.12472160356347 6.12472160356347 6.12472160356347 6.12472160356347 5.24475524475525 5.24475524475525 5.24475524475525 -9999 -9999 -9999 -9999 -9999 -9999 -9999 -9999 -9999 -9999 -9999 -9999 -9999 -9999 -9999 3.88198757763975 4.5045045045045 5.33333333333333 8.96551724137931 21.2947189097104 21.2947189097104 21.2947189097104 1.60513643659711 1.60513643659711 1.60513643659711 1.60513643659711 0 0 0 0 1.60513643659711 9.1743119266055 16.1616161616162 16.1616161616162 16.1616161616162 18.4824902723735 18.4824902723735 18.4824902723735 9.71922246220302 15.3340635268346 15.3340635268346 11.0921501706485 11.0921501706485 11.0921501706485 21.4723926380368 21.4723926380368 21.4723926380368 8.39328537170264 21.9665271966527 11.0544217687075 11.0544217687075 11.0544217687075 25.0431778929188 25.0431778929188 17.6056338028169 17.6056338028169 11.2107623318386 11.2107623318386 11.2107623318386 11.2107623318386 11.2107623318386 -9999 0 0 0 0 5.29100529100529 5.29100529100529 5.29100529100529 0 0 14.7368421052632 14.7368421052632 14.7368421052632 14.7368421052632 0 -9999 -9999 -9999 -9999 -9999 -9999 -9999 -9999 -9999 -9999 -9999 -9999 -9999 -9999 -9999 -9999 -9999 -9999 -9999 -9999 -9999 -9999 -9999 -9999 -9999 -9999 -9999 -9999 -9999 -9999 -9999 -9999 -9999 -9999 -9999 -9999 -9999 -9999 -9999 -9999 -9999 -9999 -9999 -9999 -9999 -9999 -9999 -9999 -9999 -9999 -9999 -9999 -9999 -9999 -9999 -9999 -9999 -9999 -9999 -9999 -9999 -9999 -9999 -9999 -9999 -9999 -9999 -9999 -9999 -9999 -9999 -9999 -9999 -9999 -9999 -9999 -9999 -9999 -9999 -9999 -9999 -9999 -9999 -9999 -9999 -9999 -9999 -9999 -9999 -9999 -9999
-9999 -9999 14.5228215767635 14.5228215767635 14.5228215767635 14.5228215767635 14.5228215767635 14.5228215767635 14.5228215767635 14.5228215767635 14.5228215767635 14.5228215767635 14.5228215767635 14.5228215767635 14.5228215767635 14.5228215767635 14.5228215767635 14.5228215767635 14.5228215767635 14.5228215767635 14.5228215767635 3.6563071297989 3.6563071297989 3.6563071297989 3.6563071297989 3.6563071297989 3.6563071297989 3.6563071297989 3.6563071297989 3.6563071297989 3.6563071297989 3.6563071297989 3.6563071297989 3.6563071297989 3.6563071297989 3.6563071297989 3.6563071297989 3.6563071297989 3.6563071297989 3.6563071297989 5.2790346907994 3.6563071297989 3.6563071297989 3.6563071297989 3.6563071297989 3.6563071297989 3.6563071297989 3.6563071297989 3.6563071297989 3.6563071297989 3.6563071297989 3.6563071297989 3.6563071297989 3.6563071297989 3.6563071297989 3.6563071297989 3.6563071297989 3.6563071297989 15.4471544715447 15.4471544715447 15.4471544715447 15.4471544715447 15.4471544715447 5.71679859278804 5.71679859278804 5.71679859278804 5.71679859278804 5.71679859278804 5.71679859278804 5.71679859278804 5.71679859278804 5.71679859278804 5.71679859278804 5.71679859278804 5.71679859278804 5.71679859278804 5.71679859278804 5.71679859278804 5.71679859278804 9.00163666121113 9.00163666121113 7.7720207253886 7.7720207253886 11.8279569892473 11.8279569892473 11.8279569892473 11.8279569892473 4.93827160493827 4.93827160493827 8.07899461400359 8.07899461400359 8.07899461400359 8.07899461400359 8.07899461400359 12.9224652087475 12.9224652087475 10.2974828375286 10.2974828375286 10.2974828375286 10.2974828375286 5.72519083969466 5.72519083969466 5.72519083969466 5.72519083969466 7.46268656716418 7.46268656716418 7.46268656716418 7.46268656716418 7.46268656716418 7.46268656716418 7.46268656716418 18.2926829268293 18.2926829268293 18.2926829268293 18.2926829268293 8.35322195704057 8.35322195704057 8.35322195704057 8.35322195704057 13.6239782016349 13.6239782016349 13.6239782016349 13.6239782016349 13.6239782016349 13.6239782016349 13.6239782016349 7.01402805611222 7.01402805611222 7.01402805611222 7.01402805611222 12.3558484349259 12.3558484349259 -9999 -9999 -9999 -9999 -9999 -9999 -9999 -9999 -9999 -9999 -9999 -9999 -9999 -9999 -9999 -9999 -9999 -9999 -9999 -9999 -9999 -9999 -9999 -9999 -9999 -9999 -9999 -9999 -9999 -9999 -9999 -9999 -9999 -9999 -9999 -9999 -9999 -9999 -9999 -9999 -9999 -9999 -9999 -9999 -9999 -9999 -9999 -9999 -9999 -9999 -9999 -9999 -9999 -9999 -9999 -9999 -9999 -9999 -9999 -9999 -9999 -9999 -9999 -9999 -9999 -9999 -9999 -9999 -9999 -9999 -9999 -9999 -9999 -9999 -9999 -9999 -9999 -9999 -9999 -9999 -9999 -9999 -9999 -9999 -9999 -9999 -9999 -9999 -9999 -9999 -9999 -9999 -9999 -9999 -9999 -9999 -9999 -9999 -9999 -9999 -9999 -9999 9.9601593625498 9.9601593625498 -9999 -9999 -9999 -9999 -9999 -9999 6.12472160356347 -9999 -9999 5.24475524475525 5.24475524475525 5.24475524475525 -9999 -9999 -9999 -9999 -9999 -9999 -9999 -9999 -9999 -9999 -9999 -9999 -9999 11.8483412322275 11.8483412322275 4.5045045045045 4.5045045045045 5.33333333333333 21.2947189097104 21.2947189097104 21.2947189097104 17.774343122102 1.60513643659711 1.60513643659711 1.60513643659711 1.60513643659711 9.29368029739777 9.29368029739777 9.29368029739777 0 4 9.1743119266055 9.1743119266055 16.1616161616162 16.1616161616162 16.1616161616162 16.1616161616162 18.4824902723735 16.1616161616162 16.1616161616162 11.0921501706485 14.5867098865478 14.5867098865478 14.5867098865478 14.5867098865478 21.4723926380368 21.4723926380368 5.47445255474453 5.47445255474453 5.47445255474453 11.0544217687075 25.0431778929188 25.0431778929188 25.0431778929188 11.4503816793893 11.4503816793893 11.4503816793893 11.4503816793893 11.4503816793893 11.2107623318386 -9999 7.01262272089762 7.01262272089762 7.01262272089762 7.01262272089762 7.01262272089762 5.29100529100529 5.29100529100529 5.29100529100529 0 0 0 0 0 0 -9999 -9999 -9999 -9999 -9999 -9999 -9999 -9999 -9999 -9999 -9999 -9999 -9999 -9999 -9999 -9999 -9999 -9999 -9999 -9999 -9999 -9999 -9999 -9999 -9999 -9999 -9999 -9999 -9999 -9999 -9999 -9999 -9999 -9999 -9999 -9999 -9999 -9999 -9999 -9999 -9999 -9999 -9999 -9999 -9999 -9999 -9999 -9999 -9999 -9999 -9999 -9999 -9999 -9999 -9999 -9999 -9999 -9999 -9999 -9999 -9999 -9999 -9999 -9999 -9999 -9999 -9999 -9999 -9999 -9999 -9999 -9999 -9999 -9999 -9999 -9999 -9999 -9999 -9999 -9999 -9999 -9999 -9999 -9999 -9999 -9999 -9999 -9999 -9999 -9999 -9999 -9999
-9999 -9999 14.5228215767635 14.5228215767635 14.5228215767635 14.5228215767635 14.5228215767635 14.5228215767635 14.5228215767635 14.5228215767635 14.5228215767635 14.5228215767635 14.5228215767635 14.5228215767635 14.5228215767635 14.5228215767635 14.5228215767635 14.5228215767635 14.5228215767635 14.5228215767635 3.6563071297989 3.6563071297989 3.6563071297989 3.6563071297989 3.6563071297989 3.6563071297989 3.6563071297989 3.6563071297989 3.6563071297989 3.6563071297989 3.6563071297989 3.6563071297989 3.6563071297989 3.6563071297989 3.6563071297989 3.6563071297989 3.6563071297989 3.6563071297989 3.6563071297989 3.6563071297989 3.6563071297989 3.6563071297989 3.6563071297989 3.6563071297989 3.6563071297989 3.6563071297989 3.6563071297989 3.6563071297989 3.6563071297989 3.6563071297989 3.6563071297989 3.6563071297989 3.6563071297989 3.6563071297989 3.6563071297989 3.6563071297989 15.4471544715447 15.4471544715447 15.4471544715447 15.4471544715447 15.4471544715447 15.4471544715447 15.4471544715447 5.71679859278804 5.71679859278804 5.71679859278804 5.71679859278804 5.71679859278804 5.71679859278804 5.71679859278804 5.71679859278804 5.71679859278804 5.71679859278804 5.71679859278804 5.71679859278804 5.71679859278804 5.71679859278804 5.71679859278804 5.71679859278804 16.6051660516605 16.6051660516605 16.6051660516605 16.6051660516605 16.6051660516605 11.8279569892473 11.8279569892473 7.90513833992095 7.90513833992095 7.90513833992095 8.07899461400359 7.90513833992095 7.90513833992095 8.07899461400359 8.07899461400359 12.9224652087475 10.2974828375286 5.72519083969466 5.72519083969466 5.72519083969466 5.72519083969466 10.5932203389831 10.5932203389831 10.5932203389831 10.5932203389831 10.5932203389831 7.46268656716418 7.46268656716418 7.46268656716418 7.46268656716418 7.46268656716418 7.46268656716418 7.46268656716418 7.46268656716418 18.2926829268293 8.35322195704057 8.35322195704057 8.35322195704057 8.35322195704057 8.35322195704057 13.6239782016349 13.6239782016349 13.6239782016349 13.6239782016349 13.6239782016349 13.6239782016349 13.6239782016349 7.01402805611222 7.01402805611222 7.01402805611222 7.01402805611222 7.01402805611222 -9999 -9999 -9999 -9999 -9999 -9999 -9999 -9999 -9999 -9999 -9999 -9999 -9999 -9999 -9999 -9999 -9999 -9999 -9999 -9999 -9999 -9999 -9999 -9999 -9999 -9999 -9999 -9999 -9999 -9999 -9999 -9999 -9999 -9999 -9999 -9999 -9999 -9999 -9999 -9999 -9999 -9999 -9999 -9999 -9999 -9999 -9999 -9999 -9999 -9999 -9999 -9999 -9999 -9999 -9999 -9999 -9999 -9999 -9999 -9999 -9999 -9999 -9999 -9999 -9999 -9999 -9999 -9999 -9999 -9999 -9999 -9999 -9999 -9999 -9999 -9999 -9999 -9999 -9999 -9999 -9999 -9999 -9999 -9999 -9999 -9999 -9999 -9999 -9999 -9999 -9999 -9999 -9999 -9999 -9999 -9999 -9999 -9999 -9999 -9999 -9999 -9999 -9999 -9999 -9999 -9999 -9999 -9999 -9999 -9999 -9999 -9999 -9999 -9999 -9999 -9999 6.12472160356347 -9999 -9999 -9999 -9999 -9999 -9999 -9999 -9999 -9999 -9999 3.88198757763975 3.88198757763975 11.8483412322275 11.8483412322275 11.8483412322275 5.33333333333333 5.33333333333333 5.33333333333333 8.96551724137931 17.774343122102 17.774343122102 17.774343122102 1.60513643659711 1.60513643659711 1.60513643659711 9.29368029739777 9.29368029739777 9.29368029739777 9.29368029739777 4 4 9.1743119266055 4 0 16.1616161616162 16.1616161616162 16.1616161616162 16.1616161616162 11.1940298507463 11.1940298507463 11.1940298507463 11.1940298507463 14.5867098865478 21.4723926380368 21.4723926380368 21.4723926380368 11.0544217687075 11.0544217687075 11.0544217687075 11.0544217687075 25.0431778929188 25.0431778929188 25.0431778929188 11.4503816793893 11.4503816793893 11.4503816793893 11.4503816793893 11.2107623318386 -9999 7.93650793650794 7.93650793650794 7.93650793650794 7.93650793650794 9.57854406130268 9.57854406130268 7.01262272089762 0 0 0 0 0 0 0 -9999 -9999 -9999 -9999 -9999 -9999 -9999 -9999 -9999 -9999 -9999 -9999 -9999 -9999 -9999 -9999 -9999 -9999 -9999 -9999 -9999 -9999 -9999 -9999 -9999 -9999 -9999 -9999 -9999 -9999 -9999 -9999 -9999 -9999 -9999 -9999 -9999 -9999 -9999 -9999 -9999 -9999 -9999 -9999 -9999 -9999 -9999 -9999 -9999 -9999 -9999 -9999 -9999 -9999 -9999 -9999 -9999 -9999 -9999 -9999 -9999 -9999 -9999 -9999 -9999 -9999 -9999 -9999 -9999 -9999 -9999 -9999 -9999 -9999 -9999 -9999 -9999 -9999 -9999 -9999 -9999 -9999 -9999 -9999 -9999 -9999 -9999 -9999 -9999 -9999 -9999 -9999 -9999 -9999
-9999 -9999 14.5228215767635 14.5228215767635 14.5228215767635 14.5228215767635 14.5228215767635 14.5228215767635 14.5228215767635 14.5228215767635 14.5228215767635 14.5228215767635 14.5228215767635 14.5228215767635 14.5228215767635 14.5228215767635 14.5228215767635 14.5228215767635 14.5228215767635 3.6563071297989 3.6563071297989 3.6563071297989 3.6563071297989 3.6563071297989 3.6563071297989 3.6563071297989 3.6563071297989 3.6563071297989 3.6563071297989 3.6563071297989 3.6563071297989 3.6563071297989 3.6563071297989 3.6563071297989 3.6563071297989 3.6563071297989 3.6563071297989 3.6563071297989 3.6563071297989 3.6563071297989 3.6563071297989 3.6563071297989 3.6563071297989 3.6563071297989 3.6563071297989 3.6563071297989 3.6563071297989 3.6563071297989 3.6563071297989 3.6563071297989 3.6563071297989 3.6563071297989 3.6563071297989 3.6563071297989 15.4471544715447 15.4471544715447 15.4471544715447 15.4471544715447 15.4471544715447 15.4471544715447 15.4471544715447 15.4471544715447 15.4471544715447 15.4471544715447 5.71679859278804 5.71679859278804 5.71679859278804 5.71679859278804 5.71679859278804 5.71679859278804 5.71679859278804 5.71679859278804 5.71679859278804 5.71679859278804 5.71679859278804 5.71679859278804 5.71679859278804 5.71679859278804 5.71679859278804 16.6051660516605 16.6051660516605 16.6051660516605 16.6051660516605 16.6051660516605 16.6051660516605 7.90513833992095 7.90513833992095 7.90513833992095 7.90513833992095 7.90513833992095 5.72519083969466 5.72519083969466 5.72519083969466 5.72519083969466 5.72519083969466 5.72519083969466 11.3851992409867 11.3851992409867 10.5932203389831 10.5932203389831 10.5932203389831 10.5932203389831 10.5932203389831 10.5932203389831 10.5932203389831 7.46268656716418 7.46268656716418 8.25082508250825 7.46268656716418 7.46268656716418 7.46268656716418 17.0940170940171 17.0940170940171 17.0940170940171 17.0940170940171 17.0940170940171 17.0940170940171 17.0940170940171 8.35322195704057 8.35322195704057 13.6239782016349 13.6239782016349 13.6239782016349 13.6239782016349 11.5789473684211 7.01402805611222 7.01402805611222 7.01402805611222 7.01402805611222 7.01402805611222 11.5789473684211 -9999 -9999 -9999 -9999 -9999 -9999 -9999 -9999 -9999 -9999 -9999 -9999 -9999 -9999 -9999 -9999 -9999 -9999 -9999 -9999 -9999 -9999 -9999 -9999 -9999 -9999 -9999 -9999 -9999 -9999 -9999 -9999 -9999 -9999 -9999 -9999 -9999 -9999 -9999 -9999 -9999 -9999 -9999 -9999 -9999 -9999 -9999 -9999 -9999 -9999 -9999 -9999 -9999 -9999 -9999 -9999 -9999 -9999 -9999 -9999 -9999 -9999 -9999 -9999 -9999 -9999 -9999 -9999 -9999 -9999 -9999 -9999 -9999 -9999 -9999 -9999 -9999 -9999 -9999 -9999 -9999 -9999 -9999 -9999 -9999 -9999 -9999 -9999 -9999 -9999 -9999 -9999 -9999 -9999 -9999 -9999 -9999 -9999 -9999 -9999 -9999 -9999 -9999 -9999 -9999 -9999 -9999 -9999 -9999 -9999 -9999 -9999 6.12472160356347 6.12472160356347 6.12472160356347 -9999 -9999 -9999 -9999 -9999 -9999 -9999 -9999 -9999 -9999 -9999 -9999 3.88198757763975 3.88198757763975 11.8483412322275 11.8483412322275 18.7667560321716 5.33333333333333 5.33333333333333 5.33333333333333 8.96551724137931 17.774343122102 17.774343122102 17.774343122102 17.774343122102 4.44444444444444 4.44444444444444 4.44444444444444 9.29368029739777 9.29368029739777 9.29368029739777 4 4 4 4 0 0 11.1940298507463 11.1940298507463 11.1940298507463 11.1940298507463 10.0671140939597 10.0671140939597 10.9489051094891 10.9489051094891 10.9489051094891 11.0497237569061 11.0497237569061 11.0497237569061 11.0497237569061 9.25925925925926 18.0652680652681 4.85436893203883 18.0652680652681 18.0652680652681 4.85436893203883 11.4503816793893 11.4503816793893 11.2107623318386 -9999 7.93650793650794 7.93650793650794 9.24214417744917 9.24214417744917 9.24214417744917 9.57854406130268 9.57854406130268 9.57854406130268 9.41422594142259 9.41422594142259 9.41422594142259 9.41422594142259 9.41422594142259 9.41422594142259 -9999 -9999 -9999 -9999 -9999 -9999 -9999 -9999 -9999 -9999 -9999 -9999 -9999 -9999 -9999 -9999 -9999 -9999 -9999 -9999 -9999 -9999 -9999 -9999 -9999 -9999 -9999 -9999 -9999 -9999 -9999 -9999 -9999 -9999 -9999 -9999 -9999 -9999 -9999 -9999 -9999 -9999 -9999 -9999 -9999 -9999 -9999 -9999 -9999 -9999 -9999 -9999 -9999 -9999 -9999 -9999 -9999 -9999 -9999 -9999 -9999 -9999 -9999 -9999 -9999 -9999 -9999 -9999 -9999 -9999 -9999 -9999 -9999 -9999 -9999 -9999 -9999 -9999 -9999 -9999 -9999 -9999 -9999 -9999 -9999 -9999 -9999 -9999 -9999 -9999 -9999 -9999 -9999 -9999 -9999
-9999 14.5228215767635 14.5228215767635 14.5228215767635 14.5228215767635 14.5228215767635 14.5228215767635 14.5228215767635 14.5228215767635 14.5228215767635 14.5228215767635 14.5228215767635 14.5228215767635 14.5228215767635 14.5228215767635 14.5228215767635 14.5228215767635 14.5228215767635 3.6563071297989 3.6563071297989 3.6563071297989 3.6563071297989 3.6563071297989 3.6563071297989 3.6563071297989 3.6563071297989 3.6563071297989 3.6563071297989 3.6563071297989 3.6563071297989 3.6563071297989 3.6563071297989 3.6563071297989 3.6563071297989 3.6563071297989 3.6563071297989 3.6563071297989 3.6563071297989 3.6563071297989 3.6563071297989 3.6563071297989 3.6563071297989 3.6563071297989 3.6563071297989 3.6563071297989 3.6563071297989 3.6563071297989 3.6563071297989 3.6563071297989 3.6563071297989 3.6563071297989 3.6563071297989 15.4471544715447 15.4471544715447 15.4471544715447 15.4471544715447 15.4471544715447 15.4471544715447 15.4471544715447 15.4471544715447 15.4471544715447 15.4471544715447 15.4471544715447 15.4471544715447 5.71679859278804 5.71679859278804 5.71679859278804 5.71679859278804 5.71679859278804 5.71679859278804 5.71679859278804 5.71679859278804 5.71679859278804 5.71679859278804 5.71679859278804 5.71679859278804 5.71679859278804 5.71679859278804 5.71679859278804 5.71679859278804 5.71679859278804 5.71679859278804 7.90513833992095 7.90513833992095 5.72519083969466 5.72519083969466 5.72519083969466 5.72519083969466 5.72519083969466 5.72519083969466 26.6203703703704 26.6203703703704 26.6203703703704 26.6203703703704 26.6203703703704 26.6203703703704 26.6203703703704 26.6203703703704 26.6203703703704 11.3851992409867 11.3851992409867 11.3851992409867 10.5932203389831 10.5932203389831 8.25082508250825 8.25082508250825 8.25082508250825 -9999 -9999 -9999 8.25082508250825 7.46268656716418 17.0940170940171 17.0940170940171 17.0940170940171 17.0940170940171 17.0940170940171 17.0940170940171 8.35322195704057 8.35322195704057 11.5789473684211 13.6239782016349 11.5789473684211 11.5789473684211 11.5789473684211 11.5789473684211 11.5789473684211 11.5789473684211 -9999 -9999 -9999 -9999 -9999 -9999 -9999 -9999 -9999 -9999 -9999 -9999 -9999 -9999 -9999 -9999 -9999 -9999 -9999 -9999 -9999 -9999 -9999 -9999 -9999 -9999 -9999 -9999 -9999 -9999 -9999 -9999 -9999 -9999 -9999 -9999 -9999 -9999 -9999 -9999 -9999 -9999 -9999 -9999 -9999 -9999 -9999 -9999 -9999 -9999 -9999 -9999 -9999 -9999 -9999 -9999 -9999 -9999 -9999 -9999 -9999 -9999 -9999 -9999 -9999 -9999 -9999 -9999 -9999 -9999 -9999 -9999 -9999 -9999 -9999 -9999 -9999 -9999 -9999 -9999 -9999 -9999 -9999 -9999 -9999 -9999 -9999 -9999 -9999 -9999 -9999 -9999 -9999 -9999 -9999 -9999 -9999 -9999 -9999 -9999 -9999 -9999 -9999 -9999 -9999 -9999 -9999 -9999 -9999 -9999 -9999 -9999 -9999 -9999 -9999 6.12472160356347 6.12472160356347 -9999 -9999 -9999 -9999 -9999 -9999 -9999 -9999 -9999 -9999 -9999 -9999 -9999 3.88198757763975 12.4792013311148 12.4792013311148 12.4792013311148 18.7667560321716 5.33333333333333 5.33333333333333 5.33333333333333 8.96551724137931 8.96551724137931 17.774343122102 17.774343122102 17.774343122102 4.44444444444444 4.44444444444444 4.44444444444444 4.44444444444444 4.44444444444444 4.44444444444444 4.44444444444444 4 4 9.58904109589041 9.58904109589041 9.58904109589041 9.58904109589041 11.2612612612613 11.1940298507463 3.39366515837104 10.0671140939597 10.0671140939597 10.9489051094891 10.9489051094891 10.9489051094891 11.0497237569061 11.0497237569061 18.0652680652681 18.0652680652681 18.0652680652681 18.0652680652681 18.0652680652681 18.0652680652681 4.85436893203883 4.85436893203883 18.0652680652681 -9999 11.4566284779051 11.4566284779051 11.4566284779051 5.53097345132743 9.24214417744917 9.24214417744917 0 0 0 9.41422594142259 9.41422594142259 9.41422594142259 9.41422594142259 9.41422594142259 9.41422594142259 -9999 -9999 -9999 -9999 -9999 -9999 -9999 -9999 -9999 -9999 -9999 -9999 -9999 -9999 -9999 -9999 -9999 -9999 -9999 -9999 -9999 -9999 -9999 -9999 -9999 -9999 -9999 -9999 -9999 -9999 -9999 -9999 -9999 -9999 -9999 -9999 -9999 -9999 -9999 -9999 -9999 -9999 -9999 -9999 -9999 -9999 -9999 -9999 -9999 -9999 -9999 -9999 -9999 -9999 -9999 -9999 -9999 -9999 -9999 -9999 -9999 -9999 -9999 -9999 -9999 -9999 -9999 -9999 -9999 -9999 -9999 -9999 -9999 -9999 -9999 -9999 -9999 -9999 -9999 -9999 -9999 -9999 -9999 -9999 -9999 -9999 -9999 -9999 -9999 -9999 -9999 -9999 -9999 -9999 -9999 -9999
-9999 14.5228215767635 14.5228215767635 14.5228215767635 14.5228215767635 14.5228215767635 14.5228215767635 14.5228215767635 14.5228215767635 14.5228215767635 14.5228215767635 14.5228215767635 14.5228215767635 14.5228215767635 14.5228215767635 14.5228215767635 14.5228215767635 3.6563071297989 3.6563071297989 3.6563071297989 3.6563071297989 3.6563071297989 3.6563071297989 3.6563071297989 3.6563071297989 3.6563071297989 3.6563071297989 3.6563071297989 3.6563071297989 3.6563071297989 3.6563071297989 3.6563071297989 3.6563071297989 3.6563071297989 3.6563071297989 3.6563071297989 3.6563071297989 3.6563071297989 3.6563071297989 3.6563071297989 3.6563071297989 3.6563071297989 3.6563071297989 3.6563071297989 3.6563071297989 3.6563071297989 3.6563071297989 3.6563071297989 3.6563071297989 3.6563071297989 3.6563071297989 15.4471544715447 15.4471544715447 15.4471544715447 15.4471544715447 15.4471544715447 15.4471544715447 15.4471544715447 15.4471544715447 15.4471544715447 15.4471544715447 15.4471544715447 15.4471544715447 15.4471544715447 5.71679859278804 5.71679859278804 5.71679859278804 5.71679859278804 5.71679859278804 5.71679859278804 5.71679859278804 5.71679859278804 5.71679859278804 5.71679859278804 5.71679859278804 5.71679859278804 7.90513833992095 20.9090909090909 5.72519083969466 5.72519083969466 5.72519083969466 5.72519083969466 5.72519083969466 5.72519083969466 5.72519083969466 10.8527131782946 5.72519083969466 5.72519083969466 5.72519083969466 5.72519083969466 5.72519083969466 26.6203703703704 26.6203703703704 26.6203703703704 26.6203703703704 26.6203703703704 26.6203703703704 11.3851992409867 11.3851992409867 11.3851992409867 11.3851992409867 11.3851992409867 10.5932203389831 11.3851992409867 -9999 -9999 -9999 -9999 -9999 -9999 -9999 -9999 -9999 17.0940170940171 17.0940170940171 17.0940170940171 17.0940170940171 17.0940170940171 8.25082508250825 -9999 -9999 -9999 -9999 -9999 11.5789473684211 11.5789473684211 11.5789473684211 11.5789473684211 11.5789473684211 -9999 -9999 -9999 -9999 -9999 -9999 -9999 -9999 -9999 -9999 -9999 -9999 -9999 -9999 -9999 -9999 -9999 -9999 -9999 -9999 -9999 -9999 -9999 -9999 -9999 -9999 -9999 -9999 -9999 -9999 -9999 -9999 -9999 -9999 -9999 -9999 -9999 -9999 -9999 -9999 -9999 -9999 -9999 -9999 -9999 -9999 -9999 -9999 -9999 -9999 -9999 -9999 -9999 -9999 -9999 -9999 -9999 -9999 -9999 -9999 -9999 -9999 -9999 -9999 -9999 -9999 -9999 -9999 -9999 -9999 -9999 -9999 -9999 -9999 -9999 -9999 -9999 -9999 -9999 -9999 -9999 -9999 -9999 -9999 -9999 -9999 -9999 -9999 -9999 -9999 -9999 -9999 -9999 -9999 -9999 -9999 -9999 -9999 -9999 -9999 -9999 -9999 -9999 -9999 -9999 -9999 -9999 -9999 -9999 -9999 -9999 -9999 -9999 -9999 -9999 -9999 6.12472160356347 6.12472160356347 6.12472160356347 -9999 -9999 -9999 -9999 -9999 -9999 -9999 -9999 -9999 -9999 12.4792013311148 12.4792013311148 12.4792013311148 12.4792013311148 18.7667560321716 5.33333333333333 5.33333333333333 5.33333333333333 0 0 0 0 0 0 4.44444444444444 4.44444444444444 4.44444444444444 4.44444444444444 4.44444444444444 6.84931506849315 6.84931506849315 6.97211155378486 6.97211155378486 6.97211155378486 9.58904109589041 13.5746606334842 6.31578947368421 11.2612612612613 11.2612612612613 3.39366515837104 16.5706051873199 16.5706051873199 10.9489051094891 10.9489051094891 11.0497237569061 4.93827160493827 18.0652680652681 18.0652680652681 18.0652680652681 18.0652680652681 18.0652680652681 18.0652680652681 18.0652680652681 18.0652680652681 -9999 11.4566284779051 11.4566284779051 11.4566284779051 11.4566284779051 5.53097345132743 5.53097345132743 5.53097345132743 5.53097345132743 5.53097345132743 5.53097345132743 24.1730279898219 24.1730279898219 9.41422594142259 9.41422594142259 9.41422594142259 9.41422594142259 9.41422594142259 -9999 -9999 -9999 -9999 -9999 -9999 -9999 -9999 -9999 -9999 -9999 -9999 -9999 -9999 -9999 -9999 -9999 -9999 -9999 -9999 -9999 -9999 -9999 -9999 -9999 -9999 -9999 -9999 -9999 -9999 -9999 -9999 -9999 -9999 -9999 -9999 -9999 -9999 -9999 -9999 -9999 -9999 -9999 -9999 -9999 -9999 -9999 -9999 -9999 -9999 -9999 -9999 -9999 -9999 -9999 -9999 -9999 -9999 -9999 -9999 -9999 -9999 -9999 -9999 -9999 -9999 -9999 -9999 -9999 -9999 -9999 -9999 -9999 -9999 -9999 -9999 -9999 -9999 -9999 -9999 -9999 -9999 -9999 -9999 -9999 -9999 -9999 -9999 -9999 -9999 -9999 -9999 -9999 -9999 -9999
-9999 14.5228215767635 14.5228215767635 14.5228215767635 14.5228215767635 14.5228215767635 14.5228215767635 14.5228215767635 14.5228215767635 14.5228215767635 14.5228215767635 14.5228215767635 14.5228215767635 14.5228215767635 14.5228215767635 14.5228215767635 3.6563071297989 3.6563071297989 3.6563071297989 3.6563071297989 3.6563071297989 3.6563071297989 3.6563071297989 3.6563071297989 3.6563071297989 3.6563071297989 3.6563071297989 3.6563071297989 3.6563071297989 3.6563071297989 3.6563071297989 3.6563071297989 3.6563071297989 3.6563071297989 3.6563071297989 3.6563071297989 3.6563071297989 3.6563071297989 3.6563071297989 3.6563071297989 3.6563071297989 3.6563071297989 3.6563071297989 3.6563071297989 3.6563071297989 3.6563071297989 3.6563071297989 3.6563071297989 3.6563071297989 15.4471544715447 15.4471544715447 15.4471544715447 15.4471544715447 15.4471544715447 15.4471544715447 15.4471544715447 15.4471544715447 15.4471544715447 15.4471544715447 15.4471544715447 15.4471544715447 15.4471544715447 15.4471544715447 15.4471544715447 5.71679859278804 5.71679859278804 5.71679859278804 5.71679859278804 5.71679859278804 5.71679859278804 5.71679859278804 8.91530460624071 8.91530460624071 8.91530460624071 8.91530460624071 20.9090909090909 20.9090909090909 20.9090909090909 7.67543859649123 7.67543859649123 7.67543859649123 7.67543859649123 7.67543859649123 10.8527131782946 10.8527131782946 10.8527131782946 5.72519083969466 5.72519083969466 5.72519083969466 5.72519083969466 5.72519083969466 26.6203703703704 26.6203703703704 26.6203703703704 26.6203703703704 26.6203703703704 26.6203703703704 26.6203703703704 11.3851992409867 11.3851992409867 11.3851992409867 11.3851992409867 11.3851992409867 -9999 -9999 -9999 -9999 -9999 -9999 -9999 -9999 -9999 -9999 -9999 8.25082508250825 8.25082508250825 8.25082508250825 8.25082508250825 -9999 -9999 -9999 -9999 -9999 -9999 11.5789473684211 11.5789473684211 11.5789473684211 11.5789473684211 11.5789473684211 -9999 -9999 -9999 -9999 -9999 -9999 -9999 -9999 -9999 -9999 -9999 -9999 -9999 -9999 -9999 -9999 -9999 -9999 -9999 -9999 -9999 -9999 -9999 -9999 -9999 -9999 -9999 -9999 -9999 -9999 -9999 -9999 -9999 -9999 -9999 -9999 -9999 -9999 -9999 -9999 -9999 -9999 -9999 -9999 -9999 -9999 -9999 -9999 -9999 -9999 -9999 -9999 -9999 -9999 -9999 -9999 -9999 -9999 -9999 -9999 -9999 -9999 -9999 -9999 -9999 -9999 -9999 -9999 -9999 -9999 -9999 -9999 -9999 -9999 -9999 -9999 -9999 -9999 -9999 -9999 -9999 -9999 -9999 -9999 -9999 -9999 -9999 -9999 -9999 -9999 -9999 -9999 -9999 -9999 -9999 -9999 -9999 -9999 -9999 -9999 -9999 -9999 -9999 -9999 -9999 -9999 -9999 -9999 -9999 -9999 -9999 -9999 -9999 -9999 -9999 -9999 -9999 -9999 -9999 -9999 -9999 -9999 -9999 -9999 -9999 -9999 -9999 -9999 -9999 -9999 12.9449838187702 12.9449838187702 12.9449838187702 12.9449838187702 12.9449838187702 5.33333333333333 0 0 0 0 0 0 6.25 6.25 6.25 6.25 6.25 6.25 6.25 6.25 6.97211155378486 6.97211155378486 9.58904109589041 9.58904109589041 6.31578947368421 6.31578947368421 11.2612612612613 8.06451612903226 7.35294117647059 7.35294117647059 7.35294117647059 16.5706051873199 4.93827160493827 4.93827160493827 4.93827160493827 18.0652680652681 18.0652680652681 18.0652680652681 18.0652680652681 18.0652680652681 18.0652680652681 -9999 0 11.4566284779051 11.4566284779051 11.4566284779051 11.4566284779051 11.4566284779051 11.4566284779051 10.2564102564103 10.2564102564103 10.2564102564103 10.2564102564103 11.0619469026549 11.0619469026549 11.0619469026549 12.4653739612188 -9999 -9999 9.41422594142259 9.41422594142259 -9999 -9999 -9999 -9999 -9999 -9999 -9999 -9999 -9999 9.41422594142259 9.41422594142259 9.41422594142259 9.41422594142259 9.41422594142259 9.41422594142259 -9999 -9999 -9999 -9999 -9999 -9999 -9999 -9999 -9999 -9999 -9999 -9999 -9999 -9999 -9999 -9999 -9999 -9999 -9999 -9999 -9999 -9999 -9999 -9999 -9999 -9999 -9999 -9999 -9999 -9999 -9999 -9999 -9999 -9999 -9999 -9999 -9999 -9999 -9999 -9999 -9999 -9999 -9999 -9999 -9999 -9999 -9999 -9999 -9999 -9999 -9999 -9999 -9999 -9999 -9999 -9999 -9999 -9999 -9999 -9999 -9999 -9999 -9999 -9999 -9999 -9999 -9999 -9999 -9999 -9999 -9999 -9999 -9999 -9999 -9999 -9999 -9999 -9999 -9999 -9999
-9999 14.5228215767635 14.5228215767635 14.5228215767635 14.5228215767635 14.5228215767635 14.5228215767635 14.5228215767635 14.5228215767635 14.5228215767635 14.5228215767635 14.5228215767635 14.5228215767635 14.5228215767635 14.5228215767635 14.5228215767635 14.5228215767635 3.6563071297989 3.6563071297989 3.6563071297989 3.6563071297989 3.6563071297989 3.6563071297989 3.6563071297989 3.6563071297989 3.6563071297989 3.6563071297989 3.6563071297989 3.6563071297989 3.6563071297989 3.6563071297989 3.6563071297989 3.6563071297989 3.6563071297989 3.6563071297989 3.6563071297989 3.6563071297989 3.6563071297989 3.6563071297989 3.6563071297989 3.6563071297989 3.6563071297989 3.6563071297989 3.6563071297989 3.6563071297989 3.6563071297989 3.6563071297989 15.4471544715447 15.4471544715447 15.4471544715447 15.4471544715447 15.4471544715447 15.4471544715447 15.4471544715447 15.4471544715447 15.4471544715447 15.4471544715447 15.4471544715447 15.4471544715447 15.4471544715447 15.4471544715447 15.4471544715447 15.4471544715447 15.4471544715447 15.4471544715447 8.91530460624071 8.91530460624071 8.91530460624071 8.91530460624071 8.91530460624071 8.91530460624071 8.91530460624071 8.91530460624071 8.91530460624071 20.9090909090909 20.9090909090909 20.9090909090909 20.9090909090909 20.9090909090909 7.67543859649123 7.67543859649123 7.67543859649123 7.67543859649123 7.67543859649123 10.8527131782946 10.8527131782946 10.8527131782946 5.72519083969466 5.72519083969466 5.72519083969466 5.72519083969466 26.6203703703704 26.6203703703704 26.6203703703704 26.6203703703704 11.3851992409867 11.3851992409867 11.3851992409867 11.3851992409867 11.3851992409867 11.3851992409867 -9999 -9999 -9999 -9999 -9999 -9999 -9999 -9999 -9999 -9999 -9999 -9999 -9999 -9999 -9999 -9999 -9999 -9999 -9999 -9999 -9999 -9999 -9999 11.5789473684211 -9999 -9999 -9999 -9999 -9999 -9999 -9999 -9999 -9999 -9999 -9999 -9999 -9999 -9999 -9999 -9999 -9999 -9999 -9999 -9999 -9999 -9999 -9999 -9999 -9999 -9999 -9999 -9999 -9999 -9999 -9999 -9999 -9999 -9999 -9999 -9999 -9999 -9999 -9999 -9999 -9999 -9999 -9999 -9999 -9999 -9999 -9999 -9999 -9999 -9999 -9999 -9999 -9999 -9999 -9999 -9999 -9999 -9999 -9999 -9999 -9999 -9999 -9999 -9999 -9999 -9999 -9999 -9999 -9999 -9999 -9999 -9999 -9999 -9999 -9999 -9999 -9999 -9999 -9999 -9999 -9999 -9999 -9999 -9999 -9999 -9999 -9999 -9999 -9999 -9999 -9999 -9999 -9999 -9999 -9999 -9999 -9999 -9999 -9999 -9999 -9999 -9999 -9999 -9999 -9999 -9999 -9999 -9999 -9999 -9999 -9999 -9999 -9999 -9999 -9999 -9999 -9999 -9999 -9999 -9999 -9999 -9999 -9999 -9999 -9999 -9999 -9999 -9999 -9999 -9999 -9999 -9999 -9999 -9999 -9999 -9999 -9999 12.9449838187702 12.9449838187702 5.33333333333333 0 4.95049504950495 4.95049504950495 4.95049504950495 0 0 6.25 6.25 6.25 6.25 6.25 6.25 6.25 6.25 14.9051490514905 14.9051490514905 14.9051490514905 14.9051490514905 14.9051490514905 14.9051490514905 14.9051490514905 14.9051490514905 9.58904109589041 9.58904109589041 9.58904109589041 9.58904109589041 9.58904109589041 4.93827160493827 18.0652680652681 18.0652680652681 18.0652680652681 18.0652680652681 18.0652680652681 18.0652680652681 14.3229166666667 0 0 0 0 11.4566284779051 11.090573012939 11.4566284779051 10.8695652173913 10.8695652173913 16.8539325842697 16.8539325842697 10.2564102564103 12.4653739612188 12.4653739612188 11.0619469026549 -9999 -9999 -9999 9.41422594142259 -9999 -9999 -9999 -9999 -9999 -9999 -9999 -9999 9.41422594142259 9.41422594142259 9.41422594142259 9.41422594142259 -9999 9.41422594142259 9.41422594142259 9.41422594142259 9.41422594142259 -9999 -9999 -9999 -9999 -9999 -9999 -9999 -9999 -9999 -9999 -9999 -9999 -9999 -9999 -9999 -9999 -9999 -9999 -9999 -9999 -9999 -9999 -9999 -9999 -9999 -9999 -9999 -9999 -9999 -9999 -9999 -9999 -9999 -9999 -9999 -9999 -9999 -9999 -9999 -9999 -9999 -9999 -9999 -9999 -9999 -9999 -9999 -9999 -9999 -9999 -9999 -9999 -9999 -9999 -9999 -9999 -9999 -9999 -9999 -9999 -9999 -9999 -9999 -9999 -9999 -9999 -9999 -9999 -9999 -9999 -9999 -9999 -9999 -9999 -9999 -9999 -9999 -9999 -9999
-9999 -9999 -9999 -9999 -9999 14.5228215767635 14.5228215767635 14.5228215767635 14.5228215767635 14.5228215767635 14.5228215767635 14.5228215767635 14.5228215767635 14.5228215767635 14.5228215767635 14.5228215767635 14.5228215767635 3.6563071297989 3.6563071297989 3.6563071297989 3.6563071297989 3.6563071297989 3.6563071297989 3.6563071297989 3.6563071297989 3.6563071297989 3.6563071297989 3.6563071297989 3.6563071297989 3.6563071297989 3.6563071297989 3.6563071297989 3.6563071297989 3.6563071297989 3.6563071297989 3.6563071297989 3.6563071297989 3.6563071297989 3.6563071297989 3.6563071297989 3.6563071297989 3.6563071297989 3.6563071297989 3.6563071297989 3.6563071297989 15.4471544715447 15.4471544715447 15.4471544715447 15.4471544715447 15.4471544715447 15.4471544715447 15.4471544715447 15.4471544715447 15.4471544715447 15.4471544715447 15.4471544715447 15.4471544715447 15.4471544715447 15.4471544715447 15.4471544715447 15.4471544715447 15.4471544715447 15.4471544715447 15.4471544715447 15.4471544715447 8.91530460624071 8.91530460624071 8.91530460624071 8.91530460624071 8.91530460624071 8.91530460624071 8.91530460624071 8.91530460624071 8.91530460624071 8.91530460624071 20.9090909090909 20.9090909090909 20.9090909090909 20.9090909090909 7.67543859649123 7.67543859649123 7.67543859649123 7.67543859649123 10.8527131782946 10.8527131782946 10.8527131782946 5.72519083969466 5.72519083969466 5.72519083969466 5.72519083969466 5.72519083969466 5.72519083969466 8.25082508250825 11.3851992409867 11.3851992409867 11.3851992409867 -9999 -9999 -9999 -9999 -9999 -9999 -9999 -9999 -9999 -9999 -9999 -9999 -9999 -9999 -9999 -9999 -9999 -9999 -9999 -9999 -9999 -9999 -9999 -9999 -9999 -9999 -9999 -9999 -9999 -9999 -9999 -9999 -9999 -9999 -9999 -9999 -9999 -9999 -9999 -9999 -9999 -9999 -9999 -9999 -9999 -9999 -9999 -9999 -9999 -9999 -9999 -9999 -9999 -9999 -9999 -9999 -9999 -9999 -9999 -9999 -9999 -9999 -9999 -9999 -9999 -9999 -9999 -9999 -9999 -9999 -9999 -9999 -9999 -9999 -9999 -9999 -9999 -9999 -9999 -9999 -9999 -9999 -9999 -9999 -9999 -9999 -9999 -9999 -9999 -9999 -9999 -9999 -9999 -9999 -9999 -9999 -9999 -9999 -9999 -9999 -9999 -9999 -9999 -9999 -9999 -9999 -9999 -9999 -9999 -9999 -9999 -9999 -9999 -9999 -9999 -9999 -9999 -9999 -9999 -9999 -9999 -9999 -9999 -9999 -9999 -9999 -9999 -9999 -9999 -9999 -9999 -9999 -9999 -9999 -9999 -9999 -9999 -9999 -9999 -9999 -9999 -9999 -9999 -9999 -9999 -9999 -9999 -9999 -9999 -9999 -9999 -9999 -9999 -9999 -9999 -9999 -9999 -9999 -9999 -9999 -9999 -9999 -9999 -9999 -9999 -9999 -9999 12.9449838187702 0 0 4.95049504950495 4.95049504950495 0 0 0 0 0 6.25 6.25 6.25 6.25 6.25 14.9051490514905 14.9051490514905 14.9051490514905 14.9051490514905 14.9051490514905 14.9051490514905 14.9051490514905 8.92857142857143 12.2448979591837 12.2448979591837 10.0603621730382 14.9051490514905 14.9051490514905 10.0603621730382 10.0603621730382 18.0652680652681 18.0652680652681 18.0652680652681 18.0652680652681 -9999 14.3229166666667 14.3229166666667 6.93240901213172 6.93240901213172 0 0 2.99850074962519 2.99850074962519 2.99850074962519 11.090573012939 11.090573012939 10.8695652173913 6.55737704918033 12.4653739612188 12.4653739612188 12.4653739612188 -9999 -9999 -9999 -9999 -9999 -9999 -9999 -9999 -9999 -9999 -9999 9.41422594142259 -9999 -9999 9.41422594142259 9.41422594142259 9.41422594142259 9.41422594142259 9.41422594142259 9.41422594142259 9.41422594142259 9.41422594142259 -9999 -9999 -9999 -9999 -9999 -9999 -9999 -9999 -9999 -9999 -9999 -9999 -9999 -9999 -9999 -9999 -9999 -9999 -9999 -9999 -9999 -9999 -9999 -9999 -9999 -9999 -9999 -9999 -9999 -9999 -9999 -9999 -9999 -9999 -9999 -9999 -9999 -9999 -9999 -9999 -9999 -9999 -9999 -9999 -9999 -9999 -9999 -9999 -9999 -9999 -9999 -9999 -9999 -9999 -9999 -9999 -9999 -9999 -9999 -9999 -9999 -9999 -9999 -9999 -9999 -9999 -9999 -9999 -9999 -9999 -9999 -9999 -9999 -9999 -9999 -9999 -9999 -9999 -9999
-9999 -9999 -9999 -9999 -9999 14.5228215767635 14.5228215767635 14.5228215767635 14.5228215767635 14.5228215767635 14.5228215767635 14.5228215767635 14.5228215767635 14.5228215767635 14.5228215767635 14.5228215767635 14.5228215767635 14.5228215767635 3.6563071297989 3.6563071297989 3.6563071297989 3.6563071297989 3.6563071297989 3.6563071297989 3.6563071297989 3.6563071297989 3.6563071297989 3.6563071297989 3.6563071297989 3.6563071297989 3.6563071297989 3.6563071297989 3.6563071297989 3.6563071297989 3.6563071297989 3.6563071297989 3.6563071297989 3.6563071297989 3.6563071297989 3.6563071297989 3.6563071297989 3.6563071297989 3.6563071297989 15.4471544715447 15.4471544715447 15.4471544715447 15.4471544715447 15.4471544715447 15.4471544715447 15.4471544715447 15.4471544715447 15.4471544715447 15.4471544715447 15.4471544715447 15.4471544715447 15.4471544715447 15.4471544715447 15.4471544715447 15.4471544715447 15.4471544715447 15.4471544715447 15.4471544715447 15.4471544715447 15.4471544715447 15.4471544715447 21.8855218855219 21.8855218855219 8.91530460624071 8.91530460624071 8.91530460624071 8.91530460624071 8.91530460624071 8.91530460624071 8.91530460624071 8.91530460624071 20.9090909090909 20.9090909090909 20.9090909090909 20.9090909090909 20.9090909090909 7.67543859649123 7.67543859649123 10.8527131782946 10.8527131782946 10.8527131782946 5.72519083969466 5.72519083969466 5.72519083969466 5.72519083969466 8.25082508250825 8.25082508250825 8.25082508250825 8.25082508250825 8.25082508250825 8.25082508250825 -9999 -9999 -9999 -9999 -9999 -9999 -9999 -9999 -9999 -9999 -9999 -9999 -9999 -9999 -9999 -9999 -9999 -9999 -9999 -9999 -9999 -9999 -9999 -9999 -9999 -9999 -9999 -9999 -9999 -9999 -9999 -9999 -9999 -9999 -9999 -9999 -9999 -9999 -9999 -9999 -9999 -9999 -9999 -9999 -9999 -9999 -9999 -9999 -9999 -9999 -9999 -9999 -9999 -9999 -9999 -9999 -9999 -9999 -9999 -9999 -9999 -9999 -9999 -9999 -9999 -9999 -9999 -9999 -9999 -9999 -9999 -9999 -9999 -9999 -9999 -9999 -9999 -9999 -9999 -9999 -9999 -9999 -9999 -9999 -9999 -9999 -9999 -9999 -9999 -9999 -9999 -9999 -9999 -9999 -9999 -9999 -9999 -9999 -9999 -9999 -9999 -9999 -9999 -9999 -9999 -9999 -9999 -9999 -9999 -9999 -9999 -9999 -9999 -9999 -9999 -9999 -9999 -9999 -9999 -9999 -9999 -9999 -9999 -9999 -9999 -9999 -9999 -9999 -9999 -9999 -9999 -9999 -9999 -9999 -9999 -9999 -9999 -9999 -9999 -9999 -9999 -9999 -9999 -9999 -9999 -9999 -9999 -9999 -9999 -9999 -9999 -9999 -9999 -9999 -9999 -9999 -9999 -9999 -9999 -9999 -9999 -9999 -9999 -9999 -9999 -9999 -9999 -9999 -9999 -9999 4.95049504950495 4.95049504950495 4.95049504950495 0 0 0 0 0 8.75 6.25 6.25 6.25 6.25 14.9051490514905 14.9051490514905 14.9051490514905 14.9051490514905 14.9051490514905 14.9051490514905 14.9051490514905 8.92857142857143 12.2448979591837 12.2448979591837 10.0603621730382 10.0603621730382 10.0603621730382 10.0603621730382 10.0603621730382 10.0603621730382 -9999 -9999 14.3229166666667 14.3229166666667 14.3229166666667 14.3229166666667 6.93240901213172 6.93240901213172 6.93240901213172 0 0 2.99850074962519 24.8380129589633 24.8380129589633 24.8380129589633 6.55737704918033 12.4653739612188 12.4653739612188 12.4653739612188 -9999 -9999 -9999 -9999 -9999 -9999 -9999 -9999 -9999 -9999 9.41422594142259 9.41422594142259 9.41422594142259 9.41422594142259 9.41422594142259 9.41422594142259 9.41422594142259 9.41422594142259 9.41422594142259 9.41422594142259 9.41422594142259 9.41422594142259 -9999 -9999 -9999 -9999 -9999 -9999 -9999 -9999 -9999 -9999 -9999 -9999 -9999 -9999 -9999 -9999 -9999 -9999 -9999 -9999 -9999 -9999 -9999 -9999 -9999 -9999 -9999 -9999 -9999 -9999 -9999 -9999 -9999 -9999 -9999 -9999 -9999 -9999 -9999 -9999 -9999 -9999 -9999 -9999 -9999 -9999 -9999 -9999 -9999 -9999 -9999 -9999 -9999 -9999 -9999 -9999 -9999 -9999 -9999 -9999 -9999 -9999 -9999 -9999 -9999 -9999 -9999 -9999 -9999 -9999 -9999 -9999 -9999 -9999 -9999 -9999 -9999 -9999 -9999 -9999
-9999 14.5228215767635 14.5228215767635 -9999 -9999 14.5228215767635 14.5228215767635 14.5228215767635 14.5228215767635 14.5228215767635 14.5228215767635 14.5228215767635 14.5228215767635 14.5228215767635 14.5228215767635 14.5228215767635 14.5228215767635 14.5228215767635 14.5228215767635 3.6563071297989 3.6563071297989 3.6563071297989 3.6563071297989 3.6563071297989 3.6563071297989 3.6563071297989 3.6563071297989 3.6563071297989 3.6563071297989 3.6563071297989 3.6563071297989 3.6563071297989 3.6563071297989 3.6563071297989 3.6563071297989 3.6563071297989 3.6563071297989 3.6563071297989 3.6563071297989 3.6563071297989 3.6563071297989 15.4471544715447 15.4471544715447 15.4471544715447 15.4471544715447 15.4471544715447 15.4471544715447 15.4471544715447 15.4471544715447 15.4471544715447 15.4471544715447 15.4471544715447 15.4471544715447 15.4471544715447 15.4471544715447 15.4471544715447 15.4471544715447 15.4471544715447 15.4471544715447 15.4471544715447 15.4471544715447 15.4471544715447 15.4471544715447 15.4471544715447 15.4471544715447 21.8855218855219 21.8855218855219 21.8855218855219 8.91530460624071 8.91530460624071 8.91530460624071 8.91530460624071 8.91530460624071 8.91530460624071 8.91530460624071 20.9090909090909 20.9090909090909 20.9090909090909 20.9090909090909 20.9090909090909 10.8527131782946 10.8527131782946 10.8527131782946 10.8527131782946 10.8527131782946 10.8527131782946 8.25082508250825 8.25082508250825 8.25082508250825 8.25082508250825 8.25082508250825 8.25082508250825 8.25082508250825 -9999 -9999 -9999 -9999 -9999 -9999 -9999 -9999 -9999 -9999 -9999 -9999 -9999 -9999 -9999 -9999 -9999 -9999 -9999 -9999 -9999 -9999 -9999 -9999 -9999 -9999 -9999 -9999 -9999 -9999 -9999 -9999 -9999 -9999 -9999 -9999 -9999 -9999 -9999 -9999 -9999 -9999 -9999 -9999 -9999 -9999 -9999 -9999 -9999 -9999 -9999 -9999 -9999 -9999 -9999 -9999 -9999 -9999 -9999 -9999 -9999 -9999 -9999 -9999 -9999 -9999 -9999 -9999 -9999 -9999 -9999 -9999 -9999 -9999 -9999 -9999 -9999 -9999 -9999 -9999 -9999 -9999 -9999 -9999 -9999 -9999 -9999 -9999 -9999 -9999 -9999 -9999 -9999 -9999 -9999 -9999 -9999 -9999 -9999 -9999 -9999 -9999 -9999 -9999 -9999 -9999 -9999 -9999 -9999 -9999 -9999 -9999 -9999 -9999 -9999 -9999 -9999 -9999 -9999 -9999 -9999 -9999 -9999 -9999 -9999 -9999 -9999 -9999 -9999 -9999 -9999 -9999 -9999 -9999 -9999 -9999 -9999 -9999 -9999 -9999 -9999 -9999 -9999 -9999 -9999 -9999 -9999 -9999 -9999 -9999 -9999 -9999 -9999 -9999 -9999 -9999 -9999 -9999 -9999 -9999 -9999 -9999 -9999 -9999 -9999 -9999 -9999 -9999 -9999 -9999 -9999 -9999 -9999 -9999 4.95049504950495 4.95049504950495 0 6.75675675675676 6.75675675675676 8.75 8.75 10.6382978723404 10.6382978723404 6.25 14.1318977119785 14.1318977119785 14.1318977119785 14.1318977119785 14.9051490514905 14.9051490514905 13.8592750533049 13.8592750533049 13.8592750533049 13.8592750533049 8.92857142857143 10.0603621730382 10.0603621730382 10.0603621730382 -9999 7.8003120124805 7.8003120124805 14.3229166666667 14.3229166666667 14.3229166666667 14.3229166666667 6.93240901213172 6.93240901213172 6.93240901213172 6.93240901213172 6.93240901213172 6.93240901213172 15.2224824355972 15.2224824355972 15.2224824355972 26.2557077625571 24.8380129589633 22.8260869565217 22.8260869565217 22.8260869565217 -9999 -9999 -9999 -9999 -9999 -9999 -9999 -9999 -9999 -9999 -9999 9.41422594142259 9.41422594142259 9.41422594142259 9.41422594142259 9.41422594142259 9.41422594142259 9.41422594142259 9.41422594142259 9.41422594142259 9.41422594142259 9.41422594142259 -9999 -9999 -9999 -9999 -9999 -9999 -9999 -9999 -9999 -9999 -9999 -9999 -9999 -9999 -9999 -9999 -9999 -9999 -9999 -9999 -9999 -9999 -9999 -9999 -9999 -9999 -9999 -9999 -9999 -9999 -9999 -9999 -9999 -9999 -9999 -9999 -9999 -9999 -9999 -9999 -9999 -9999 -9999 -9999 -9999 -9999 -9999 -9999 -9999 -9999 -9999 -9999 -9999 -9999 -9999 -9999 -9999 -9999 -9999 -9999 -9999 -9999 -9999 -9999 -9999 -9999 -9999 -9999 -9999 -9999 -9999 -9999 -9999 -9999 -9999 -9999 -9999 -9999 -9999 -9999 -9999
-9999 14.5228215767635 14.5228215767635 14.5228215767635 -9999 14.5228215767635 14.5228215767635 14.8401826484018 14.8401826484018 14.8401826484018 14.8401826484018 14.8401826484018 14.8401826484018 14.8401826484018 14.8401826484018 14.8401826484018 14.8401826484018 14.8401826484018 14.8401826484018 3.6563071297989 3.6563071297989 3.6563071297989 3.6563071297989 3.6563071297989 3.6563071297989 3.6563071297989 3.6563071297989 3.6563071297989 3.6563071297989 3.6563071297989 3.6563071297989 3.6563071297989 3.6563071297989 3.6563071297989 3.6563071297989 3.6563071297989 3.6563071297989 3.6563071297989 3.6563071297989 15.4471544715447 15.4471544715447 15.4471544715447 15.4471544715447 15.4471544715447 15.4471544715447 15.4471544715447 15.4471544715447 15.4471544715447 15.4471544715447 15.4471544715447 15.4471544715447 15.4471544715447 15.4471544715447 15.4471544715447 15.4471544715447 15.4471544715447 12.5858123569794 12.5858123569794 12.5858123569794 12.5858123569794 12.5858123569794 15.4471544715447 15.4471544715447 15.4471544715447 15.4471544715447 15.4471544715447 21.8855218855219 21.8855218855219 21.8855218855219 21.8855218855219 6.94444444444444 6.94444444444444 6.94444444444444 6.94444444444444 6.94444444444444 20.9090909090909 20.9090909090909 20.9090909090909 20.9090909090909 20.9090909090909 10.8527131782946 10.8527131782946 10.8527131782946 10.8527131782946 8.25082508250825 8.25082508250825 8.25082508250825 8.25082508250825 -9999 -9999 -9999 -9999 -9999 -9999 -9999 -9999 -9999 -9999 -9999 -9999 -9999 -9999 -9999 -9999 -9999 -9999 -9999 -9999 -9999 -9999 -9999 -9999 -9999 -9999 -9999 -9999 -9999 -9999 -9999 -9999 -9999 -9999 -9999 -9999 -9999 -9999 -9999 -9999 -9999 -9999 -9999 -9999 -9999 -9999 -9999 -9999 -9999 -9999 -9999 -9999 -9999 -9999 -9999 -9999 -9999 -9999 -9999 -9999 -9999 -9999 -9999 -9999 -9999 -9999 -9999 -9999 -9999 -9999 -9999 -9999 -9999 -9999 -9999 -9999 -9999 -9999 -9999 -9999 -9999 -9999 -9999 -9999 -9999 -9999 -9999 -9999 -9999 -9999 -9999 -9999 -9999 -9999 -9999 -9999 -9999 -9999 -9999 -9999 -9999 -9999 -9999 -9999 -9999 -9999 -9999 -9999 -9999 -9999 -9999 -9999 -9999 -9999 -9999 -9999 -9999 -9999 -9999 -9999 -9999 -9999 -9999 -9999 -9999 -9999 -9999 -9999 -9999 -9999 -9999 -9999 -9999 -9999 -9999 -9999 -9999 -9999 -9999 -9999 -9999 -9999 -9999 -9999 -9999 -9999 -9999 -9999 -9999 -9999 -9999 -9999 -9999 -9999 -9999 -9999 -9999 -9999 -9999 -9999 -9999 -9999 -9999 -9999 -9999 -9999 -9999 -9999 -9999 -9999 -9999 -9999 -9999 -9999 -9999 -9999 -9999 -9999 -9999 -9999 -9999 6.75675675675676 6.75675675675676 6.75675675675676 9.04977375565611 8.75 8.75 10.6382978723404 6.25 5.26315789473684 14.9911816578483 8.67052023121387 8.67052023121387 14.1318977119785 14.1318977119785 6.65680473372781 6.65680473372781 3.82848392036753 13.8592750533049 10.0603621730382 -9999 7.8003120124805 7.8003120124805 5.68181818181818 7.8003120124805 7.8003120124805 7.8003120124805 14.3229166666667 14.3229166666667 6.93240901213172 6.93240901213172 5.62851782363977 6.93240901213172 6.93240901213172 6.93240901213172 6.93240901213172 26.2557077625571 26.2557077625571 26.2557077625571 22.8260869565217 22.8260869565217 22.8260869565217 22.8260869565217 -9999 -9999 -9999 -9999 -9999 -9999 -9999 -9999 -9999 -9999 -9999 -9999 -9999 9.41422594142259 9.41422594142259 9.41422594142259 9.41422594142259 -9999 -9999 -9999 -9999 -9999 -9999 -9999 -9999 -9999 -9999 -9999 -9999 -9999 -9999 -9999 -9999 -9999 -9999 -9999 -9999 -9999 -9999 -9999 -9999 -9999 -9999 -9999 -9999 -9999 -9999 -9999 -9999 -9999 -9999 -9999 -9999 -9999 -9999 -9999 -9999 -9999 -9999 -9999 -9999 -9999 -9999 -9999 -9999 -9999 -9999 -9999 -9999 -9999 -9999 -9999 -9999 -9999 -9999 -9999 -9999 -9999 -9999 -9999 -9999 -9999 -9999 -9999 -9999 -9999 -9999 -9999 -9999 -9999 -9999 -9999 -9999 -9999 -9999 -9999 -9999 -9999 -9999 -9999 -9999 -9999 -9999 -9999
-9999 -9999 -9999 -9999 -9999 -9999 14.5228215767635 14.5228215767635 14.8401826484018 14.8401826484018 14.8401826484018 14.8401826484018 14.8401826484018 14.8401826484018 14.8401826484018 14.8401826484018 14.8401826484018 14.8401826484018 14.8401826484018 14.8401826484018 3.6563071297989 3.6563071297989 3.6563071297989 3.6563071297989 3.6563071297989 3.6563071297989 3.6563071297989 3.6563071297989 3.6563071297989 3.6563071297989 3.6563071297989 3.6563071297989 3.6563071297989 3.6563071297989 3.6563071297989 3.6563071297989 3.6563071297989 3.6563071297989 15.4471544715447 15.4471544715447 15.4471544715447 15.4471544715447 15.4471544715447 15.4471544715447 15.4471544715447 15.4471544715447 15.4471544715447 15.4471544715447 15.4471544715447 15.4471544715447 15.4471544715447 15.4471544715447 15.4471544715447 12.5858123569794 12.5858123569794 12.5858123569794 12.5858123569794 12.5858123569794 12.5858123569794 12.5858123569794 12.5858123569794 15.4471544715447 19.4524495677233 19.4524495677233 19.4524495677233 19.4524495677233 21.8855218855219 21.8855218855219 21.8855218855219 21.8855218855219 6.94444444444444 6.94444444444444 6.94444444444444 6.94444444444444 6.94444444444444 6.94444444444444 20.9090909090909 20.9090909090909 22.5505443234837 22.5505443234837 22.5505443234837 8.25082508250825 8.25082508250825 8.25082508250825 8.25082508250825 -9999 -9999 -9999 -9999 -9999 -9999 -9999 -9999 -9999 -9999 -9999 -9999 -9999 -9999 -9999 -9999 -9999 -9999 -9999 -9999 -9999 -9999 -9999 -9999 -9999 -9999 -9999 -9999 -9999 -9999 -9999 -9999 -9999 -9999 -9999 -9999 -9999 -9999 -9999 -9999 -9999 -9999 -9999 -9999 -9999 -9999 -9999 -9999 -9999 -9999 -9999 -9999 -9999 -9999 -9999 -9999 -9999 -9999 -9999 -9999 -9999 -9999 -9999 -9999 -9999 -9999 -9999 -9999 -9999 -9999 -9999 -9999 -9999 -9999 -9999 -9999 -9999 -9999 -9999 -9999 -9999 -9999 -9999 -9999 -9999 -9999 -9999 -9999 -9999 -9999 -9999 -9999 -9999 -9999 -9999 -9999 -9999 -9999 -9999 -9999 -9999 -9999 -9999 -9999 -9999 -9999 -9999 -9999 -9999 -9999 -9999 -9999 -9999 -9999 -9999 -9999 -9999 -9999 -9999 -9999 -9999 -9999 -9999 -9999 -9999 -9999 -9999 -9999 -9999 -9999 -9999 -9999 -9999 -9999 -9999 -9999 -9999 -9999 -9999 -9999 -9999 -9999 -9999 -9999 -9999 -9999 -9999 -9999 -9999 -9999 -9999 -9999 -9999 -9999 -9999 -9999 -9999 -9999 -9999 -9999 -9999 -9999 -9999 -9999 -9999 -9999 -9999 -9999 -9999 -9999 -9999 -9999 -9999 -9999 -9999 -9999 -9999 -9999 -9999 -9999 -9999 -9999 -9999 -9999 -9999 -9999 4.52079566003617 4.52079566003617 9.04977375565611 20.9876543209877 20.9876543209877 14.9911816578483 14.9911816578483 14.9911816578483 14.9911816578483 14.9911816578483 14.9911816578483 6.65680473372781 6.65680473372781 6.65680473372781 3.82848392036753 3.82848392036753 -9999 7.8003120124805 5.68181818181818 5.68181818181818 5.68181818181818 7.8003120124805 7.8003120124805 9.71922246220302 14.3229166666667 14.3229166666667 6.93240901213172 5.62851782363977 5.62851782363977 5.62851782363977 6.93240901213172 6.93240901213172 10.5448154657294 10.5448154657294 22.8260869565217 22.8260869565217 22.8260869565217 22.8260869565217 12.4653739612188 -9999 -9999 -9999 -9999 -9999 -9999 -9999 -9999 -9999 -9999 -9999 -9999 -9999 -9999 -9999 -9999 -9999 -9999 -9999 -9999 -9999 -9999 -9999 -9999 -9999 -9999 -9999 -9999 -9999 -9999 -9999 -9999 -9999 -9999 -9999 -9999 -9999 -9999 -9999 -9999 -9999 -9999 -9999 -9999 -9999 -9999 -9999 -9999 -9999 -9999 -9999 -9999 -9999 -9999 -9999 -9999 -9999 -9999 -9999 -9999 -9999 -9999 -9999 -9999 -9999 -9999 -9999 -9999 -9999 -9999 -9999 -9999 -9999 -9999 -9999 -9999 -9999 -9999 -9999 -9999 -9999 -9999 -9999 -9999 -9999 -9999 -9999 -9999 -9999 -9999 -9999 -9999 -9999 -9999 -9999 -9999 -9999 -9999 -9999 -9999 -9999 -9999 -9999 -9999 -9999
-9999 -9999 -9999 -9999 -9999 -9999 -9999 -9999 14.5228215767635 14.8401826484018 14.8401826484018 14.8401826484018 14.8401826484018 14.8401826484018 14.8401826484018 14.8401826484018 14.8401826484018 14.8401826484018 14.8401826484018 14.8401826484018 14.8401826484018 3.6563071297989 3.6563071297989 3.6563071297989 3.6563071297989 3.6563071297989 3.6563071297989 3.6563071297989 3.6563071297989 3.6563071297989 3.6563071297989 3.6563071297989 3.6563071297989 3.6563071297989 3.6563071297989 3.6563071297989 3.6563071297989 3.6563071297989 15.4471544715447 15.4471544715447 15.4471544715447 15.4471544715447 15.4471544715447 15.4471544715447 15.4471544715447 15.4471544715447 15.4471544715447 15.4471544715447 15.4471544715447 15.4471544715447 14.7874306839187 14.7874306839187 14.7874306839187 12.5858123569794 12.5858123569794 12.5858123569794 12.5858123569794 12.5858123569794 12.5858123569794 19.4524495677233 19.4524495677233 19.4524495677233 19.4524495677233 19.4524495677233 19.4524495677233 19.4524495677233 21.8855218855219 21.8855218855219 21.8855218855219 21.8855218855219 21.8855218855219 6.94444444444444 6.94444444444444 22.5505443234837 22.5505443234837 22.5505443234837 22.5505443234837 22.5505443234837 22.5505443234837 22.5505443234837 22.5505443234837 8.25082508250825 8.25082508250825 -9999 -9999 -9999 -9999 -9999 -9999 -9999 -9999 -9999 -9999 -9999 -9999 -9999 -9999 -9999 -9999 -9999 -9999 -9999 -9999 -9999 -9999 -9999 -9999 -9999 -9999 -9999 -9999 -9999 -9999 -9999 -9999 -9999 -9999 -9999 -9999 -9999 -9999 -9999 -9999 -9999 -9999 -9999 -9999 -9999 -9999 -9999 -9999 -9999 -9999 -9999 -9999 -9999 -9999 -9999 -9999 -9999 -9999 -9999 -9999 -9999 -9999 -9999 -9999 -9999 -9999 -9999 -9999 -9999 -9999 -9999 -9999 -9999 -9999 -9999 -9999 -9999 -9999 -9999 -9999 -9999 -9999 -9999 -9999 -9999 -9999 -9999 -9999 -9999 -9999 -9999 -9999 -9999 -9999 -9999 -9999 -9999 -9999 -9999 -9999 -9999 -9999 -9999 -9999 -9999 -9999 -9999 -9999 -9999 -9999 -9999 -9999 -9999 -9999 -9999 -9999 -9999 -9999 -9999 -9999 -9999 -9999 -9999 -9999 -9999 -9999 -9999 -9999 -9999 -9999 -9999 -9999 -9999 -9999 -9999 -9999 -9999 -9999 -9999 -9999 -9999 -9999 -9999 -9999 -9999 -9999 -9999 -9999 -9999 -9999 -9999 -9999 -9999 -9999 -9999 -9999 -9999 -9999 -9999 -9999 -9999 -9999 -9999 -9999 -9999 -9999 -9999 -9999 -9999 -9999 -9999 -9999 -9999 -9999 -9999 -9999 -9999 -9999 -9999 -9999 -9999 -9999 -9999 -9999 -9999 -9999 -9999 -9999 -9999 -9999 4.52079566003617 9.04977375565611 9.04977375565611 14.9911816578483 14.9911816578483 14.9911816578483 14.9911816578483 14.9911816578483 14.9911816578483 18.3823529411765 6.65680473372781 0 3.82848392036753 3.82848392036753 7.8003120124805 7.8003120124805 8.9058524173028 0 0 0 9.71922246220302 9.71922246220302 9.71922246220302 14.3229166666667 6.93240901213172 6.93240901213172 5.62851782363977 5.62851782363977 8.41346153846154 4.34782608695652 10.5448154657294 10.5448154657294 10.5448154657294 22.8260869565217 12.4653739612188 -9999 -9999 -9999 -9999 -9999 -9999 -9999 -9999 -9999 -9999 -9999 -9999 -9999 -9999 -9999 -9999 -9999 -9999 -9999 -9999 -9999 -9999 -9999 -9999 -9999 -9999 -9999 -9999 -9999 -9999 -9999 -9999 -9999 -9999 -9999 -9999 -9999 -9999 -9999 -9999 -9999 -9999 -9999 -9999 -9999 -9999 -9999 -9999 -9999 -9999 -9999 -9999 -9999 -9999 -9999 -9999 -9999 -9999 -9999 -9999 -9999 -9999 -9999 -9999 -9999 -9999 -9999 -9999 -9999 -9999 -9999 -9999 -9999 -9999 -9999 -9999 -9999 -9999 -9999 -9999 -9999 -9999 -9999 -9999 -9999 -9999 -9999 -9999 -9999 -9999 -9999 -9999 -9999 -9999 -9999 -9999 -9999 -9999 -9999 -9999 -9999 -9999 -9999 -9999 -9999 -9999 -9999
-9999 -9999 -9999 -9999 -9999 -9999 -9999 -9999 -9999 -9999 14.5228215767635 14.8401826484018 14.8401826484018 14.8401826484018 14.8401826484018 14.8401826484018 14.8401826484018 14.8401826484018 14.8401826484018 14.8401826484018 14.8401826484018 14.8401826484018 -9999 3.6563071297989 3.6563071297989 3.6563071297989 3.6563071297989 3.6563071297989 3.6563071297989 3.6563071297989 3.6563071297989 3.6563071297989 3.6563071297989 3.6563071297989 3.6563071297989 3.6563071297989 3.6563071297989 3.6563071297989 15.4471544715447 15.4471544715447 15.4471544715447 15.4471544715447 15.4471544715447 15.4471544715447 15.4471544715447 15.4471544715447 15.4471544715447 15.4471544715447 15.4471544715447 14.7874306839187 14.7874306839187 14.7874306839187 14.7874306839187 12.5858123569794 12.5858123569794 12.5858123569794 16.1870503597122 19.4524495677233 19.4524495677233 19.4524495677233 19.4524495677233 19.4524495677233 19.4524495677233 19.4524495677233 19.4524495677233 19.4524495677233 19.4524495677233 21.8855218855219 21.8855218855219 21.8855218855219 6.94444444444444 6.94444444444444 22.5505443234837 22.5505443234837 22.5505443234837 22.5505443234837 22.5505443234837 22.5505443234837 22.5505443234837 22.5505443234837 22.5505443234837 8.25082508250825 8.25082508250825 -9999 -9999 -9999 -9999 -9999 -9999 -9999 -9999 -9999 -9999 -9999 -9999 -9999 -9999 -9999 -9999 -9999 -9999 -9999 -9999 -9999 -9999 -9999 -9999 -9999 -9999 -9999 -9999 -9999 -9999 -9999 -9999 -9999 -9999 -9999 -9999 -9999 -9999 -9999 -9999 -9999 -9999 -9999 -9999 -9999 -9999 -9999 -9999 -9999 -9999 -9999 -9999 -9999 -9999 -9999 -9999 -9999 -9999 -9999 -9999 -9999 -9999 -9999 -9999 -9999 -9999 -9999 -9999 -9999 -9999 -9999 -9999 -9999 -9999 -9999 -9999 -9999 -9999 -9999 -9999 -9999 -9999 -9999 -9999 -9999 -9999 -9999 -9999 -9999 -9999 -9999 -9999 -9999 -9999 -9999 -9999 -9999 -9999 -9999 -9999 -9999 -9999 -9999 -9999 -9999 -9999 -9999 -9999 -9999 -9999 -9999 -9999 -9999 -9999 -9999 -9999 -9999 -9999 -9999 -9999 -9999 -9999 -9999 -9999 -9999 -9999 -9999 -9999 -9999 -9999 -9999 -9999 -9999 -9999 -9999 -9999 -9999 -9999 -9999 -9999 -9999 -9999 -9999 -9999 -9999 -9999 -9999 -9999 -9999 -9999 -9999 -9999 -9999 -9999 -9999 -9999 -9999 -9999 -9999 -9999 -9999 -9999 -9999 -9999 -9999 -9999 -9999 -9999 -9999 -9999 -9999 -9999 -9999 -9999 -9999 -9999 -9999 -9999 -9999 -9999 -9999 -9999 -9999 -9999 -9999 -9999 -9999 -9999 -9999 -9999 -9999 -9999 8.37988826815642 8.37988826815642 8.37988826815642 14.9911816578483 14.9911816578483 14.9911816578483 18.3823529411765 18.3823529411765 0 0 3.82848392036753 -9999 7.8003120124805 7.8003120124805 8.9058524173028 0 0 9.71922246220302 9.71922246220302 9.71922246220302 17.3745173745174 17.3745173745174 0 0 5.62851782363977 8.41346153846154 8.41346153846154 8.41346153846154 10.5448154657294 10.5448154657294 -9999 -9999 -9999 -9999 -9999 -9999 -9999 -9999 -9999 -9999 -9999 -9999 -9999 -9999 -9999 -9999 -9999 -9999 -9999 -9999 -9999 -9999 -9999 -9999 -9999 -9999 -9999 -9999 -9999 -9999 -9999 -9999 -9999 -9999 -9999 -9999 -9999 -9999 -9999 -9999 -9999 -9999 -9999 -9999 -9999 -9999 -9999 -9999 -9999 -9999 -9999 -9999 -9999 -9999 -9999 -9999 -9999 -9999 -9999 -9999 -9999 -9999 -9999 -9999 -9999 -9999 -9999 -9999 -9999 -9999 -9999 -9999 -9999 -9999 -9999 -9999 -9999 -9999 -9999 -9999 -9999 -9999 -9999 -9999 -9999 -9999 -9999 -9999 -9999 -9999 -9999 -9999 -9999 -9999 -9999 -9999 -9999 -9999 -9999 -9999 -9999 -9999 -9999 -9999 -9999 -9999 -9999 -9999 -9999 -9999
-9999 -9999 -9999 -9999 -9999 -9999 -9999 -9999 -9999 -9999 14.5228215767635 14.5228215767635 14.8401826484018 14.8401826484018 14.8401826484018 14.8401826484018 14.8401826484018 14.8401826484018 14.8401826484018 14.8401826484018 14.8401826484018 14.8401826484018 -9999 3.6563071297989 3.6563071297989 3.6563071297989 3.6563071297989 3.6563071297989 3.6563071297989 3.6563071297989 3.6563071297989 3.6563071297989 3.6563071297989 3.6563071297989 3.6563071297989 3.6563071297989 3.6563071297989 15.4471544715447 15.4471544715447 15.4471544715447 15.4471544715447 15.4471544715447 15.4471544715447 15.4471544715447 15.4471544715447 15.4471544715447 14.7874306839187 14.7874306839187 14.7874306839187 14.7874306839187 14.7874306839187 14.7874306839187 14.7874306839187 16.1870503597122 16.1870503597122 16.1870503597122 16.1870503597122 19.4524495677233 19.4524495677233 19.4524495677233 19.4524495677233 19.4524495677233 19.4524495677233 19.4524495677233 19.4524495677233 19.4524495677233 19.4524495677233 21.8855218855219 22.5505443234837 6.94444444444444 6.94444444444444 6.94444444444444 22.5505443234837 22.5505443234837 22.5505443234837 22.5505443234837 22.5505443234837 22.5505443234837 22.5505443234837 22.5505443234837 22.5505443234837 -9999 -9999 -9999 -9999 -9999 -9999 -9999 -9999 -9999 -9999 -9999 -9999 -9999 -9999 -9999 -9999 -9999 -9999 -9999 -9999 -9999 -9999 -9999 -9999 -9999 -9999 -9999 -9999 -9999 -9999 -9999 -9999 -9999 -9999 -9999 -9999 -9999 -9999 -9999 -9999 -9999 -9999 -9999 -9999 -9999 -9999 -9999 -9999 -9999 -9999 -9999 -9999 -9999 -9999 -9999 -9999 -9999 -9999 -9999 -9999 -9999 -9999 -9999 -9999 -9999 -9999 -9999 -9999 -9999 -9999 -9999 -9999 -9999 -9999 -9999 -9999 -9999 -9999 -9999 -9999 -9999 -9999 -9999 -9999 -9999 -9999 -9999 -9999 -9999 -9999 -9999 -9999 -9999 -9999 -9999 -9999 -9999 -9999 -9999 -9999 -9999 -9999 -9999 -9999 -9999 -9999 -9999 -9999 -9999 -9999 -9999 -9999 -9999 -9999 -9999 -9999 -9999 -9999 -9999 -9999 -9999 -9999 -9999 -9999 -9999 -9999 -9999 -9999 -9999 -9999 -9999 -9999 -9999 -9999 -9999 -9999 -9999 -9999 -9999 -9999 -9999 -9999 -9999 -9999 -9999 -9999 -9999 -9999 -9999 -9999 -9999 -9999 -9999 -9999 -9999 -9999 -9999 -9999 -9999 -9999 -9999 -9999 -9999 -9999 -9999 -9999 -9999 -9999 -9999 -9999 -9999 -9999 -9999 -9999 -9999 -9999 -9999 -9999 -9999 -9999 -9999 -9999 -9999 -9999 -9999 -9999 -9999 -9999 -9999 -9999 -9999 -9999 -9999 -9999 -9999 -9999 8.37988826815642 8.37988826815642 8.37988826815642 8.37988826815642 18.3823529411765 18.3823529411765 8.37988826815642 8.37988826815642 8.37988826815642 7.8003120124805 7.8003120124805 7.8003120124805 8.9058524173028 8.9058524173028 8.9058524173028 8.9058524173028 8.9058524173028 17.3745173745174 17.3745173745174 17.3745173745174 0 10.5448154657294 10.5448154657294 10.5448154657294 10.5448154657294 10.5448154657294 -9999 -9999 -9999 -9999 -9999 -9999 -9999 -9999 -9999 -9999 -9999 -9999 -9999 -9999 -9999 -9999 -9999 -9999 -9999 -9999 -9999 -9999 -9999 -9999 -9999 -9999 -9999 -9999 -9999 -9999 -9999 -9999 -9999 -9999 -9999 -9999 -9999 -9999 -9999 -9999 -9999 -9999 -9999 -9999 -9999 -9999 -9999 -9999 -9999 -9999 -9999 -9999 -9999 -9999 -9999 -9999 -9999 -9999 -9999 -9999 -9999 -9999 -9999 -9999 -9999 -9999 -9999 -9999 -9999 -9999 -9999 -9999 -9999 -9999 -9999 -9999 -9999 -9999 -9999 -9999 -9999 -9999 -9999 -9999 -9999 -9999 -9999 -9999 -9999 -9999 -9999 -9999 -9999 -9999 -9999 -9999 -9999 -9999 -9999 -9999 -9999 -9999 -9999 -9999 -9999 -9999 -9999 -9999 -9999 -9999 -9999 -9999
-9999 -9999 -9999 -9999 -9999 -9999 -9999 -9999 -9999 14.5228215767635 14.5228215767635 14.5228215767635 14.5228215767635 14.5228215767635 14.8401826484018 14.8401826484018 14.8401826484018 14.8401826484018 14.8401826484018 14.8401826484018 14.8401826484018 14.8401826484018 -9999 -9999 3.6563071297989 3.6563071297989 3.6563071297989 3.6563071297989 3.6563071297989 3.6563071297989 3.6563071297989 3.6563071297989 3.6563071297989 3.6563071297989 3.6563071297989 3.6563071297989 3.6563071297989 15.4471544715447 15.4471544715447 15.4471544715447 15.4471544715447 15.4471544715447 15.4471544715447 15.4471544715447 14.7874306839187 14.7874306839187 14.7874306839187 14.7874306839187 14.7874306839187 14.7874306839187 16.1870503597122 16.1870503597122 16.1870503597122 16.1870503597122 16.1870503597122 16.1870503597122 16.1870503597122 16.1870503597122 19.4524495677233 19.4524495677233 19.4524495677233 19.4524495677233 19.4524495677233 19.4524495677233 19.4524495677233 19.4524495677233 19.4524495677233 22.5505443234837 22.5505443234837 22.5505443234837 22.5505443234837 22.5505443234837 -9999 22.5505443234837 22.5505443234837 22.5505443234837 -9999 -9999 -9999 22.5505443234837 22.5505443234837 -9999 -9999 -9999 -9999 -9999 -9999 -9999 -9999 -9999 -9999 -9999 -9999 -9999 -9999 -9999 -9999 -9999 -9999 -9999 -9999 -9999 -9999 -9999 -9999 -9999 -9999 -9999 -9999 -9999 -9999 -9999 -9999 -9999 -9999 -9999 -9999 -9999 -9999 -9999 -9999 -9999 -9999 -9999 -9999 -9999 -9999 -9999 -9999 -9999 -9999 -9999 -9999 -9999 -9999 -9999 -9999 -9999 -9999 -9999 -9999 -9999 -9999 -9999 -9999 -9999 -9999 -9999 -9999 -9999 -9999 -9999 -9999 -9999 -9999 -9999 -9999 -9999 -9999 -9999 -9999 -9999 -9999 -9999 -9999 -9999 -9999 -9999 -9999 -9999 -9999 -9999 -9999 -9999 -9999 -9999 -9999 -9999 -9999 -9999 -9999 -9999 -9999 -9999 -9999 -9999 -9999 -9999 -9999 -9999 -9999 -9999 -9999 -9999 -9999 -9999 -9999 -9999 -9999 -9999 -9999 -9999 -9999 -9999 -9999 -9999 -9999 -9999 -9999 -9999 -9999 -9999 -9999 -9999 -9999 -9999 -9999 -9999 -9999 -9999 -9999 -9999 -9999 -9999 -9999 -9999 -9999 -9999 -9999 -9999 -9999 -9999 -9999 -9999 -9999 -9999 -9999 -9999 -9999 -9999 -9999 -9999 -9999 -9999 -9999 -9999 -9999 -9999 -9999 -9999 -9999 -9999 -9999 -9999 -9999 -9999 -9999 -9999 -9999 -9999 -9999 -9999 -9999 -9999 -9999 -9999 -9999 -9999 -9999 -9999 -9999 -9999 -9999 -9999 -9999 -9999 -9999 -9999 -9999 -9999 -9999 -9999 -9999 -9999 -9999 -9999 8.9058524173028 8.9058524173028 -9999 -9999 -9999 -9999 -9999 -9999 -9999 -9999 -9999 -9999 -9999 -9999 -9999 -9999 -9999 -9999 -9999 -9999 -9999 -9999 -9999 -9999 -9999 -9999 -9999 -9999 -9999 -9999 12.4653739612188 12.4653739612188 12.4653739612188 12.4653739612188 -9999 -9999 -9999 -9999 -9999 -9999 -9999 -9999 -9999 -9999 -9999 -9999 -9999 -9999 -9999 -9999 -9999 -9999 -9999 -9999 -9999 -9999 -9999 -9999 -9999 -9999 -9999 -9999 -9999 -9999 -9999 -9999 -9999 -9999 -9999 -9999 -9999 -9999 -9999 -9999 -9999 -9999 -9999 -9999 -9999 -9999 -9999 -9999 -9999 -9999 -9999 -9999 -9999 -9999 -9999 -9999 -9999 -9999 -9999 -9999 -9999 -9999 -9999 -9999 -9999 -9999 -9999 -9999 -9999 -9999 -9999 -9999 -9999 -9999 -9999 -9999 -9999 -9999 -9999 -9999 -9999 -9999 -9999 -9999 -9999 -9999 -9999 -9999 -9999 -9999 -9999 -9999 -9999 -9999 -9999
-9999 -9999 -9999 -9999 -9999 -9999 -9999 -9999 -9999 -9999 14.5228215767635 14.5228215767635 14.5228215767635 14.5228215767635 14.5228215767635 14.5228215767635 14.8401826484018 14.8401826484018 14.8401826484018 14.8401826484018 14.8401826484018 14.8401826484018 -9999 -9999 3.6563071297989 3.6563071297989 3.6563071297989 3.6563071297989 3.6563071297989 3.6563071297989 3.6563071297989 3.6563071297989 3.6563071297989 3.6563071297989 3.6563071297989 3.6563071297989 3.6563071297989 15.4471544715447 15.4471544715447 15.4471544715447 11.5163147792706 11.5163147792706 11.5163147792706 14.7874306839187 14.7874306839187 14.7874306839187 14.7874306839187 14.7874306839187 14.7874306839187 14.7874306839187 16.1870503597122 16.1870503597122 16.1870503597122 16.1870503597122 16.1870503597122 16.1870503597122 16.1870503597122 16.1870503597122 19.4524495677233 19.4524495677233 19.4524495677233 19.4524495677233 19.4524495677233 19.4524495677233 13.3744855967078 13.3744855967078 13.3744855967078 -9999 -9999 -9999 -9999 -9999 -9999 -9999 -9999 -9999 -9999 -9999 -9999 -9999 -9999 -9999 -9999 -9999 -9999 -9999 -9999 -9999 -9999 -9999 -9999 -9999 -9999 -9999 -9999 -9999 -9999 -9999 -9999 -9999 -9999 -9999 -9999 -9999 -9999 -9999 -9999 -9999 -9999 -9999 -9999 -9999 -9999 -9999 -9999 -9999 -9999 -9999 -9999 -9999 -9999 -9999 -9999 -9999 -9999 -9999 -9999 -9999 -9999 -9999 -9999 -9999 -9999 -9999 -9999 -9999 -9999 -9999 -9999 -9999 -9999 -9999 -9999 -9999 -9999 -9999 -9999 -9999 -9999 -9999 -9999 -9999 -9999 -9999 -9999 -9999 -9999 -9999 -9999 -9999 -9999 -9999 -9999 -9999 -9999 -9999 -9999 -9999 -9999 -9999 -9999 -9999 -9999 -9999 -9999 -9999 -9999 -9999 -9999 -9999 -9999 -9999 -9999 -9999 -9999 -9999 -9999 -9999 -9999 -9999 -9999 -9999 -9999 -9999 -9999 -9999 -9999 -9999 -9999 -9999 -9999 -9999 -9999 -9999 -9999 -9999 -9999 -9999 -9999 -9999 -9999 -9999 -9999 -9999 -9999 -9999 -9999 -9999 -9999 -9999 -9999 -9999 -9999 -9999 -9999 -9999 -9999 -9999 -9999 -9999 -9999 -9999 -9999 -9999 -9999 -9999 -9999 -9999 -9999 -9999 -9999 -9999 -9999 -9999 -9999 -9999 -9999 -9999 -9999 -9999 -9999 -9999 -9999 -9999 -9999 -9999 -9999 -9999 -9999 -9999 -9999 -9999 -9999 -9999 -9999 -9999 -9999 -9999 -9999 -9999 -9999 -9999 -9999 -9999 -9999 -9999 -9999 -9999 -9999 -9999 -9999 -9999 -9999 -9999 -9999 -9999 -9999 -9999 -9999 -9999 -9999 -9999 -9999 -9999 -9999 -9999 -9999 -9999 -9999 -9999 -9999 -9999 -9999 -9999 -9999 -9999 -9999 -9999 -9999 -9999 -9999 -9999 -9999 -9999 -9999 -9999 -9999 12.4653739612188 -9999 -9999 -9999 -9999 -9999 -9999 -9999 -9999 -9999 -9999 -9999 -9999 -9999 -9999 -9999 -9999 -9999 -9999 -9999 -9999 -9999 -9999 -9999 -9999 -9999 -9999 -9999 -9999 -9999 -9999 -9999 -9999 -9999 -9999 -9999 -9999 -9999 -9999 -9999 -9999 -9999 -9999 -9999 -9999 -9999 -9999 -9999 -9999 -9999 -9999 -9999 -9999 -9999 -9999 -9999 -9999 -9999 -9999 -9999 -9999 -9999 -9999 -9999 -9999 -9999 -9999 -9999 -9999 -9999 -9999 -9999 -9999 -9999 -9999 -9999 -9999 -9999 -9999 -9999 -9999 -9999 -9999 -9999 -9999 -9999 -9999 -9999 -9999 -9999 -9999 -9999 -9999 -9999 -9999 -9999 -9999 -9999
-9999 -9999 -9999 -9999 -9999 -9999 -9999 -9999 -9999 -9999 -9999 -9999 14.5228215767635 14.5228215767635 14.5228215767635 14.5228215767635 14.5228215767635 14.8401826484018 14.8401826484018 14.8401826484018 14.8401826484018 14.8401826484018 -9999 -9999 3.6563071297989 3.6563071297989 3.6563071297989 3.6563071297989 3.6563071297989 3.6563071297989 3.6563071297989 3.6563071297989 3.6563071297989 3.6563071297989 3.6563071297989 3.6563071297989 3.6563071297989 15.4471544715447 15.4471544715447 11.5163147792706 11.5163147792706 11.5163147792706 11.5163147792706 14.7874306839187 14.7874306839187 14.7874306839187 14.7874306839187 14.7874306839187 14.7874306839187 14.7874306839187 16.1870503597122 16.1870503597122 16.1870503597122 16.1870503597122 16.1870503597122 16.1870503597122 16.1870503597122 16.1870503597122 13.3744855967078 13.3744855967078 13.3744855967078 13.3744855967078 13.3744855967078 13.3744855967078 13.3744855967078 -9999 -9999 -9999 -9999 -9999 -9999 -9999 -9999 -9999 -9999 -9999 -9999 -9999 -9999 -9999 -9999 -9999 -9999 -9999 -9999 -9999 -9999 -9999 -9999 -9999 -9999 -9999 -9999 -9999 -9999 -9999 -9999 -9999 -9999 -9999 -9999 -9999 -9999 -9999 -9999 -9999 -9999 -9999 -9999 -9999 -9999 -9999 -9999 -9999 -9999 -9999 -9999 -9999 -9999 -9999 -9999 -9999 -9999 -9999 -9999 -9999 -9999 -9999 -9999 -9999 -9999 -9999 -9999 -9999 -9999 -9999 -9999 -9999 -9999 -9999 -9999 -9999 -9999 -9999 -9999 -9999 -9999 -9999 -9999 -9999 -9999 -9999 -9999 -9999 -9999 -9999 -9999 -9999 -9999 -9999 -9999 -9999 -9999 -9999 -9999 -9999 -9999 -9999 -9999 -9999 -9999 -9999 -9999 -9999 -9999 -9999 -9999 -9999 -9999 -9999 -9999 -9999 -9999 -9999 -9999 -9999 -9999 -9999 -9999 -9999 -9999 -9999 -9999 -9999 -9999 -9999 -9999 -9999 -9999 -9999 -9999 -9999 -9999 -9999 -9999 -9999 -9999 -9999 -9999 -9999 -9999 -9999 -9999 -9999 -9999 -9999 -9999 -9999 -9999 -9999 -9999 -9999 -9999 -9999 -9999 -9999 -9999 -9999 -9999 -9999 -9999 -9999 -9999 -9999 -9999 -9999 -9999 -9999 -9999 -9999 -9999 -9999 -9999 -9999 -9999 -9999 -9999 -9999 -9999 -9999 -9999 -9999 -9999 -9999 -9999 -9999 -9999 -9999 -9999 -9999 -9999 -9999 -9999 -9999 -9999 -9999 -9999 -9999 -9999 -9999 -9999 -9999 -9999 -9999 -9999 -9999 -9999 -9999 -9999 -9999 -9999 -9999 -9999 -9999 -9999 -9999 -9999 -9999 -9999 -9999 -9999 -9999 -9999 -9999 -9999 -9999 -9999 -9999 -9999 -9999 -9999 -9999 -9999 -9999 -9999 -9999 -9999 -9999 -9999 -9999 -9999 -9999 -9999 -9999 -9999 -9999 -9999 -9999 -9999 -9999 -9999 -9999 -9999 -9999 -9999 -9999 -9999 -9999 -9999 -9999 -9999 -9999 -9999 -9999 -9999 -9999 -9999 -9999 -9999 -9999 -9999 -9999 -9999 -9999 -9999 -9999 -9999 -9999 -9999 -9999 -9999 -9999 -9999 -9999 -9999 -9999 -9999 -9999 -9999 -9999 -9999 -9999 -9999 -9999 -9999 -9999 -9999 -9999 -9999 -9999 -9999 -9999 -9999 -9999 -9999 -9999 -9999 -9999 -9999 -9999 -9999 -9999 -9999 -9999 -9999 -9999 -9999 -9999 -9999 -9999 -9999 -9999 -9999 -9999 -9999 -9999 -9999 -9999 -9999 -9999 -9999 -9999 -9999 -9999 -9999 -9999 -9999 -9999 -9999 -9999 -9999 -9999 -9999 -9999 -9999
-9999 -9999 -9999 -9999 -9999 -9999 -9999 -9999 -9999 -9999 -9999 -9999 -9999 14.5228215767635 14.5228215767635 14.5228215767635 14.8401826484018 14.8401826484018 14.8401826484018 14.8401826484018 7.62829403606103 -9999 -9999 -9999 -9999 3.6563071297989 3.6563071297989 3.6563071297989 3.6563071297989 3.6563071297989 3.6563071297989 3.6563071297989 3.6563071297989 3.6563071297989 3.6563071297989 3.6563071297989 3.6563071297989 15.4471544715447 15.4471544715447 11.5163147792706 11.5163147792706 11.5163147792706 11.5163147792706 11.5163147792706 11.5163147792706 11.5163147792706 14.7874306839187 14.7874306839187 14.7874306839187 14.7874306839187 16.1870503597122 16.1870503597122 16.1870503597122 16.1870503597122 16.1870503597122 16.1870503597122 13.3744855967078 -9999 -9999 -9999 -9999 -9999 -9999 -9999 -9999 -9999 -9999 -9999 -9999 -9999 -9999 -9999 -9999 -9999 -9999 -9999 -9999 -9999 -9999 -9999 -9999 -9999 -9999 -9999 -9999 -9999 -9999 -9999 -9999 -9999 -9999 -9999 -9999 -9999 -9999 -9999 -9999 -9999 -9999 -9999 -9999 -9999 -9999 -9999 -9999 -9999 -9999 -9999 -9999 -9999 -9999 -9999 -9999 -9999 -9999 -9999 -9999 -9999 -9999 -9999 -9999 -9999 -9999 -9999 -9999 -9999 -9999 -9999 -9999 -9999 -9999 -9999 -9999 -9999 -9999 -9999 -9999 -9999 -9999 -9999 -9999 -9999 -9999 -9999 -9999 -9999 -9999 -9999 -9999 -9999 -9999 -9999 -9999 -9999 -9999 -9999 -9999 -9999 -9999 -9999 -9999 -9999 -9999 -9999 -9999 -9999 -9999 -9999 -9999 -9999 -9999 -9999 -9999 -9999 -9999 -9999 -9999 -9999 -9999 -9999 -9999 -9999 -9999 -9999 -9999 -9999 -9999 -9999 -9999 -9999 -9999 -9999 -9999 -9999 -9999 -9999 -9999 -9999 -9999 -9999 -9999 -9999 -9999 -9999 -9999 -9999 -9999 -9999 -9999 -9999 -9999 -9999 -9999 -9999 -9999 -9999 -9999 -9999 -9999 -9999 -9999 -9999 -9999 -9999 -9999 -9999 -9999 -9999 -9999 -9999 -9999 -9999 -9999 -9999 -9999 -9999 -9999 -9999 -9999 -9999 -9999 -9999 -9999 -9999 -9999 -9999 -9999 -9999 -9999 -9999 -9999 -9999 -9999 -9999 -9999 -9999 -9999 -9999 -9999 -9999 -9999 -9999 -9999 -9999 -9999 -9999 -9999 -9999 -9999 -9999 -9999 -9999 -9999 -9999 -9999 -9999 -9999 -9999 -9999 -9999 -9999 -9999 -9999 -9999 -9999 -9999 -9999 -9999 -9999 -9999 -9999 -9999 -9999 -9999 -9999 -9999 -9999 -9999 -9999 -9999 -9999 -9999 -9999 -9999 -9999 -9999 -9999 -9999 -9999 -9999 -9999 -9999 -9999 -9999 -9999 -9999 -9999 -9999 -9999 -9999 -9999 -9999 -9999 -9999 -9999 -9999 -9999 -9999 -9999 -9999 -9999 -9999 -9999 -9999 -9999 -9999 -9999 -9999 -9999 -9999 -9999 -9999 -9999 -9999 -9999 -9999 -9999 -9999 -9999 -9999 -9999 -9999 -9999 -9999 -9999 -9999 -9999 -9999 -9999 -9999 -9999 -9999 -9999 -9999 -9999 -9999 -9999 -9999 -9999 -9999 -9999 -9999 -9999 -9999 -9999 -9999 -9999 -9999 -9999 -9999 -9999 -9999 -9999 -9999 -9999 -9999 -9999 -9999 -9999 -9999 -9999 -9999 -9999 -9999 -9999 -9999 -9999 -9999 -9999 -9999 -9999 -9999 -9999 -9999 -9999 -9999 -9999 -9999 -9999 -9999 -9999 -9999 -9999 -9999 -9999
-9999 -9999 -9999 -9999 -9999 -9999 -9999 -9999 -9999 -9999 -9999 -9999 -9999 -9999 14.5228215767635 14.5228215767635 14.8401826484018 14.8401826484018 14.8401826484018 7.62829403606103 7.62829403606103 -9999 -9999 -9999 -9999 3.6563071297989 3.6563071297989 3.6563071297989 3.6563071297989 3.6563071297989 3.6563071297989 3.6563071297989 3.6563071297989 3.6563071297989 3.6563071297989 3.6563071297989 15.4471544715447 15.4471544715447 15.4471544715447 11.5163147792706 11.5163147792706 11.5163147792706 11.5163147792706 11.5163147792706 11.5163147792706 13.3744855967078 13.3744855967078 13.3744855967078 13.3744855967078 13.3744855967078 16.1870503597122 16.1870503597122 16.1870503597122 13.3744855967078 -9999 -9999 -9999 -9999 -9999 -9999 -9999 -9999 -9999 -9999 -9999 -9999 -9999 -9999 -9999 -9999 -9999 -9999 -9999 -9999 -9999 -9999 -9999 -9999 -9999 -9999 -9999 -9999 -9999 -9999 -9999 -9999 -9999 -9999 -9999 -9999 -9999 -9999 -9999 -9999 -9999 -9999 -9999 -9999 -9999 -9999 -9999 -9999 -9999 -9999 -9999 -9999 -9999 -9999 -9999 -9999 -9999 -9999 -9999 -9999 -9999 -9999 -9999 -9999 -9999 -9999 -9999 -9999 -9999 -9999 -9999 -9999 -9999 -9999 -9999 -9999 -9999 -9999 -9999 -9999 -9999 -9999 -9999 -9999 -9999 -9999 -9999 -9999 -9999 -9999 -9999 -9999 -9999 -9999 -9999 -9999 -9999 -9999 -9999 -9999 -9999 -9999 -9999 -9999 -9999 -9999 -9999 -9999 -9999 -9999 -9999 -9999 -9999 -9999 -9999 -9999 -9999 -9999 -9999 -9999 -9999 -9999 -9999 -9999 -9999 -9999 -9999 -9999 -9999 -9999 -9999 -9999 -9999 -9999 -9999 -9999 -9999 -9999 -9999 -9999 -9999 -9999 -9999 -9999 -9999 -9999 -9999 -9999 -9999 -9999 -9999 -9999 -9999 -9999 -9999 -9999 -9999 -9999 -9999 -9999 -9999 -9999 -9999 -9999 -9999 -9999 -9999 -9999 -9999 -9999 -9999 -9999 -9999 -9999 -9999 -9999 -9999 -9999 -9999 -9999 -9999 -9999 -9999 -9999 -9999 -9999 -9999 -9999 -9999 -9999 -9999 -9999 -9999 -9999 -9999 -9999 -9999 -9999 -9999 -9999 -9999 -9999 -9999 -9999 -9999 -9999 -9999 -9999 -9999 -9999 -9999 -9999 -9999 -9999 -9999 -9999 -9999 -9999 -9999 -9999 -9999 -9999 -9999 -9999 -9999 -9999 -9999 -9999 -9999 -9999 -9999 -9999 -9999 -9999 -9999 -9999 -9999 -9999 -9999 -9999 -9999 -9999 -9999 -9999 -9999 -9999 -9999 -9999 -9999 -9999 -9999 -9999 -9999 -9999 -9999 -9999 -9999 -9999 -9999 -9999 -9999 -9999 -9999 -9999 -9999 -9999 -9999 -9999 -9999 -9999 -9999 -9999 -9999 -9999 -9999 -9999 -9999 -9999 -9999 -9999 -9999 -9999 -9999 -9999 -9999 -9999 -9999 -9999 -9999 -9999 -9999 -9999 -9999 -9999 -9999 -9999 -9999 -9999 -9999 -9999 -9999 -9999 -9999 -9999 -9999 -9999 -9999 -9999 -9999 -9999 -9999 -9999 -9999 -9999 -9999 -9999 -9999 -9999 -9999 -9999 -9999 -9999 -9999 -9999 -9999 -9999 -9999 -9999 -9999 -9999 -9999 -9999 -9999 -9999 -9999 -9999 -9999 -9999 -9999 -9999 -9999 -9999 -9999 -9999 -9999 -9999 -9999 -9999 -9999 -9999 -9999 -9999 -9999 -9999 -9999 -9999 -9999 -9999 -9999 -9999 -9999
-9999 -9999 -9999 -9999 -9999 -9999 -9999 -9999 -9999 -9999 -9999 -9999 -9999 -9999 -9999 7.62829403606103 7.62829403606103 14.8401826484018 14.8401826484018 7.62829403606103 7.62829403606103 -9999 -9999 -9999 9.41619585687382 9.41619585687382 3.6563071297989 3.6563071297989 3.6563071297989 3.6563071297989 3.6563071297989 3.6563071297989 3.6563071297989 3.6563071297989 3.6563071297989 3.6563071297989 15.4471544715447 15.4471544715447 11.5163147792706 11.5163147792706 11.5163147792706 11.5163147792706 11.5163147792706 13.3744855967078 13.3744855967078 13.3744855967078 13.3744855967078 13.3744855967078 13.3744855967078 13.3744855967078 16.1870503597122 -9999 -9999 -9999 -9999 -9999 -9999 -9999 -9999 -9999 -9999 -9999 -9999 -9999 -9999 -9999 -9999 -9999 -9999 -9999 -9999 -9999 -9999 -9999 -9999 -9999 -9999 -9999 -9999 -9999 -9999 -9999 -9999 -9999 -9999 -9999 -9999 -9999 -9999 -9999 -9999 -9999 -9999 -9999 -9999 -9999 -9999 -9999 -9999 -9999 -9999 -9999 -9999 -9999 -9999 -9999 -9999 -9999 -9999 -9999 -9999 -9999 -9999 -9999 -9999 -9999 -9999 -9999 -9999 -9999 -9999 -9999 -9999 -9999 -9999 -9999 -9999 -9999 -9999 -9999 -9999 -9999 -9999 -9999 -9999 -9999 -9999 -9999 -9999 -9999 -9999 -9999 -9999 -9999 -9999 -9999 -9999 -9999 -9999 -9999 -9999 -9999 -9999 -9999 -9999 -9999 -9999 -9999 -9999 -9999 -9999 -9999 -9999 -9999 -9999 -9999 -9999 -9999 -9999 -9999 -9999 -9999 -9999 -9999 -9999 -9999 -9999 -9999 -9999 -9999 -9999 -9999 -9999 -9999 -9999 -9999 -9999 -9999 -9999 -9999 -9999 -9999 -9999 -9999 -9999 -9999 -9999 -9999 -9999 -9999 -9999 -9999 -9999 -9999 -9999 -9999 -9999 -9999 -9999 -9999 -9999 -9999 -9999 -9999 -9999 -9999 -9999 -9999 -9999 -9999 -9999 -9999 -9999 -9999 -9999 -9999 -9999 -9999 -9999 -9999 -9999 -9999 -9999 -9999 -9999 -9999 -9999 -9999 -9999 -9999 -9999 -9999 -9999 -9999 -9999 -9999 -9999 -9999 -9999 -9999 -9999 -9999 -9999 -9999 -9999 -9999 -9999 -9999 -9999 -9999 -9999 -9999 -9999 -9999 -9999 -9999 -9999 -9999 -9999 -9999 -9999 -9999 -9999 -9999 -9999 -9999 -9999 -9999 -9999 -9999 -9999 -9999 -9999 -9999 -9999 -9999 -9999 -9999 -9999 -9999 -9999 -9999 -9999 -9999 -9999 -9999 -9999 -9999 -9999 -9999 -9999 -9999 -9999 -9999 -9999 -9999 -9999 -9999 -9999 -9999 -9999 -9999 -9999 -9999 -9999 -9999 -9999 -9999 -9999 -9999 -9999 -9999 -9999 -9999 -9999 -9999 -9999 -9999 -9999 -9999 -9999 -9999 -9999 -9999 -9999 -9999 -9999 -9999 -9999 -9999 -9999 -9999 -9999 -9999 -9999 -9999 -9999 -9999 -9999 -9999 -9999 -9999 -9999 -9999 -9999 -9999 -9999 -9999 -9999 -9999 -9999 -9999 -9999 -9999 -9999 -9999 -9999 -9999 -9999 -9999 -9999 -9999 -9999 -9999 -9999 -9999 -9999 -9999 -9999 -9999 -9999 -9999 -9999 -9999 -9999 -9999 -9999 -9999 -9999 -9999 -9999 -9999 -9999 -9999 -9999 -9999 -9999 -9999 -9999 -9999 -9999 -9999 -9999 -9999 -9999 -9999 -9999 -9999 -9999 -9999 -9999 -9999 -9999 -9999 -9999
-9999 -9999 -9999 -9999 -9999 -9999 -9999 -9999 -9999 -9999 -9999 -9999 -9999 -9999 -9999 -9999 7.62829403606103 7.62829403606103 7.62829403606103 7.62829403606103 7.62829403606103 9.41619585687382 9.41619585687382 9.41619585687382 4.73484848484848 4.73484848484848 3.6563071297989 3.6563071297989 3.6563071297989 3.6563071297989 3.6563071297989 3.6563071297989 3.6563071297989 3.6563071297989 3.6563071297989 3.6563071297989 15.4471544715447 15.4471544715447 11.5163147792706 11.5163147792706 13.3744855967078 13.3744855967078 13.3744855967078 13.3744855967078 13.3744855967078 13.3744855967078 13.3744855967078 13.3744855967078 -9999 13.3744855967078 -9999 -9999 -9999 -9999 -9999 -9999 -9999 -9999 -9999 -9999 -9999 -9999 -9999 -9999 -9999 -9999 -9999 -9999 -9999 -9999 -9999 -9999 -9999 -9999 -9999 -9999 -9999 -9999 -9999 -9999 -9999 -9999 -9999 -9999 -9999 -9999 -9999 -9999 -9999 -9999 -9999 -9999 -9999 -9999 -9999 -9999 -9999 -9999 -9999 -9999 -9999 -9999 -9999 -9999 -9999 -9999 -9999 -9999 -9999 -9999 -9999 -9999 -9999 -9999 -9999 -9999 -9999 -9999 -9999 -9999 -9999 -9999 -9999 -9999 -9999 -9999 -9999 -9999 -9999 -9999 -9999 -9999 -9999 -9999 -9999 -9999 -9999 -9999 -9999 -9999 -9999 -9999 -9999 -9999 -9999 -9999 -9999 -9999 -9999 -9999 -9999 -9999 -9999 -9999 -9999 -9999 -9999 -9999 -9999 -9999 -9999 -9999 -9999 -9999 -9999 -9999 -9999 -9999 -9999 -9999 -9999 -9999 -9999 -9999 -9999 -9999 -9999 -9999 -9999 -9999 -9999 -9999 -9999 -9999 -9999 -9999 -9999 -9999 -9999 -9999 -9999 -9999 -9999 -9999 -9999 -9999 -9999 -9999 -9999 -9999 -9999 -9999 -9999 -9999 -9999 -9999 -9999 -9999 -9999 -9999 -9999 -9999 -9999 -9999 -9999 -9999 -9999 -9999 -9999 -9999 -9999 -9999 -9999 -9999 -9999 -9999 -9999 -9999 -9999 -9999 -9999 -9999 -9999 -9999 -9999 -9999 -9999 -9999 -9999 -9999 -9999 -9999 -9999 -9999 -9999 -9999 -9999 -9999 -9999 -9999 -9999 -9999 -9999 -9999 -9999 -9999 -9999 -9999 -9999 -9999 -9999 -9999 -9999 -9999 -9999 -9999 -9999 -9999 -9999 -9999 -9999 -9999 -9999 -9999 -9999 -9999 -9999 -9999 -9999 -9999 -9999 -9999 -9999 -9999 -9999 -9999 -9999 -9999 -9999 -9999 -9999 -9999 -9999 -9999 -9999 -9999 -9999 -9999 -9999 -9999 -9999 -9999 -9999 -9999 -9999 -9999 -9999 -9999 -9999 -9999 -9999 -9999 -9999 -9999 -9999 -9999 -9999 -9999 -9999 -9999 -9999 -9999 -9999 -9999 -9999 -9999 -9999 -9999 -9999 -9999 -9999 -9999 -9999 -9999 -9999 -9999 -9999 -9999 -9999 -9999 -9999 -9999 -9999 -9999 -9999 -9999 -9999 -9999 -9999 -9999 -9999 -9999 -9999 -9999 -9999 -9999 -9999 -9999 -9999 -9999 -9999 -9999 -9999 -9999 -9999 -9999 -9999 -9999 -9999 -9999 -9999 -9999 -9999 -9999 -9999 -9999 -9999 -9999 -9999 -9999 -9999 -9999 -9999 -9999 -9999 -9999 -9999 -9999 -9999 -9999 -9999 -9999 -9999 -9999 -9999 -9999 -9999 -9999 -9999 -9999 -9999 -9999 -9999 -9999 -9999 -9999 -9999 -9999 -9999 -9999 -9999 -9999 -9999 -9999 -9999
-9999 -9999 -9999 -9999 -9999 -9999 -9999 -9999 -9999 -9999 -9999 -9999 -9999 -9999 -9999 -9999 7.62829403606103 7.62829403606103 7.62829403606103 7.62829403606103 7.77604976671851 9.41619585687382 9.41619585687382 9.41619585687382 4.73484848484848 4.73484848484848 4.73484848484848 3.6563071297989 3.6563071297989 3.6563071297989 3.6563071297989 3.6563071297989 3.6563071297989 3.6563071297989 3.6563071297989 3.6563071297989 15.4471544715447 11.5163147792706 11.5163147792706 11.5163147792706 13.3744855967078 13.3744855967078 13.3744855967078 13.3744855967078 13.3744855967078 13.3744855967078 13.3744855967078 -9999 -9999 -9999 -9999 -9999 -9999 -9999 -9999 -9999 -9999 -9999 -9999 -9999 -9999 -9999 -9999 -9999 -9999 -9999 -9999 -9999 -9999 -9999 -9999 -9999 -9999 -9999 -9999 -9999 -9999 -9999 -9999 -9999 -9999 -9999 -9999 -9999 -9999 -9999 -9999 -9999 -9999 -9999 -9999 -9999 -9999 -9999 -9999 -9999 -9999 -9999 -9999 -9999 -9999 -9999 -9999 -9999 -9999 -9999 -9999 -9999 -9999 -9999 -9999 -9999 -9999 -9999 -9999 -9999 -9999 -9999 -9999 -9999 -9999 -9999 -9999 -9999 -9999 -9999 -9999 -9999 -9999 -9999 -9999 -9999 -9999 -9999 -9999 -9999 -9999 -9999 -9999 -9999 -9999 -9999 -9999 -9999 -9999 -9999 -9999 -9999 -9999 -9999 -9999 -9999 -9999 -9999 -9999 -9999 -9999 -9999 -9999 -9999 -9999 -9999 -9999 -9999 -9999 -9999 -9999 -9999 -9999 -9999 -9999 -9999 -9999 -9999 -9999 -9999 -9999 -9999 -9999 -9999 -9999 -9999 -9999 -9999 -9999 -9999 -9999 -9999 -9999 -9999 -9999 -9999 -9999 -9999 -9999 -9999 -9999 -9999 -9999 -9999 -9999 -9999 -9999 -9999 -9999 -9999 -9999 -9999 -9999 -9999 -9999 -9999 -9999 -9999 -9999 -9999 -9999 -9999 -9999 -9999 -9999 -9999 -9999 -9999 -9999 -9999 -9999 -9999 -9999 -9999 -9999 -9999 -9999 -9999 -9999 -9999 -9999 -9999 -9999 -9999 -9999 -9999 -9999 -9999 -9999 -9999 -9999 -9999 -9999 -9999 -9999 -9999 -9999 -9999 -9999 -9999 -9999 -9999 -9999 -9999 -9999 -9999 -9999 -9999 -9999 -9999 -9999 -9999 -9999 -9999 -9999 -9999 -9999 -9999 -9999 -9999 -9999 -9999 -9999 -9999 -9999 -9999 -9999 -9999 -9999 -9999 -9999 -9999 -9999 -9999 -9999 -9999 -9999 -9999 -9999 -9999 -9999 -9999 -9999 -9999 -9999 -9999 -9999 -9999 -9999 -9999 -9999 -9999 -9999 -9999 -9999 -9999 -9999 -9999 -9999 -9999 -9999 -9999 -9999 -9999 -9999 -9999 -9999 -9999 -9999 -9999 -9999 -9999 -9999 -9999 -9999 -9999 -9999 -9999 -9999 -9999 -9999 -9999 -9999 -9999 -9999 -9999 -9999 -9999 -9999 -9999 -9999 -9999 -9999 -9999 -9999 -9999 -9999 -9999 -9999 -9999 -9999 -9999 -9999 -9999 -9999 -9999 -9999 -9999 -9999 -9999 -9999 -9999 -9999 -9999 -9999 -9999 -9999 -9999 -9999 -9999 -9999 -9999 -9999 -9999 -9999 -9999 -9999 -9999 -9999 -9999 -9999 -9999 -9999 -9999 -9999 -9999 -9999 -9999 -9999 -9999 -9999 -9999 -9999 -9999 -9999 -9999 -9999 -9999 -9999 -9999 -9999 -9999 -9999 -9999 -9999 -9999 -9999 -9999 -9999
-9999 -9999 -9999 -9999 -9999 -9999 -9999 -9999 -9999 -9999 -9999 -9999 -9999 -9999 7.62829403606103 -9999 7.62829403606103 7.62829403606103 7.62829403606103 7.77604976671851 7.77604976671851 9.41619585687382 9.41619585687382 9.41619585687382 9.41619585687382 4.73484848484848 4.73484848484848 3.6563071297989 3.6563071297989 3.6563071297989 3.6563071297989 3.6563071297989 3.6563071297989 3.6563071297989 3.6563071297989 15.4471544715447 13.3744855967078 13.3744855967078 13.3744855967078 13.3744855967078 13.3744855967078 13.3744855967078 13.3744855967078 13.3744855967078 13.3744855967078 13.3744855967078 13.3744855967078 -9999 -9999 -9999 -9999 -9999 -9999 -9999 -9999 -9999 -9999 -9999 -9999 -9999 -9999 -9999 -9999 -9999 -9999 -9999 -9999 -9999 -9999 -9999 -9999 -9999 -9999 -9999 -9999 -9999 -9999 -9999 -9999 -9999 -9999 -9999 -9999 -9999 -9999 -9999 -9999 -9999 -9999 -9999 -9999 -9999 -9999 -9999 -9999 -9999 -9999 -9999 -9999 -9999 -9999 -9999 -9999 -9999 -9999 -9999 -9999 -9999 -9999 -9999 -9999 -9999 -9999 -9999 -9999 -9999 -9999 -9999 -9999 -9999 -9999 -9999 -9999 -9999 -9999 -9999 -9999 -9999 -9999 -9999 -9999 -9999 -9999 -9999 -9999 -9999 -9999 -9999 -9999 -9999 -9999 -9999 -9999 -9999 -9999 -9999 -9999 -9999 -9999 -9999 -9999 -9999 -9999 -9999 -9999 -9999 -9999 -9999 -9999 -9999 -9999 -9999 -9999 -9999 -9999 -9999 -9999 -9999 -9999 -9999 -9999 -9999 -9999 -9999 -9999 -9999 -9999 -9999 -9999 -9999 -9999 -9999 -9999 -9999 -9999 -9999 -9999 -9999 -9999 -9999 -9999 -9999 -9999 -9999 -9999 -9999 -9999 -9999 -9999 -9999 -9999 -9999 -9999 -9999 -9999 -9999 -9999 -9999 -9999 -9999 -9999 -9999 -9999 -9999 -9999 -9999 -9999 -9999 -9999 -9999 -9999 -9999 -9999 -9999 -9999 -9999 -9999 -9999 -9999 -9999 -9999 -9999 -9999 -9999 -9999 -9999 -9999 -9999 -9999 -9999 -9999 -9999 -9999 -9999 -9999 -9999 -9999 -9999 -9999 -9999 -9999 -9999 -9999 -9999 -9999 -9999 -9999 -9999 -9999 -9999 -9999 -9999 -9999 -9999 -9999 -9999 -9999 -9999 -9999 -9999 -9999 -9999 -9999 -9999 -9999 -9999 -9999 -9999 -9999 -9999 -9999 -9999 -9999 -9999 -9999 -9999 -9999 -9999 -9999 -9999 -9999 -9999 -9999 -9999 -9999 -9999 -9999 -9999 -9999 -9999 -9999 -9999 -9999 -9999 -9999 -9999 -9999 -9999 -9999 -9999 -9999 -9999 -9999 -9999 -9999 -9999 -9999 -9999 -9999 -9999 -9999 -9999 -9999 -9999 -9999 -9999 -9999 -9999 -9999 -9999 -9999 -9999 -9999 -9999 -9999 -9999 -9999 -9999 -9999 -9999 -9999 -9999 -9999 -9999 -9999 -9999 -9999 -9999 -9999 -9999 -9999 -9999 -9999 -9999 -9999 -9999 -9999 -9999 -9999 -9999 -9999 -9999 -9999 -9999 -9999 -9999 -9999 -9999 -9999 -9999 -9999 -9999 -9999 -9999 -9999 -9999 -9999 -9999 -9999 -9999 -9999 -9999 -9999 -9999 -9999 -9999 -9999 -9999 -9999 -9999 -9999 -9999 -9999 -9999 -9999 -9999 -9999 -9999 -9999 -9999 -9999 -9999 -9999 -9999 -9999 -9999 -9999 -9999 -9999 -9999 -9999 -9999 -9999 -9999 -9999
-9999 -9999 -9999 -9999 -9999 -9999 -9999 -9999 -9999 -9999 -9999 -9999 -9999 -9999 -9999 -9999 -9999 7.62829403606103 7.77604976671851 7.77604976671851 7.77604976671851 7.77604976671851 7.77604976671851 7.77604976671851 4.73484848484848 4.73484848484848 4.73484848484848 3.6563071297989 3.6563071297989 3.6563071297989 3.6563071297989 3.6563071297989 -9999 -9999 -9999 -9999 -9999 -9999 13.3744855967078 13.3744855967078 13.3744855967078 13.3744855967078 13.3744855967078 13.3744855967078 13.3744855967078 13.3744855967078 -9999 -9999 -9999 -9999 -9999 -9999 -9999 -9999 -9999 -9999 -9999 -9999 -9999 -9999 -9999 -9999 -9999 -9999 -9999 -9999 -9999 -9999 -9999 -9999 -9999 -9999 -9999 -9999 -9999 -9999 -9999 -9999 -9999 -9999 -9999 -9999 -9999 -9999 -9999 -9999 -9999 -9999 -9999 -9999 -9999 -9999 -9999 -9999 -9999 -9999 -9999 -9999 -9999 -9999 -9999 -9999 -9999 -9999 -9999 -9999 -9999 -9999 -9999 -9999 -9999 -9999 -9999 -9999 -9999 -9999 -9999 -9999 -9999 -9999 -9999 -9999 -9999 -9999 -9999 -9999 -9999 -9999 -9999 -9999 -9999 -9999 -9999 -9999 -9999 -9999 -9999 -9999 -9999 -9999 -9999 -9999 -9999 -9999 -9999 -9999 -9999 -9999 -9999 -9999 -9999 -9999 -9999 -9999 -9999 -9999 -9999 -9999 -9999 -9999 -9999 -9999 -9999 -9999 -9999 -9999 -9999 -9999 -9999 -9999 -9999 -9999 -9999 -9999 -9999 -9999 -9999 -9999 -9999 -9999 -9999 -9999 -9999 -9999 -9999 -9999 -9999 -9999 -9999 -9999 -9999 -9999 -9999 -9999 -9999 -9999 -9999 -9999 -9999 -9999 -9999 -9999 -9999 -9999 -9999 -9999 -9999 -9999 -9999 -9999 -9999 -9999 -9999 -9999 -9999 -9999 -9999 -9999 -9999 -9999 -9999 -9999 -9999 -9999 -9999 -9999 -9999 -9999 -9999 -9999 -9999 -9999 -9999 -9999 -9999 -9999 -9999 -9999 -9999 -9999 -9999 -9999 -9999 -9999 -9999 -9999 -9999 -9999 -9999 -9999 -9999 -9999 -9999 -9999 -9999 -9999 -9999 -9999 -9999 -9999 -9999 -9999 -9999 -9999 -9999 -9999 -9999 -9999 -9999 -9999 -9999 -9999 -9999 -9999 -9999 -9999 -9999 -9999 -9999 -9999 -9999 -9999 -9999 -9999 -9999 -9999 -9999 -9999 -9999 -9999 -9999 -9999 -9999 -9999 -9999 -9999 -9999 -9999 -9999 -9999 -9999 -9999 -9999 -9999 -9999 -9999 -9999 -9999 -9999 -9999 -9999 -9999 -9999 -9999 -9999 -9999 -9999 -9999 -9999 -9999 -9999 -9999 -9999 -9999 -9999 -9999 -9999 -9999 -9999 -9999 -9999 -9999 -9999 -9999 -9999 -9999 -9999 -9999 -9999 -9999 -9999 -9999 -9999 -9999 -9999 -9999 -9999 -9999 -9999 -9999 -9999 -9999 -9999 -9999 -9999 -9999 -9999 -9999 -9999 -9999 -9999 -9999 -9999 -9999 -9999 -9999 -9999 -9999 -9999 -9999 -9999 -9999 -9999 -9999 -9999 -9999 -9999 -9999 -9999 -9999 -9999 -9999 -9999 -9999 -9999 -9999 -9999 -9999 -9999 -9999 -9999 -9999 -9999 -9999 -9999 -9999 -9999 -9999 -9999 -9999 -9999 -9999 -9999 -9999 -9999 -9999 -9999 -9999 -9999 -9999 -9999 -9999 -9999 -9999 -9999
-9999 -9999 -9999 -9999 -9999 -9999 -9999 -9999 -9999 -9999 -9999 -9999 -9999 -9999 -9999 -9999 -9999 -9999 -9999 -9999 -9999 -9999 7.77604976671851 7.77604976671851 4.73484848484848 4.73484848484848 7.77604976671851 3.6563071297989 3.6563071297989 -9999 -9999 -9999 -9999 -9999 -9999 -9999 -9999 -9999 -9999 -9999 -9999 -9999 -9999 -9999 -9999 -9999 -9999 -9999 -9999 -9999 -9999 -9999 -9999 -9999 -9999 -9999 -9999 -9999 -9999 -9999 -9999 -9999 -9999 -9999 -9999 -9999 -9999 -9999 -9999 -9999 -9999 -9999 -9999 -9999 -9999 -9999 -9999 -9999 -9999 -9999 -9999 -9999 -9999 -9999 -9999 -9999 -9999 -9999 -9999 -9999 -9999 -9999 -9999 -9999 -9999 -9999 -9999 -9999 -9999 -9999 -9999 -9999 -9999 -9999 -9999 -9999 -9999 -9999 -9999 -9999 -9999 -9999 -9999 -9999 -9999 -9999 -9999 -9999 -9999 -9999 -9999 -9999 -9999 -9999 -9999 -9999 -9999 -9999 -9999 -9999 -9999 -9999 -9999 -9999 -9999 -9999 -9999 -9999 -9999 -9999 -9999 -9999 -9999 -9999 -9999 -9999 -9999 -9999 -9999 -9999 -9999 -9999 -9999 -9999 -9999 -9999 -9999 -9999 -9999 -9999 -9999 -9999 -9999 -9999 -9999 -9999 -9999 -9999 -9999 -9999 -9999 -9999 -9999 -9999 -9999 -9999 -9999 -9999 -9999 -9999 -9999 -9999 -9999 -9999 -9999 -9999 -9999 -9999 -9999 -9999 -9999 -9999 -9999 -9999 -9999 -9999 -9999 -9999 -9999 -9999 -9999 -9999 -9999 -9999 -9999 -9999 -9999 -9999 -9999 -9999 -9999 -9999 -9999 -9999 -9999 -9999 -9999 -9999 -9999 -9999 -9999 -9999 -9999 -9999 -9999 -9999 -9999 -9999 -9999 -9999 -9999 -9999 -9999 -9999 -9999 -9999 -9999 -9999 -9999 -9999 -9999 -9999 -9999 -9999 -9999 -9999 -9999 -9999 -9999 -9999 -9999 -9999 -9999 -9999 -9999 -9999 -9999 -9999 -9999 -9999 -9999 -9999 -9999 -9999 -9999 -9999 -9999 -9999 -9999 -9999 -9999 -9999 -9999 -9999 -9999 -9999 -9999 -9999 -9999 -9999 -9999 -9999 -9999 -9999 -9999 -9999 -9999 -9999 -9999 -9999 -9999 -9999 -9999 -9999 -9999 -9999 -9999 -9999 -9999 -9999 -9999 -9999 -9999 -9999 -9999 -9999 -9999 -9999 -9999 -9999 -9999 -9999 -9999 -9999 -9999 -9999 -9999 -9999 -9999 -9999 -9999 -9999 -9999 -9999 -9999 -9999 -9999 -9999 -9999 -9999 -9999 -9999 -9999 -9999 -9999 -9999 -9999 -9999 -9999 -9999 -9999 -9999 -9999 -9999 -9999 -9999 -9999 -9999 -9999 -9999 -9999 -9999 -9999 -9999 -9999 -9999 -9999 -9999 -9999 -9999 -9999 -9999 -9999 -9999 -9999 -9999 -9999 -9999 -9999 -9999 -9999 -9999 -9999 -9999 -9999 -9999 -9999 -9999 -9999 -9999 -9999 -9999 -9999 -9999 -9999 -9999 -9999 -9999 -9999 -9999 -9999 -9999 -9999 -9999 -9999 -9999 -9999 -9999 -9999 -9999 -9999 -9999 -9999 -9999 -9999 -9999 -9999 -9999 -9999 -9999 -9999 -9999 -9999 -9999 -9999
