NCOLS 415 
NROWS 250 
XLLCORNER -73.976375774 
YLLCORNER 45.40212923 
CELLSIZE 0.00120647298313256 
NODATA_value -9999 
-9999.000000000000000 -9999 -9999 -9999 -9999 -9999 -9999 -9999 -9999 -9999 -9999 -9999 -9999 -9999 -9999 -9999 -9999 -9999 -9999 -9999 -9999 -9999 -9999 -9999 -9999 -9999 -9999 -9999 -9999 -9999 -9999 -9999 -9999 -9999 -9999 -9999 -9999 -9999 -9999 -9999 -9999 -9999 -9999 -9999 -9999 -9999 -9999 -9999 -9999 -9999 -9999 -9999 -9999 -9999 -9999 -9999 -9999 -9999 -9999 -9999 -9999 -9999 -9999 -9999 -9999 -9999 -9999 -9999 -9999 -9999 -9999 -9999 -9999 -9999 -9999 -9999 -9999 -9999 -9999 -9999 -9999 -9999 -9999 -9999 -9999 -9999 -9999 -9999 -9999 -9999 -9999 -9999 -9999 -9999 -9999 -9999 -9999 -9999 -9999 -9999 -9999 -9999 -9999 -9999 -9999 -9999 -9999 -9999 -9999 -9999 -9999 -9999 -9999 -9999 -9999 -9999 -9999 -9999 -9999 -9999 -9999 -9999 -9999 -9999 -9999 -9999 -9999 -9999 -9999 -9999 -9999 -9999 -9999 -9999 -9999 -9999 -9999 -9999 -9999 -9999 -9999 -9999 -9999 -9999 -9999 -9999 -9999 -9999 -9999 -9999 -9999 -9999 -9999 -9999 -9999 -9999 -9999 -9999 -9999 -9999 -9999 -9999 -9999 -9999 -9999 -9999 -9999 -9999 -9999 -9999 -9999 -9999 -9999 -9999 -9999 -9999 -9999 -9999 -9999 -9999 -9999 -9999 -9999 -9999 -9999 -9999 -9999 -9999 -9999 -9999 -9999 -9999 -9999 -9999 -9999 -9999 -9999 -9999 -9999 -9999 -9999 -9999 -9999 -9999 -9999 -9999 -9999 -9999 -9999 -9999 -9999 -9999 -9999 -9999 -9999 -9999 -9999 -9999 -9999 -9999 -9999 -9999 -9999 -9999 -9999 -9999 -9999 -9999 -9999 -9999 -9999 -9999 -9999 -9999 -9999 -9999 -9999 -9999 -9999 -9999 -9999 -9999 -9999 -9999 -9999 -9999 -9999 -9999 -9999 -9999 -9999 -9999 -9999 -9999 -9999 -9999 -9999 -9999 -9999 -9999 -9999 -9999 -9999 -9999 -9999 -9999 -9999 -9999 -9999 -9999 -9999 -9999 -9999 -9999 -9999 -9999 -9999 -9999 -9999 -9999 -9999 -9999 -9999 -9999 -9999 -9999 -9999 -9999 -9999 -9999 -9999 -9999 -9999 -9999 -9999 -9999 -9999 -9999 -9999 -9999 -9999 -9999 -9999 -9999 -9999 -9999 -9999 -9999 -9999 -9999 -9999 -9999 -9999 -9999 -9999 -9999 -9999 -9999 -9999 -9999 -9999 -9999 -9999 -9999 -9999 -9999 -9999 -9999 -9999 -9999 -9999 -9999 -9999 -9999 -9999 -9999 -9999 -9999 -9999 -9999 -9999 -9999 -9999 -9999 -9999 -9999 -9999 -9999 -9999 -9999 -9999 -9999 -9999 -9999 -9999 -9999 -9999 -9999 -9999 -9999 -9999 -9999 -9999 -9999 -9999 -9999 -9999 -9999 -9999 -9999 -9999 -9999 -9999 -9999 -9999 -9999 -9999 -9999 -9999 -9999 -9999 -9999 -9999 -9999 -9999 -9999 -9999 -9999 -9999 -9999 -9999 -9999 -9999 -9999 -9999 -9999 -9999 -9999 -9999 94.1265060240964 94.1265060240964 -9999 -9999 -9999 -9999 -9999 -9999 -9999 -9999 -9999 -9999 -9999 -9999 -9999 -9999
-9999 -9999 -9999 -9999 -9999 -9999 -9999 -9999 -9999 -9999 -9999 -9999 -9999 -9999 -9999 -9999 -9999 -9999 -9999 -9999 -9999 -9999 -9999 -9999 -9999 -9999 -9999 -9999 -9999 -9999 -9999 -9999 -9999 -9999 -9999 -9999 -9999 -9999 -9999 -9999 -9999 -9999 -9999 -9999 -9999 -9999 -9999 -9999 -9999 -9999 -9999 -9999 -9999 -9999 -9999 -9999 -9999 -9999 -9999 -9999 -9999 -9999 -9999 -9999 -9999 -9999 -9999 -9999 -9999 -9999 -9999 -9999 -9999 -9999 -9999 -9999 -9999 -9999 -9999 -9999 -9999 -9999 -9999 -9999 -9999 -9999 -9999 -9999 -9999 -9999 -9999 -9999 -9999 -9999 -9999 -9999 -9999 -9999 -9999 -9999 -9999 -9999 -9999 -9999 -9999 -9999 -9999 -9999 -9999 -9999 -9999 -9999 -9999 -9999 -9999 -9999 -9999 -9999 -9999 -9999 -9999 -9999 -9999 -9999 -9999 -9999 -9999 -9999 -9999 -9999 -9999 -9999 -9999 -9999 -9999 -9999 -9999 -9999 -9999 -9999 -9999 -9999 -9999 -9999 -9999 -9999 -9999 -9999 -9999 -9999 -9999 -9999 -9999 -9999 -9999 -9999 -9999 -9999 -9999 -9999 -9999 -9999 -9999 -9999 -9999 -9999 -9999 -9999 -9999 -9999 -9999 -9999 -9999 -9999 -9999 -9999 -9999 -9999 -9999 -9999 -9999 -9999 -9999 -9999 -9999 -9999 -9999 -9999 -9999 -9999 -9999 -9999 -9999 -9999 -9999 -9999 -9999 -9999 -9999 -9999 -9999 -9999 -9999 -9999 -9999 -9999 -9999 -9999 -9999 -9999 -9999 -9999 -9999 -9999 -9999 -9999 -9999 -9999 -9999 -9999 -9999 -9999 -9999 -9999 -9999 -9999 -9999 -9999 -9999 -9999 -9999 -9999 -9999 -9999 -9999 -9999 -9999 -9999 -9999 -9999 -9999 -9999 -9999 -9999 -9999 -9999 -9999 -9999 -9999 -9999 -9999 -9999 -9999 -9999 -9999 -9999 -9999 -9999 -9999 -9999 -9999 -9999 -9999 -9999 -9999 -9999 -9999 -9999 -9999 -9999 -9999 -9999 -9999 -9999 -9999 -9999 -9999 -9999 -9999 -9999 -9999 -9999 -9999 -9999 -9999 -9999 -9999 -9999 -9999 -9999 -9999 -9999 -9999 -9999 -9999 -9999 -9999 -9999 -9999 -9999 -9999 -9999 -9999 -9999 -9999 -9999 -9999 -9999 -9999 -9999 -9999 -9999 -9999 -9999 -9999 -9999 -9999 -9999 -9999 -9999 -9999 -9999 -9999 -9999 -9999 -9999 -9999 -9999 -9999 -9999 -9999 -9999 -9999 -9999 -9999 -9999 -9999 -9999 -9999 -9999 -9999 -9999 -9999 -9999 -9999 -9999 -9999 -9999 -9999 -9999 -9999 -9999 -9999 -9999 -9999 -9999 -9999 -9999 -9999 -9999 -9999 -9999 -9999 -9999 -9999 -9999 -9999 -9999 -9999 -9999 -9999 -9999 -9999 -9999 -9999 -9999 -9999 -9999 -9999 -9999 -9999 -9999 -9999 -9999 -9999 -9999 -9999 -9999 -9999 -9999 -9999 -9999 -9999 -9999 -9999 94.1265060240964 94.1265060240964 94.1265060240964 94.1265060240964 94.1265060240964 -9999 -9999 -9999 -9999 -9999 -9999 -9999 -9999 -9999 -9999 86.9918699186992 86.9918699186992 86.9918699186992 86.9918699186992 -9999
-9999 -9999 -9999 -9999 -9999 -9999 -9999 -9999 -9999 -9999 -9999 -9999 -9999 -9999 -9999 -9999 -9999 -9999 -9999 -9999 -9999 -9999 -9999 -9999 -9999 -9999 -9999 -9999 -9999 -9999 -9999 -9999 -9999 -9999 -9999 -9999 -9999 -9999 -9999 -9999 -9999 -9999 -9999 -9999 -9999 -9999 -9999 -9999 -9999 -9999 -9999 -9999 -9999 -9999 -9999 -9999 -9999 -9999 -9999 -9999 -9999 -9999 -9999 -9999 -9999 -9999 -9999 -9999 -9999 -9999 -9999 -9999 -9999 -9999 -9999 -9999 -9999 -9999 -9999 -9999 -9999 -9999 -9999 -9999 -9999 -9999 -9999 -9999 -9999 -9999 -9999 -9999 -9999 -9999 -9999 -9999 -9999 -9999 -9999 -9999 -9999 -9999 -9999 -9999 -9999 -9999 -9999 -9999 -9999 -9999 -9999 -9999 -9999 -9999 -9999 -9999 -9999 -9999 -9999 -9999 -9999 -9999 -9999 -9999 -9999 -9999 -9999 -9999 -9999 -9999 -9999 -9999 -9999 -9999 -9999 -9999 -9999 -9999 -9999 -9999 -9999 -9999 -9999 -9999 -9999 -9999 -9999 -9999 -9999 -9999 -9999 -9999 -9999 -9999 -9999 -9999 -9999 -9999 -9999 -9999 -9999 -9999 -9999 -9999 -9999 -9999 -9999 -9999 -9999 -9999 -9999 -9999 -9999 -9999 -9999 -9999 -9999 -9999 -9999 -9999 -9999 -9999 -9999 -9999 -9999 -9999 -9999 -9999 -9999 -9999 -9999 -9999 -9999 -9999 -9999 -9999 -9999 -9999 -9999 -9999 -9999 -9999 -9999 -9999 -9999 -9999 -9999 -9999 -9999 -9999 -9999 -9999 -9999 -9999 -9999 -9999 -9999 -9999 -9999 -9999 -9999 -9999 -9999 -9999 -9999 -9999 -9999 -9999 -9999 -9999 -9999 -9999 -9999 -9999 -9999 -9999 -9999 -9999 -9999 -9999 -9999 -9999 -9999 -9999 -9999 -9999 -9999 -9999 -9999 -9999 -9999 -9999 -9999 -9999 -9999 -9999 -9999 -9999 -9999 -9999 -9999 -9999 -9999 -9999 -9999 -9999 -9999 -9999 -9999 -9999 -9999 -9999 -9999 -9999 -9999 -9999 -9999 -9999 -9999 -9999 -9999 -9999 -9999 -9999 -9999 -9999 -9999 -9999 -9999 -9999 -9999 -9999 -9999 -9999 -9999 -9999 -9999 -9999 -9999 -9999 -9999 -9999 -9999 -9999 -9999 -9999 -9999 -9999 -9999 -9999 -9999 -9999 -9999 -9999 -9999 -9999 -9999 -9999 -9999 -9999 -9999 -9999 -9999 -9999 -9999 -9999 -9999 -9999 -9999 -9999 -9999 -9999 -9999 -9999 -9999 -9999 -9999 -9999 -9999 -9999 -9999 -9999 -9999 -9999 -9999 -9999 -9999 -9999 -9999 -9999 -9999 -9999 -9999 -9999 -9999 -9999 -9999 -9999 -9999 -9999 -9999 -9999 -9999 -9999 -9999 -9999 -9999 -9999 -9999 -9999 -9999 -9999 -9999 -9999 -9999 -9999 -9999 -9999 -9999 -9999 -9999 -9999 -9999 -9999 -9999 -9999 -9999 -9999 -9999 -9999 -9999 -9999 -9999 -9999 -9999 94.1265060240964 94.1265060240964 94.1265060240964 -9999 -9999 -9999 -9999 -9999 -9999 -9999 94.1265060240964 94.1265060240964 94.1265060240964 94.1265060240964 95.4861111111111 95.4861111111111 86.9918699186992 86.9918699186992 -9999 -9999
-9999 -9999 -9999 -9999 -9999 -9999 -9999 -9999 -9999 -9999 -9999 -9999 -9999 -9999 -9999 -9999 -9999 -9999 -9999 -9999 -9999 -9999 -9999 -9999 -9999 -9999 -9999 -9999 -9999 -9999 -9999 -9999 -9999 -9999 -9999 -9999 -9999 -9999 -9999 -9999 -9999 -9999 -9999 -9999 -9999 -9999 -9999 -9999 -9999 -9999 -9999 -9999 -9999 -9999 -9999 -9999 -9999 -9999 -9999 -9999 -9999 -9999 -9999 -9999 -9999 -9999 -9999 -9999 -9999 -9999 -9999 -9999 -9999 -9999 -9999 -9999 -9999 -9999 -9999 -9999 -9999 -9999 -9999 -9999 -9999 -9999 -9999 -9999 -9999 -9999 -9999 -9999 -9999 -9999 -9999 -9999 -9999 -9999 -9999 -9999 -9999 -9999 -9999 -9999 -9999 -9999 -9999 -9999 -9999 -9999 -9999 -9999 -9999 -9999 -9999 -9999 -9999 -9999 -9999 -9999 -9999 -9999 -9999 -9999 -9999 -9999 -9999 -9999 -9999 -9999 -9999 -9999 -9999 -9999 -9999 -9999 -9999 -9999 -9999 -9999 -9999 -9999 -9999 -9999 -9999 -9999 -9999 -9999 -9999 -9999 -9999 -9999 -9999 -9999 -9999 -9999 -9999 -9999 -9999 -9999 -9999 -9999 -9999 -9999 -9999 -9999 -9999 -9999 -9999 -9999 -9999 -9999 -9999 -9999 -9999 -9999 -9999 -9999 -9999 -9999 -9999 -9999 -9999 -9999 -9999 -9999 -9999 -9999 -9999 -9999 -9999 -9999 -9999 -9999 -9999 -9999 -9999 -9999 -9999 -9999 -9999 -9999 -9999 -9999 -9999 -9999 -9999 -9999 -9999 -9999 -9999 -9999 -9999 -9999 -9999 -9999 -9999 -9999 -9999 -9999 -9999 -9999 -9999 -9999 -9999 -9999 -9999 -9999 -9999 -9999 -9999 -9999 -9999 -9999 -9999 -9999 -9999 -9999 -9999 -9999 -9999 -9999 -9999 -9999 -9999 -9999 -9999 -9999 -9999 -9999 -9999 -9999 -9999 -9999 -9999 -9999 -9999 -9999 -9999 -9999 -9999 -9999 -9999 -9999 -9999 -9999 -9999 -9999 -9999 -9999 -9999 -9999 -9999 -9999 -9999 -9999 -9999 -9999 -9999 -9999 -9999 -9999 -9999 -9999 -9999 -9999 -9999 -9999 -9999 -9999 -9999 -9999 -9999 -9999 -9999 -9999 -9999 -9999 -9999 -9999 -9999 -9999 -9999 -9999 -9999 -9999 -9999 -9999 -9999 -9999 -9999 -9999 -9999 -9999 -9999 -9999 -9999 -9999 -9999 -9999 -9999 -9999 -9999 -9999 -9999 -9999 -9999 -9999 -9999 -9999 -9999 -9999 -9999 -9999 -9999 -9999 -9999 -9999 -9999 -9999 -9999 -9999 -9999 -9999 -9999 -9999 -9999 -9999 -9999 -9999 -9999 -9999 -9999 -9999 -9999 -9999 -9999 -9999 -9999 -9999 -9999 -9999 -9999 -9999 -9999 -9999 -9999 -9999 -9999 -9999 -9999 -9999 -9999 -9999 -9999 -9999 -9999 -9999 -9999 -9999 -9999 -9999 -9999 -9999 -9999 -9999 -9999 -9999 -9999 94.1265060240964 94.4649446494465 94.1265060240964 94.1265060240964 -9999 -9999 -9999 94.1265060240964 -9999 -9999 -9999 -9999 -9999 94.1265060240964 94.1265060240964 94.1265060240964 94.1265060240964 94.1265060240964 94.1265060240964 94.1265060240964 95.4861111111111 95.4861111111111 86.9918699186992 -9999 -9999 -9999
-9999 -9999 -9999 -9999 -9999 -9999 -9999 -9999 -9999 -9999 -9999 -9999 -9999 -9999 -9999 -9999 -9999 -9999 -9999 -9999 -9999 -9999 -9999 -9999 -9999 -9999 -9999 -9999 -9999 -9999 -9999 -9999 -9999 -9999 -9999 -9999 -9999 -9999 -9999 -9999 -9999 -9999 -9999 -9999 -9999 -9999 -9999 -9999 -9999 -9999 -9999 -9999 -9999 -9999 -9999 -9999 -9999 -9999 -9999 -9999 -9999 -9999 -9999 -9999 -9999 -9999 -9999 -9999 -9999 -9999 -9999 -9999 -9999 -9999 -9999 -9999 -9999 -9999 -9999 -9999 -9999 -9999 -9999 -9999 -9999 -9999 -9999 -9999 -9999 -9999 -9999 -9999 -9999 -9999 -9999 -9999 -9999 -9999 -9999 -9999 -9999 -9999 -9999 -9999 -9999 -9999 -9999 -9999 -9999 -9999 -9999 -9999 -9999 -9999 -9999 -9999 -9999 -9999 -9999 -9999 -9999 -9999 -9999 -9999 -9999 -9999 -9999 -9999 -9999 -9999 -9999 -9999 -9999 -9999 -9999 -9999 -9999 -9999 -9999 -9999 -9999 -9999 -9999 -9999 -9999 -9999 -9999 -9999 -9999 -9999 -9999 -9999 -9999 -9999 -9999 -9999 -9999 -9999 -9999 -9999 -9999 -9999 -9999 -9999 -9999 -9999 -9999 -9999 -9999 -9999 -9999 -9999 -9999 -9999 -9999 -9999 -9999 -9999 -9999 -9999 -9999 -9999 -9999 -9999 -9999 -9999 -9999 -9999 -9999 -9999 -9999 -9999 -9999 -9999 -9999 -9999 -9999 -9999 -9999 -9999 -9999 -9999 -9999 -9999 -9999 -9999 -9999 -9999 -9999 -9999 -9999 -9999 -9999 -9999 -9999 -9999 -9999 -9999 -9999 -9999 -9999 -9999 -9999 -9999 -9999 -9999 -9999 -9999 -9999 -9999 -9999 -9999 -9999 -9999 -9999 -9999 -9999 -9999 -9999 -9999 -9999 -9999 -9999 -9999 -9999 -9999 -9999 -9999 -9999 -9999 -9999 -9999 -9999 -9999 -9999 -9999 -9999 -9999 -9999 -9999 -9999 -9999 -9999 -9999 -9999 -9999 -9999 -9999 -9999 -9999 -9999 -9999 -9999 -9999 -9999 -9999 -9999 -9999 -9999 -9999 -9999 -9999 -9999 -9999 -9999 -9999 -9999 -9999 -9999 -9999 -9999 -9999 -9999 -9999 -9999 -9999 -9999 -9999 -9999 -9999 -9999 -9999 -9999 -9999 -9999 -9999 -9999 -9999 -9999 -9999 -9999 -9999 -9999 -9999 -9999 -9999 -9999 -9999 -9999 -9999 -9999 -9999 -9999 -9999 -9999 -9999 -9999 -9999 -9999 -9999 -9999 -9999 -9999 -9999 -9999 -9999 -9999 -9999 -9999 -9999 -9999 -9999 -9999 -9999 -9999 -9999 -9999 -9999 -9999 -9999 -9999 -9999 -9999 -9999 -9999 -9999 -9999 -9999 -9999 -9999 -9999 -9999 -9999 -9999 -9999 -9999 -9999 -9999 -9999 -9999 -9999 -9999 -9999 -9999 -9999 -9999 -9999 -9999 -9999 -9999 -9999 -9999 -9999 -9999 -9999 70.3883495145631 70.3883495145631 94.4649446494465 94.4649446494465 94.4649446494465 94.4649446494465 94.4649446494465 94.1265060240964 94.1265060240964 -9999 -9999 -9999 -9999 -9999 94.1265060240964 94.1265060240964 94.1265060240964 94.1265060240964 94.1265060240964 94.1265060240964 94.1265060240964 -9999 96.6767371601209 95.4861111111111 95.4861111111111 86.9918699186992 86.9918699186992 -9999 -9999 -9999
-9999 -9999 -9999 -9999 -9999 -9999 -9999 -9999 -9999 -9999 -9999 -9999 -9999 -9999 -9999 -9999 -9999 -9999 -9999 -9999 -9999 -9999 -9999 -9999 -9999 -9999 -9999 -9999 -9999 -9999 -9999 -9999 -9999 -9999 -9999 -9999 -9999 -9999 -9999 -9999 -9999 -9999 -9999 -9999 -9999 -9999 -9999 -9999 -9999 -9999 -9999 -9999 -9999 -9999 -9999 -9999 -9999 -9999 -9999 -9999 -9999 -9999 -9999 -9999 -9999 -9999 -9999 -9999 -9999 -9999 -9999 -9999 -9999 -9999 -9999 -9999 -9999 -9999 -9999 -9999 -9999 -9999 -9999 -9999 -9999 -9999 -9999 -9999 -9999 -9999 -9999 -9999 -9999 -9999 -9999 -9999 -9999 -9999 -9999 -9999 -9999 -9999 -9999 -9999 -9999 -9999 -9999 -9999 -9999 -9999 -9999 -9999 -9999 -9999 -9999 -9999 -9999 -9999 -9999 -9999 -9999 -9999 -9999 -9999 -9999 -9999 -9999 -9999 -9999 -9999 -9999 -9999 -9999 -9999 -9999 -9999 -9999 -9999 -9999 -9999 -9999 -9999 -9999 -9999 -9999 -9999 -9999 -9999 -9999 -9999 -9999 -9999 -9999 -9999 -9999 -9999 -9999 -9999 -9999 -9999 -9999 -9999 -9999 -9999 -9999 -9999 -9999 -9999 -9999 -9999 -9999 -9999 -9999 -9999 -9999 -9999 -9999 -9999 -9999 -9999 -9999 -9999 -9999 -9999 -9999 -9999 -9999 -9999 -9999 -9999 -9999 -9999 -9999 -9999 -9999 -9999 -9999 -9999 -9999 -9999 -9999 -9999 -9999 -9999 -9999 -9999 -9999 -9999 -9999 -9999 -9999 -9999 -9999 -9999 -9999 -9999 -9999 -9999 -9999 -9999 -9999 -9999 -9999 -9999 -9999 -9999 -9999 -9999 -9999 -9999 -9999 -9999 -9999 -9999 -9999 -9999 -9999 -9999 -9999 -9999 -9999 -9999 -9999 -9999 -9999 -9999 -9999 -9999 -9999 -9999 -9999 -9999 -9999 -9999 -9999 -9999 -9999 -9999 -9999 -9999 -9999 -9999 -9999 -9999 -9999 -9999 -9999 -9999 -9999 -9999 -9999 -9999 -9999 -9999 -9999 -9999 -9999 -9999 -9999 -9999 -9999 -9999 -9999 -9999 -9999 -9999 -9999 -9999 -9999 -9999 -9999 -9999 -9999 -9999 -9999 -9999 -9999 -9999 -9999 -9999 -9999 -9999 -9999 -9999 -9999 -9999 -9999 -9999 -9999 -9999 -9999 -9999 -9999 -9999 -9999 -9999 -9999 -9999 -9999 -9999 -9999 -9999 -9999 -9999 -9999 -9999 -9999 -9999 -9999 -9999 -9999 -9999 -9999 -9999 -9999 -9999 -9999 -9999 -9999 -9999 -9999 -9999 -9999 -9999 -9999 -9999 -9999 -9999 -9999 -9999 -9999 -9999 -9999 -9999 -9999 -9999 -9999 -9999 -9999 -9999 -9999 -9999 -9999 -9999 -9999 -9999 -9999 -9999 -9999 -9999 -9999 -9999 -9999 -9999 -9999 -9999 -9999 -9999 -9999 -9999 -9999 -9999 70.3883495145631 70.3883495145631 70.3883495145631 70.3883495145631 70.3883495145631 94.4649446494465 94.4649446494465 94.4649446494465 94.4649446494465 94.4649446494465 94.4649446494465 94.1265060240964 94.1265060240964 94.1265060240964 94.1265060240964 94.4649446494465 94.4649446494465 94.4649446494465 94.4649446494465 94.4649446494465 -9999 -9999 -9999 -9999 96.6767371601209 95.3271028037383 95.3271028037383 95.3271028037383 86.9918699186992 86.9918699186992 -9999 -9999 -9999
-9999 -9999 -9999 -9999 -9999 -9999 -9999 -9999 -9999 -9999 -9999 -9999 -9999 -9999 -9999 -9999 -9999 -9999 -9999 -9999 -9999 -9999 -9999 -9999 -9999 -9999 -9999 -9999 -9999 -9999 -9999 -9999 -9999 -9999 -9999 -9999 -9999 -9999 -9999 -9999 -9999 -9999 -9999 -9999 -9999 -9999 -9999 -9999 -9999 -9999 -9999 -9999 -9999 -9999 -9999 -9999 -9999 -9999 -9999 -9999 -9999 -9999 -9999 -9999 -9999 -9999 -9999 -9999 -9999 -9999 -9999 -9999 -9999 -9999 -9999 -9999 -9999 -9999 -9999 -9999 -9999 -9999 -9999 -9999 -9999 -9999 -9999 -9999 -9999 -9999 -9999 -9999 -9999 -9999 -9999 -9999 -9999 -9999 -9999 -9999 -9999 -9999 -9999 -9999 -9999 -9999 -9999 -9999 -9999 -9999 -9999 -9999 -9999 -9999 -9999 -9999 -9999 -9999 -9999 -9999 -9999 -9999 -9999 -9999 -9999 -9999 -9999 -9999 -9999 -9999 -9999 -9999 -9999 -9999 -9999 -9999 -9999 -9999 -9999 -9999 -9999 -9999 -9999 -9999 -9999 -9999 -9999 -9999 -9999 -9999 -9999 -9999 -9999 -9999 -9999 -9999 -9999 -9999 -9999 -9999 -9999 -9999 -9999 -9999 -9999 -9999 -9999 -9999 -9999 -9999 -9999 -9999 -9999 -9999 -9999 -9999 -9999 -9999 -9999 -9999 -9999 -9999 -9999 -9999 -9999 -9999 -9999 -9999 -9999 -9999 -9999 -9999 -9999 -9999 -9999 -9999 -9999 -9999 -9999 -9999 -9999 -9999 -9999 -9999 -9999 -9999 -9999 -9999 -9999 -9999 -9999 -9999 -9999 -9999 -9999 -9999 -9999 -9999 -9999 -9999 -9999 -9999 -9999 -9999 -9999 -9999 -9999 -9999 -9999 -9999 -9999 -9999 -9999 -9999 -9999 -9999 -9999 -9999 -9999 -9999 -9999 -9999 -9999 -9999 -9999 -9999 -9999 -9999 -9999 -9999 -9999 -9999 -9999 -9999 -9999 -9999 -9999 -9999 -9999 -9999 -9999 -9999 -9999 -9999 -9999 -9999 -9999 -9999 -9999 -9999 -9999 -9999 -9999 -9999 -9999 -9999 -9999 -9999 -9999 -9999 -9999 -9999 -9999 -9999 -9999 -9999 -9999 -9999 -9999 -9999 -9999 -9999 -9999 -9999 -9999 -9999 -9999 -9999 -9999 -9999 -9999 -9999 -9999 -9999 -9999 -9999 -9999 -9999 -9999 -9999 -9999 -9999 -9999 -9999 -9999 -9999 -9999 -9999 -9999 -9999 -9999 -9999 -9999 -9999 -9999 -9999 -9999 -9999 -9999 -9999 -9999 -9999 -9999 -9999 -9999 -9999 -9999 -9999 -9999 -9999 -9999 -9999 -9999 -9999 -9999 -9999 -9999 -9999 -9999 -9999 -9999 -9999 -9999 -9999 -9999 -9999 -9999 -9999 -9999 -9999 -9999 -9999 -9999 -9999 -9999 -9999 -9999 -9999 -9999 -9999 -9999 -9999 -9999 -9999 -9999 -9999 -9999 -9999 -9999 70.3883495145631 70.3883495145631 70.3883495145631 70.3883495145631 70.3883495145631 70.3883495145631 70.3883495145631 70.3883495145631 94.4649446494465 94.4649446494465 94.4649446494465 94.4649446494465 94.4649446494465 94.4649446494465 94.4649446494465 94.4649446494465 94.1265060240964 94.1265060240964 94.4649446494465 94.4649446494465 94.4649446494465 -9999 -9999 -9999 -9999 -9999 -9999 95.3271028037383 95.3271028037383 95.3271028037383 86.9918699186992 86.9918699186992 -9999 -9999 -9999 -9999
-9999 -9999 -9999 -9999 -9999 -9999 -9999 -9999 -9999 -9999 -9999 -9999 -9999 -9999 -9999 -9999 -9999 -9999 -9999 -9999 -9999 -9999 -9999 -9999 -9999 -9999 -9999 -9999 -9999 -9999 -9999 -9999 -9999 -9999 -9999 -9999 -9999 -9999 -9999 -9999 -9999 -9999 -9999 -9999 -9999 -9999 -9999 -9999 -9999 -9999 -9999 -9999 -9999 -9999 -9999 -9999 -9999 -9999 -9999 -9999 -9999 -9999 -9999 -9999 -9999 -9999 -9999 -9999 -9999 -9999 -9999 -9999 -9999 -9999 -9999 -9999 -9999 -9999 -9999 -9999 -9999 -9999 -9999 -9999 -9999 -9999 -9999 -9999 -9999 -9999 -9999 -9999 -9999 -9999 -9999 -9999 -9999 -9999 -9999 -9999 -9999 -9999 -9999 -9999 -9999 -9999 -9999 -9999 -9999 -9999 -9999 -9999 -9999 -9999 -9999 -9999 -9999 -9999 -9999 -9999 -9999 -9999 -9999 -9999 -9999 -9999 -9999 -9999 -9999 -9999 -9999 -9999 -9999 -9999 -9999 -9999 -9999 -9999 -9999 -9999 -9999 -9999 -9999 -9999 -9999 -9999 -9999 -9999 -9999 -9999 -9999 -9999 -9999 -9999 -9999 -9999 -9999 -9999 -9999 -9999 -9999 -9999 -9999 -9999 -9999 -9999 -9999 -9999 -9999 -9999 -9999 -9999 -9999 -9999 -9999 -9999 -9999 -9999 -9999 -9999 -9999 -9999 -9999 -9999 -9999 -9999 -9999 -9999 -9999 -9999 -9999 -9999 -9999 -9999 -9999 -9999 -9999 -9999 -9999 -9999 -9999 -9999 -9999 -9999 -9999 -9999 -9999 -9999 -9999 -9999 -9999 -9999 -9999 -9999 -9999 -9999 -9999 -9999 -9999 -9999 -9999 -9999 -9999 -9999 -9999 -9999 -9999 -9999 -9999 -9999 -9999 -9999 -9999 -9999 -9999 -9999 -9999 -9999 -9999 -9999 -9999 -9999 -9999 -9999 -9999 -9999 -9999 -9999 -9999 -9999 -9999 -9999 -9999 -9999 -9999 -9999 -9999 -9999 -9999 -9999 -9999 -9999 -9999 -9999 -9999 -9999 -9999 -9999 -9999 -9999 -9999 -9999 -9999 -9999 -9999 -9999 -9999 -9999 -9999 -9999 -9999 -9999 -9999 -9999 -9999 -9999 -9999 -9999 -9999 -9999 -9999 -9999 -9999 -9999 -9999 -9999 -9999 -9999 -9999 -9999 -9999 -9999 -9999 -9999 -9999 -9999 -9999 -9999 -9999 -9999 -9999 -9999 -9999 -9999 -9999 -9999 -9999 -9999 -9999 -9999 -9999 -9999 -9999 -9999 -9999 -9999 -9999 -9999 -9999 -9999 -9999 -9999 -9999 -9999 -9999 -9999 -9999 -9999 -9999 -9999 -9999 -9999 -9999 -9999 -9999 -9999 -9999 -9999 -9999 -9999 -9999 -9999 -9999 -9999 -9999 -9999 -9999 -9999 -9999 -9999 -9999 -9999 -9999 -9999 -9999 -9999 -9999 -9999 -9999 -9999 -9999 -9999 -9999 -9999 -9999 -9999 -9999 70.3883495145631 70.3883495145631 70.3883495145631 70.3883495145631 70.3883495145631 70.3883495145631 70.3883495145631 70.3883495145631 70.3883495145631 70.3883495145631 94.4649446494465 94.4649446494465 94.4649446494465 94.4649446494465 94.4649446494465 94.4649446494465 94.4649446494465 94.4649446494465 94.4649446494465 94.4649446494465 94.4649446494465 -9999 -9999 -9999 -9999 -9999 -9999 96.6767371601209 77.6315789473684 95.3271028037383 95.3271028037383 95.3271028037383 86.9918699186992 86.9918699186992 -9999 -9999 -9999 -9999
-9999 -9999 -9999 -9999 -9999 -9999 -9999 -9999 -9999 -9999 -9999 -9999 -9999 -9999 -9999 -9999 -9999 -9999 -9999 -9999 -9999 -9999 -9999 -9999 -9999 -9999 -9999 -9999 -9999 -9999 -9999 -9999 -9999 -9999 -9999 -9999 -9999 -9999 -9999 -9999 -9999 -9999 -9999 -9999 -9999 -9999 -9999 -9999 -9999 -9999 -9999 -9999 -9999 -9999 -9999 -9999 -9999 -9999 -9999 -9999 -9999 -9999 -9999 -9999 -9999 -9999 -9999 -9999 -9999 -9999 -9999 -9999 -9999 -9999 -9999 -9999 -9999 -9999 -9999 -9999 -9999 -9999 -9999 -9999 -9999 -9999 -9999 -9999 -9999 -9999 -9999 -9999 -9999 -9999 -9999 -9999 -9999 -9999 -9999 -9999 -9999 -9999 -9999 -9999 -9999 -9999 -9999 -9999 -9999 -9999 -9999 -9999 -9999 -9999 -9999 -9999 -9999 -9999 -9999 -9999 -9999 -9999 -9999 -9999 -9999 -9999 -9999 -9999 -9999 -9999 -9999 -9999 -9999 -9999 -9999 -9999 -9999 -9999 -9999 -9999 -9999 -9999 -9999 -9999 -9999 -9999 -9999 -9999 -9999 -9999 -9999 -9999 -9999 -9999 -9999 -9999 -9999 -9999 -9999 -9999 -9999 -9999 -9999 -9999 -9999 -9999 -9999 -9999 -9999 -9999 -9999 -9999 -9999 -9999 -9999 -9999 -9999 -9999 -9999 -9999 -9999 -9999 -9999 -9999 -9999 -9999 -9999 -9999 -9999 -9999 -9999 -9999 -9999 -9999 -9999 -9999 -9999 -9999 -9999 -9999 -9999 -9999 -9999 -9999 -9999 -9999 -9999 -9999 -9999 -9999 -9999 -9999 -9999 -9999 -9999 -9999 -9999 -9999 -9999 -9999 -9999 -9999 -9999 -9999 -9999 -9999 -9999 -9999 -9999 -9999 -9999 -9999 -9999 -9999 -9999 -9999 -9999 -9999 -9999 -9999 -9999 -9999 -9999 -9999 -9999 -9999 -9999 -9999 -9999 -9999 -9999 -9999 -9999 -9999 -9999 -9999 -9999 -9999 -9999 -9999 -9999 -9999 -9999 -9999 -9999 -9999 -9999 -9999 -9999 -9999 -9999 -9999 -9999 -9999 -9999 -9999 -9999 -9999 -9999 -9999 -9999 -9999 -9999 -9999 -9999 -9999 -9999 -9999 -9999 -9999 -9999 -9999 -9999 -9999 -9999 -9999 -9999 -9999 -9999 -9999 -9999 -9999 -9999 -9999 -9999 -9999 -9999 -9999 -9999 -9999 -9999 -9999 -9999 -9999 -9999 -9999 -9999 -9999 -9999 -9999 -9999 -9999 -9999 -9999 -9999 -9999 -9999 -9999 -9999 -9999 -9999 -9999 -9999 -9999 -9999 -9999 -9999 -9999 -9999 -9999 -9999 -9999 -9999 -9999 -9999 -9999 -9999 -9999 -9999 -9999 -9999 -9999 -9999 -9999 -9999 -9999 -9999 -9999 -9999 -9999 -9999 -9999 -9999 -9999 -9999 -9999 -9999 -9999 -9999 -9999 -9999 -9999 -9999 -9999 -9999 -9999 70.3883495145631 70.3883495145631 70.3883495145631 70.3883495145631 70.3883495145631 70.3883495145631 70.3883495145631 70.3883495145631 70.3883495145631 70.3883495145631 70.3883495145631 94.4649446494465 94.4649446494465 94.4649446494465 94.4649446494465 94.4649446494465 94.4649446494465 94.4649446494465 94.4649446494465 94.4649446494465 94.4649446494465 94.4649446494465 -9999 -9999 -9999 -9999 -9999 96.6767371601209 96.6767371601209 77.6315789473684 77.6315789473684 77.6315789473684 77.6315789473684 86.9918699186992 -9999 -9999 -9999 -9999 -9999
-9999 -9999 -9999 -9999 -9999 -9999 -9999 -9999 -9999 -9999 -9999 -9999 -9999 -9999 -9999 -9999 -9999 -9999 -9999 -9999 -9999 -9999 -9999 -9999 -9999 -9999 -9999 -9999 -9999 -9999 -9999 -9999 -9999 -9999 -9999 -9999 -9999 -9999 -9999 -9999 -9999 -9999 -9999 -9999 -9999 -9999 -9999 -9999 -9999 -9999 -9999 -9999 -9999 -9999 -9999 -9999 -9999 -9999 -9999 -9999 -9999 -9999 -9999 -9999 -9999 -9999 -9999 -9999 -9999 -9999 -9999 -9999 -9999 -9999 -9999 -9999 -9999 -9999 -9999 -9999 -9999 -9999 -9999 -9999 -9999 -9999 -9999 -9999 -9999 -9999 -9999 -9999 -9999 -9999 -9999 -9999 -9999 -9999 -9999 -9999 -9999 -9999 -9999 -9999 -9999 -9999 -9999 -9999 -9999 -9999 -9999 -9999 -9999 -9999 -9999 -9999 -9999 -9999 -9999 -9999 -9999 -9999 -9999 -9999 -9999 -9999 -9999 -9999 -9999 -9999 -9999 -9999 -9999 -9999 -9999 -9999 -9999 -9999 -9999 -9999 -9999 -9999 -9999 -9999 -9999 -9999 -9999 -9999 -9999 -9999 -9999 -9999 -9999 -9999 -9999 -9999 -9999 -9999 -9999 -9999 -9999 -9999 -9999 -9999 -9999 -9999 -9999 -9999 -9999 -9999 -9999 -9999 -9999 -9999 -9999 -9999 -9999 -9999 -9999 -9999 -9999 -9999 -9999 -9999 -9999 -9999 -9999 -9999 -9999 -9999 -9999 -9999 -9999 -9999 -9999 -9999 -9999 -9999 -9999 -9999 -9999 -9999 -9999 -9999 -9999 -9999 -9999 -9999 -9999 -9999 -9999 -9999 -9999 -9999 -9999 -9999 -9999 -9999 -9999 -9999 -9999 -9999 -9999 -9999 -9999 -9999 -9999 -9999 -9999 -9999 -9999 -9999 -9999 -9999 -9999 -9999 -9999 -9999 -9999 -9999 -9999 -9999 -9999 -9999 -9999 -9999 -9999 -9999 -9999 -9999 -9999 -9999 -9999 -9999 -9999 -9999 -9999 -9999 -9999 -9999 -9999 -9999 -9999 -9999 -9999 -9999 -9999 -9999 -9999 -9999 -9999 -9999 -9999 -9999 -9999 -9999 -9999 -9999 -9999 -9999 -9999 -9999 -9999 -9999 -9999 -9999 -9999 -9999 -9999 -9999 -9999 -9999 -9999 -9999 -9999 -9999 -9999 -9999 -9999 -9999 -9999 -9999 -9999 -9999 -9999 -9999 -9999 -9999 -9999 -9999 -9999 -9999 -9999 -9999 -9999 -9999 -9999 -9999 -9999 -9999 -9999 -9999 -9999 -9999 -9999 -9999 -9999 -9999 -9999 -9999 -9999 -9999 -9999 -9999 -9999 -9999 -9999 -9999 -9999 -9999 -9999 -9999 -9999 -9999 -9999 -9999 -9999 -9999 -9999 -9999 -9999 -9999 -9999 -9999 -9999 -9999 -9999 -9999 -9999 -9999 -9999 -9999 -9999 -9999 -9999 -9999 -9999 -9999 -9999 -9999 -9999 -9999 -9999 -9999 -9999 -9999 70.3883495145631 70.3883495145631 70.3883495145631 70.3883495145631 70.3883495145631 70.3883495145631 70.3883495145631 70.3883495145631 70.3883495145631 70.3883495145631 94.4649446494465 94.4649446494465 94.4649446494465 94.4649446494465 94.4649446494465 94.4649446494465 94.4649446494465 94.4649446494465 94.4649446494465 94.4649446494465 94.4649446494465 -9999 -9999 -9999 -9999 -9999 96.6767371601209 96.6767371601209 96.6767371601209 96.6767371601209 99.609375 99.609375 77.6315789473684 86.9918699186992 -9999 -9999 -9999 -9999 -9999
-9999 -9999 -9999 -9999 -9999 -9999 -9999 -9999 -9999 -9999 -9999 -9999 -9999 -9999 -9999 -9999 -9999 -9999 -9999 -9999 -9999 -9999 -9999 -9999 -9999 -9999 -9999 -9999 -9999 -9999 -9999 -9999 -9999 -9999 -9999 -9999 -9999 -9999 -9999 -9999 -9999 -9999 -9999 -9999 -9999 -9999 -9999 -9999 -9999 -9999 -9999 -9999 -9999 -9999 -9999 -9999 -9999 -9999 -9999 -9999 -9999 -9999 -9999 -9999 -9999 -9999 -9999 -9999 -9999 -9999 -9999 -9999 -9999 -9999 -9999 -9999 -9999 -9999 -9999 -9999 -9999 -9999 -9999 -9999 -9999 -9999 -9999 -9999 -9999 -9999 -9999 -9999 -9999 -9999 -9999 -9999 -9999 -9999 -9999 -9999 -9999 -9999 -9999 -9999 -9999 -9999 -9999 -9999 -9999 -9999 -9999 -9999 -9999 -9999 -9999 -9999 -9999 -9999 -9999 -9999 -9999 -9999 -9999 -9999 -9999 -9999 -9999 -9999 -9999 -9999 -9999 -9999 -9999 -9999 -9999 -9999 -9999 -9999 -9999 -9999 -9999 -9999 -9999 -9999 -9999 -9999 -9999 -9999 -9999 -9999 -9999 -9999 -9999 -9999 -9999 -9999 -9999 -9999 -9999 -9999 -9999 -9999 -9999 -9999 -9999 -9999 -9999 -9999 -9999 -9999 -9999 -9999 -9999 -9999 -9999 -9999 -9999 -9999 -9999 -9999 -9999 -9999 -9999 -9999 -9999 -9999 -9999 -9999 -9999 -9999 -9999 -9999 -9999 -9999 -9999 -9999 -9999 -9999 -9999 -9999 -9999 -9999 -9999 -9999 -9999 -9999 -9999 -9999 -9999 -9999 -9999 -9999 -9999 -9999 -9999 -9999 -9999 -9999 -9999 -9999 -9999 -9999 -9999 -9999 -9999 -9999 -9999 -9999 -9999 -9999 -9999 -9999 -9999 -9999 -9999 -9999 -9999 -9999 -9999 -9999 -9999 -9999 -9999 -9999 -9999 -9999 -9999 -9999 -9999 -9999 -9999 -9999 -9999 -9999 -9999 -9999 -9999 -9999 -9999 -9999 -9999 -9999 -9999 -9999 -9999 -9999 -9999 -9999 -9999 -9999 -9999 -9999 -9999 -9999 -9999 -9999 -9999 -9999 -9999 -9999 -9999 -9999 -9999 -9999 -9999 -9999 -9999 -9999 -9999 -9999 -9999 -9999 -9999 -9999 -9999 -9999 -9999 -9999 -9999 -9999 -9999 -9999 -9999 -9999 -9999 -9999 -9999 -9999 -9999 -9999 -9999 -9999 -9999 -9999 -9999 -9999 -9999 -9999 -9999 -9999 -9999 -9999 -9999 -9999 -9999 -9999 -9999 -9999 -9999 -9999 -9999 -9999 -9999 -9999 -9999 -9999 -9999 -9999 -9999 -9999 -9999 -9999 -9999 -9999 -9999 -9999 -9999 -9999 -9999 -9999 -9999 -9999 -9999 -9999 -9999 -9999 -9999 -9999 -9999 -9999 -9999 -9999 -9999 -9999 -9999 -9999 -9999 -9999 -9999 -9999 -9999 -9999 -9999 -9999 -9999 70.3883495145631 70.3883495145631 70.3883495145631 70.3883495145631 70.3883495145631 70.3883495145631 70.3883495145631 70.3883495145631 70.3883495145631 70.3883495145631 70.3883495145631 94.4649446494465 94.4649446494465 94.4649446494465 94.4649446494465 94.4649446494465 94.4649446494465 94.4649446494465 94.4649446494465 94.4649446494465 94.4649446494465 94.4649446494465 -9999 -9999 94.8033707865169 94.8033707865169 96.6767371601209 96.6767371601209 96.6767371601209 96.6767371601209 96.6767371601209 99.609375 99.609375 86.9918699186992 -9999 -9999 -9999 -9999 -9999 -9999
-9999 -9999 -9999 -9999 -9999 -9999 -9999 -9999 -9999 -9999 -9999 -9999 -9999 -9999 -9999 -9999 -9999 -9999 -9999 -9999 -9999 -9999 -9999 -9999 -9999 -9999 -9999 -9999 -9999 -9999 -9999 -9999 -9999 -9999 -9999 -9999 -9999 -9999 -9999 -9999 -9999 -9999 -9999 -9999 -9999 -9999 -9999 -9999 -9999 -9999 -9999 -9999 -9999 -9999 -9999 -9999 -9999 -9999 -9999 -9999 -9999 -9999 -9999 -9999 -9999 -9999 -9999 -9999 -9999 -9999 -9999 -9999 -9999 -9999 -9999 -9999 -9999 -9999 -9999 -9999 -9999 -9999 -9999 -9999 -9999 -9999 -9999 -9999 -9999 -9999 -9999 -9999 -9999 -9999 -9999 -9999 -9999 -9999 -9999 -9999 -9999 -9999 -9999 -9999 -9999 -9999 -9999 -9999 -9999 -9999 -9999 -9999 -9999 -9999 -9999 -9999 -9999 -9999 -9999 -9999 -9999 -9999 -9999 -9999 -9999 -9999 -9999 -9999 -9999 -9999 -9999 -9999 -9999 -9999 -9999 -9999 -9999 -9999 -9999 -9999 -9999 -9999 -9999 -9999 -9999 -9999 -9999 -9999 -9999 -9999 -9999 -9999 -9999 -9999 -9999 -9999 -9999 -9999 -9999 -9999 -9999 -9999 -9999 -9999 -9999 -9999 -9999 -9999 -9999 -9999 -9999 -9999 -9999 -9999 -9999 -9999 -9999 -9999 -9999 -9999 -9999 -9999 -9999 -9999 -9999 -9999 -9999 -9999 -9999 -9999 -9999 -9999 -9999 -9999 -9999 -9999 -9999 -9999 -9999 -9999 -9999 -9999 -9999 -9999 -9999 -9999 -9999 -9999 -9999 -9999 -9999 -9999 -9999 -9999 -9999 -9999 -9999 -9999 -9999 -9999 -9999 -9999 -9999 -9999 -9999 -9999 -9999 -9999 -9999 -9999 -9999 -9999 -9999 -9999 -9999 -9999 -9999 -9999 -9999 -9999 -9999 -9999 -9999 -9999 -9999 -9999 -9999 -9999 -9999 -9999 -9999 -9999 -9999 -9999 -9999 -9999 -9999 -9999 -9999 -9999 -9999 -9999 -9999 -9999 -9999 -9999 -9999 -9999 -9999 -9999 -9999 -9999 -9999 -9999 -9999 -9999 -9999 -9999 -9999 -9999 -9999 -9999 -9999 -9999 -9999 -9999 -9999 -9999 -9999 -9999 -9999 -9999 -9999 -9999 -9999 -9999 -9999 -9999 -9999 -9999 -9999 -9999 -9999 -9999 -9999 -9999 -9999 -9999 -9999 -9999 -9999 -9999 -9999 -9999 -9999 -9999 -9999 -9999 -9999 -9999 -9999 -9999 -9999 -9999 -9999 -9999 -9999 -9999 -9999 -9999 -9999 -9999 -9999 -9999 -9999 -9999 -9999 -9999 -9999 -9999 -9999 -9999 -9999 -9999 -9999 -9999 -9999 -9999 -9999 -9999 -9999 -9999 -9999 -9999 -9999 -9999 -9999 -9999 -9999 -9999 -9999 -9999 -9999 -9999 -9999 -9999 -9999 -9999 -9999 -9999 -9999 -9999 -9999 -9999 70.3883495145631 70.3883495145631 70.3883495145631 70.3883495145631 70.3883495145631 70.3883495145631 70.3883495145631 70.3883495145631 70.3883495145631 70.3883495145631 70.3883495145631 94.4649446494465 94.4649446494465 94.4649446494465 94.4649446494465 94.4649446494465 94.4649446494465 94.4649446494465 94.4649446494465 94.4649446494465 94.4649446494465 94.4649446494465 94.4649446494465 94.8033707865169 94.8033707865169 94.8033707865169 94.8033707865169 96.6767371601209 96.6767371601209 96.6767371601209 97.4770642201835 97.4770642201835 97.4770642201835 -9999 -9999 -9999 -9999 -9999 -9999 -9999 -9999
-9999 -9999 -9999 -9999 -9999 -9999 -9999 -9999 -9999 -9999 -9999 -9999 -9999 -9999 -9999 -9999 -9999 -9999 -9999 -9999 -9999 -9999 -9999 -9999 -9999 -9999 -9999 -9999 -9999 -9999 -9999 -9999 -9999 -9999 -9999 -9999 -9999 -9999 -9999 -9999 -9999 -9999 -9999 -9999 -9999 -9999 -9999 -9999 -9999 -9999 -9999 -9999 -9999 -9999 -9999 -9999 -9999 -9999 -9999 -9999 -9999 -9999 -9999 -9999 -9999 -9999 -9999 -9999 -9999 -9999 -9999 -9999 -9999 -9999 -9999 -9999 -9999 -9999 -9999 -9999 -9999 -9999 -9999 -9999 -9999 -9999 -9999 -9999 -9999 -9999 -9999 -9999 -9999 -9999 -9999 -9999 -9999 -9999 -9999 -9999 -9999 -9999 -9999 -9999 -9999 -9999 -9999 -9999 -9999 -9999 -9999 -9999 -9999 -9999 -9999 -9999 -9999 -9999 -9999 -9999 -9999 -9999 -9999 -9999 -9999 -9999 -9999 -9999 -9999 -9999 -9999 -9999 -9999 -9999 -9999 -9999 -9999 -9999 -9999 -9999 -9999 -9999 -9999 -9999 -9999 -9999 -9999 -9999 -9999 -9999 -9999 -9999 -9999 -9999 -9999 -9999 -9999 -9999 -9999 -9999 -9999 -9999 -9999 -9999 -9999 -9999 -9999 -9999 -9999 -9999 -9999 -9999 -9999 -9999 -9999 -9999 -9999 -9999 -9999 -9999 -9999 -9999 -9999 -9999 -9999 -9999 -9999 -9999 -9999 -9999 -9999 -9999 -9999 -9999 -9999 -9999 -9999 -9999 -9999 -9999 -9999 -9999 -9999 -9999 -9999 -9999 -9999 -9999 -9999 -9999 -9999 -9999 -9999 -9999 -9999 -9999 -9999 -9999 -9999 -9999 -9999 -9999 -9999 -9999 -9999 -9999 -9999 -9999 -9999 -9999 -9999 -9999 -9999 -9999 -9999 -9999 -9999 -9999 -9999 -9999 -9999 -9999 -9999 -9999 -9999 -9999 -9999 -9999 -9999 -9999 -9999 -9999 -9999 -9999 -9999 -9999 -9999 -9999 -9999 -9999 -9999 -9999 -9999 -9999 -9999 -9999 -9999 -9999 -9999 -9999 -9999 -9999 -9999 -9999 -9999 -9999 -9999 -9999 -9999 -9999 -9999 -9999 -9999 -9999 -9999 -9999 -9999 -9999 -9999 -9999 -9999 -9999 -9999 -9999 -9999 -9999 -9999 -9999 -9999 -9999 -9999 -9999 -9999 -9999 -9999 -9999 -9999 -9999 -9999 -9999 -9999 -9999 -9999 -9999 -9999 -9999 -9999 -9999 -9999 -9999 -9999 -9999 -9999 -9999 -9999 -9999 -9999 -9999 -9999 -9999 -9999 -9999 -9999 -9999 -9999 -9999 -9999 -9999 -9999 -9999 -9999 -9999 -9999 -9999 -9999 -9999 -9999 -9999 -9999 -9999 -9999 -9999 -9999 -9999 -9999 -9999 -9999 -9999 -9999 -9999 -9999 -9999 -9999 -9999 -9999 -9999 -9999 -9999 -9999 -9999 -9999 -9999 -9999 70.3883495145631 70.3883495145631 70.3883495145631 70.3883495145631 70.3883495145631 70.3883495145631 70.3883495145631 70.3883495145631 70.3883495145631 70.3883495145631 70.3883495145631 70.3883495145631 94.4649446494465 94.4649446494465 94.4649446494465 94.4649446494465 94.4649446494465 94.4649446494465 94.4649446494465 94.4649446494465 94.4649446494465 94.4649446494465 94.4649446494465 94.8033707865169 94.8033707865169 94.8033707865169 94.8033707865169 94.8033707865169 94.1780821917808 94.1780821917808 97.4770642201835 97.4770642201835 86.9918699186992 86.9918699186992 -9999 -9999 -9999 -9999 -9999 -9999 -9999 -9999
-9999 -9999 -9999 -9999 -9999 -9999 -9999 -9999 -9999 -9999 -9999 -9999 -9999 -9999 -9999 -9999 -9999 -9999 -9999 -9999 -9999 -9999 -9999 -9999 -9999 -9999 -9999 -9999 -9999 -9999 -9999 -9999 -9999 -9999 -9999 -9999 -9999 -9999 -9999 -9999 -9999 -9999 -9999 -9999 -9999 -9999 -9999 -9999 -9999 -9999 -9999 -9999 -9999 -9999 -9999 -9999 -9999 -9999 -9999 -9999 -9999 -9999 -9999 -9999 -9999 -9999 -9999 -9999 -9999 -9999 -9999 -9999 -9999 -9999 -9999 -9999 -9999 -9999 -9999 -9999 -9999 -9999 -9999 -9999 -9999 -9999 -9999 -9999 -9999 -9999 -9999 -9999 -9999 -9999 -9999 -9999 -9999 -9999 -9999 -9999 -9999 -9999 -9999 -9999 -9999 -9999 -9999 -9999 -9999 -9999 -9999 -9999 -9999 -9999 -9999 -9999 -9999 -9999 -9999 -9999 -9999 -9999 -9999 -9999 -9999 -9999 -9999 -9999 -9999 -9999 -9999 -9999 -9999 -9999 -9999 -9999 -9999 -9999 -9999 -9999 -9999 -9999 -9999 -9999 -9999 -9999 -9999 -9999 -9999 -9999 -9999 -9999 -9999 -9999 -9999 -9999 -9999 -9999 -9999 -9999 -9999 -9999 -9999 -9999 -9999 -9999 -9999 -9999 -9999 -9999 -9999 -9999 -9999 -9999 -9999 -9999 -9999 -9999 -9999 -9999 -9999 -9999 -9999 -9999 -9999 -9999 -9999 -9999 -9999 -9999 -9999 -9999 -9999 -9999 -9999 -9999 -9999 -9999 -9999 -9999 -9999 -9999 -9999 -9999 -9999 -9999 -9999 -9999 -9999 -9999 -9999 -9999 -9999 -9999 -9999 -9999 -9999 -9999 -9999 -9999 -9999 -9999 -9999 -9999 -9999 -9999 -9999 -9999 -9999 -9999 -9999 -9999 -9999 -9999 -9999 -9999 -9999 -9999 -9999 -9999 -9999 -9999 -9999 -9999 -9999 -9999 -9999 -9999 -9999 -9999 -9999 -9999 -9999 -9999 -9999 -9999 -9999 -9999 -9999 -9999 -9999 -9999 -9999 -9999 -9999 -9999 -9999 -9999 -9999 -9999 -9999 -9999 -9999 -9999 -9999 -9999 -9999 -9999 -9999 -9999 -9999 -9999 -9999 -9999 -9999 -9999 -9999 -9999 -9999 -9999 -9999 -9999 -9999 -9999 -9999 -9999 -9999 -9999 -9999 -9999 -9999 -9999 -9999 -9999 -9999 -9999 -9999 -9999 -9999 -9999 -9999 -9999 -9999 -9999 -9999 -9999 -9999 -9999 -9999 -9999 -9999 -9999 -9999 -9999 -9999 -9999 -9999 -9999 -9999 -9999 -9999 -9999 -9999 -9999 -9999 -9999 -9999 -9999 -9999 -9999 -9999 -9999 -9999 -9999 -9999 -9999 -9999 -9999 -9999 -9999 -9999 -9999 -9999 -9999 -9999 -9999 -9999 -9999 -9999 -9999 -9999 -9999 -9999 -9999 -9999 -9999 -9999 -9999 -9999 -9999 -9999 -9999 70.3883495145631 70.3883495145631 70.3883495145631 70.3883495145631 70.3883495145631 70.3883495145631 70.3883495145631 70.3883495145631 70.3883495145631 70.3883495145631 70.3883495145631 70.3883495145631 94.4649446494465 94.4649446494465 94.4649446494465 94.4649446494465 94.4649446494465 94.4649446494465 94.4649446494465 94.4649446494465 94.4649446494465 94.4649446494465 94.4649446494465 94.4649446494465 94.8033707865169 94.8033707865169 94.8033707865169 94.8033707865169 94.8033707865169 96.2962962962963 96.2962962962963 86.9918699186992 86.9918699186992 -9999 -9999 -9999 -9999 -9999 -9999 -9999 -9999 -9999 -9999
-9999 -9999 -9999 -9999 -9999 -9999 -9999 -9999 -9999 -9999 -9999 -9999 -9999 -9999 -9999 -9999 -9999 -9999 -9999 -9999 -9999 -9999 -9999 -9999 -9999 -9999 -9999 -9999 -9999 -9999 -9999 -9999 -9999 -9999 -9999 -9999 -9999 -9999 -9999 -9999 -9999 -9999 -9999 -9999 -9999 -9999 -9999 -9999 -9999 -9999 -9999 -9999 -9999 -9999 -9999 -9999 -9999 -9999 -9999 -9999 -9999 -9999 -9999 -9999 -9999 -9999 -9999 -9999 -9999 -9999 -9999 -9999 -9999 -9999 -9999 -9999 -9999 -9999 -9999 -9999 -9999 -9999 -9999 -9999 -9999 -9999 -9999 -9999 -9999 -9999 -9999 -9999 -9999 -9999 -9999 -9999 -9999 -9999 -9999 -9999 -9999 -9999 -9999 -9999 -9999 -9999 -9999 -9999 -9999 -9999 -9999 -9999 -9999 -9999 -9999 -9999 -9999 -9999 -9999 -9999 -9999 -9999 -9999 -9999 -9999 -9999 -9999 -9999 -9999 -9999 -9999 -9999 -9999 -9999 -9999 -9999 -9999 -9999 -9999 -9999 -9999 -9999 -9999 -9999 -9999 -9999 -9999 -9999 -9999 -9999 -9999 -9999 -9999 -9999 -9999 -9999 -9999 -9999 -9999 -9999 -9999 -9999 -9999 -9999 -9999 -9999 -9999 -9999 -9999 -9999 -9999 -9999 -9999 -9999 -9999 -9999 -9999 -9999 -9999 -9999 -9999 -9999 -9999 -9999 -9999 -9999 -9999 -9999 -9999 -9999 -9999 -9999 -9999 -9999 -9999 -9999 -9999 -9999 -9999 -9999 -9999 -9999 -9999 -9999 -9999 -9999 -9999 -9999 -9999 -9999 -9999 -9999 -9999 -9999 -9999 -9999 -9999 -9999 -9999 -9999 -9999 -9999 -9999 -9999 -9999 -9999 -9999 -9999 -9999 -9999 -9999 -9999 -9999 -9999 -9999 -9999 -9999 -9999 -9999 -9999 -9999 -9999 -9999 -9999 -9999 -9999 -9999 -9999 -9999 -9999 -9999 -9999 -9999 -9999 -9999 -9999 -9999 -9999 -9999 -9999 -9999 -9999 -9999 -9999 -9999 -9999 -9999 -9999 -9999 -9999 -9999 -9999 -9999 -9999 -9999 -9999 -9999 -9999 -9999 -9999 -9999 -9999 -9999 -9999 -9999 -9999 -9999 -9999 -9999 -9999 -9999 -9999 -9999 -9999 -9999 -9999 -9999 -9999 -9999 -9999 -9999 -9999 -9999 -9999 -9999 -9999 -9999 -9999 -9999 -9999 -9999 -9999 -9999 -9999 -9999 -9999 -9999 -9999 -9999 -9999 -9999 -9999 -9999 -9999 -9999 -9999 -9999 -9999 -9999 -9999 -9999 -9999 -9999 -9999 -9999 -9999 -9999 -9999 -9999 -9999 -9999 -9999 -9999 -9999 -9999 -9999 -9999 -9999 -9999 -9999 -9999 -9999 -9999 -9999 -9999 -9999 -9999 -9999 -9999 -9999 -9999 -9999 -9999 -9999 -9999 -9999 -9999 -9999 -9999 -9999 -9999 -9999 70.3883495145631 70.3883495145631 70.3883495145631 70.3883495145631 70.3883495145631 70.3883495145631 70.3883495145631 70.3883495145631 70.3883495145631 70.3883495145631 70.3883495145631 70.3883495145631 94.4649446494465 94.4649446494465 94.4649446494465 94.4649446494465 94.4649446494465 94.4649446494465 94.4649446494465 94.4649446494465 94.4649446494465 94.4649446494465 94.4649446494465 94.8033707865169 94.8033707865169 94.8033707865169 94.8033707865169 94.8033707865169 94.1780821917808 96.2962962962963 96.2962962962963 86.9918699186992 -9999 -9999 -9999 -9999 -9999 -9999 -9999 -9999 -9999 -9999 -9999
-9999 -9999 -9999 -9999 -9999 -9999 -9999 -9999 -9999 -9999 -9999 -9999 -9999 -9999 -9999 -9999 -9999 -9999 -9999 -9999 -9999 -9999 -9999 -9999 -9999 -9999 -9999 -9999 -9999 -9999 -9999 -9999 -9999 -9999 -9999 -9999 -9999 -9999 -9999 -9999 -9999 -9999 -9999 -9999 -9999 -9999 -9999 -9999 -9999 -9999 -9999 -9999 -9999 -9999 -9999 -9999 -9999 -9999 -9999 -9999 -9999 -9999 -9999 -9999 -9999 -9999 -9999 -9999 -9999 -9999 -9999 -9999 -9999 -9999 -9999 -9999 -9999 -9999 -9999 -9999 -9999 -9999 -9999 -9999 -9999 -9999 -9999 -9999 -9999 -9999 -9999 -9999 -9999 -9999 -9999 -9999 -9999 -9999 -9999 -9999 -9999 -9999 -9999 -9999 -9999 -9999 -9999 -9999 -9999 -9999 -9999 -9999 -9999 -9999 -9999 -9999 -9999 -9999 -9999 -9999 -9999 -9999 -9999 -9999 -9999 -9999 -9999 -9999 -9999 -9999 -9999 -9999 -9999 -9999 -9999 -9999 -9999 -9999 -9999 -9999 -9999 -9999 -9999 -9999 -9999 -9999 -9999 -9999 -9999 -9999 -9999 -9999 -9999 -9999 -9999 -9999 -9999 -9999 -9999 -9999 -9999 -9999 -9999 -9999 -9999 -9999 -9999 -9999 -9999 -9999 -9999 -9999 -9999 -9999 -9999 -9999 -9999 -9999 -9999 -9999 -9999 -9999 -9999 -9999 -9999 -9999 -9999 -9999 -9999 -9999 -9999 -9999 -9999 -9999 -9999 -9999 -9999 -9999 -9999 -9999 -9999 -9999 -9999 -9999 -9999 -9999 -9999 -9999 -9999 -9999 -9999 -9999 -9999 -9999 -9999 -9999 -9999 -9999 -9999 -9999 -9999 -9999 -9999 -9999 -9999 -9999 -9999 -9999 -9999 -9999 -9999 -9999 -9999 -9999 -9999 -9999 -9999 -9999 -9999 -9999 -9999 -9999 -9999 -9999 -9999 -9999 -9999 -9999 -9999 -9999 -9999 -9999 -9999 -9999 -9999 -9999 -9999 -9999 -9999 -9999 -9999 -9999 -9999 -9999 -9999 -9999 -9999 -9999 -9999 -9999 -9999 -9999 -9999 -9999 -9999 -9999 -9999 -9999 -9999 -9999 -9999 -9999 -9999 -9999 -9999 -9999 -9999 -9999 -9999 -9999 -9999 -9999 -9999 -9999 -9999 -9999 -9999 -9999 -9999 -9999 -9999 -9999 -9999 -9999 -9999 -9999 -9999 -9999 -9999 -9999 -9999 -9999 -9999 -9999 -9999 -9999 -9999 -9999 -9999 -9999 -9999 -9999 -9999 -9999 -9999 -9999 -9999 -9999 -9999 -9999 -9999 -9999 -9999 -9999 -9999 -9999 -9999 -9999 -9999 -9999 -9999 -9999 -9999 -9999 -9999 -9999 -9999 -9999 -9999 -9999 -9999 -9999 -9999 -9999 -9999 -9999 -9999 -9999 -9999 -9999 -9999 -9999 -9999 -9999 -9999 -9999 -9999 -9999 -9999 -9999 -9999 70.3883495145631 70.3883495145631 70.3883495145631 70.3883495145631 70.3883495145631 70.3883495145631 70.3883495145631 70.3883495145631 70.3883495145631 70.3883495145631 70.3883495145631 70.3883495145631 94.4649446494465 94.4649446494465 94.4649446494465 94.4649446494465 94.4649446494465 94.4649446494465 94.4649446494465 94.4649446494465 94.4649446494465 94.4649446494465 94.4649446494465 94.4649446494465 94.8033707865169 94.8033707865169 94.8033707865169 94.8033707865169 94.8033707865169 94.1780821917808 94.1780821917808 96.2962962962963 86.9918699186992 -9999 -9999 -9999 -9999 -9999 -9999 -9999 -9999 -9999 -9999 -9999
-9999 -9999 -9999 -9999 -9999 -9999 -9999 -9999 -9999 -9999 -9999 -9999 -9999 -9999 -9999 -9999 -9999 -9999 -9999 -9999 -9999 -9999 -9999 -9999 -9999 -9999 -9999 -9999 -9999 -9999 -9999 -9999 -9999 -9999 -9999 -9999 -9999 -9999 -9999 -9999 -9999 -9999 -9999 -9999 -9999 -9999 -9999 -9999 -9999 -9999 -9999 -9999 -9999 -9999 -9999 -9999 -9999 -9999 -9999 -9999 -9999 -9999 -9999 -9999 -9999 -9999 -9999 -9999 -9999 -9999 -9999 -9999 -9999 -9999 -9999 -9999 -9999 -9999 -9999 -9999 -9999 -9999 -9999 -9999 -9999 -9999 -9999 -9999 -9999 -9999 -9999 -9999 -9999 -9999 -9999 -9999 -9999 -9999 -9999 -9999 -9999 -9999 -9999 -9999 -9999 -9999 -9999 -9999 -9999 -9999 -9999 -9999 -9999 -9999 -9999 -9999 -9999 -9999 -9999 -9999 -9999 -9999 -9999 -9999 -9999 -9999 -9999 -9999 -9999 -9999 -9999 -9999 -9999 -9999 -9999 -9999 -9999 -9999 -9999 -9999 -9999 -9999 -9999 -9999 -9999 -9999 -9999 -9999 -9999 -9999 -9999 -9999 -9999 -9999 -9999 -9999 -9999 -9999 -9999 -9999 -9999 -9999 -9999 -9999 -9999 -9999 -9999 -9999 -9999 -9999 -9999 -9999 -9999 -9999 -9999 -9999 -9999 -9999 -9999 -9999 -9999 -9999 -9999 -9999 -9999 -9999 -9999 -9999 -9999 -9999 -9999 -9999 -9999 -9999 -9999 -9999 -9999 -9999 -9999 -9999 -9999 -9999 -9999 -9999 -9999 -9999 -9999 -9999 -9999 -9999 -9999 -9999 -9999 -9999 -9999 -9999 -9999 -9999 -9999 -9999 -9999 -9999 -9999 -9999 -9999 -9999 -9999 -9999 -9999 -9999 -9999 -9999 -9999 -9999 -9999 -9999 -9999 -9999 -9999 -9999 -9999 -9999 -9999 -9999 -9999 -9999 -9999 -9999 -9999 -9999 -9999 -9999 -9999 -9999 -9999 -9999 -9999 -9999 -9999 -9999 -9999 -9999 -9999 -9999 -9999 -9999 -9999 -9999 -9999 -9999 -9999 -9999 -9999 -9999 -9999 -9999 -9999 -9999 -9999 -9999 -9999 -9999 -9999 -9999 -9999 -9999 -9999 -9999 -9999 -9999 -9999 -9999 -9999 -9999 -9999 -9999 -9999 -9999 -9999 -9999 -9999 -9999 -9999 -9999 -9999 -9999 -9999 -9999 -9999 -9999 -9999 -9999 -9999 -9999 -9999 -9999 -9999 -9999 -9999 -9999 -9999 -9999 -9999 -9999 -9999 -9999 -9999 -9999 -9999 -9999 -9999 -9999 -9999 -9999 -9999 -9999 -9999 -9999 -9999 -9999 -9999 -9999 -9999 -9999 -9999 -9999 -9999 -9999 -9999 -9999 -9999 -9999 -9999 -9999 -9999 -9999 -9999 -9999 -9999 -9999 -9999 -9999 -9999 -9999 -9999 -9999 -9999 -9999 -9999 -9999 70.3883495145631 70.3883495145631 70.3883495145631 70.3883495145631 70.3883495145631 70.3883495145631 70.3883495145631 70.3883495145631 70.3883495145631 70.3883495145631 70.3883495145631 70.3883495145631 70.3883495145631 94.4649446494465 94.4649446494465 94.4649446494465 94.4649446494465 94.4649446494465 94.4649446494465 94.4649446494465 94.4649446494465 94.4649446494465 94.4649446494465 94.4649446494465 94.4649446494465 94.8033707865169 94.8033707865169 94.8033707865169 94.8033707865169 94.8033707865169 94.1780821917808 94.1780821917808 86.9918699186992 86.9918699186992 -9999 -9999 -9999 -9999 -9999 -9999 -9999 -9999 -9999 -9999 -9999
-9999 -9999 -9999 -9999 -9999 -9999 -9999 -9999 -9999 -9999 -9999 -9999 -9999 -9999 -9999 -9999 -9999 -9999 -9999 -9999 -9999 -9999 -9999 -9999 -9999 -9999 -9999 -9999 -9999 -9999 -9999 -9999 -9999 -9999 -9999 -9999 -9999 -9999 -9999 -9999 -9999 -9999 -9999 -9999 -9999 -9999 -9999 -9999 -9999 -9999 -9999 -9999 -9999 -9999 -9999 -9999 -9999 -9999 -9999 -9999 -9999 -9999 -9999 -9999 -9999 -9999 -9999 -9999 -9999 -9999 -9999 -9999 -9999 -9999 -9999 -9999 -9999 -9999 -9999 -9999 -9999 -9999 -9999 -9999 -9999 -9999 -9999 -9999 -9999 -9999 -9999 -9999 -9999 -9999 -9999 -9999 -9999 -9999 -9999 -9999 -9999 -9999 -9999 -9999 -9999 -9999 -9999 -9999 -9999 -9999 -9999 -9999 -9999 -9999 -9999 -9999 -9999 -9999 -9999 -9999 -9999 -9999 -9999 -9999 -9999 -9999 -9999 -9999 -9999 -9999 -9999 -9999 -9999 -9999 -9999 -9999 -9999 -9999 -9999 -9999 -9999 -9999 -9999 -9999 -9999 -9999 -9999 -9999 -9999 -9999 -9999 -9999 -9999 -9999 -9999 -9999 -9999 -9999 -9999 -9999 -9999 -9999 -9999 -9999 -9999 -9999 -9999 -9999 -9999 -9999 -9999 -9999 -9999 -9999 -9999 -9999 -9999 -9999 -9999 -9999 -9999 -9999 -9999 -9999 -9999 -9999 -9999 -9999 -9999 -9999 -9999 -9999 -9999 -9999 -9999 -9999 -9999 -9999 -9999 -9999 -9999 -9999 -9999 -9999 -9999 -9999 -9999 -9999 -9999 -9999 -9999 -9999 -9999 -9999 -9999 -9999 -9999 -9999 -9999 -9999 -9999 -9999 -9999 -9999 -9999 -9999 -9999 -9999 -9999 -9999 -9999 -9999 -9999 -9999 -9999 -9999 -9999 -9999 -9999 -9999 -9999 -9999 -9999 -9999 -9999 -9999 -9999 -9999 -9999 -9999 -9999 -9999 -9999 -9999 -9999 -9999 -9999 -9999 -9999 -9999 -9999 -9999 -9999 -9999 -9999 -9999 -9999 -9999 -9999 -9999 -9999 -9999 -9999 -9999 -9999 -9999 -9999 -9999 -9999 -9999 -9999 -9999 -9999 -9999 -9999 -9999 -9999 -9999 -9999 -9999 -9999 -9999 -9999 -9999 -9999 -9999 -9999 -9999 -9999 -9999 -9999 -9999 -9999 -9999 -9999 -9999 -9999 -9999 -9999 -9999 -9999 -9999 -9999 -9999 -9999 -9999 -9999 -9999 -9999 -9999 -9999 -9999 -9999 -9999 -9999 -9999 -9999 -9999 -9999 -9999 -9999 -9999 -9999 -9999 -9999 -9999 -9999 -9999 -9999 -9999 -9999 -9999 -9999 -9999 -9999 -9999 -9999 -9999 -9999 -9999 -9999 -9999 -9999 -9999 -9999 -9999 -9999 -9999 -9999 -9999 -9999 -9999 -9999 -9999 -9999 -9999 -9999 -9999 -9999 70.3883495145631 70.3883495145631 70.3883495145631 70.3883495145631 70.3883495145631 70.3883495145631 70.3883495145631 70.3883495145631 70.3883495145631 70.3883495145631 70.3883495145631 70.3883495145631 70.3883495145631 94.4649446494465 94.4649446494465 94.4649446494465 94.4649446494465 94.4649446494465 94.4649446494465 94.4649446494465 94.4649446494465 94.4649446494465 94.4649446494465 94.4649446494465 94.4649446494465 94.2334739803094 94.2334739803094 94.2334739803094 94.2334739803094 94.2334739803094 94.2334739803094 94.151212553495 94.1780821917808 86.9918699186992 -9999 -9999 -9999 -9999 -9999 -9999 -9999 -9999 -9999 -9999 -9999 -9999
-9999 -9999 -9999 -9999 -9999 -9999 -9999 -9999 -9999 -9999 -9999 -9999 -9999 -9999 -9999 -9999 -9999 -9999 -9999 -9999 -9999 -9999 -9999 -9999 -9999 -9999 -9999 -9999 -9999 -9999 -9999 -9999 -9999 -9999 -9999 -9999 -9999 -9999 -9999 -9999 -9999 -9999 -9999 -9999 -9999 -9999 -9999 -9999 -9999 -9999 -9999 -9999 -9999 -9999 -9999 -9999 -9999 -9999 -9999 -9999 -9999 -9999 -9999 -9999 -9999 -9999 -9999 -9999 -9999 -9999 -9999 -9999 -9999 -9999 -9999 -9999 -9999 -9999 -9999 -9999 -9999 -9999 -9999 -9999 -9999 -9999 -9999 -9999 -9999 -9999 -9999 -9999 -9999 -9999 -9999 -9999 -9999 -9999 -9999 -9999 -9999 -9999 -9999 -9999 -9999 -9999 -9999 -9999 -9999 -9999 -9999 -9999 -9999 -9999 -9999 -9999 -9999 -9999 -9999 -9999 -9999 -9999 -9999 -9999 -9999 -9999 -9999 -9999 -9999 -9999 -9999 -9999 -9999 -9999 -9999 -9999 -9999 -9999 -9999 -9999 -9999 -9999 -9999 -9999 -9999 -9999 -9999 -9999 -9999 -9999 -9999 -9999 -9999 -9999 -9999 -9999 -9999 -9999 -9999 -9999 -9999 -9999 -9999 -9999 -9999 -9999 -9999 -9999 -9999 -9999 -9999 -9999 -9999 -9999 -9999 -9999 -9999 -9999 -9999 -9999 -9999 -9999 -9999 -9999 -9999 -9999 -9999 -9999 -9999 -9999 -9999 -9999 -9999 -9999 -9999 -9999 -9999 -9999 -9999 -9999 -9999 -9999 -9999 -9999 -9999 -9999 -9999 -9999 -9999 -9999 -9999 -9999 -9999 -9999 -9999 -9999 -9999 -9999 -9999 -9999 -9999 -9999 -9999 -9999 -9999 -9999 -9999 -9999 -9999 -9999 -9999 -9999 -9999 -9999 -9999 -9999 -9999 -9999 -9999 -9999 -9999 -9999 -9999 -9999 -9999 -9999 -9999 -9999 -9999 -9999 -9999 -9999 -9999 -9999 -9999 -9999 -9999 -9999 -9999 -9999 -9999 -9999 -9999 -9999 -9999 -9999 -9999 -9999 -9999 -9999 -9999 -9999 -9999 -9999 -9999 -9999 -9999 -9999 -9999 -9999 -9999 -9999 -9999 -9999 -9999 -9999 -9999 -9999 -9999 -9999 -9999 -9999 -9999 -9999 -9999 -9999 -9999 -9999 -9999 -9999 -9999 -9999 -9999 -9999 -9999 -9999 -9999 -9999 -9999 -9999 -9999 -9999 -9999 -9999 -9999 -9999 -9999 -9999 -9999 -9999 -9999 -9999 -9999 -9999 -9999 -9999 -9999 -9999 -9999 -9999 -9999 -9999 -9999 -9999 -9999 -9999 -9999 -9999 -9999 -9999 -9999 -9999 -9999 -9999 -9999 -9999 -9999 -9999 -9999 -9999 -9999 -9999 -9999 -9999 -9999 -9999 -9999 -9999 -9999 -9999 -9999 -9999 -9999 -9999 -9999 -9999 -9999 -9999 70.3883495145631 70.3883495145631 70.3883495145631 70.3883495145631 70.3883495145631 70.3883495145631 70.3883495145631 70.3883495145631 70.3883495145631 70.3883495145631 70.3883495145631 70.3883495145631 70.3883495145631 70.3883495145631 94.4649446494465 94.4649446494465 94.4649446494465 94.4649446494465 94.4649446494465 94.4649446494465 94.4649446494465 94.4649446494465 94.4649446494465 94.4649446494465 94.4649446494465 94.4649446494465 94.2334739803094 94.2334739803094 94.2334739803094 94.2334739803094 94.2334739803094 94.2334739803094 94.151212553495 94.151212553495 80.2675585284281 -9999 -9999 -9999 -9999 -9999 -9999 -9999 -9999 -9999 -9999 -9999 -9999
-9999 -9999 -9999 -9999 -9999 -9999 -9999 -9999 -9999 -9999 -9999 -9999 -9999 -9999 -9999 -9999 -9999 -9999 -9999 -9999 -9999 -9999 -9999 -9999 -9999 -9999 -9999 -9999 -9999 -9999 -9999 -9999 -9999 -9999 -9999 -9999 -9999 -9999 -9999 -9999 -9999 -9999 -9999 -9999 -9999 -9999 -9999 -9999 -9999 -9999 -9999 -9999 -9999 -9999 -9999 -9999 -9999 -9999 -9999 -9999 -9999 -9999 -9999 -9999 -9999 -9999 -9999 -9999 -9999 -9999 -9999 -9999 -9999 -9999 -9999 -9999 -9999 -9999 -9999 -9999 -9999 -9999 -9999 -9999 -9999 -9999 -9999 -9999 -9999 -9999 -9999 -9999 -9999 -9999 -9999 -9999 -9999 -9999 -9999 -9999 -9999 -9999 -9999 -9999 -9999 -9999 -9999 -9999 -9999 -9999 -9999 -9999 -9999 -9999 -9999 -9999 -9999 -9999 -9999 -9999 -9999 -9999 -9999 -9999 -9999 -9999 -9999 -9999 -9999 -9999 -9999 -9999 -9999 -9999 -9999 -9999 -9999 -9999 -9999 -9999 -9999 -9999 -9999 -9999 -9999 -9999 -9999 -9999 -9999 -9999 -9999 -9999 -9999 -9999 -9999 -9999 -9999 -9999 -9999 -9999 -9999 -9999 -9999 -9999 -9999 -9999 -9999 -9999 -9999 -9999 -9999 -9999 -9999 -9999 -9999 -9999 -9999 -9999 -9999 -9999 -9999 -9999 -9999 -9999 -9999 -9999 -9999 -9999 -9999 -9999 -9999 -9999 -9999 -9999 -9999 -9999 -9999 -9999 -9999 -9999 -9999 -9999 -9999 -9999 -9999 -9999 -9999 -9999 -9999 -9999 -9999 -9999 -9999 -9999 -9999 -9999 -9999 -9999 -9999 -9999 -9999 -9999 -9999 -9999 -9999 -9999 -9999 -9999 -9999 -9999 -9999 -9999 -9999 -9999 -9999 -9999 -9999 -9999 -9999 -9999 -9999 -9999 -9999 -9999 -9999 -9999 -9999 -9999 -9999 -9999 -9999 -9999 -9999 -9999 -9999 -9999 -9999 -9999 -9999 -9999 -9999 -9999 -9999 -9999 -9999 -9999 -9999 -9999 -9999 -9999 -9999 -9999 -9999 -9999 -9999 -9999 -9999 -9999 -9999 -9999 -9999 -9999 -9999 -9999 -9999 -9999 -9999 -9999 -9999 -9999 -9999 -9999 -9999 -9999 -9999 -9999 -9999 -9999 -9999 -9999 -9999 -9999 -9999 -9999 -9999 -9999 -9999 -9999 -9999 -9999 -9999 -9999 -9999 -9999 -9999 -9999 -9999 -9999 -9999 -9999 -9999 -9999 -9999 -9999 -9999 -9999 -9999 -9999 -9999 -9999 -9999 -9999 -9999 -9999 -9999 -9999 -9999 -9999 -9999 -9999 -9999 -9999 -9999 -9999 -9999 -9999 -9999 -9999 -9999 -9999 -9999 -9999 -9999 -9999 -9999 -9999 -9999 -9999 -9999 -9999 -9999 -9999 -9999 -9999 -9999 -9999 -9999 70.3883495145631 70.3883495145631 70.3883495145631 70.3883495145631 70.3883495145631 70.3883495145631 70.3883495145631 70.3883495145631 70.3883495145631 70.3883495145631 70.3883495145631 70.3883495145631 70.3883495145631 70.3883495145631 94.4649446494465 94.4649446494465 94.4649446494465 94.4649446494465 94.4649446494465 94.4649446494465 94.4649446494465 94.4649446494465 94.4649446494465 94.4649446494465 94.4649446494465 94.4649446494465 94.4649446494465 94.2334739803094 94.2334739803094 94.2334739803094 94.2334739803094 94.2334739803094 94.2334739803094 94.151212553495 94.151212553495 80.2675585284281 -9999 -9999 -9999 -9999 -9999 -9999 -9999 -9999 -9999 -9999 -9999 -9999
-9999 -9999 -9999 -9999 -9999 -9999 -9999 -9999 -9999 -9999 -9999 -9999 -9999 -9999 -9999 -9999 -9999 -9999 -9999 -9999 -9999 -9999 -9999 -9999 -9999 -9999 -9999 -9999 -9999 -9999 -9999 -9999 -9999 -9999 -9999 -9999 -9999 -9999 -9999 -9999 -9999 -9999 -9999 -9999 -9999 -9999 -9999 -9999 -9999 -9999 -9999 -9999 -9999 -9999 -9999 -9999 -9999 -9999 -9999 -9999 -9999 -9999 -9999 -9999 -9999 -9999 -9999 -9999 -9999 -9999 -9999 -9999 -9999 -9999 -9999 -9999 -9999 -9999 -9999 -9999 -9999 -9999 -9999 -9999 -9999 -9999 -9999 -9999 -9999 -9999 -9999 -9999 -9999 -9999 -9999 -9999 -9999 -9999 -9999 -9999 -9999 -9999 -9999 -9999 -9999 -9999 -9999 -9999 -9999 -9999 -9999 -9999 -9999 -9999 -9999 -9999 -9999 -9999 -9999 -9999 -9999 -9999 -9999 -9999 -9999 -9999 -9999 -9999 -9999 -9999 -9999 -9999 -9999 -9999 -9999 -9999 -9999 -9999 -9999 -9999 -9999 -9999 -9999 -9999 -9999 -9999 -9999 -9999 -9999 -9999 -9999 -9999 -9999 -9999 -9999 -9999 -9999 -9999 -9999 -9999 -9999 -9999 -9999 -9999 -9999 -9999 -9999 -9999 -9999 -9999 -9999 -9999 -9999 -9999 -9999 -9999 -9999 -9999 -9999 -9999 -9999 -9999 -9999 -9999 -9999 -9999 -9999 -9999 -9999 -9999 -9999 -9999 -9999 -9999 -9999 -9999 -9999 -9999 -9999 -9999 -9999 -9999 -9999 -9999 -9999 -9999 -9999 -9999 -9999 -9999 -9999 -9999 -9999 -9999 -9999 -9999 -9999 -9999 -9999 -9999 -9999 -9999 -9999 -9999 -9999 -9999 -9999 -9999 -9999 -9999 -9999 -9999 -9999 -9999 -9999 -9999 -9999 -9999 -9999 -9999 -9999 -9999 -9999 -9999 -9999 -9999 -9999 -9999 -9999 -9999 -9999 -9999 -9999 -9999 -9999 -9999 -9999 -9999 -9999 -9999 -9999 -9999 -9999 -9999 -9999 -9999 -9999 -9999 -9999 -9999 -9999 -9999 -9999 -9999 -9999 -9999 -9999 -9999 -9999 -9999 -9999 -9999 -9999 -9999 -9999 -9999 -9999 -9999 -9999 -9999 -9999 -9999 -9999 -9999 -9999 -9999 -9999 -9999 -9999 -9999 -9999 -9999 -9999 -9999 -9999 -9999 -9999 -9999 -9999 -9999 -9999 -9999 -9999 -9999 -9999 -9999 -9999 -9999 -9999 -9999 -9999 -9999 -9999 -9999 -9999 -9999 -9999 -9999 -9999 -9999 -9999 -9999 -9999 -9999 -9999 -9999 -9999 -9999 -9999 -9999 -9999 -9999 -9999 -9999 -9999 -9999 -9999 -9999 -9999 -9999 -9999 -9999 -9999 -9999 -9999 -9999 -9999 -9999 -9999 -9999 -9999 -9999 -9999 -9999 -9999 -9999 70.3883495145631 70.3883495145631 70.3883495145631 70.3883495145631 70.3883495145631 70.3883495145631 70.3883495145631 70.3883495145631 70.3883495145631 70.3883495145631 70.3883495145631 70.3883495145631 70.3883495145631 70.3883495145631 70.3883495145631 94.4649446494465 94.4649446494465 94.4649446494465 94.4649446494465 94.4649446494465 94.4649446494465 94.4649446494465 94.4649446494465 94.4649446494465 94.4649446494465 94.4649446494465 94.4649446494465 94.2334739803094 94.2334739803094 94.2334739803094 94.2334739803094 94.2334739803094 94.2334739803094 94.2334739803094 94.151212553495 80.2675585284281 80.2675585284281 -9999 -9999 -9999 -9999 -9999 -9999 -9999 -9999 -9999 -9999 -9999 -9999
-9999 -9999 -9999 -9999 -9999 -9999 -9999 -9999 -9999 -9999 -9999 -9999 -9999 -9999 -9999 -9999 -9999 -9999 -9999 -9999 -9999 -9999 -9999 -9999 -9999 -9999 -9999 -9999 -9999 -9999 -9999 -9999 -9999 -9999 -9999 -9999 -9999 -9999 -9999 -9999 -9999 -9999 -9999 -9999 -9999 -9999 -9999 -9999 -9999 -9999 -9999 -9999 -9999 -9999 -9999 -9999 -9999 -9999 -9999 -9999 -9999 -9999 -9999 -9999 -9999 -9999 -9999 -9999 -9999 -9999 -9999 -9999 -9999 -9999 -9999 -9999 -9999 -9999 -9999 -9999 -9999 -9999 -9999 -9999 -9999 -9999 -9999 -9999 -9999 -9999 -9999 -9999 -9999 -9999 -9999 -9999 -9999 -9999 -9999 -9999 -9999 -9999 -9999 -9999 -9999 -9999 -9999 -9999 -9999 -9999 -9999 -9999 -9999 -9999 -9999 -9999 -9999 -9999 -9999 -9999 -9999 -9999 -9999 -9999 -9999 -9999 -9999 -9999 -9999 -9999 -9999 -9999 -9999 -9999 -9999 -9999 -9999 -9999 -9999 -9999 -9999 -9999 -9999 -9999 -9999 -9999 -9999 -9999 -9999 -9999 -9999 -9999 -9999 -9999 -9999 -9999 -9999 -9999 -9999 -9999 -9999 -9999 -9999 -9999 -9999 -9999 -9999 -9999 -9999 -9999 -9999 -9999 -9999 -9999 -9999 -9999 -9999 -9999 -9999 -9999 -9999 -9999 -9999 -9999 -9999 -9999 -9999 -9999 -9999 -9999 -9999 -9999 -9999 -9999 -9999 -9999 -9999 -9999 -9999 -9999 -9999 -9999 -9999 -9999 -9999 -9999 -9999 -9999 -9999 -9999 -9999 -9999 -9999 -9999 -9999 -9999 -9999 -9999 -9999 -9999 -9999 -9999 -9999 -9999 -9999 -9999 -9999 -9999 -9999 -9999 -9999 -9999 -9999 -9999 -9999 -9999 -9999 -9999 -9999 -9999 -9999 -9999 -9999 -9999 -9999 -9999 -9999 -9999 -9999 -9999 -9999 -9999 -9999 -9999 -9999 -9999 -9999 -9999 -9999 -9999 -9999 -9999 -9999 -9999 -9999 -9999 -9999 -9999 -9999 -9999 -9999 -9999 -9999 -9999 -9999 -9999 -9999 -9999 -9999 -9999 -9999 -9999 -9999 -9999 -9999 -9999 -9999 -9999 -9999 -9999 -9999 -9999 -9999 -9999 -9999 -9999 -9999 -9999 -9999 -9999 -9999 -9999 -9999 -9999 -9999 -9999 -9999 -9999 -9999 -9999 -9999 -9999 -9999 -9999 -9999 -9999 -9999 -9999 -9999 -9999 -9999 -9999 -9999 -9999 -9999 -9999 -9999 -9999 -9999 -9999 -9999 -9999 -9999 -9999 -9999 -9999 -9999 -9999 -9999 -9999 -9999 -9999 -9999 -9999 -9999 -9999 -9999 -9999 -9999 -9999 -9999 -9999 -9999 -9999 -9999 -9999 -9999 -9999 -9999 -9999 -9999 -9999 -9999 -9999 -9999 -9999 70.3883495145631 70.3883495145631 70.3883495145631 70.3883495145631 70.3883495145631 70.3883495145631 70.3883495145631 70.3883495145631 70.3883495145631 70.3883495145631 70.3883495145631 70.3883495145631 70.3883495145631 70.3883495145631 70.3883495145631 94.4649446494465 94.4649446494465 94.4649446494465 94.4649446494465 94.4649446494465 94.4649446494465 94.4649446494465 94.4649446494465 94.4649446494465 94.4649446494465 94.4649446494465 94.4649446494465 95.9944751381215 95.9944751381215 95.9944751381215 95.9944751381215 95.9944751381215 94.2334739803094 94.2334739803094 94.151212553495 80.2675585284281 80.2675585284281 -9999 -9999 -9999 -9999 -9999 -9999 -9999 -9999 -9999 -9999 -9999 -9999
-9999 -9999 -9999 -9999 -9999 -9999 -9999 -9999 -9999 -9999 -9999 -9999 -9999 -9999 -9999 -9999 -9999 -9999 -9999 -9999 -9999 -9999 -9999 -9999 -9999 -9999 -9999 -9999 -9999 -9999 -9999 -9999 -9999 -9999 -9999 -9999 -9999 -9999 -9999 -9999 -9999 -9999 -9999 -9999 -9999 -9999 -9999 -9999 -9999 -9999 -9999 -9999 -9999 -9999 -9999 -9999 -9999 -9999 -9999 -9999 -9999 -9999 -9999 -9999 -9999 -9999 -9999 -9999 -9999 -9999 -9999 -9999 -9999 -9999 -9999 -9999 -9999 -9999 -9999 -9999 -9999 -9999 -9999 -9999 -9999 -9999 -9999 -9999 -9999 -9999 -9999 -9999 -9999 -9999 -9999 -9999 -9999 -9999 -9999 -9999 -9999 -9999 -9999 -9999 -9999 -9999 -9999 -9999 -9999 -9999 -9999 -9999 -9999 -9999 -9999 -9999 -9999 -9999 -9999 -9999 -9999 -9999 -9999 -9999 -9999 -9999 -9999 -9999 -9999 -9999 -9999 -9999 -9999 -9999 -9999 -9999 -9999 -9999 -9999 -9999 -9999 -9999 -9999 -9999 -9999 -9999 -9999 -9999 -9999 -9999 -9999 -9999 -9999 -9999 -9999 -9999 -9999 -9999 -9999 -9999 -9999 -9999 -9999 -9999 -9999 -9999 -9999 -9999 -9999 -9999 -9999 -9999 -9999 -9999 -9999 -9999 -9999 -9999 -9999 -9999 -9999 -9999 -9999 -9999 -9999 -9999 -9999 -9999 -9999 -9999 -9999 -9999 -9999 -9999 -9999 -9999 -9999 -9999 -9999 -9999 -9999 -9999 -9999 -9999 -9999 -9999 -9999 -9999 -9999 -9999 -9999 -9999 -9999 -9999 -9999 -9999 -9999 -9999 -9999 -9999 -9999 -9999 -9999 -9999 -9999 -9999 -9999 -9999 -9999 -9999 -9999 -9999 -9999 -9999 -9999 -9999 -9999 -9999 -9999 -9999 -9999 -9999 -9999 -9999 -9999 -9999 -9999 -9999 -9999 -9999 -9999 -9999 -9999 -9999 -9999 -9999 -9999 -9999 -9999 -9999 -9999 -9999 -9999 -9999 -9999 -9999 -9999 -9999 -9999 -9999 -9999 -9999 -9999 -9999 -9999 -9999 -9999 -9999 -9999 -9999 -9999 -9999 -9999 -9999 -9999 -9999 -9999 -9999 -9999 -9999 -9999 -9999 -9999 -9999 -9999 -9999 -9999 -9999 -9999 -9999 -9999 -9999 -9999 -9999 -9999 -9999 -9999 -9999 -9999 -9999 -9999 -9999 -9999 -9999 -9999 -9999 -9999 -9999 -9999 -9999 -9999 -9999 -9999 -9999 -9999 -9999 -9999 -9999 -9999 -9999 -9999 -9999 -9999 -9999 -9999 -9999 -9999 -9999 -9999 -9999 -9999 -9999 -9999 -9999 -9999 -9999 -9999 -9999 -9999 -9999 -9999 -9999 -9999 -9999 -9999 -9999 -9999 -9999 -9999 -9999 -9999 -9999 -9999 -9999 -9999 70.3883495145631 70.3883495145631 70.3883495145631 70.3883495145631 70.3883495145631 70.3883495145631 70.3883495145631 70.3883495145631 70.3883495145631 70.3883495145631 70.3883495145631 70.3883495145631 70.3883495145631 70.3883495145631 70.3883495145631 94.4649446494465 94.4649446494465 94.4649446494465 94.4649446494465 94.4649446494465 94.4649446494465 94.4649446494465 94.4649446494465 94.4649446494465 94.4649446494465 94.4649446494465 94.4649446494465 94.4649446494465 95.9944751381215 95.9944751381215 95.9944751381215 94.2334739803094 94.2334739803094 94.2334739803094 94.2334739803094 94.151212553495 80.2675585284281 80.2675585284281 -9999 -9999 -9999 -9999 -9999 -9999 -9999 -9999 -9999 -9999 -9999 -9999
-9999 -9999 -9999 -9999 -9999 -9999 -9999 -9999 -9999 -9999 -9999 -9999 -9999 -9999 -9999 -9999 -9999 -9999 -9999 -9999 -9999 -9999 -9999 -9999 -9999 -9999 -9999 -9999 -9999 -9999 -9999 -9999 -9999 -9999 -9999 -9999 -9999 -9999 -9999 -9999 -9999 -9999 -9999 -9999 -9999 -9999 -9999 -9999 -9999 -9999 -9999 -9999 -9999 -9999 -9999 -9999 -9999 -9999 -9999 -9999 -9999 -9999 -9999 -9999 -9999 -9999 -9999 -9999 -9999 -9999 -9999 -9999 -9999 -9999 -9999 -9999 -9999 -9999 -9999 -9999 -9999 -9999 -9999 -9999 -9999 -9999 -9999 -9999 -9999 -9999 -9999 -9999 -9999 -9999 -9999 -9999 -9999 -9999 -9999 -9999 -9999 -9999 -9999 -9999 -9999 -9999 -9999 -9999 -9999 -9999 -9999 -9999 -9999 -9999 -9999 -9999 -9999 -9999 -9999 -9999 -9999 -9999 -9999 -9999 -9999 -9999 -9999 -9999 -9999 -9999 -9999 -9999 -9999 -9999 -9999 -9999 -9999 -9999 -9999 -9999 -9999 -9999 -9999 -9999 -9999 -9999 -9999 -9999 -9999 -9999 -9999 -9999 -9999 -9999 -9999 -9999 -9999 -9999 -9999 -9999 -9999 -9999 -9999 -9999 -9999 -9999 -9999 -9999 -9999 -9999 -9999 -9999 -9999 -9999 -9999 -9999 -9999 -9999 -9999 -9999 -9999 -9999 -9999 -9999 -9999 -9999 -9999 -9999 -9999 -9999 -9999 -9999 -9999 -9999 -9999 -9999 -9999 -9999 -9999 -9999 -9999 -9999 -9999 -9999 -9999 -9999 -9999 -9999 -9999 -9999 -9999 -9999 -9999 -9999 -9999 -9999 -9999 -9999 -9999 -9999 -9999 -9999 -9999 -9999 -9999 -9999 -9999 -9999 -9999 -9999 -9999 -9999 -9999 -9999 -9999 -9999 -9999 -9999 -9999 -9999 -9999 -9999 -9999 -9999 -9999 -9999 -9999 -9999 -9999 -9999 -9999 -9999 -9999 -9999 -9999 -9999 -9999 -9999 -9999 -9999 -9999 -9999 -9999 -9999 -9999 -9999 -9999 -9999 -9999 -9999 -9999 -9999 -9999 -9999 -9999 -9999 -9999 -9999 -9999 -9999 -9999 -9999 -9999 -9999 -9999 -9999 -9999 -9999 -9999 -9999 -9999 -9999 -9999 -9999 -9999 -9999 -9999 -9999 -9999 -9999 -9999 -9999 -9999 -9999 -9999 -9999 -9999 -9999 -9999 -9999 -9999 -9999 -9999 -9999 -9999 -9999 -9999 -9999 -9999 -9999 -9999 -9999 -9999 -9999 -9999 -9999 -9999 -9999 -9999 -9999 -9999 -9999 -9999 -9999 -9999 -9999 -9999 -9999 -9999 -9999 -9999 -9999 -9999 -9999 -9999 -9999 -9999 -9999 -9999 -9999 -9999 -9999 -9999 -9999 -9999 -9999 -9999 -9999 -9999 -9999 -9999 -9999 -9999 70.3883495145631 70.3883495145631 70.3883495145631 70.3883495145631 70.3883495145631 70.3883495145631 70.3883495145631 70.3883495145631 70.3883495145631 70.3883495145631 70.3883495145631 70.3883495145631 70.3883495145631 70.3883495145631 70.3883495145631 70.3883495145631 70.3883495145631 94.4649446494465 94.4649446494465 94.4649446494465 94.4649446494465 94.4649446494465 94.4649446494465 94.4649446494465 94.4649446494465 94.4649446494465 94.4649446494465 94.4649446494465 94.4649446494465 94.2334739803094 94.2334739803094 93.167701863354 93.167701863354 94.2334739803094 94.2334739803094 94.2334739803094 94.2334739803094 94.151212553495 80.2675585284281 80.2675585284281 -9999 -9999 -9999 -9999 -9999 -9999 -9999 -9999 -9999 -9999 -9999 -9999
-9999 -9999 -9999 -9999 -9999 -9999 -9999 -9999 -9999 -9999 -9999 -9999 -9999 -9999 -9999 -9999 -9999 -9999 -9999 -9999 -9999 -9999 -9999 -9999 -9999 -9999 -9999 -9999 -9999 -9999 -9999 -9999 -9999 -9999 -9999 -9999 -9999 -9999 -9999 -9999 -9999 -9999 -9999 -9999 -9999 -9999 -9999 -9999 -9999 -9999 -9999 -9999 -9999 -9999 -9999 -9999 -9999 -9999 -9999 -9999 -9999 -9999 -9999 -9999 -9999 -9999 -9999 -9999 -9999 -9999 -9999 -9999 -9999 -9999 -9999 -9999 -9999 -9999 -9999 -9999 -9999 -9999 -9999 -9999 -9999 -9999 -9999 -9999 -9999 -9999 -9999 -9999 -9999 -9999 -9999 -9999 -9999 -9999 -9999 -9999 -9999 -9999 -9999 -9999 -9999 -9999 -9999 -9999 -9999 -9999 -9999 -9999 -9999 -9999 -9999 -9999 -9999 -9999 -9999 -9999 -9999 -9999 -9999 -9999 -9999 -9999 -9999 -9999 -9999 -9999 -9999 -9999 -9999 -9999 -9999 -9999 -9999 -9999 -9999 -9999 -9999 -9999 -9999 -9999 -9999 -9999 -9999 -9999 -9999 -9999 -9999 -9999 -9999 -9999 -9999 -9999 -9999 -9999 -9999 -9999 -9999 -9999 -9999 -9999 -9999 -9999 -9999 -9999 -9999 -9999 -9999 -9999 -9999 -9999 -9999 -9999 -9999 -9999 -9999 -9999 -9999 -9999 -9999 -9999 -9999 -9999 -9999 -9999 -9999 -9999 -9999 -9999 -9999 -9999 -9999 -9999 -9999 -9999 -9999 -9999 -9999 -9999 -9999 -9999 -9999 -9999 -9999 -9999 -9999 -9999 -9999 -9999 -9999 -9999 -9999 -9999 -9999 -9999 -9999 -9999 -9999 -9999 -9999 -9999 -9999 -9999 -9999 -9999 -9999 -9999 -9999 -9999 -9999 -9999 -9999 -9999 -9999 -9999 -9999 -9999 -9999 -9999 -9999 -9999 -9999 -9999 -9999 -9999 -9999 -9999 -9999 -9999 -9999 -9999 -9999 -9999 -9999 -9999 -9999 -9999 -9999 -9999 -9999 -9999 -9999 -9999 -9999 -9999 -9999 -9999 -9999 -9999 -9999 -9999 -9999 -9999 -9999 -9999 -9999 -9999 -9999 -9999 -9999 -9999 -9999 -9999 -9999 -9999 -9999 -9999 -9999 -9999 -9999 -9999 -9999 -9999 -9999 -9999 -9999 -9999 -9999 -9999 -9999 -9999 -9999 -9999 -9999 -9999 -9999 -9999 -9999 -9999 -9999 -9999 -9999 -9999 -9999 -9999 -9999 -9999 -9999 -9999 -9999 -9999 -9999 -9999 -9999 -9999 -9999 -9999 -9999 -9999 -9999 -9999 -9999 -9999 -9999 -9999 -9999 -9999 -9999 -9999 -9999 -9999 -9999 -9999 -9999 -9999 -9999 -9999 -9999 -9999 -9999 -9999 -9999 -9999 -9999 -9999 -9999 -9999 -9999 70.3883495145631 70.3883495145631 70.3883495145631 70.3883495145631 70.3883495145631 70.3883495145631 70.3883495145631 70.3883495145631 70.3883495145631 70.3883495145631 70.3883495145631 70.3883495145631 70.3883495145631 70.3883495145631 70.3883495145631 70.3883495145631 70.3883495145631 70.3883495145631 94.4649446494465 94.4649446494465 94.4649446494465 94.4649446494465 94.4649446494465 94.4649446494465 94.4649446494465 94.4649446494465 94.4649446494465 95.0704225352113 95.0704225352113 95.0704225352113 95.0704225352113 94.2334739803094 95.6989247311828 93.167701863354 93.167701863354 93.167701863354 92.0245398773006 92.0245398773006 94.151212553495 94.151212553495 80.2675585284281 -9999 -9999 -9999 -9999 -9999 -9999 -9999 -9999 -9999 -9999 -9999 -9999 -9999
-9999 -9999 -9999 -9999 -9999 -9999 -9999 -9999 -9999 -9999 -9999 -9999 -9999 -9999 -9999 -9999 -9999 -9999 -9999 -9999 -9999 -9999 -9999 -9999 -9999 -9999 -9999 -9999 -9999 -9999 -9999 -9999 -9999 -9999 -9999 -9999 -9999 -9999 -9999 -9999 -9999 -9999 -9999 -9999 -9999 -9999 -9999 -9999 -9999 -9999 -9999 -9999 -9999 -9999 -9999 -9999 -9999 -9999 -9999 -9999 -9999 -9999 -9999 -9999 -9999 -9999 -9999 -9999 -9999 -9999 -9999 -9999 -9999 -9999 -9999 -9999 -9999 -9999 -9999 -9999 -9999 -9999 -9999 -9999 -9999 -9999 -9999 -9999 -9999 -9999 -9999 -9999 -9999 -9999 -9999 -9999 -9999 -9999 -9999 -9999 -9999 -9999 -9999 -9999 -9999 -9999 -9999 -9999 -9999 -9999 -9999 -9999 -9999 -9999 -9999 -9999 -9999 -9999 -9999 -9999 -9999 -9999 -9999 -9999 -9999 -9999 -9999 -9999 -9999 -9999 -9999 -9999 -9999 -9999 -9999 -9999 -9999 -9999 -9999 -9999 -9999 -9999 -9999 -9999 -9999 -9999 -9999 -9999 -9999 -9999 -9999 -9999 -9999 -9999 -9999 -9999 -9999 -9999 -9999 -9999 -9999 -9999 -9999 -9999 -9999 -9999 -9999 -9999 -9999 -9999 -9999 -9999 -9999 -9999 -9999 -9999 -9999 -9999 -9999 -9999 -9999 -9999 -9999 -9999 -9999 -9999 -9999 -9999 -9999 -9999 -9999 -9999 -9999 -9999 -9999 -9999 -9999 -9999 -9999 -9999 -9999 -9999 -9999 -9999 -9999 -9999 -9999 -9999 -9999 -9999 -9999 -9999 -9999 -9999 -9999 -9999 -9999 -9999 -9999 -9999 -9999 -9999 -9999 -9999 -9999 -9999 -9999 -9999 -9999 -9999 -9999 -9999 -9999 -9999 -9999 -9999 -9999 -9999 -9999 -9999 -9999 -9999 -9999 -9999 -9999 -9999 -9999 -9999 -9999 -9999 -9999 -9999 -9999 -9999 -9999 -9999 -9999 -9999 -9999 -9999 -9999 -9999 -9999 -9999 -9999 -9999 -9999 -9999 -9999 -9999 -9999 -9999 -9999 -9999 -9999 -9999 -9999 -9999 -9999 -9999 -9999 -9999 -9999 -9999 -9999 -9999 -9999 -9999 -9999 -9999 -9999 -9999 -9999 -9999 -9999 -9999 -9999 -9999 -9999 -9999 -9999 -9999 -9999 -9999 -9999 -9999 -9999 -9999 -9999 -9999 -9999 -9999 -9999 -9999 -9999 -9999 -9999 -9999 -9999 -9999 -9999 -9999 -9999 -9999 -9999 -9999 -9999 -9999 -9999 -9999 -9999 -9999 -9999 -9999 -9999 -9999 -9999 -9999 -9999 -9999 -9999 -9999 -9999 -9999 -9999 -9999 -9999 -9999 -9999 -9999 -9999 -9999 -9999 -9999 -9999 -9999 -9999 -9999 -9999 -9999 70.3883495145631 70.3883495145631 70.3883495145631 70.3883495145631 70.3883495145631 70.3883495145631 70.3883495145631 70.3883495145631 70.3883495145631 70.3883495145631 70.3883495145631 70.3883495145631 70.3883495145631 70.3883495145631 70.3883495145631 70.3883495145631 70.3883495145631 70.3883495145631 70.3883495145631 94.4649446494465 94.4649446494465 94.4649446494465 94.4649446494465 95.0704225352113 95.0704225352113 95.0704225352113 95.0704225352113 95.0704225352113 95.0704225352113 95.0704225352113 95.0704225352113 95.0704225352113 94.2334739803094 95.6989247311828 93.167701863354 93.167701863354 92.0245398773006 92.0245398773006 92.0245398773006 94.151212553495 80.2675585284281 80.2675585284281 -9999 -9999 -9999 -9999 -9999 -9999 -9999 -9999 -9999 -9999 -9999 -9999 -9999
-9999 -9999 -9999 -9999 -9999 -9999 -9999 -9999 -9999 -9999 -9999 -9999 -9999 -9999 -9999 -9999 -9999 -9999 -9999 -9999 -9999 -9999 -9999 -9999 -9999 -9999 -9999 -9999 -9999 -9999 -9999 -9999 -9999 -9999 -9999 -9999 -9999 -9999 -9999 -9999 -9999 -9999 -9999 -9999 -9999 -9999 -9999 -9999 -9999 -9999 -9999 -9999 -9999 -9999 -9999 -9999 -9999 -9999 -9999 -9999 -9999 -9999 -9999 -9999 -9999 -9999 -9999 -9999 -9999 -9999 -9999 -9999 -9999 -9999 -9999 -9999 -9999 -9999 -9999 -9999 -9999 -9999 -9999 -9999 -9999 -9999 -9999 -9999 -9999 -9999 -9999 -9999 -9999 -9999 -9999 -9999 -9999 -9999 -9999 -9999 -9999 -9999 -9999 -9999 -9999 -9999 -9999 -9999 -9999 -9999 -9999 -9999 -9999 -9999 -9999 -9999 -9999 -9999 -9999 -9999 -9999 -9999 -9999 -9999 -9999 -9999 -9999 -9999 -9999 -9999 -9999 -9999 -9999 -9999 -9999 -9999 -9999 -9999 -9999 -9999 -9999 -9999 -9999 -9999 -9999 -9999 -9999 -9999 -9999 -9999 -9999 -9999 -9999 -9999 -9999 -9999 -9999 -9999 -9999 -9999 -9999 -9999 -9999 -9999 -9999 -9999 -9999 -9999 -9999 -9999 -9999 -9999 -9999 -9999 -9999 -9999 -9999 -9999 -9999 -9999 -9999 -9999 -9999 -9999 -9999 -9999 -9999 -9999 -9999 -9999 -9999 -9999 -9999 -9999 -9999 -9999 -9999 -9999 -9999 -9999 -9999 -9999 -9999 -9999 -9999 -9999 -9999 -9999 -9999 -9999 -9999 -9999 -9999 -9999 -9999 -9999 -9999 -9999 -9999 -9999 -9999 -9999 -9999 -9999 -9999 -9999 -9999 -9999 -9999 -9999 -9999 -9999 -9999 -9999 -9999 -9999 -9999 -9999 -9999 -9999 -9999 -9999 -9999 -9999 -9999 -9999 -9999 -9999 -9999 -9999 -9999 -9999 -9999 -9999 -9999 -9999 -9999 -9999 -9999 -9999 -9999 -9999 -9999 -9999 -9999 -9999 -9999 -9999 -9999 -9999 -9999 -9999 -9999 -9999 -9999 -9999 -9999 -9999 -9999 -9999 -9999 -9999 -9999 -9999 -9999 -9999 -9999 -9999 -9999 -9999 -9999 -9999 -9999 -9999 -9999 -9999 -9999 -9999 -9999 -9999 -9999 -9999 -9999 -9999 -9999 -9999 -9999 -9999 -9999 -9999 -9999 -9999 -9999 -9999 -9999 -9999 -9999 -9999 -9999 -9999 -9999 -9999 -9999 -9999 -9999 -9999 -9999 -9999 -9999 -9999 -9999 -9999 -9999 -9999 -9999 -9999 -9999 -9999 -9999 -9999 -9999 -9999 -9999 -9999 -9999 -9999 -9999 -9999 -9999 -9999 -9999 -9999 -9999 -9999 -9999 -9999 -9999 -9999 70.3883495145631 79.4117647058823 70.3883495145631 70.3883495145631 70.3883495145631 70.3883495145631 70.3883495145631 70.3883495145631 70.3883495145631 70.3883495145631 70.3883495145631 70.3883495145631 70.3883495145631 70.3883495145631 70.3883495145631 70.3883495145631 70.3883495145631 70.3883495145631 70.3883495145631 70.3883495145631 70.3883495145631 95.0704225352113 95.0704225352113 95.0704225352113 95.0704225352113 95.0704225352113 95.0704225352113 95.0704225352113 95.0704225352113 -9999 -9999 -9999 95.0704225352113 96.8379446640316 96.8379446640316 93.167701863354 93.167701863354 93.167701863354 92.0245398773006 92.0245398773006 94.2334739803094 94.151212553495 80.2675585284281 80.2675585284281 -9999 -9999 -9999 -9999 -9999 -9999 -9999 -9999 -9999 -9999 -9999 -9999 -9999
-9999 -9999 -9999 -9999 -9999 -9999 -9999 -9999 -9999 -9999 -9999 -9999 -9999 -9999 -9999 -9999 -9999 -9999 -9999 -9999 -9999 -9999 -9999 -9999 -9999 -9999 -9999 -9999 -9999 -9999 -9999 -9999 -9999 -9999 -9999 -9999 -9999 -9999 -9999 -9999 -9999 -9999 -9999 -9999 -9999 -9999 -9999 -9999 -9999 -9999 -9999 -9999 -9999 -9999 -9999 -9999 -9999 -9999 -9999 -9999 -9999 -9999 -9999 -9999 -9999 -9999 -9999 -9999 -9999 -9999 -9999 -9999 -9999 -9999 -9999 -9999 -9999 -9999 -9999 -9999 -9999 -9999 -9999 -9999 -9999 -9999 -9999 -9999 -9999 -9999 -9999 -9999 -9999 -9999 -9999 -9999 -9999 -9999 -9999 -9999 -9999 -9999 -9999 -9999 -9999 -9999 -9999 -9999 -9999 -9999 -9999 -9999 -9999 -9999 -9999 -9999 -9999 -9999 -9999 -9999 -9999 -9999 -9999 -9999 -9999 -9999 -9999 -9999 -9999 -9999 -9999 -9999 -9999 -9999 -9999 -9999 -9999 -9999 -9999 -9999 -9999 -9999 -9999 -9999 -9999 -9999 -9999 -9999 -9999 -9999 -9999 -9999 -9999 -9999 -9999 -9999 -9999 -9999 -9999 -9999 -9999 -9999 -9999 -9999 -9999 -9999 -9999 -9999 -9999 -9999 -9999 -9999 -9999 -9999 -9999 -9999 -9999 -9999 -9999 -9999 -9999 -9999 -9999 -9999 -9999 -9999 -9999 -9999 -9999 -9999 -9999 -9999 -9999 -9999 -9999 -9999 -9999 -9999 -9999 -9999 -9999 -9999 -9999 -9999 -9999 -9999 -9999 -9999 -9999 -9999 -9999 -9999 -9999 -9999 -9999 -9999 -9999 -9999 -9999 -9999 -9999 -9999 -9999 -9999 -9999 -9999 -9999 -9999 -9999 -9999 -9999 -9999 -9999 -9999 -9999 -9999 -9999 -9999 -9999 -9999 -9999 -9999 -9999 -9999 -9999 -9999 -9999 -9999 -9999 -9999 -9999 -9999 -9999 -9999 -9999 -9999 -9999 -9999 -9999 -9999 -9999 -9999 -9999 -9999 -9999 -9999 -9999 -9999 -9999 -9999 -9999 -9999 -9999 -9999 -9999 -9999 -9999 -9999 -9999 -9999 -9999 -9999 -9999 -9999 -9999 -9999 -9999 -9999 -9999 -9999 -9999 -9999 -9999 -9999 -9999 -9999 -9999 -9999 -9999 -9999 -9999 -9999 -9999 -9999 -9999 -9999 -9999 -9999 -9999 -9999 -9999 -9999 -9999 -9999 -9999 -9999 -9999 -9999 -9999 -9999 -9999 -9999 -9999 -9999 -9999 -9999 -9999 -9999 -9999 -9999 -9999 -9999 -9999 -9999 -9999 -9999 -9999 -9999 -9999 -9999 -9999 -9999 -9999 -9999 -9999 -9999 -9999 -9999 -9999 -9999 -9999 -9999 70.3883495145631 79.4117647058823 79.4117647058823 79.4117647058823 79.4117647058823 79.4117647058823 79.4117647058823 79.4117647058823 79.4117647058823 85.3040540540541 85.3040540540541 70.3883495145631 70.3883495145631 70.3883495145631 70.3883495145631 70.3883495145631 70.3883495145631 70.3883495145631 70.3883495145631 70.3883495145631 70.3883495145631 70.3883495145631 70.3883495145631 70.3883495145631 70.3883495145631 70.3883495145631 70.3883495145631 95.0704225352113 95.0704225352113 95.0704225352113 95.0704225352113 95.0704225352113 95.0704225352113 95.0704225352113 95.0704225352113 -9999 -9999 -9999 -9999 96.8379446640316 96.8379446640316 96.8379446640316 96.8379446640316 96.8379446640316 90.0383141762452 90.0383141762452 88.125 94.151212553495 88.125 94.151212553495 -9999 -9999 -9999 -9999 -9999 -9999 -9999 -9999 -9999 -9999 -9999 -9999 -9999
-9999 -9999 -9999 -9999 -9999 -9999 -9999 -9999 -9999 -9999 -9999 -9999 -9999 -9999 -9999 -9999 -9999 -9999 -9999 -9999 -9999 -9999 -9999 -9999 -9999 -9999 -9999 -9999 -9999 -9999 -9999 -9999 -9999 -9999 -9999 -9999 -9999 -9999 -9999 -9999 -9999 -9999 -9999 -9999 -9999 -9999 -9999 -9999 -9999 -9999 -9999 -9999 -9999 -9999 -9999 -9999 -9999 -9999 -9999 -9999 -9999 -9999 -9999 -9999 -9999 -9999 -9999 -9999 -9999 -9999 -9999 -9999 -9999 -9999 -9999 -9999 -9999 -9999 -9999 -9999 -9999 -9999 -9999 -9999 -9999 -9999 -9999 -9999 -9999 -9999 -9999 -9999 -9999 -9999 -9999 -9999 -9999 -9999 -9999 -9999 -9999 -9999 -9999 -9999 -9999 -9999 -9999 -9999 -9999 -9999 -9999 -9999 -9999 -9999 -9999 -9999 -9999 -9999 -9999 -9999 -9999 -9999 -9999 -9999 -9999 -9999 -9999 -9999 -9999 -9999 -9999 -9999 -9999 -9999 -9999 -9999 -9999 -9999 -9999 -9999 -9999 -9999 -9999 -9999 -9999 -9999 -9999 -9999 -9999 -9999 -9999 -9999 -9999 -9999 -9999 -9999 -9999 -9999 -9999 -9999 -9999 -9999 -9999 -9999 -9999 -9999 -9999 -9999 -9999 -9999 -9999 -9999 -9999 -9999 -9999 -9999 -9999 -9999 -9999 -9999 -9999 -9999 -9999 -9999 -9999 -9999 -9999 -9999 -9999 -9999 -9999 -9999 -9999 -9999 -9999 -9999 -9999 -9999 -9999 -9999 -9999 -9999 -9999 -9999 -9999 -9999 -9999 -9999 -9999 -9999 -9999 -9999 -9999 -9999 -9999 -9999 -9999 -9999 -9999 -9999 -9999 -9999 -9999 -9999 -9999 -9999 -9999 -9999 -9999 -9999 -9999 -9999 -9999 -9999 -9999 -9999 -9999 -9999 -9999 -9999 -9999 -9999 -9999 -9999 -9999 -9999 -9999 -9999 -9999 -9999 -9999 -9999 -9999 -9999 -9999 -9999 -9999 -9999 -9999 -9999 -9999 -9999 -9999 -9999 -9999 -9999 -9999 -9999 -9999 -9999 -9999 -9999 -9999 -9999 -9999 -9999 -9999 -9999 -9999 -9999 -9999 -9999 -9999 -9999 -9999 -9999 -9999 -9999 -9999 -9999 -9999 -9999 -9999 -9999 -9999 -9999 -9999 -9999 -9999 -9999 -9999 -9999 -9999 -9999 -9999 -9999 -9999 -9999 -9999 -9999 -9999 -9999 -9999 -9999 -9999 -9999 -9999 -9999 -9999 -9999 -9999 -9999 -9999 -9999 -9999 -9999 -9999 -9999 -9999 -9999 -9999 -9999 -9999 -9999 -9999 -9999 -9999 -9999 -9999 -9999 -9999 -9999 -9999 -9999 -9999 -9999 -9999 -9999 -9999 -9999 -9999 73.2044198895028 73.2044198895028 73.2044198895028 79.4117647058823 79.4117647058823 79.4117647058823 79.4117647058823 79.4117647058823 79.4117647058823 79.4117647058823 85.3040540540541 85.3040540540541 85.3040540540541 70.3883495145631 70.3883495145631 70.3883495145631 70.3883495145631 70.3883495145631 70.3883495145631 70.3883495145631 70.3883495145631 70.3883495145631 70.3883495145631 70.3883495145631 70.3883495145631 70.3883495145631 70.3883495145631 70.3883495145631 95.0704225352113 95.0704225352113 95.0704225352113 95.0704225352113 95.0704225352113 95.0704225352113 95.0704225352113 95.0704225352113 92.2431865828092 92.2431865828092 92.2431865828092 92.2431865828092 96.8379446640316 96.8379446640316 93.984962406015 96.8379446640316 90.0383141762452 90.0383141762452 90.0383141762452 88.125 88.125 88.125 88.125 -9999 -9999 -9999 -9999 -9999 -9999 -9999 -9999 -9999 -9999 -9999 -9999 -9999
-9999 -9999 -9999 -9999 -9999 -9999 -9999 -9999 -9999 -9999 -9999 -9999 -9999 -9999 -9999 -9999 -9999 -9999 -9999 -9999 -9999 -9999 -9999 -9999 -9999 -9999 -9999 -9999 -9999 -9999 -9999 -9999 -9999 -9999 -9999 -9999 -9999 -9999 -9999 -9999 -9999 -9999 -9999 -9999 -9999 -9999 -9999 -9999 -9999 -9999 -9999 -9999 -9999 -9999 -9999 -9999 -9999 -9999 -9999 -9999 -9999 -9999 -9999 -9999 -9999 -9999 -9999 -9999 -9999 -9999 -9999 -9999 -9999 -9999 -9999 -9999 -9999 -9999 -9999 -9999 -9999 -9999 -9999 -9999 -9999 -9999 -9999 -9999 -9999 -9999 -9999 -9999 -9999 -9999 -9999 -9999 -9999 -9999 -9999 -9999 -9999 -9999 -9999 -9999 -9999 -9999 -9999 -9999 -9999 -9999 -9999 -9999 -9999 -9999 -9999 -9999 -9999 -9999 -9999 -9999 -9999 -9999 -9999 -9999 -9999 -9999 -9999 -9999 -9999 -9999 -9999 -9999 -9999 -9999 -9999 -9999 -9999 -9999 -9999 -9999 -9999 -9999 -9999 -9999 -9999 -9999 -9999 -9999 -9999 -9999 -9999 -9999 -9999 -9999 -9999 -9999 -9999 -9999 -9999 -9999 -9999 -9999 -9999 -9999 -9999 -9999 -9999 -9999 -9999 -9999 -9999 -9999 -9999 -9999 -9999 -9999 -9999 -9999 -9999 -9999 -9999 -9999 -9999 -9999 -9999 -9999 -9999 -9999 -9999 -9999 -9999 -9999 -9999 -9999 -9999 -9999 -9999 -9999 -9999 -9999 -9999 -9999 -9999 -9999 -9999 -9999 -9999 -9999 -9999 -9999 -9999 -9999 -9999 -9999 -9999 -9999 -9999 -9999 -9999 -9999 -9999 -9999 -9999 -9999 -9999 -9999 -9999 -9999 -9999 -9999 -9999 -9999 -9999 -9999 -9999 -9999 -9999 -9999 -9999 -9999 -9999 -9999 -9999 -9999 -9999 -9999 -9999 -9999 -9999 -9999 -9999 -9999 -9999 -9999 -9999 -9999 -9999 -9999 -9999 -9999 -9999 -9999 -9999 -9999 -9999 -9999 -9999 -9999 -9999 -9999 -9999 -9999 -9999 -9999 -9999 -9999 -9999 -9999 -9999 -9999 -9999 -9999 -9999 -9999 -9999 -9999 -9999 -9999 -9999 -9999 -9999 -9999 -9999 -9999 -9999 -9999 -9999 -9999 -9999 -9999 -9999 -9999 -9999 -9999 -9999 -9999 -9999 -9999 -9999 -9999 -9999 -9999 -9999 -9999 -9999 -9999 -9999 -9999 -9999 -9999 -9999 -9999 -9999 -9999 -9999 -9999 -9999 -9999 -9999 -9999 -9999 -9999 -9999 -9999 -9999 -9999 -9999 -9999 -9999 -9999 -9999 -9999 -9999 -9999 -9999 -9999 -9999 -9999 -9999 -9999 70.3883495145631 73.2044198895028 73.2044198895028 73.2044198895028 54.2312276519666 79.4117647058823 79.4117647058823 79.4117647058823 79.4117647058823 79.4117647058823 79.4117647058823 85.3040540540541 85.3040540540541 85.3040540540541 70.3883495145631 70.3883495145631 70.3883495145631 70.3883495145631 70.3883495145631 70.3883495145631 70.3883495145631 70.3883495145631 70.3883495145631 70.3883495145631 70.3883495145631 70.3883495145631 70.3883495145631 70.3883495145631 70.3883495145631 95.0704225352113 95.0704225352113 95.0704225352113 95.0704225352113 95.0704225352113 95.0704225352113 95.0704225352113 92.2431865828092 92.2431865828092 92.2431865828092 92.2431865828092 92.2431865828092 93.984962406015 95.4545454545455 93.984962406015 93.984962406015 87.0870870870871 87.0870870870871 90.0383141762452 88.125 88.125 88.125 88.125 -9999 -9999 -9999 -9999 -9999 -9999 -9999 -9999 -9999 -9999 -9999 -9999 -9999
-9999 -9999 -9999 -9999 -9999 -9999 -9999 -9999 -9999 -9999 -9999 -9999 -9999 -9999 -9999 -9999 -9999 -9999 -9999 -9999 -9999 -9999 -9999 -9999 -9999 -9999 -9999 -9999 -9999 -9999 -9999 -9999 -9999 -9999 -9999 -9999 -9999 -9999 -9999 -9999 -9999 -9999 -9999 -9999 -9999 -9999 -9999 -9999 -9999 -9999 -9999 -9999 -9999 -9999 -9999 -9999 -9999 -9999 -9999 -9999 -9999 -9999 -9999 -9999 -9999 -9999 -9999 -9999 -9999 -9999 -9999 -9999 -9999 -9999 -9999 -9999 -9999 -9999 -9999 -9999 -9999 -9999 -9999 -9999 -9999 -9999 -9999 -9999 -9999 -9999 -9999 -9999 -9999 -9999 -9999 -9999 -9999 -9999 -9999 -9999 -9999 -9999 -9999 -9999 -9999 -9999 -9999 -9999 -9999 -9999 -9999 -9999 -9999 -9999 -9999 -9999 -9999 -9999 -9999 -9999 -9999 -9999 -9999 -9999 -9999 -9999 -9999 -9999 -9999 -9999 -9999 -9999 -9999 -9999 -9999 -9999 -9999 -9999 -9999 -9999 -9999 -9999 -9999 -9999 -9999 -9999 -9999 -9999 -9999 -9999 -9999 -9999 -9999 -9999 -9999 -9999 -9999 -9999 -9999 -9999 -9999 -9999 -9999 -9999 -9999 -9999 -9999 -9999 -9999 -9999 -9999 -9999 -9999 -9999 -9999 -9999 -9999 -9999 -9999 -9999 -9999 -9999 -9999 -9999 -9999 -9999 -9999 -9999 -9999 -9999 -9999 -9999 -9999 -9999 -9999 -9999 -9999 -9999 -9999 -9999 -9999 -9999 -9999 -9999 -9999 -9999 -9999 -9999 -9999 -9999 -9999 -9999 -9999 -9999 -9999 -9999 -9999 -9999 -9999 -9999 -9999 -9999 -9999 -9999 -9999 -9999 -9999 -9999 -9999 -9999 -9999 -9999 -9999 -9999 -9999 -9999 -9999 -9999 -9999 -9999 -9999 -9999 -9999 -9999 -9999 -9999 -9999 -9999 -9999 -9999 -9999 -9999 -9999 -9999 -9999 -9999 -9999 -9999 -9999 -9999 -9999 -9999 -9999 -9999 -9999 -9999 -9999 -9999 -9999 -9999 -9999 -9999 -9999 -9999 -9999 -9999 -9999 -9999 -9999 -9999 -9999 -9999 -9999 -9999 -9999 -9999 -9999 -9999 -9999 -9999 -9999 -9999 -9999 -9999 -9999 -9999 -9999 -9999 -9999 -9999 -9999 -9999 -9999 -9999 -9999 -9999 -9999 -9999 -9999 -9999 -9999 -9999 -9999 -9999 -9999 -9999 -9999 -9999 -9999 -9999 -9999 -9999 -9999 -9999 -9999 -9999 -9999 -9999 -9999 -9999 -9999 -9999 -9999 -9999 -9999 -9999 -9999 -9999 -9999 -9999 -9999 -9999 -9999 -9999 -9999 -9999 -9999 -9999 70.3883495145631 70.3883495145631 73.2044198895028 73.2044198895028 54.2312276519666 54.2312276519666 54.2312276519666 54.2312276519666 79.4117647058823 79.4117647058823 79.4117647058823 79.4117647058823 79.4117647058823 79.4117647058823 85.3040540540541 85.3040540540541 70.3883495145631 70.3883495145631 70.3883495145631 70.3883495145631 70.3883495145631 70.3883495145631 70.3883495145631 70.3883495145631 70.3883495145631 70.3883495145631 70.3883495145631 70.3883495145631 70.3883495145631 70.3883495145631 70.3883495145631 97.5609756097561 95.0704225352113 95.0704225352113 95.0704225352113 95.0704225352113 95.0704225352113 95.0704225352113 92.2431865828092 92.2431865828092 92.2431865828092 92.2431865828092 92.5925925925926 92.5925925925926 95.4545454545455 95.4545454545455 95.4545454545455 87.0870870870871 87.0870870870871 87.0870870870871 87.0870870870871 88.125 88.125 88.125 -9999 -9999 -9999 -9999 -9999 -9999 -9999 -9999 -9999 -9999 -9999 -9999 -9999
-9999 -9999 -9999 -9999 -9999 -9999 -9999 -9999 -9999 -9999 -9999 -9999 -9999 -9999 -9999 -9999 -9999 -9999 -9999 -9999 -9999 -9999 -9999 -9999 -9999 -9999 -9999 -9999 -9999 -9999 -9999 -9999 -9999 -9999 -9999 -9999 -9999 -9999 -9999 -9999 -9999 -9999 -9999 -9999 -9999 -9999 -9999 -9999 -9999 -9999 -9999 -9999 -9999 -9999 -9999 -9999 -9999 -9999 -9999 -9999 -9999 -9999 -9999 -9999 -9999 -9999 -9999 -9999 -9999 -9999 -9999 -9999 -9999 -9999 -9999 -9999 -9999 -9999 -9999 -9999 -9999 -9999 -9999 -9999 -9999 -9999 -9999 -9999 -9999 -9999 -9999 -9999 -9999 -9999 -9999 -9999 -9999 -9999 -9999 -9999 -9999 -9999 -9999 -9999 -9999 -9999 -9999 -9999 -9999 -9999 -9999 -9999 -9999 -9999 -9999 -9999 -9999 -9999 -9999 -9999 -9999 -9999 -9999 -9999 -9999 -9999 -9999 -9999 -9999 -9999 -9999 -9999 -9999 -9999 -9999 -9999 -9999 -9999 -9999 -9999 -9999 -9999 -9999 -9999 -9999 -9999 -9999 -9999 -9999 -9999 -9999 -9999 -9999 -9999 -9999 -9999 -9999 -9999 -9999 -9999 -9999 -9999 -9999 -9999 -9999 -9999 -9999 -9999 -9999 -9999 -9999 -9999 -9999 -9999 -9999 -9999 -9999 -9999 -9999 -9999 -9999 -9999 -9999 -9999 -9999 -9999 -9999 -9999 -9999 -9999 -9999 -9999 -9999 -9999 -9999 -9999 -9999 -9999 -9999 -9999 -9999 -9999 -9999 -9999 -9999 -9999 -9999 -9999 -9999 -9999 -9999 -9999 -9999 -9999 -9999 -9999 -9999 -9999 -9999 -9999 -9999 -9999 -9999 -9999 -9999 -9999 -9999 -9999 -9999 -9999 -9999 -9999 -9999 -9999 -9999 -9999 -9999 -9999 -9999 -9999 -9999 -9999 -9999 -9999 -9999 -9999 -9999 -9999 -9999 -9999 -9999 -9999 -9999 -9999 -9999 -9999 -9999 -9999 -9999 -9999 -9999 -9999 -9999 -9999 -9999 -9999 -9999 -9999 -9999 -9999 -9999 -9999 -9999 -9999 -9999 -9999 -9999 -9999 -9999 -9999 -9999 -9999 -9999 -9999 -9999 -9999 -9999 -9999 -9999 -9999 -9999 -9999 -9999 -9999 -9999 -9999 -9999 -9999 -9999 -9999 -9999 -9999 -9999 -9999 -9999 -9999 -9999 -9999 -9999 -9999 -9999 -9999 -9999 -9999 -9999 -9999 -9999 -9999 -9999 -9999 -9999 -9999 -9999 -9999 -9999 -9999 -9999 -9999 -9999 -9999 -9999 -9999 -9999 -9999 -9999 -9999 -9999 -9999 -9999 -9999 -9999 -9999 -9999 -9999 -9999 -9999 -9999 55.5555555555556 55.5555555555556 70.3883495145631 70.3883495145631 54.2312276519666 54.2312276519666 54.2312276519666 54.2312276519666 54.2312276519666 79.4117647058823 79.4117647058823 79.4117647058823 79.4117647058823 79.4117647058823 79.4117647058823 79.4117647058823 85.3040540540541 85.3040540540541 70.3883495145631 70.3883495145631 70.3883495145631 70.3883495145631 70.3883495145631 70.3883495145631 70.3883495145631 70.3883495145631 70.3883495145631 70.3883495145631 70.3883495145631 70.3883495145631 70.3883495145631 70.3883495145631 97.5609756097561 97.5609756097561 95.0704225352113 95.0704225352113 97.5609756097561 97.5609756097561 95.0704225352113 92.2431865828092 92.2431865828092 92.2431865828092 92.2431865828092 92.5925925925926 92.5925925925926 95.4545454545455 95.4545454545455 96.2171052631579 96.2171052631579 96.2171052631579 96.2171052631579 87.0870870870871 96.2171052631579 88.125 88.125 -9999 -9999 -9999 -9999 -9999 -9999 -9999 -9999 -9999 -9999 -9999 -9999 -9999
-9999 -9999 -9999 -9999 -9999 -9999 -9999 -9999 -9999 -9999 -9999 -9999 -9999 -9999 -9999 -9999 -9999 -9999 -9999 -9999 -9999 -9999 -9999 -9999 -9999 -9999 -9999 -9999 -9999 -9999 -9999 -9999 -9999 -9999 -9999 -9999 -9999 -9999 -9999 -9999 -9999 -9999 -9999 -9999 -9999 -9999 -9999 -9999 -9999 -9999 -9999 -9999 -9999 -9999 -9999 -9999 -9999 -9999 -9999 -9999 -9999 -9999 -9999 -9999 -9999 -9999 -9999 -9999 -9999 -9999 -9999 -9999 -9999 -9999 -9999 -9999 -9999 -9999 -9999 -9999 -9999 -9999 -9999 -9999 -9999 -9999 -9999 -9999 -9999 -9999 -9999 -9999 -9999 -9999 -9999 -9999 -9999 -9999 -9999 -9999 -9999 -9999 -9999 -9999 -9999 -9999 -9999 -9999 -9999 -9999 -9999 -9999 -9999 -9999 -9999 -9999 -9999 -9999 -9999 -9999 -9999 -9999 -9999 -9999 -9999 -9999 -9999 -9999 -9999 -9999 -9999 -9999 -9999 -9999 -9999 -9999 -9999 -9999 -9999 -9999 -9999 -9999 -9999 -9999 -9999 -9999 -9999 -9999 -9999 -9999 -9999 -9999 -9999 -9999 -9999 -9999 -9999 -9999 -9999 -9999 -9999 -9999 -9999 -9999 -9999 -9999 -9999 -9999 -9999 -9999 -9999 -9999 -9999 -9999 -9999 -9999 -9999 -9999 -9999 -9999 -9999 -9999 -9999 -9999 -9999 -9999 -9999 -9999 -9999 -9999 -9999 -9999 -9999 -9999 -9999 -9999 -9999 -9999 -9999 -9999 -9999 -9999 -9999 -9999 -9999 -9999 -9999 -9999 -9999 -9999 -9999 -9999 -9999 -9999 -9999 -9999 -9999 -9999 -9999 -9999 -9999 -9999 -9999 -9999 -9999 -9999 -9999 -9999 -9999 -9999 -9999 -9999 -9999 -9999 -9999 -9999 -9999 -9999 -9999 -9999 -9999 -9999 -9999 -9999 -9999 -9999 -9999 -9999 -9999 -9999 -9999 -9999 -9999 -9999 -9999 -9999 -9999 -9999 -9999 -9999 -9999 -9999 -9999 -9999 -9999 -9999 -9999 -9999 -9999 -9999 -9999 -9999 -9999 -9999 -9999 -9999 -9999 -9999 -9999 -9999 -9999 -9999 -9999 -9999 -9999 -9999 -9999 -9999 -9999 -9999 -9999 -9999 -9999 -9999 -9999 -9999 -9999 -9999 -9999 -9999 -9999 -9999 -9999 -9999 -9999 -9999 -9999 -9999 -9999 -9999 -9999 -9999 -9999 -9999 -9999 -9999 -9999 -9999 -9999 -9999 -9999 -9999 -9999 -9999 -9999 -9999 -9999 -9999 -9999 -9999 -9999 -9999 -9999 -9999 -9999 -9999 -9999 -9999 -9999 -9999 -9999 -9999 -9999 -9999 -9999 55.5555555555556 55.5555555555556 55.5555555555556 70.3883495145631 70.3883495145631 42.2025723472669 42.2025723472669 54.2312276519666 54.2312276519666 54.2312276519666 54.2312276519666 54.2312276519666 79.4117647058823 79.4117647058823 79.4117647058823 79.4117647058823 79.4117647058823 79.4117647058823 79.4117647058823 85.3040540540541 85.3040540540541 85.3040540540541 70.3883495145631 70.3883495145631 70.3883495145631 70.3883495145631 70.3883495145631 70.3883495145631 70.3883495145631 70.3883495145631 70.3883495145631 70.3883495145631 70.3883495145631 70.3883495145631 97.5609756097561 97.5609756097561 97.5609756097561 97.5609756097561 97.5609756097561 97.5609756097561 91.703056768559 91.703056768559 91.703056768559 91.703056768559 93.3806146572104 93.3806146572104 95.4545454545455 95.4545454545455 95.4545454545455 94.5558739255014 96.2171052631579 96.2171052631579 96.2171052631579 96.2171052631579 96.2171052631579 88.125 88.125 -9999 -9999 -9999 -9999 -9999 -9999 -9999 -9999 -9999 -9999 -9999 -9999 -9999
-9999 -9999 -9999 -9999 -9999 -9999 -9999 -9999 -9999 -9999 -9999 -9999 -9999 -9999 -9999 -9999 -9999 -9999 -9999 -9999 -9999 -9999 -9999 -9999 -9999 -9999 -9999 -9999 -9999 -9999 -9999 -9999 -9999 -9999 -9999 -9999 -9999 -9999 -9999 -9999 -9999 -9999 -9999 -9999 -9999 -9999 -9999 -9999 -9999 -9999 -9999 -9999 -9999 -9999 -9999 -9999 -9999 -9999 -9999 -9999 -9999 -9999 -9999 -9999 -9999 -9999 -9999 -9999 -9999 -9999 -9999 -9999 -9999 -9999 -9999 -9999 -9999 -9999 -9999 -9999 -9999 -9999 -9999 -9999 -9999 -9999 -9999 -9999 -9999 -9999 -9999 -9999 -9999 -9999 -9999 -9999 -9999 -9999 -9999 -9999 -9999 -9999 -9999 -9999 -9999 -9999 -9999 -9999 -9999 -9999 -9999 -9999 -9999 -9999 -9999 -9999 -9999 -9999 -9999 -9999 -9999 -9999 -9999 -9999 -9999 -9999 -9999 -9999 -9999 -9999 -9999 -9999 -9999 -9999 -9999 -9999 -9999 -9999 -9999 -9999 -9999 -9999 -9999 -9999 -9999 -9999 -9999 -9999 -9999 -9999 -9999 -9999 -9999 -9999 -9999 -9999 -9999 -9999 -9999 -9999 -9999 -9999 -9999 -9999 -9999 -9999 -9999 -9999 -9999 -9999 -9999 -9999 -9999 -9999 -9999 -9999 -9999 -9999 -9999 -9999 -9999 -9999 -9999 -9999 -9999 -9999 -9999 -9999 -9999 -9999 -9999 -9999 -9999 -9999 -9999 -9999 -9999 -9999 -9999 -9999 -9999 -9999 -9999 -9999 -9999 -9999 -9999 -9999 -9999 -9999 -9999 -9999 -9999 -9999 -9999 -9999 -9999 -9999 -9999 -9999 -9999 -9999 -9999 -9999 -9999 -9999 -9999 -9999 -9999 -9999 -9999 -9999 -9999 -9999 -9999 -9999 -9999 -9999 -9999 -9999 -9999 -9999 -9999 -9999 -9999 -9999 -9999 -9999 -9999 -9999 -9999 -9999 -9999 -9999 -9999 -9999 -9999 -9999 -9999 -9999 -9999 -9999 -9999 -9999 -9999 -9999 -9999 -9999 -9999 -9999 -9999 -9999 -9999 -9999 -9999 -9999 -9999 -9999 -9999 -9999 -9999 -9999 -9999 -9999 -9999 -9999 -9999 -9999 -9999 -9999 -9999 -9999 -9999 -9999 -9999 -9999 -9999 -9999 -9999 -9999 -9999 -9999 -9999 -9999 -9999 -9999 -9999 -9999 -9999 -9999 -9999 -9999 -9999 -9999 -9999 -9999 -9999 -9999 -9999 -9999 -9999 -9999 -9999 -9999 -9999 -9999 -9999 -9999 -9999 -9999 -9999 -9999 -9999 -9999 -9999 -9999 -9999 -9999 -9999 -9999 -9999 -9999 -9999 79.6407185628742 79.6407185628742 55.5555555555556 55.5555555555556 55.5555555555556 42.2025723472669 42.2025723472669 42.2025723472669 53.3333333333333 42.2025723472669 73.4649122807018 73.4649122807018 54.2312276519666 54.2312276519666 54.2312276519666 79.4117647058823 79.4117647058823 79.4117647058823 79.4117647058823 79.4117647058823 79.4117647058823 85.3040540540541 85.3040540540541 42.2025723472669 70.3883495145631 70.3883495145631 70.3883495145631 70.3883495145631 70.3883495145631 70.3883495145631 70.3883495145631 70.3883495145631 70.3883495145631 70.3883495145631 70.3883495145631 70.3883495145631 70.3883495145631 97.5609756097561 97.5609756097561 97.5609756097561 97.5609756097561 91.703056768559 91.703056768559 91.703056768559 91.703056768559 91.703056768559 90.3732809430255 93.3806146572104 93.3806146572104 93.3806146572104 93.3806146572104 94.5558739255014 94.5558739255014 94.5558739255014 96.2171052631579 96.2171052631579 92.741935483871 92.1610169491525 92.1610169491525 -9999 -9999 -9999 -9999 -9999 -9999 -9999 -9999 -9999 -9999 -9999 -9999 -9999
-9999 -9999 -9999 -9999 -9999 -9999 -9999 -9999 -9999 -9999 -9999 -9999 -9999 -9999 -9999 -9999 -9999 -9999 -9999 -9999 -9999 -9999 -9999 -9999 -9999 -9999 -9999 -9999 -9999 -9999 -9999 -9999 -9999 -9999 -9999 -9999 -9999 -9999 -9999 -9999 -9999 -9999 -9999 -9999 -9999 -9999 -9999 -9999 -9999 -9999 -9999 -9999 -9999 -9999 -9999 -9999 -9999 -9999 -9999 -9999 -9999 -9999 -9999 -9999 -9999 -9999 -9999 -9999 -9999 -9999 -9999 -9999 -9999 -9999 -9999 -9999 -9999 -9999 -9999 -9999 -9999 -9999 -9999 -9999 -9999 -9999 -9999 -9999 -9999 -9999 -9999 -9999 -9999 -9999 -9999 -9999 -9999 -9999 -9999 -9999 -9999 -9999 -9999 -9999 -9999 -9999 -9999 -9999 -9999 -9999 -9999 -9999 -9999 -9999 -9999 -9999 -9999 -9999 -9999 -9999 -9999 -9999 -9999 -9999 -9999 -9999 -9999 -9999 -9999 -9999 -9999 -9999 -9999 -9999 -9999 -9999 -9999 -9999 -9999 -9999 -9999 -9999 -9999 -9999 -9999 -9999 -9999 -9999 -9999 -9999 -9999 -9999 -9999 -9999 -9999 -9999 -9999 -9999 -9999 -9999 -9999 -9999 -9999 -9999 -9999 -9999 -9999 -9999 -9999 -9999 -9999 -9999 -9999 -9999 -9999 -9999 -9999 -9999 -9999 -9999 -9999 -9999 -9999 -9999 -9999 -9999 -9999 -9999 -9999 -9999 -9999 -9999 -9999 -9999 -9999 -9999 -9999 -9999 -9999 -9999 -9999 -9999 -9999 -9999 -9999 -9999 -9999 -9999 -9999 -9999 -9999 -9999 -9999 -9999 -9999 -9999 -9999 -9999 -9999 -9999 -9999 -9999 -9999 -9999 -9999 -9999 -9999 -9999 -9999 -9999 -9999 -9999 -9999 -9999 -9999 -9999 -9999 -9999 -9999 -9999 -9999 -9999 -9999 -9999 -9999 -9999 -9999 -9999 -9999 -9999 -9999 -9999 -9999 -9999 -9999 -9999 -9999 -9999 -9999 -9999 -9999 -9999 -9999 -9999 -9999 -9999 -9999 -9999 -9999 -9999 -9999 -9999 -9999 -9999 -9999 -9999 -9999 -9999 -9999 -9999 -9999 -9999 -9999 -9999 -9999 -9999 -9999 -9999 -9999 -9999 -9999 -9999 -9999 -9999 -9999 -9999 -9999 -9999 -9999 -9999 -9999 -9999 -9999 -9999 -9999 -9999 -9999 -9999 -9999 -9999 -9999 -9999 -9999 -9999 -9999 -9999 -9999 -9999 -9999 -9999 -9999 -9999 -9999 -9999 -9999 -9999 -9999 -9999 -9999 -9999 -9999 -9999 -9999 -9999 -9999 -9999 -9999 -9999 -9999 -9999 -9999 79.6407185628742 79.6407185628742 79.6407185628742 79.6407185628742 55.5555555555556 55.5555555555556 55.5555555555556 55.5555555555556 53.3333333333333 53.3333333333333 53.3333333333333 53.3333333333333 42.2025723472669 73.4649122807018 54.2312276519666 54.2312276519666 54.2312276519666 79.4117647058823 79.4117647058823 79.4117647058823 79.4117647058823 79.4117647058823 79.4117647058823 42.2025723472669 42.2025723472669 42.2025723472669 70.3883495145631 70.3883495145631 70.3883495145631 70.3883495145631 70.3883495145631 70.3883495145631 70.3883495145631 70.3883495145631 70.3883495145631 70.3883495145631 70.3883495145631 70.3883495145631 70.3883495145631 97.5609756097561 97.5609756097561 97.5609756097561 91.703056768559 91.703056768559 91.703056768559 91.703056768559 91.703056768559 91.703056768559 90.3732809430255 90.3732809430255 90.3732809430255 90.3732809430255 92.326139088729 92.326139088729 92.326139088729 92.326139088729 92.326139088729 92.326139088729 92.741935483871 92.1610169491525 92.1610169491525 92.1610169491525 -9999 -9999 -9999 -9999 -9999 -9999 -9999 -9999 -9999 -9999 -9999 -9999
-9999 -9999 -9999 -9999 -9999 -9999 -9999 -9999 -9999 -9999 -9999 -9999 -9999 -9999 -9999 -9999 -9999 -9999 -9999 -9999 -9999 -9999 -9999 -9999 -9999 -9999 -9999 -9999 -9999 -9999 -9999 -9999 -9999 -9999 -9999 -9999 -9999 -9999 -9999 -9999 -9999 -9999 -9999 -9999 -9999 -9999 -9999 -9999 -9999 -9999 -9999 -9999 -9999 -9999 -9999 -9999 -9999 -9999 -9999 -9999 -9999 -9999 -9999 -9999 -9999 -9999 -9999 -9999 -9999 -9999 -9999 -9999 -9999 -9999 -9999 -9999 -9999 -9999 -9999 -9999 -9999 -9999 -9999 -9999 -9999 -9999 -9999 -9999 -9999 -9999 -9999 -9999 -9999 -9999 -9999 -9999 -9999 -9999 -9999 -9999 -9999 -9999 -9999 -9999 -9999 -9999 -9999 -9999 -9999 -9999 -9999 -9999 -9999 -9999 -9999 -9999 -9999 -9999 -9999 -9999 -9999 -9999 -9999 -9999 -9999 -9999 -9999 -9999 -9999 -9999 -9999 -9999 -9999 -9999 -9999 -9999 -9999 -9999 -9999 -9999 -9999 -9999 -9999 -9999 -9999 -9999 -9999 -9999 -9999 -9999 -9999 -9999 -9999 -9999 -9999 -9999 -9999 -9999 -9999 -9999 -9999 -9999 -9999 -9999 -9999 -9999 -9999 -9999 -9999 -9999 -9999 -9999 -9999 -9999 -9999 -9999 -9999 -9999 -9999 -9999 -9999 -9999 -9999 -9999 -9999 -9999 -9999 -9999 -9999 -9999 -9999 -9999 -9999 -9999 -9999 -9999 -9999 -9999 -9999 -9999 -9999 -9999 -9999 -9999 -9999 -9999 -9999 -9999 -9999 -9999 -9999 -9999 -9999 -9999 -9999 -9999 -9999 -9999 -9999 -9999 -9999 -9999 -9999 -9999 -9999 -9999 -9999 -9999 -9999 -9999 -9999 -9999 -9999 -9999 -9999 -9999 -9999 -9999 -9999 -9999 -9999 -9999 -9999 -9999 -9999 -9999 -9999 -9999 -9999 -9999 -9999 -9999 -9999 -9999 -9999 -9999 -9999 -9999 -9999 -9999 -9999 -9999 -9999 -9999 -9999 -9999 -9999 -9999 -9999 -9999 -9999 -9999 -9999 -9999 -9999 -9999 -9999 -9999 -9999 -9999 -9999 -9999 -9999 -9999 -9999 -9999 -9999 -9999 -9999 -9999 -9999 -9999 -9999 -9999 -9999 -9999 -9999 -9999 -9999 -9999 -9999 -9999 -9999 -9999 -9999 -9999 -9999 -9999 -9999 -9999 -9999 -9999 -9999 -9999 -9999 -9999 -9999 -9999 -9999 -9999 -9999 -9999 -9999 -9999 -9999 -9999 -9999 -9999 -9999 -9999 -9999 -9999 -9999 -9999 -9999 -9999 79.6407185628742 79.6407185628742 79.6407185628742 79.6407185628742 79.6407185628742 79.6407185628742 79.6407185628742 79.6407185628742 79.6407185628742 60.4515659140568 55.5555555555556 55.5555555555556 74.8106060606061 74.8106060606061 53.3333333333333 42.2025723472669 42.2025723472669 42.2025723472669 73.4649122807018 54.2312276519666 54.2312276519666 54.2312276519666 54.2312276519666 79.4117647058823 79.4117647058823 79.4117647058823 42.2025723472669 42.2025723472669 42.2025723472669 42.2025723472669 42.2025723472669 42.2025723472669 70.3883495145631 70.3883495145631 70.3883495145631 70.3883495145631 70.3883495145631 70.3883495145631 70.3883495145631 70.3883495145631 70.3883495145631 70.3883495145631 70.3883495145631 95.4606141522029 97.5609756097561 95.4606141522029 95.4606141522029 91.703056768559 91.703056768559 91.703056768559 91.703056768559 91.703056768559 90.3732809430255 90.3732809430255 90.3732809430255 90.3732809430255 90.3732809430255 92.741935483871 92.741935483871 92.741935483871 92.741935483871 92.741935483871 92.741935483871 92.741935483871 92.1610169491525 92.1610169491525 92.1610169491525 -9999 -9999 -9999 -9999 -9999 -9999 -9999 -9999 -9999 -9999 -9999 -9999
-9999 -9999 -9999 -9999 -9999 -9999 -9999 -9999 -9999 -9999 -9999 -9999 -9999 -9999 -9999 -9999 -9999 -9999 -9999 -9999 -9999 -9999 -9999 -9999 -9999 -9999 -9999 -9999 -9999 -9999 -9999 -9999 -9999 -9999 -9999 -9999 -9999 -9999 -9999 -9999 -9999 -9999 -9999 -9999 -9999 -9999 -9999 -9999 -9999 -9999 -9999 -9999 -9999 -9999 -9999 -9999 -9999 -9999 -9999 -9999 -9999 -9999 -9999 -9999 -9999 -9999 -9999 -9999 -9999 -9999 -9999 -9999 -9999 -9999 -9999 -9999 -9999 -9999 -9999 -9999 -9999 -9999 -9999 -9999 -9999 -9999 -9999 -9999 -9999 -9999 -9999 -9999 -9999 -9999 -9999 -9999 -9999 -9999 -9999 -9999 -9999 -9999 -9999 -9999 -9999 -9999 -9999 -9999 -9999 -9999 -9999 -9999 -9999 -9999 -9999 -9999 -9999 -9999 -9999 -9999 -9999 -9999 -9999 -9999 -9999 -9999 -9999 -9999 -9999 -9999 -9999 -9999 -9999 -9999 -9999 -9999 -9999 -9999 -9999 -9999 -9999 -9999 -9999 -9999 -9999 -9999 -9999 -9999 -9999 -9999 -9999 -9999 -9999 -9999 -9999 -9999 -9999 -9999 -9999 -9999 -9999 -9999 -9999 -9999 -9999 -9999 -9999 -9999 -9999 -9999 -9999 -9999 -9999 -9999 -9999 -9999 -9999 -9999 -9999 -9999 -9999 -9999 -9999 -9999 -9999 -9999 -9999 -9999 -9999 -9999 -9999 -9999 -9999 -9999 -9999 -9999 -9999 -9999 -9999 -9999 -9999 -9999 -9999 -9999 -9999 -9999 -9999 -9999 -9999 -9999 -9999 -9999 -9999 -9999 -9999 -9999 -9999 -9999 -9999 -9999 -9999 -9999 -9999 -9999 -9999 -9999 -9999 -9999 -9999 -9999 -9999 -9999 -9999 -9999 -9999 -9999 -9999 -9999 -9999 -9999 -9999 -9999 -9999 -9999 -9999 -9999 -9999 -9999 -9999 -9999 -9999 -9999 -9999 -9999 -9999 -9999 -9999 -9999 -9999 -9999 -9999 -9999 -9999 -9999 -9999 -9999 -9999 -9999 -9999 -9999 -9999 -9999 -9999 -9999 -9999 -9999 -9999 -9999 -9999 -9999 -9999 -9999 -9999 -9999 -9999 -9999 -9999 -9999 -9999 -9999 -9999 -9999 -9999 -9999 -9999 -9999 -9999 -9999 -9999 -9999 -9999 -9999 -9999 -9999 -9999 -9999 -9999 -9999 -9999 -9999 -9999 -9999 -9999 -9999 -9999 -9999 -9999 -9999 -9999 -9999 -9999 -9999 -9999 -9999 -9999 -9999 -9999 -9999 -9999 -9999 -9999 -9999 -9999 -9999 79.4947994056464 79.4947994056464 79.6407185628742 79.6407185628742 79.6407185628742 79.6407185628742 77.9036827195467 79.6407185628742 79.6407185628742 60.4515659140568 60.4515659140568 60.4515659140568 60.4515659140568 58.10546875 74.8106060606061 74.8106060606061 74.8106060606061 42.2025723472669 42.2025723472669 42.2025723472669 42.2025723472669 54.2312276519666 54.2312276519666 54.2312276519666 54.2312276519666 54.2312276519666 79.4117647058823 42.2025723472669 42.2025723472669 42.2025723472669 42.2025723472669 42.2025723472669 42.2025723472669 42.2025723472669 42.2025723472669 70.3883495145631 70.3883495145631 70.3883495145631 70.3883495145631 70.3883495145631 70.3883495145631 70.3883495145631 70.3883495145631 95.4606141522029 95.4606141522029 95.4606141522029 95.4606141522029 95.4606141522029 95.4606141522029 91.703056768559 91.703056768559 95.4606141522029 91.703056768559 91.703056768559 94.2460317460317 94.2460317460317 90.3732809430255 94.2460317460317 94.2460317460317 92.741935483871 92.741935483871 92.741935483871 92.741935483871 92.741935483871 92.741935483871 92.741935483871 92.741935483871 92.1610169491525 92.1610169491525 -9999 -9999 -9999 -9999 -9999 -9999 -9999 -9999 -9999 -9999 -9999 -9999
-9999 -9999 -9999 -9999 -9999 -9999 -9999 -9999 -9999 -9999 -9999 -9999 -9999 -9999 -9999 -9999 -9999 -9999 -9999 -9999 -9999 -9999 -9999 -9999 -9999 -9999 -9999 -9999 -9999 -9999 -9999 -9999 -9999 -9999 -9999 -9999 -9999 -9999 -9999 -9999 -9999 -9999 -9999 -9999 -9999 -9999 -9999 -9999 -9999 -9999 -9999 -9999 -9999 -9999 -9999 -9999 -9999 -9999 -9999 -9999 -9999 -9999 -9999 -9999 -9999 -9999 -9999 -9999 -9999 -9999 -9999 -9999 -9999 -9999 -9999 -9999 -9999 -9999 -9999 -9999 -9999 -9999 -9999 -9999 -9999 -9999 -9999 -9999 -9999 -9999 -9999 -9999 -9999 -9999 -9999 -9999 -9999 -9999 -9999 -9999 -9999 -9999 -9999 -9999 -9999 -9999 -9999 -9999 -9999 -9999 -9999 -9999 -9999 -9999 -9999 -9999 -9999 -9999 -9999 -9999 -9999 -9999 -9999 -9999 -9999 -9999 -9999 -9999 -9999 -9999 -9999 -9999 -9999 -9999 -9999 -9999 -9999 -9999 -9999 -9999 -9999 -9999 -9999 -9999 -9999 -9999 -9999 -9999 -9999 -9999 -9999 -9999 -9999 -9999 -9999 -9999 -9999 -9999 -9999 -9999 -9999 -9999 -9999 -9999 -9999 -9999 -9999 -9999 -9999 -9999 -9999 -9999 -9999 -9999 -9999 -9999 -9999 -9999 -9999 -9999 -9999 -9999 -9999 -9999 -9999 -9999 -9999 -9999 -9999 -9999 -9999 -9999 -9999 -9999 -9999 -9999 -9999 -9999 -9999 -9999 -9999 -9999 -9999 -9999 -9999 -9999 -9999 -9999 -9999 -9999 -9999 -9999 -9999 -9999 -9999 -9999 -9999 -9999 -9999 -9999 -9999 -9999 -9999 -9999 -9999 -9999 -9999 -9999 -9999 -9999 -9999 -9999 -9999 -9999 -9999 -9999 -9999 -9999 -9999 -9999 -9999 -9999 -9999 -9999 -9999 -9999 -9999 -9999 -9999 -9999 -9999 -9999 -9999 -9999 -9999 -9999 -9999 -9999 -9999 -9999 -9999 -9999 -9999 -9999 -9999 -9999 -9999 -9999 -9999 -9999 -9999 -9999 -9999 -9999 -9999 -9999 -9999 -9999 -9999 -9999 -9999 -9999 -9999 -9999 -9999 -9999 -9999 -9999 -9999 -9999 -9999 -9999 -9999 -9999 -9999 -9999 -9999 -9999 -9999 -9999 -9999 -9999 -9999 -9999 -9999 -9999 -9999 -9999 -9999 -9999 -9999 -9999 -9999 -9999 -9999 -9999 -9999 -9999 -9999 -9999 -9999 -9999 -9999 -9999 -9999 -9999 -9999 -9999 -9999 -9999 -9999 -9999 -9999 79.4947994056464 79.4947994056464 79.4947994056464 79.4947994056464 79.6407185628742 77.9036827195467 77.9036827195467 77.9036827195467 77.9036827195467 60.4515659140568 60.4515659140568 60.4515659140568 60.4515659140568 60.4515659140568 58.10546875 74.8106060606061 58.10546875 58.10546875 58.10546875 58.10546875 58.10546875 42.2025723472669 42.2025723472669 54.2312276519666 42.2025723472669 42.2025723472669 42.2025723472669 42.2025723472669 42.2025723472669 42.2025723472669 42.2025723472669 42.2025723472669 42.2025723472669 42.2025723472669 42.2025723472669 42.2025723472669 42.2025723472669 70.3883495145631 70.3883495145631 70.3883495145631 70.3883495145631 70.3883495145631 95.4606141522029 95.4606141522029 95.4606141522029 95.4606141522029 95.4606141522029 95.4606141522029 95.4606141522029 95.4606141522029 95.4606141522029 95.4606141522029 95.4606141522029 95.4606141522029 91.703056768559 94.2460317460317 94.2460317460317 94.2460317460317 94.2460317460317 92.741935483871 92.741935483871 92.741935483871 91.6824196597353 91.6824196597353 91.6824196597353 91.6824196597353 91.6824196597353 90.3490759753593 92.1610169491525 92.1610169491525 92.1610169491525 -9999 -9999 -9999 -9999 -9999 -9999 -9999 -9999 -9999 -9999 -9999
-9999 -9999 -9999 -9999 -9999 -9999 -9999 -9999 -9999 -9999 -9999 -9999 -9999 -9999 -9999 -9999 -9999 -9999 -9999 -9999 -9999 -9999 -9999 -9999 -9999 -9999 -9999 -9999 -9999 -9999 -9999 -9999 -9999 -9999 -9999 -9999 -9999 -9999 -9999 -9999 -9999 -9999 -9999 -9999 -9999 -9999 -9999 -9999 -9999 -9999 -9999 -9999 -9999 -9999 -9999 -9999 -9999 -9999 -9999 -9999 -9999 -9999 -9999 -9999 -9999 -9999 -9999 -9999 -9999 -9999 -9999 -9999 -9999 -9999 -9999 -9999 -9999 -9999 -9999 -9999 -9999 -9999 -9999 -9999 -9999 -9999 -9999 -9999 -9999 -9999 -9999 -9999 -9999 -9999 -9999 -9999 -9999 -9999 -9999 -9999 -9999 -9999 -9999 -9999 -9999 -9999 -9999 -9999 -9999 -9999 -9999 -9999 -9999 -9999 -9999 -9999 -9999 -9999 -9999 -9999 -9999 -9999 -9999 -9999 -9999 -9999 -9999 -9999 -9999 -9999 -9999 -9999 -9999 -9999 -9999 -9999 -9999 -9999 -9999 -9999 -9999 -9999 -9999 -9999 -9999 -9999 -9999 -9999 -9999 -9999 -9999 -9999 -9999 -9999 -9999 -9999 -9999 -9999 -9999 -9999 -9999 -9999 -9999 -9999 -9999 -9999 -9999 -9999 -9999 -9999 -9999 -9999 -9999 -9999 -9999 -9999 -9999 -9999 -9999 -9999 -9999 -9999 -9999 -9999 -9999 -9999 -9999 -9999 -9999 -9999 -9999 -9999 -9999 -9999 -9999 -9999 -9999 -9999 -9999 -9999 -9999 -9999 -9999 -9999 -9999 -9999 -9999 -9999 -9999 -9999 -9999 -9999 -9999 -9999 -9999 -9999 -9999 -9999 -9999 -9999 -9999 -9999 -9999 -9999 -9999 -9999 -9999 -9999 -9999 -9999 -9999 -9999 -9999 -9999 -9999 -9999 -9999 -9999 -9999 -9999 -9999 -9999 -9999 -9999 -9999 -9999 -9999 -9999 -9999 -9999 -9999 -9999 -9999 -9999 -9999 -9999 -9999 -9999 -9999 -9999 -9999 -9999 -9999 -9999 -9999 -9999 -9999 -9999 -9999 -9999 -9999 -9999 -9999 -9999 -9999 -9999 -9999 -9999 -9999 -9999 -9999 -9999 -9999 -9999 -9999 -9999 -9999 -9999 -9999 -9999 -9999 -9999 -9999 -9999 -9999 -9999 -9999 -9999 -9999 -9999 -9999 -9999 -9999 -9999 -9999 -9999 -9999 -9999 -9999 -9999 -9999 -9999 -9999 -9999 -9999 -9999 -9999 -9999 -9999 -9999 -9999 -9999 -9999 -9999 -9999 -9999 -9999 -9999 -9999 -9999 -9999 79.4947994056464 69.4164989939638 79.4947994056464 79.4947994056464 79.4947994056464 68.7382297551789 68.7382297551789 77.9036827195467 77.9036827195467 77.9036827195467 77.9036827195467 77.9036827195467 60.4515659140568 60.4515659140568 60.4515659140568 60.4515659140568 60.4515659140568 58.10546875 58.10546875 58.10546875 58.10546875 58.10546875 58.10546875 58.10546875 42.2025723472669 42.2025723472669 42.2025723472669 42.2025723472669 42.2025723472669 42.2025723472669 42.2025723472669 42.2025723472669 42.2025723472669 42.2025723472669 42.2025723472669 42.2025723472669 42.2025723472669 42.2025723472669 42.2025723472669 70.3883495145631 70.3883495145631 70.3883495145631 95.4606141522029 95.4606141522029 95.4606141522029 95.4606141522029 95.4606141522029 95.4606141522029 95.4606141522029 95.4606141522029 95.4606141522029 95.4606141522029 95.4606141522029 95.4606141522029 95.4606141522029 95.4606141522029 98.9247311827957 98.9247311827957 93.0693069306931 93.0693069306931 93.0693069306931 95.5483170466884 95.5483170466884 92.741935483871 90.3490759753593 90.3490759753593 91.6824196597353 91.6824196597353 90.3490759753593 90.3490759753593 92.1610169491525 92.1610169491525 92.1610169491525 -9999 -9999 -9999 -9999 -9999 -9999 -9999 -9999 -9999 -9999 -9999
-9999 -9999 -9999 -9999 -9999 -9999 -9999 -9999 -9999 -9999 -9999 -9999 -9999 -9999 -9999 -9999 -9999 -9999 -9999 -9999 -9999 -9999 -9999 -9999 -9999 -9999 -9999 -9999 -9999 -9999 -9999 -9999 -9999 -9999 -9999 -9999 -9999 -9999 -9999 -9999 -9999 -9999 -9999 -9999 -9999 -9999 -9999 -9999 -9999 -9999 -9999 -9999 -9999 -9999 -9999 -9999 -9999 -9999 -9999 -9999 -9999 -9999 -9999 -9999 -9999 -9999 -9999 -9999 -9999 -9999 -9999 -9999 -9999 -9999 -9999 -9999 -9999 -9999 -9999 -9999 -9999 -9999 -9999 -9999 -9999 -9999 -9999 -9999 -9999 -9999 -9999 -9999 -9999 -9999 -9999 -9999 -9999 -9999 -9999 -9999 -9999 -9999 -9999 -9999 -9999 -9999 -9999 -9999 -9999 -9999 -9999 -9999 -9999 -9999 -9999 -9999 -9999 -9999 -9999 -9999 -9999 -9999 -9999 -9999 -9999 -9999 -9999 -9999 -9999 -9999 -9999 -9999 -9999 -9999 -9999 -9999 -9999 -9999 -9999 -9999 -9999 -9999 -9999 -9999 -9999 -9999 -9999 -9999 -9999 -9999 -9999 -9999 -9999 -9999 -9999 -9999 -9999 -9999 -9999 -9999 -9999 -9999 -9999 -9999 -9999 -9999 -9999 -9999 -9999 -9999 -9999 -9999 -9999 -9999 -9999 -9999 -9999 -9999 -9999 -9999 -9999 -9999 -9999 -9999 -9999 -9999 -9999 -9999 -9999 -9999 -9999 -9999 -9999 -9999 -9999 -9999 -9999 -9999 -9999 -9999 -9999 -9999 -9999 -9999 -9999 -9999 -9999 -9999 -9999 -9999 -9999 -9999 -9999 -9999 -9999 -9999 -9999 -9999 -9999 -9999 -9999 -9999 -9999 -9999 -9999 -9999 -9999 -9999 -9999 -9999 -9999 -9999 -9999 -9999 -9999 -9999 -9999 -9999 -9999 -9999 -9999 -9999 -9999 -9999 -9999 -9999 -9999 -9999 -9999 -9999 -9999 -9999 -9999 -9999 -9999 -9999 -9999 -9999 -9999 -9999 -9999 -9999 -9999 -9999 -9999 -9999 -9999 -9999 -9999 -9999 -9999 -9999 -9999 -9999 -9999 -9999 -9999 -9999 -9999 -9999 -9999 -9999 -9999 -9999 -9999 -9999 -9999 -9999 -9999 -9999 -9999 -9999 -9999 -9999 -9999 -9999 -9999 -9999 -9999 -9999 -9999 -9999 -9999 -9999 -9999 -9999 -9999 -9999 -9999 -9999 -9999 -9999 -9999 -9999 -9999 -9999 -9999 -9999 -9999 -9999 -9999 -9999 -9999 -9999 -9999 -9999 -9999 -9999 -9999 79.4947994056464 51.7241379310345 51.7241379310345 69.4164989939638 69.4164989939638 68.7382297551789 68.7382297551789 68.7382297551789 68.7382297551789 68.7382297551789 77.9036827195467 77.9036827195467 82.089552238806 82.089552238806 60.4515659140568 60.4515659140568 60.4515659140568 60.4515659140568 60.4515659140568 60.4515659140568 58.10546875 58.10546875 58.10546875 58.10546875 58.10546875 42.2025723472669 42.2025723472669 42.2025723472669 42.2025723472669 42.2025723472669 42.2025723472669 42.2025723472669 42.2025723472669 42.2025723472669 42.2025723472669 42.2025723472669 42.2025723472669 42.2025723472669 42.2025723472669 42.2025723472669 42.2025723472669 42.2025723472669 95.4606141522029 95.4606141522029 95.4606141522029 95.4606141522029 95.4606141522029 95.4606141522029 95.4606141522029 95.4606141522029 95.4606141522029 95.4606141522029 95.4606141522029 95.4606141522029 95.4606141522029 95.4606141522029 95.4606141522029 95.4606141522029 98.9247311827957 98.9247311827957 93.0693069306931 93.0693069306931 93.0693069306931 95.5483170466884 95.5483170466884 95.5483170466884 95.5483170466884 95.5483170466884 95.5483170466884 95.5483170466884 95.5483170466884 90.3490759753593 90.3490759753593 92.1610169491525 92.1610169491525 -9999 -9999 -9999 -9999 -9999 -9999 -9999 -9999 -9999 -9999 -9999
-9999 -9999 -9999 -9999 -9999 -9999 -9999 -9999 -9999 -9999 -9999 -9999 -9999 -9999 -9999 -9999 -9999 -9999 -9999 -9999 -9999 -9999 -9999 -9999 -9999 -9999 -9999 -9999 -9999 -9999 -9999 -9999 -9999 -9999 -9999 -9999 -9999 -9999 -9999 -9999 -9999 -9999 -9999 -9999 -9999 -9999 -9999 -9999 -9999 -9999 -9999 -9999 -9999 -9999 -9999 -9999 -9999 -9999 -9999 -9999 -9999 -9999 -9999 -9999 -9999 -9999 -9999 -9999 -9999 -9999 -9999 -9999 -9999 -9999 -9999 -9999 -9999 -9999 -9999 -9999 -9999 -9999 -9999 -9999 -9999 -9999 -9999 -9999 -9999 -9999 -9999 -9999 -9999 -9999 -9999 -9999 -9999 -9999 -9999 -9999 -9999 -9999 -9999 -9999 -9999 -9999 -9999 -9999 -9999 -9999 -9999 -9999 -9999 -9999 -9999 -9999 -9999 -9999 -9999 -9999 -9999 -9999 -9999 -9999 -9999 -9999 -9999 -9999 -9999 -9999 -9999 -9999 -9999 -9999 -9999 -9999 -9999 -9999 -9999 -9999 -9999 -9999 -9999 -9999 -9999 -9999 -9999 -9999 -9999 -9999 -9999 -9999 -9999 -9999 -9999 -9999 -9999 -9999 -9999 -9999 -9999 -9999 -9999 -9999 -9999 -9999 -9999 -9999 -9999 -9999 -9999 -9999 -9999 -9999 -9999 -9999 -9999 -9999 -9999 -9999 -9999 -9999 -9999 -9999 -9999 -9999 -9999 -9999 -9999 -9999 -9999 -9999 -9999 -9999 -9999 -9999 -9999 -9999 -9999 -9999 -9999 -9999 -9999 -9999 -9999 -9999 -9999 -9999 -9999 -9999 -9999 -9999 -9999 -9999 -9999 -9999 -9999 -9999 -9999 -9999 -9999 -9999 -9999 -9999 -9999 -9999 -9999 -9999 -9999 -9999 -9999 -9999 -9999 -9999 -9999 -9999 -9999 -9999 -9999 -9999 -9999 -9999 -9999 -9999 -9999 -9999 -9999 -9999 -9999 -9999 -9999 -9999 -9999 -9999 -9999 -9999 -9999 -9999 -9999 -9999 -9999 -9999 -9999 -9999 -9999 -9999 -9999 -9999 -9999 -9999 -9999 -9999 -9999 -9999 -9999 -9999 -9999 -9999 -9999 -9999 -9999 -9999 -9999 -9999 -9999 -9999 -9999 -9999 -9999 -9999 -9999 -9999 -9999 -9999 -9999 -9999 -9999 -9999 -9999 -9999 -9999 -9999 -9999 -9999 -9999 -9999 -9999 -9999 -9999 -9999 -9999 -9999 -9999 -9999 -9999 -9999 -9999 -9999 -9999 -9999 -9999 -9999 -9999 -9999 -9999 -9999 -9999 79.4947994056464 72.1062618595825 72.1062618595825 51.7241379310345 51.7241379310345 69.4164989939638 69.4164989939638 69.4164989939638 68.7382297551789 68.7382297551789 68.7382297551789 68.7382297551789 77.8761061946903 82.089552238806 82.089552238806 82.089552238806 82.089552238806 60.4515659140568 60.4515659140568 60.4515659140568 60.4515659140568 60.4515659140568 58.10546875 58.10546875 42.2025723472669 42.2025723472669 42.2025723472669 42.2025723472669 42.2025723472669 42.2025723472669 42.2025723472669 42.2025723472669 42.2025723472669 42.2025723472669 42.2025723472669 42.2025723472669 42.2025723472669 42.2025723472669 42.2025723472669 42.2025723472669 42.2025723472669 42.2025723472669 95.4606141522029 95.4606141522029 95.4606141522029 95.4606141522029 95.4606141522029 95.4606141522029 95.4606141522029 95.4606141522029 95.4606141522029 95.4606141522029 95.4606141522029 95.4606141522029 95.4606141522029 95.4606141522029 95.4606141522029 95.4606141522029 95.4606141522029 95.4606141522029 98.9247311827957 93.0693069306931 93.0693069306931 93.0693069306931 95.5483170466884 95.5483170466884 95.5483170466884 95.5483170466884 98.3379501385042 98.3379501385042 98.3379501385042 98.3379501385042 98.3379501385042 92.9339477726575 92.9339477726575 59.748427672956 59.748427672956 59.748427672956 -9999 -9999 -9999 -9999 -9999 -9999 -9999 -9999 -9999 -9999
-9999 -9999 -9999 -9999 -9999 -9999 -9999 -9999 -9999 -9999 -9999 -9999 -9999 -9999 -9999 -9999 -9999 -9999 -9999 -9999 -9999 -9999 -9999 -9999 -9999 -9999 -9999 -9999 -9999 -9999 -9999 -9999 -9999 -9999 -9999 -9999 -9999 -9999 -9999 -9999 -9999 -9999 -9999 -9999 -9999 -9999 -9999 -9999 -9999 -9999 -9999 -9999 -9999 -9999 -9999 -9999 -9999 -9999 -9999 -9999 -9999 -9999 -9999 -9999 -9999 -9999 -9999 -9999 -9999 -9999 -9999 -9999 -9999 -9999 -9999 -9999 -9999 -9999 -9999 -9999 -9999 -9999 -9999 -9999 -9999 -9999 -9999 -9999 -9999 -9999 -9999 -9999 -9999 -9999 -9999 -9999 -9999 -9999 -9999 -9999 -9999 -9999 -9999 -9999 -9999 -9999 -9999 -9999 -9999 -9999 -9999 -9999 -9999 -9999 -9999 -9999 -9999 -9999 -9999 -9999 -9999 -9999 -9999 -9999 -9999 -9999 -9999 -9999 -9999 -9999 -9999 -9999 -9999 -9999 -9999 -9999 -9999 -9999 -9999 -9999 -9999 -9999 -9999 -9999 -9999 -9999 -9999 -9999 -9999 -9999 -9999 -9999 -9999 -9999 -9999 -9999 -9999 -9999 -9999 -9999 -9999 -9999 -9999 -9999 -9999 -9999 -9999 -9999 -9999 -9999 -9999 -9999 -9999 -9999 -9999 -9999 -9999 -9999 -9999 -9999 -9999 -9999 -9999 -9999 -9999 -9999 -9999 -9999 -9999 -9999 -9999 -9999 -9999 -9999 -9999 -9999 -9999 -9999 -9999 -9999 -9999 -9999 -9999 -9999 -9999 -9999 -9999 -9999 -9999 -9999 -9999 -9999 -9999 -9999 -9999 -9999 -9999 -9999 -9999 -9999 -9999 -9999 -9999 -9999 -9999 -9999 -9999 -9999 -9999 -9999 -9999 -9999 -9999 -9999 -9999 -9999 -9999 -9999 -9999 -9999 -9999 -9999 -9999 -9999 -9999 -9999 -9999 -9999 -9999 -9999 -9999 -9999 -9999 -9999 -9999 -9999 -9999 -9999 -9999 -9999 -9999 -9999 -9999 -9999 -9999 -9999 -9999 -9999 -9999 -9999 -9999 -9999 -9999 -9999 -9999 -9999 -9999 -9999 -9999 -9999 -9999 -9999 -9999 -9999 -9999 -9999 -9999 -9999 -9999 -9999 -9999 -9999 -9999 -9999 -9999 -9999 -9999 -9999 -9999 -9999 -9999 -9999 -9999 -9999 -9999 -9999 -9999 -9999 -9999 -9999 -9999 -9999 -9999 -9999 -9999 -9999 -9999 -9999 -9999 -9999 -9999 -9999 -9999 -9999 -9999 -9999 72.1062618595825 72.1062618595825 72.1062618595825 72.1062618595825 51.7241379310345 51.7241379310345 69.4164989939638 69.4164989939638 55.9502664298401 55.9502664298401 55.9502664298401 77.8761061946903 77.8761061946903 77.8761061946903 77.8761061946903 82.089552238806 82.089552238806 74.1482965931864 74.1482965931864 60.4515659140568 60.4515659140568 60.4515659140568 60.4515659140568 42.2025723472669 42.2025723472669 42.2025723472669 42.2025723472669 42.2025723472669 42.2025723472669 42.2025723472669 42.2025723472669 42.2025723472669 42.2025723472669 42.2025723472669 42.2025723472669 42.2025723472669 42.2025723472669 42.2025723472669 42.2025723472669 42.2025723472669 42.2025723472669 95.4606141522029 95.4606141522029 95.4606141522029 95.4606141522029 95.4606141522029 95.4606141522029 95.4606141522029 95.4606141522029 95.4606141522029 95.4606141522029 95.4606141522029 95.4606141522029 95.4606141522029 95.4606141522029 95.4606141522029 95.4606141522029 95.4606141522029 95.4606141522029 95.4606141522029 98.9247311827957 98.9247311827957 98.9247311827957 93.0787589498807 93.0787589498807 93.0787589498807 95.5483170466884 95.5483170466884 94.8453608247423 94.8453608247423 94.8453608247423 94.8453608247423 98.3379501385042 98.3379501385042 92.9339477726575 92.9339477726575 92.9339477726575 59.748427672956 59.748427672956 -9999 -9999 -9999 -9999 -9999 -9999 -9999 -9999 -9999 -9999
-9999 -9999 -9999 -9999 -9999 -9999 -9999 -9999 -9999 -9999 -9999 -9999 -9999 -9999 -9999 -9999 -9999 -9999 -9999 -9999 -9999 -9999 -9999 -9999 -9999 -9999 -9999 -9999 -9999 -9999 -9999 -9999 -9999 -9999 -9999 -9999 -9999 -9999 -9999 -9999 -9999 -9999 -9999 -9999 -9999 -9999 -9999 -9999 -9999 -9999 -9999 -9999 -9999 -9999 -9999 -9999 -9999 -9999 -9999 -9999 -9999 -9999 -9999 -9999 -9999 -9999 -9999 -9999 -9999 -9999 -9999 -9999 -9999 -9999 -9999 -9999 -9999 -9999 -9999 -9999 -9999 -9999 -9999 -9999 -9999 -9999 -9999 -9999 -9999 -9999 -9999 -9999 -9999 -9999 -9999 -9999 -9999 -9999 -9999 -9999 -9999 -9999 -9999 -9999 -9999 -9999 -9999 -9999 -9999 -9999 -9999 -9999 -9999 -9999 -9999 -9999 -9999 -9999 -9999 -9999 -9999 -9999 -9999 -9999 -9999 -9999 -9999 -9999 -9999 -9999 -9999 -9999 -9999 -9999 -9999 -9999 -9999 -9999 -9999 -9999 -9999 -9999 -9999 -9999 -9999 -9999 -9999 -9999 -9999 -9999 -9999 -9999 -9999 -9999 -9999 -9999 -9999 -9999 -9999 -9999 -9999 -9999 -9999 -9999 -9999 -9999 -9999 -9999 -9999 -9999 -9999 -9999 -9999 -9999 -9999 -9999 -9999 -9999 -9999 -9999 -9999 -9999 -9999 -9999 -9999 -9999 -9999 -9999 -9999 -9999 -9999 -9999 -9999 -9999 -9999 -9999 -9999 -9999 -9999 -9999 -9999 -9999 -9999 -9999 -9999 -9999 -9999 -9999 -9999 -9999 -9999 -9999 -9999 -9999 -9999 -9999 -9999 -9999 -9999 -9999 -9999 -9999 -9999 -9999 -9999 -9999 -9999 -9999 -9999 -9999 -9999 -9999 -9999 -9999 -9999 -9999 -9999 -9999 -9999 -9999 -9999 -9999 -9999 -9999 -9999 -9999 -9999 -9999 -9999 -9999 -9999 -9999 -9999 -9999 -9999 -9999 -9999 -9999 -9999 -9999 -9999 -9999 -9999 -9999 -9999 -9999 -9999 -9999 -9999 -9999 -9999 -9999 -9999 -9999 -9999 -9999 -9999 -9999 -9999 -9999 -9999 -9999 -9999 -9999 -9999 -9999 -9999 -9999 -9999 -9999 -9999 -9999 -9999 -9999 -9999 -9999 -9999 -9999 -9999 -9999 -9999 -9999 -9999 -9999 -9999 -9999 -9999 -9999 -9999 -9999 -9999 -9999 -9999 -9999 -9999 -9999 -9999 -9999 -9999 -9999 -9999 -9999 -9999 -9999 64.1562064156206 63.5658914728682 63.5658914728682 72.1062618595825 72.1062618595825 72.1062618595825 72.1062618595825 72.1062618595825 55.9502664298401 55.9502664298401 55.9502664298401 38.5934819897084 38.5934819897084 38.5934819897084 77.8761061946903 77.8761061946903 77.8761061946903 75.3715498938429 74.1482965931864 74.1482965931864 74.1482965931864 74.1482965931864 60.4515659140568 42.2025723472669 42.2025723472669 42.2025723472669 42.2025723472669 42.2025723472669 42.2025723472669 42.2025723472669 42.2025723472669 42.2025723472669 42.2025723472669 42.2025723472669 42.2025723472669 42.2025723472669 42.2025723472669 42.2025723472669 42.2025723472669 42.2025723472669 42.2025723472669 95.4606141522029 95.4606141522029 95.4606141522029 95.4606141522029 95.4606141522029 95.4606141522029 95.4606141522029 95.4606141522029 95.4606141522029 95.4606141522029 95.4606141522029 95.4606141522029 95.4606141522029 95.4606141522029 95.4606141522029 95.4606141522029 95.4606141522029 95.4606141522029 95.4606141522029 95.4606141522029 95.4606141522029 94.5485519591141 94.5485519591141 95.6607495069034 95.6607495069034 95.6607495069034 95.6607495069034 95.6607495069034 96.7957276368491 94.8453608247423 94.8453608247423 94.8453608247423 94.8453608247423 94.8453608247423 92.9339477726575 92.9339477726575 92.6395939086294 92.6395939086294 59.748427672956 59.748427672956 -9999 -9999 -9999 -9999 -9999 -9999 -9999 -9999 -9999 -9999
-9999 -9999 -9999 -9999 -9999 -9999 -9999 -9999 -9999 -9999 -9999 -9999 -9999 -9999 -9999 -9999 -9999 -9999 -9999 -9999 -9999 -9999 -9999 -9999 -9999 -9999 -9999 -9999 -9999 -9999 -9999 -9999 -9999 -9999 -9999 -9999 -9999 -9999 -9999 -9999 -9999 -9999 -9999 -9999 -9999 -9999 -9999 -9999 -9999 -9999 -9999 -9999 -9999 -9999 -9999 -9999 -9999 -9999 -9999 -9999 -9999 -9999 -9999 -9999 -9999 -9999 -9999 -9999 -9999 -9999 -9999 -9999 -9999 -9999 -9999 -9999 -9999 -9999 -9999 -9999 -9999 -9999 -9999 -9999 -9999 -9999 -9999 -9999 -9999 -9999 -9999 -9999 -9999 -9999 -9999 -9999 -9999 -9999 -9999 -9999 -9999 -9999 -9999 -9999 -9999 -9999 -9999 -9999 -9999 -9999 -9999 -9999 -9999 -9999 -9999 -9999 -9999 -9999 -9999 -9999 -9999 -9999 -9999 -9999 -9999 -9999 -9999 -9999 -9999 -9999 -9999 -9999 -9999 -9999 -9999 -9999 -9999 -9999 -9999 -9999 -9999 -9999 -9999 -9999 -9999 -9999 -9999 -9999 -9999 -9999 -9999 -9999 -9999 -9999 -9999 -9999 -9999 -9999 -9999 -9999 -9999 -9999 -9999 -9999 -9999 -9999 -9999 -9999 -9999 -9999 -9999 -9999 -9999 -9999 -9999 -9999 -9999 -9999 -9999 -9999 -9999 -9999 -9999 -9999 -9999 -9999 -9999 -9999 -9999 -9999 -9999 -9999 -9999 -9999 -9999 -9999 -9999 -9999 -9999 -9999 -9999 -9999 -9999 -9999 -9999 -9999 -9999 -9999 -9999 -9999 -9999 -9999 -9999 -9999 -9999 -9999 -9999 -9999 -9999 -9999 -9999 -9999 -9999 -9999 -9999 -9999 -9999 -9999 -9999 -9999 -9999 -9999 -9999 -9999 -9999 -9999 -9999 -9999 -9999 -9999 -9999 -9999 -9999 -9999 -9999 -9999 -9999 -9999 -9999 -9999 -9999 -9999 -9999 -9999 -9999 -9999 -9999 -9999 -9999 -9999 -9999 -9999 -9999 -9999 -9999 -9999 -9999 -9999 -9999 -9999 -9999 -9999 -9999 -9999 -9999 -9999 -9999 -9999 -9999 -9999 -9999 -9999 -9999 -9999 -9999 -9999 -9999 -9999 -9999 -9999 -9999 -9999 -9999 -9999 -9999 -9999 -9999 -9999 -9999 -9999 -9999 -9999 -9999 -9999 -9999 -9999 -9999 -9999 -9999 -9999 -9999 -9999 -9999 -9999 -9999 -9999 -9999 -9999 -9999 -9999 -9999 -9999 64.1562064156206 64.1562064156206 55.1020408163265 55.1020408163265 63.5658914728682 63.5658914728682 72.1062618595825 72.1062618595825 72.1062618595825 72.1062618595825 72.1062618595825 72.1062618595825 55.9502664298401 38.5934819897084 38.5934819897084 38.5934819897084 38.5934819897084 75.3715498938429 75.3715498938429 75.3715498938429 75.3715498938429 74.1482965931864 74.1482965931864 42.2025723472669 42.2025723472669 42.2025723472669 42.2025723472669 42.2025723472669 42.2025723472669 42.2025723472669 42.2025723472669 42.2025723472669 42.2025723472669 42.2025723472669 42.2025723472669 42.2025723472669 42.2025723472669 42.2025723472669 42.2025723472669 42.2025723472669 42.2025723472669 95.4606141522029 95.4606141522029 95.4606141522029 95.4606141522029 95.4606141522029 95.4606141522029 95.4606141522029 95.4606141522029 95.4606141522029 95.4606141522029 95.4606141522029 95.4606141522029 95.4606141522029 95.4606141522029 95.4606141522029 95.4606141522029 95.4606141522029 95.4606141522029 95.4606141522029 95.4606141522029 95.4606141522029 95.4606141522029 94.5485519591141 94.5485519591141 94.5485519591141 91.7508417508417 91.7508417508417 91.7508417508417 91.7508417508417 91.7508417508417 91.5492957746479 96.7957276368491 96.7957276368491 96.7957276368491 96.7957276368491 96.7957276368491 92.9339477726575 92.9339477726575 91.2897822445561 91.2897822445561 92.6395939086294 59.748427672956 59.748427672956 -9999 -9999 -9999 -9999 -9999 -9999 -9999 -9999 -9999
-9999 -9999 -9999 -9999 -9999 -9999 -9999 -9999 -9999 -9999 -9999 -9999 -9999 -9999 -9999 -9999 -9999 -9999 -9999 -9999 -9999 -9999 -9999 -9999 -9999 -9999 -9999 -9999 -9999 -9999 -9999 -9999 -9999 -9999 -9999 -9999 -9999 -9999 -9999 -9999 -9999 -9999 -9999 -9999 -9999 -9999 -9999 -9999 -9999 -9999 -9999 -9999 -9999 -9999 -9999 -9999 -9999 -9999 -9999 -9999 -9999 -9999 -9999 -9999 -9999 -9999 -9999 -9999 -9999 -9999 -9999 -9999 -9999 -9999 -9999 -9999 -9999 -9999 -9999 -9999 -9999 -9999 -9999 -9999 -9999 -9999 -9999 -9999 -9999 -9999 -9999 -9999 -9999 -9999 -9999 -9999 -9999 -9999 -9999 -9999 -9999 -9999 -9999 -9999 -9999 -9999 -9999 -9999 -9999 -9999 -9999 -9999 -9999 -9999 -9999 -9999 -9999 -9999 -9999 -9999 -9999 -9999 -9999 -9999 -9999 -9999 -9999 -9999 -9999 -9999 -9999 -9999 -9999 -9999 -9999 -9999 -9999 -9999 -9999 -9999 -9999 -9999 -9999 -9999 -9999 -9999 -9999 -9999 -9999 -9999 -9999 -9999 -9999 -9999 -9999 -9999 -9999 -9999 -9999 -9999 -9999 -9999 -9999 -9999 -9999 -9999 -9999 -9999 -9999 -9999 -9999 -9999 -9999 -9999 -9999 -9999 -9999 -9999 -9999 -9999 -9999 -9999 -9999 -9999 -9999 -9999 -9999 -9999 -9999 -9999 -9999 -9999 -9999 -9999 -9999 -9999 -9999 -9999 -9999 -9999 -9999 -9999 -9999 -9999 -9999 -9999 -9999 -9999 -9999 -9999 -9999 -9999 -9999 -9999 -9999 -9999 -9999 -9999 -9999 -9999 -9999 -9999 -9999 -9999 -9999 -9999 -9999 -9999 -9999 -9999 -9999 -9999 -9999 -9999 -9999 -9999 -9999 -9999 -9999 -9999 -9999 -9999 -9999 -9999 -9999 -9999 -9999 -9999 -9999 -9999 -9999 -9999 -9999 -9999 -9999 -9999 -9999 -9999 -9999 -9999 -9999 -9999 -9999 -9999 -9999 -9999 -9999 -9999 -9999 -9999 -9999 -9999 -9999 -9999 -9999 -9999 -9999 -9999 -9999 -9999 -9999 -9999 -9999 -9999 -9999 -9999 -9999 -9999 -9999 -9999 -9999 -9999 -9999 -9999 -9999 -9999 -9999 -9999 -9999 -9999 -9999 -9999 -9999 -9999 -9999 -9999 -9999 -9999 -9999 -9999 -9999 -9999 -9999 -9999 -9999 -9999 -9999 -9999 -9999 -9999 64.1562064156206 64.1562064156206 55.4414784394251 57.7830188679245 55.1020408163265 55.1020408163265 55.1020408163265 63.5658914728682 63.5658914728682 72.1062618595825 44.3037974683544 44.3037974683544 72.1062618595825 72.1062618595825 44.3037974683544 44.3037974683544 38.5934819897084 58.6080586080586 58.6080586080586 58.6080586080586 58.6080586080586 75.3715498938429 75.3715498938429 75.3715498938429 42.2025723472669 42.2025723472669 42.2025723472669 42.2025723472669 42.2025723472669 42.2025723472669 42.2025723472669 42.2025723472669 42.2025723472669 42.2025723472669 42.2025723472669 42.2025723472669 42.2025723472669 42.2025723472669 42.2025723472669 42.2025723472669 42.2025723472669 95.4606141522029 95.4606141522029 95.4606141522029 95.4606141522029 95.4606141522029 95.4606141522029 95.4606141522029 95.4606141522029 95.4606141522029 95.4606141522029 95.4606141522029 95.4606141522029 95.4606141522029 95.4606141522029 95.4606141522029 95.4606141522029 95.4606141522029 95.4606141522029 95.4606141522029 95.4606141522029 95.4606141522029 95.4606141522029 95.4606141522029 95.4606141522029 94.5485519591141 94.5485519591141 92.0096852300242 92.0096852300242 92.0096852300242 92.0096852300242 92.4956369982548 91.5492957746479 91.5492957746479 91.5492957746479 91.5492957746479 91.5492957746479 91.5492957746479 91.5492957746479 96.8586387434555 92.9339477726575 91.2897822445561 91.2897822445561 91.2897822445561 91.2897822445561 59.748427672956 -9999 -9999 -9999 -9999 -9999 -9999 -9999 -9999 -9999
-9999 -9999 -9999 -9999 -9999 -9999 -9999 -9999 -9999 -9999 -9999 -9999 -9999 -9999 -9999 -9999 -9999 -9999 -9999 -9999 -9999 -9999 -9999 -9999 -9999 -9999 -9999 -9999 -9999 -9999 -9999 -9999 -9999 -9999 -9999 -9999 -9999 -9999 -9999 -9999 -9999 -9999 -9999 -9999 -9999 -9999 -9999 -9999 -9999 -9999 -9999 -9999 -9999 -9999 -9999 -9999 -9999 -9999 -9999 -9999 -9999 -9999 -9999 -9999 -9999 -9999 -9999 -9999 -9999 -9999 -9999 -9999 -9999 -9999 -9999 -9999 -9999 -9999 -9999 -9999 -9999 -9999 -9999 -9999 -9999 -9999 -9999 -9999 -9999 -9999 -9999 -9999 -9999 -9999 -9999 -9999 -9999 -9999 -9999 -9999 -9999 -9999 -9999 -9999 -9999 -9999 -9999 -9999 -9999 -9999 -9999 -9999 -9999 -9999 -9999 -9999 -9999 -9999 -9999 -9999 -9999 -9999 -9999 -9999 -9999 -9999 -9999 -9999 -9999 -9999 -9999 -9999 -9999 -9999 -9999 -9999 -9999 -9999 -9999 -9999 -9999 -9999 -9999 -9999 -9999 -9999 -9999 -9999 -9999 -9999 -9999 -9999 -9999 -9999 -9999 -9999 -9999 -9999 -9999 -9999 -9999 -9999 -9999 -9999 -9999 -9999 -9999 -9999 -9999 -9999 -9999 -9999 -9999 -9999 -9999 -9999 -9999 -9999 -9999 -9999 -9999 -9999 -9999 -9999 -9999 -9999 -9999 -9999 -9999 -9999 -9999 -9999 -9999 -9999 -9999 -9999 -9999 -9999 -9999 -9999 -9999 -9999 -9999 -9999 -9999 -9999 -9999 -9999 -9999 -9999 -9999 -9999 -9999 -9999 -9999 -9999 -9999 -9999 -9999 -9999 -9999 -9999 -9999 -9999 -9999 -9999 -9999 -9999 -9999 -9999 -9999 -9999 -9999 -9999 -9999 -9999 -9999 -9999 -9999 -9999 -9999 -9999 -9999 -9999 -9999 -9999 -9999 -9999 -9999 -9999 -9999 -9999 -9999 -9999 -9999 -9999 -9999 -9999 -9999 -9999 -9999 -9999 -9999 -9999 -9999 -9999 -9999 -9999 -9999 -9999 -9999 -9999 -9999 -9999 -9999 -9999 -9999 -9999 -9999 -9999 -9999 -9999 -9999 -9999 -9999 -9999 -9999 -9999 -9999 -9999 -9999 -9999 -9999 -9999 -9999 -9999 -9999 -9999 -9999 -9999 -9999 -9999 -9999 -9999 -9999 -9999 -9999 -9999 -9999 -9999 -9999 -9999 -9999 -9999 -9999 -9999 -9999 -9999 -9999 64.1562064156206 55.4414784394251 55.4414784394251 55.4414784394251 55.4414784394251 57.7830188679245 55.1020408163265 63.5658914728682 63.5658914728682 63.5658914728682 59.396299902629 44.3037974683544 44.3037974683544 44.3037974683544 44.3037974683544 44.3037974683544 44.3037974683544 44.3037974683544 58.6080586080586 58.6080586080586 58.6080586080586 58.6080586080586 75.3715498938429 75.3715498938429 75.3715498938429 75.3715498938429 75.3715498938429 42.2025723472669 42.2025723472669 42.2025723472669 42.2025723472669 42.2025723472669 42.2025723472669 42.2025723472669 42.2025723472669 42.2025723472669 42.2025723472669 42.2025723472669 42.2025723472669 42.2025723472669 95.4606141522029 95.4606141522029 95.4606141522029 95.4606141522029 95.4606141522029 95.4606141522029 95.4606141522029 95.4606141522029 95.4606141522029 95.4606141522029 95.4606141522029 95.4606141522029 95.4606141522029 95.4606141522029 95.4606141522029 95.4606141522029 95.4606141522029 95.4606141522029 95.4606141522029 95.4606141522029 95.4606141522029 95.4606141522029 95.4606141522029 95.4606141522029 95.4606141522029 95.4606141522029 94.5485519591141 89.9357601713062 89.9357601713062 89.9357601713062 89.9357601713062 92.4956369982548 92.4956369982548 91.5492957746479 91.5492957746479 91.5492957746479 91.5492957746479 91.5492957746479 91.5492957746479 96.8586387434555 96.8421052631579 96.8586387434555 94.1278065630397 94.1278065630397 94.1278065630397 94.1278065630397 -9999 -9999 -9999 -9999 -9999 -9999 -9999 -9999 -9999 -9999
-9999 -9999 -9999 -9999 -9999 -9999 -9999 -9999 -9999 -9999 -9999 -9999 -9999 -9999 -9999 -9999 -9999 -9999 -9999 -9999 -9999 -9999 -9999 -9999 -9999 -9999 -9999 -9999 -9999 -9999 -9999 -9999 -9999 -9999 -9999 -9999 -9999 -9999 -9999 -9999 -9999 -9999 -9999 -9999 -9999 -9999 -9999 -9999 -9999 -9999 -9999 -9999 -9999 -9999 -9999 -9999 -9999 -9999 -9999 -9999 -9999 -9999 -9999 -9999 -9999 -9999 -9999 -9999 -9999 -9999 -9999 -9999 -9999 -9999 -9999 -9999 -9999 -9999 -9999 -9999 -9999 -9999 -9999 -9999 -9999 -9999 -9999 -9999 -9999 -9999 -9999 -9999 -9999 -9999 -9999 -9999 -9999 -9999 -9999 -9999 -9999 -9999 -9999 -9999 -9999 -9999 -9999 -9999 -9999 -9999 -9999 -9999 -9999 -9999 -9999 -9999 -9999 -9999 -9999 -9999 -9999 -9999 -9999 -9999 -9999 -9999 -9999 -9999 -9999 -9999 -9999 -9999 -9999 -9999 -9999 -9999 -9999 -9999 -9999 -9999 -9999 -9999 -9999 -9999 -9999 -9999 -9999 -9999 -9999 -9999 -9999 -9999 -9999 -9999 -9999 -9999 -9999 -9999 -9999 -9999 -9999 -9999 -9999 -9999 -9999 -9999 -9999 -9999 -9999 -9999 -9999 -9999 -9999 -9999 -9999 -9999 -9999 -9999 -9999 -9999 -9999 -9999 -9999 -9999 -9999 -9999 -9999 -9999 -9999 -9999 -9999 -9999 -9999 -9999 -9999 -9999 -9999 -9999 -9999 -9999 -9999 -9999 -9999 -9999 -9999 -9999 -9999 -9999 -9999 -9999 -9999 -9999 -9999 -9999 -9999 -9999 -9999 -9999 -9999 -9999 -9999 -9999 -9999 -9999 -9999 -9999 -9999 -9999 -9999 -9999 -9999 -9999 -9999 -9999 -9999 -9999 -9999 -9999 -9999 -9999 -9999 -9999 -9999 -9999 -9999 -9999 -9999 -9999 -9999 -9999 -9999 -9999 -9999 -9999 -9999 -9999 -9999 -9999 -9999 -9999 -9999 -9999 -9999 -9999 -9999 -9999 -9999 -9999 -9999 -9999 -9999 -9999 -9999 -9999 -9999 -9999 -9999 -9999 -9999 -9999 -9999 -9999 -9999 -9999 -9999 -9999 -9999 -9999 -9999 -9999 -9999 -9999 -9999 -9999 -9999 -9999 -9999 -9999 -9999 -9999 -9999 -9999 -9999 -9999 -9999 -9999 -9999 -9999 -9999 -9999 -9999 -9999 -9999 -9999 -9999 -9999 -9999 -9999 64.1562064156206 55.4414784394251 55.4414784394251 55.4414784394251 55.4414784394251 57.7830188679245 57.7830188679245 57.7830188679245 63.5658914728682 63.5658914728682 59.396299902629 59.396299902629 59.396299902629 44.3037974683544 44.3037974683544 44.3037974683544 44.3037974683544 43.6643835616438 43.6643835616438 43.6643835616438 43.6643835616438 43.6643835616438 43.6643835616438 43.6643835616438 75.3715498938429 75.3715498938429 75.3715498938429 75.3715498938429 43.6643835616438 42.2025723472669 42.2025723472669 42.2025723472669 42.2025723472669 42.2025723472669 42.2025723472669 42.2025723472669 42.2025723472669 42.2025723472669 42.2025723472669 87.2374798061389 87.2374798061389 95.4606141522029 95.4606141522029 95.4606141522029 95.4606141522029 95.4606141522029 95.4606141522029 95.4606141522029 95.4606141522029 95.4606141522029 95.4606141522029 95.4606141522029 95.4606141522029 95.4606141522029 95.4606141522029 95.4606141522029 95.4606141522029 95.4606141522029 95.4606141522029 95.4606141522029 95.4606141522029 95.4606141522029 95.4606141522029 95.4606141522029 95.4606141522029 95.4606141522029 94.5485519591141 89.9357601713062 89.9357601713062 89.9357601713062 89.9357601713062 92.4956369982548 92.4956369982548 92.4956369982548 91.5492957746479 91.5492957746479 91.5492957746479 92.0177383592018 96.8586387434555 89.9795501022495 89.9795501022495 89.9795501022495 96.8421052631579 94.1278065630397 94.1278065630397 94.1278065630397 86 -9999 -9999 -9999 -9999 -9999 -9999 -9999 -9999 -9999 -9999
-9999 -9999 -9999 -9999 -9999 -9999 -9999 -9999 -9999 -9999 -9999 -9999 -9999 -9999 -9999 -9999 -9999 -9999 -9999 -9999 -9999 -9999 -9999 -9999 -9999 -9999 -9999 -9999 -9999 -9999 -9999 -9999 -9999 -9999 -9999 -9999 -9999 -9999 -9999 -9999 -9999 -9999 -9999 -9999 -9999 -9999 -9999 -9999 -9999 -9999 -9999 -9999 -9999 -9999 -9999 -9999 -9999 -9999 -9999 -9999 -9999 -9999 -9999 -9999 -9999 -9999 -9999 -9999 -9999 -9999 -9999 -9999 -9999 -9999 -9999 -9999 -9999 -9999 -9999 -9999 -9999 -9999 -9999 -9999 -9999 -9999 -9999 -9999 -9999 -9999 -9999 -9999 -9999 -9999 -9999 -9999 -9999 -9999 -9999 -9999 -9999 -9999 -9999 -9999 -9999 -9999 -9999 -9999 -9999 -9999 -9999 -9999 -9999 -9999 -9999 -9999 -9999 -9999 -9999 -9999 -9999 -9999 -9999 -9999 -9999 -9999 -9999 -9999 -9999 -9999 -9999 -9999 -9999 -9999 -9999 -9999 -9999 -9999 -9999 -9999 -9999 -9999 -9999 -9999 -9999 -9999 -9999 -9999 -9999 -9999 -9999 -9999 -9999 -9999 -9999 -9999 -9999 -9999 -9999 -9999 -9999 -9999 -9999 -9999 -9999 -9999 -9999 -9999 -9999 -9999 -9999 -9999 -9999 -9999 -9999 -9999 -9999 -9999 -9999 -9999 -9999 -9999 -9999 -9999 -9999 -9999 -9999 -9999 -9999 -9999 -9999 -9999 -9999 -9999 -9999 -9999 -9999 -9999 -9999 -9999 -9999 -9999 -9999 -9999 -9999 -9999 -9999 -9999 -9999 -9999 -9999 -9999 -9999 -9999 -9999 -9999 -9999 -9999 -9999 -9999 -9999 -9999 -9999 -9999 -9999 -9999 -9999 -9999 -9999 -9999 -9999 -9999 -9999 -9999 -9999 -9999 -9999 -9999 -9999 -9999 -9999 -9999 -9999 -9999 -9999 -9999 -9999 -9999 -9999 -9999 -9999 -9999 -9999 -9999 -9999 -9999 -9999 -9999 -9999 -9999 -9999 -9999 -9999 -9999 -9999 -9999 -9999 -9999 -9999 -9999 -9999 -9999 -9999 -9999 -9999 -9999 -9999 -9999 -9999 -9999 -9999 -9999 -9999 -9999 -9999 -9999 -9999 -9999 -9999 -9999 -9999 -9999 -9999 -9999 -9999 -9999 -9999 -9999 -9999 -9999 -9999 -9999 -9999 -9999 -9999 -9999 -9999 -9999 -9999 -9999 -9999 -9999 -9999 -9999 -9999 -9999 64.1562064156206 64.1562064156206 64.1562064156206 55.4414784394251 55.4414784394251 55.4414784394251 62.9496402877698 62.9496402877698 57.7830188679245 57.7830188679245 76.3888888888889 59.396299902629 59.396299902629 59.396299902629 59.396299902629 59.396299902629 44.3037974683544 43.6643835616438 43.6643835616438 43.6643835616438 43.6643835616438 43.6643835616438 43.6643835616438 43.6643835616438 43.6643835616438 43.6643835616438 43.6643835616438 75.3715498938429 43.6643835616438 43.6643835616438 43.6643835616438 43.6643835616438 42.2025723472669 42.2025723472669 42.2025723472669 42.2025723472669 42.2025723472669 42.2025723472669 42.2025723472669 87.2374798061389 87.2374798061389 87.2374798061389 87.2374798061389 87.2374798061389 87.2374798061389 95.4606141522029 95.4606141522029 95.4606141522029 95.4606141522029 95.4606141522029 95.4606141522029 95.4606141522029 95.4606141522029 95.4606141522029 95.4606141522029 95.4606141522029 95.4606141522029 95.4606141522029 95.4606141522029 95.4606141522029 95.4606141522029 95.4606141522029 95.4606141522029 95.4606141522029 95.4606141522029 95.4606141522029 95.4606141522029 95.4606141522029 92.0792079207921 92.0792079207921 92.0792079207921 89.9357601713062 89.9357601713062 92.4956369982548 92.4956369982548 92.4956369982548 91.5492957746479 91.5492957746479 92.0177383592018 92.0177383592018 92.0177383592018 92.0177383592018 89.9795501022495 89.9795501022495 96.8421052631579 94.1278065630397 94.1278065630397 94.1278065630397 86 -9999 -9999 -9999 -9999 -9999 -9999 -9999 -9999 -9999 -9999
-9999 -9999 -9999 -9999 -9999 -9999 -9999 -9999 -9999 -9999 -9999 -9999 -9999 -9999 -9999 -9999 -9999 -9999 -9999 -9999 -9999 -9999 -9999 -9999 -9999 -9999 -9999 -9999 -9999 -9999 -9999 -9999 -9999 -9999 -9999 -9999 -9999 -9999 -9999 -9999 -9999 -9999 -9999 -9999 -9999 -9999 -9999 -9999 -9999 -9999 -9999 -9999 -9999 -9999 -9999 -9999 -9999 -9999 -9999 -9999 -9999 -9999 -9999 -9999 -9999 -9999 -9999 -9999 -9999 -9999 -9999 -9999 -9999 -9999 -9999 -9999 -9999 -9999 -9999 -9999 -9999 -9999 -9999 -9999 -9999 -9999 -9999 -9999 -9999 -9999 -9999 -9999 -9999 -9999 -9999 -9999 -9999 -9999 -9999 -9999 -9999 -9999 -9999 -9999 -9999 -9999 -9999 -9999 -9999 -9999 -9999 -9999 -9999 -9999 -9999 -9999 -9999 -9999 -9999 -9999 -9999 -9999 -9999 -9999 -9999 -9999 -9999 -9999 -9999 -9999 -9999 -9999 -9999 -9999 -9999 -9999 -9999 -9999 -9999 -9999 -9999 -9999 -9999 -9999 -9999 -9999 -9999 -9999 -9999 -9999 -9999 -9999 -9999 -9999 -9999 -9999 -9999 -9999 -9999 -9999 -9999 -9999 -9999 -9999 -9999 -9999 -9999 -9999 -9999 -9999 -9999 -9999 -9999 -9999 -9999 -9999 -9999 -9999 -9999 -9999 -9999 -9999 -9999 -9999 -9999 -9999 -9999 -9999 -9999 -9999 -9999 -9999 -9999 -9999 -9999 -9999 -9999 -9999 -9999 -9999 -9999 -9999 -9999 -9999 -9999 -9999 -9999 -9999 -9999 -9999 -9999 -9999 -9999 -9999 -9999 -9999 -9999 -9999 -9999 -9999 -9999 -9999 -9999 -9999 -9999 -9999 -9999 -9999 -9999 -9999 -9999 -9999 -9999 -9999 -9999 -9999 -9999 -9999 -9999 -9999 -9999 -9999 -9999 -9999 -9999 -9999 -9999 -9999 -9999 -9999 -9999 -9999 -9999 -9999 -9999 -9999 -9999 -9999 -9999 -9999 -9999 -9999 -9999 -9999 -9999 -9999 -9999 -9999 -9999 -9999 -9999 -9999 -9999 -9999 -9999 -9999 -9999 -9999 -9999 -9999 -9999 -9999 -9999 -9999 -9999 -9999 -9999 -9999 -9999 -9999 -9999 -9999 -9999 -9999 -9999 -9999 -9999 -9999 -9999 -9999 -9999 -9999 -9999 -9999 -9999 -9999 -9999 -9999 -9999 -9999 -9999 -9999 -9999 -9999 -9999 64.1562064156206 64.1562064156206 64.1562064156206 64.1562064156206 64.1562064156206 62.9496402877698 62.9496402877698 62.9496402877698 62.9496402877698 62.9496402877698 76.3888888888889 76.3888888888889 23.134328358209 59.396299902629 59.396299902629 59.396299902629 68.1211041852182 68.1211041852182 43.6643835616438 43.6643835616438 43.6643835616438 43.6643835616438 43.6643835616438 43.6643835616438 43.6643835616438 43.6643835616438 43.6643835616438 43.6643835616438 43.6643835616438 43.6643835616438 43.6643835616438 43.6643835616438 43.6643835616438 43.6643835616438 42.2025723472669 42.2025723472669 42.2025723472669 42.2025723472669 87.2374798061389 87.2374798061389 87.2374798061389 87.2374798061389 87.2374798061389 87.2374798061389 87.2374798061389 87.2374798061389 87.2374798061389 87.2374798061389 95.4606141522029 95.4606141522029 95.4606141522029 95.4606141522029 95.4606141522029 95.4606141522029 95.4606141522029 95.4606141522029 95.4606141522029 95.4606141522029 95.4606141522029 95.4606141522029 95.4606141522029 95.4606141522029 95.4606141522029 95.4606141522029 95.4606141522029 95.4606141522029 95.4606141522029 95.4606141522029 95.4606141522029 92.0792079207921 92.0792079207921 92.0792079207921 92.0792079207921 92.0792079207921 92.0792079207921 81.9327731092437 81.9327731092437 81.9327731092437 81.9327731092437 92.0177383592018 92.0177383592018 92.0177383592018 92.0177383592018 92.0177383592018 89.9795501022495 89.9795501022495 94.1278065630397 86 86 86 -9999 -9999 -9999 -9999 -9999 -9999 -9999 -9999 -9999 -9999
-9999 -9999 -9999 -9999 -9999 -9999 -9999 -9999 -9999 -9999 -9999 -9999 -9999 -9999 -9999 -9999 -9999 -9999 -9999 -9999 -9999 -9999 -9999 -9999 -9999 -9999 -9999 -9999 -9999 -9999 -9999 -9999 -9999 -9999 -9999 -9999 -9999 -9999 -9999 -9999 -9999 -9999 -9999 -9999 -9999 -9999 -9999 -9999 -9999 -9999 -9999 -9999 -9999 -9999 -9999 -9999 -9999 -9999 -9999 -9999 -9999 -9999 -9999 -9999 -9999 -9999 -9999 -9999 -9999 -9999 -9999 -9999 -9999 -9999 -9999 -9999 -9999 -9999 -9999 -9999 -9999 -9999 -9999 -9999 -9999 -9999 -9999 -9999 -9999 -9999 -9999 -9999 -9999 -9999 -9999 -9999 -9999 -9999 -9999 -9999 -9999 -9999 -9999 -9999 -9999 -9999 -9999 -9999 -9999 -9999 -9999 -9999 -9999 -9999 -9999 -9999 -9999 -9999 -9999 -9999 -9999 -9999 -9999 -9999 -9999 -9999 -9999 -9999 -9999 -9999 -9999 -9999 -9999 -9999 -9999 -9999 -9999 -9999 -9999 -9999 -9999 -9999 -9999 -9999 -9999 -9999 -9999 -9999 -9999 -9999 -9999 -9999 -9999 -9999 -9999 -9999 -9999 -9999 -9999 -9999 -9999 -9999 -9999 -9999 -9999 -9999 -9999 -9999 -9999 -9999 -9999 -9999 -9999 -9999 -9999 -9999 -9999 -9999 -9999 -9999 -9999 -9999 -9999 -9999 -9999 -9999 -9999 -9999 -9999 -9999 -9999 -9999 -9999 -9999 -9999 -9999 -9999 -9999 -9999 -9999 -9999 -9999 -9999 -9999 -9999 -9999 -9999 -9999 -9999 -9999 -9999 -9999 -9999 -9999 -9999 -9999 -9999 -9999 -9999 -9999 -9999 -9999 -9999 -9999 -9999 -9999 -9999 -9999 -9999 -9999 -9999 -9999 -9999 -9999 -9999 -9999 -9999 -9999 -9999 -9999 -9999 -9999 -9999 -9999 -9999 -9999 -9999 -9999 -9999 -9999 -9999 -9999 -9999 -9999 -9999 -9999 -9999 -9999 -9999 -9999 -9999 -9999 -9999 -9999 -9999 -9999 -9999 -9999 -9999 -9999 -9999 -9999 -9999 -9999 -9999 -9999 -9999 -9999 -9999 -9999 -9999 -9999 -9999 -9999 -9999 -9999 -9999 -9999 -9999 -9999 -9999 -9999 -9999 -9999 -9999 -9999 -9999 -9999 -9999 -9999 -9999 -9999 -9999 -9999 -9999 -9999 -9999 68.9655172413793 -9999 68.9655172413793 68.9655172413793 -9999 -9999 64.1562064156206 64.1562064156206 69.6902654867257 64.1562064156206 64.1562064156206 64.1562064156206 64.1562064156206 62.9496402877698 62.9496402877698 62.9496402877698 62.7035830618892 76.3888888888889 23.134328358209 23.134328358209 23.134328358209 23.134328358209 68.1211041852182 68.1211041852182 68.1211041852182 68.1211041852182 68.1211041852182 43.6643835616438 43.6643835616438 43.6643835616438 43.6643835616438 43.6643835616438 43.6643835616438 43.6643835616438 43.6643835616438 43.6643835616438 43.6643835616438 43.6643835616438 43.6643835616438 43.6643835616438 43.6643835616438 43.6643835616438 43.6643835616438 42.2025723472669 87.2374798061389 87.2374798061389 87.2374798061389 87.2374798061389 87.2374798061389 87.2374798061389 87.2374798061389 87.2374798061389 87.2374798061389 87.2374798061389 87.2374798061389 87.2374798061389 87.2374798061389 87.2374798061389 87.2374798061389 95.4606141522029 95.4606141522029 95.4606141522029 95.4606141522029 95.4606141522029 95.4606141522029 95.4606141522029 95.4606141522029 95.4606141522029 95.4606141522029 95.4606141522029 95.4606141522029 95.4606141522029 95.4606141522029 95.4606141522029 95.4606141522029 95.4606141522029 92.0792079207921 94.3238731218698 94.3238731218698 94.3238731218698 94.3238731218698 94.3238731218698 92.0792079207921 81.9327731092437 81.9327731092437 81.9327731092437 81.9327731092437 91.4760914760915 93.5754189944134 93.5754189944134 93.5754189944134 93.5754189944134 97.7653631284916 89.9795501022495 94.1278065630397 86 86 -9999 -9999 -9999 -9999 -9999 -9999 -9999 -9999 -9999 -9999 -9999
-9999 -9999 -9999 -9999 -9999 -9999 -9999 -9999 -9999 -9999 -9999 -9999 -9999 -9999 -9999 -9999 -9999 -9999 -9999 -9999 -9999 -9999 -9999 -9999 -9999 -9999 -9999 -9999 -9999 -9999 -9999 -9999 -9999 -9999 -9999 -9999 -9999 -9999 -9999 -9999 -9999 -9999 -9999 -9999 -9999 -9999 -9999 -9999 -9999 -9999 -9999 -9999 -9999 -9999 -9999 -9999 -9999 -9999 -9999 -9999 -9999 -9999 -9999 -9999 -9999 -9999 -9999 -9999 -9999 -9999 -9999 -9999 -9999 -9999 -9999 -9999 -9999 -9999 -9999 -9999 -9999 -9999 -9999 -9999 -9999 -9999 -9999 -9999 -9999 -9999 -9999 -9999 -9999 -9999 -9999 -9999 -9999 -9999 -9999 -9999 -9999 -9999 -9999 -9999 -9999 -9999 -9999 -9999 -9999 -9999 -9999 -9999 -9999 -9999 -9999 -9999 -9999 -9999 -9999 -9999 -9999 -9999 -9999 -9999 -9999 -9999 -9999 -9999 -9999 -9999 -9999 -9999 -9999 -9999 -9999 -9999 -9999 -9999 -9999 -9999 -9999 -9999 -9999 -9999 -9999 -9999 -9999 -9999 -9999 -9999 -9999 -9999 -9999 -9999 -9999 -9999 -9999 -9999 -9999 -9999 -9999 -9999 -9999 -9999 -9999 -9999 -9999 -9999 -9999 -9999 -9999 -9999 -9999 -9999 -9999 -9999 -9999 -9999 -9999 -9999 -9999 -9999 -9999 -9999 -9999 -9999 -9999 -9999 -9999 -9999 -9999 -9999 -9999 -9999 -9999 -9999 -9999 -9999 -9999 -9999 -9999 -9999 -9999 -9999 -9999 -9999 -9999 -9999 -9999 -9999 -9999 -9999 -9999 -9999 -9999 -9999 -9999 -9999 -9999 -9999 -9999 -9999 -9999 -9999 -9999 -9999 -9999 -9999 -9999 -9999 -9999 -9999 -9999 -9999 -9999 -9999 -9999 -9999 -9999 -9999 -9999 -9999 -9999 -9999 -9999 -9999 -9999 -9999 -9999 -9999 -9999 -9999 -9999 -9999 -9999 -9999 -9999 -9999 -9999 -9999 -9999 -9999 -9999 -9999 -9999 -9999 -9999 -9999 -9999 -9999 -9999 -9999 -9999 -9999 -9999 -9999 -9999 -9999 -9999 -9999 -9999 -9999 -9999 -9999 -9999 -9999 -9999 -9999 -9999 -9999 -9999 -9999 -9999 -9999 -9999 -9999 -9999 -9999 -9999 -9999 -9999 -9999 -9999 -9999 -9999 -9999 68.9655172413793 68.9655172413793 68.9655172413793 -9999 -9999 -9999 68.9655172413793 74.8031496062992 74.8031496062992 69.6902654867257 69.6902654867257 64.1562064156206 64.1562064156206 69.6902654867257 69.6902654867257 62.7035830618892 62.7035830618892 30.1810865191147 30.1810865191147 23.134328358209 23.134328358209 23.134328358209 23.134328358209 24.8901903367496 68.1211041852182 68.1211041852182 68.1211041852182 57.3355817875211 57.3355817875211 43.6643835616438 43.6643835616438 43.6643835616438 43.6643835616438 43.6643835616438 43.6643835616438 43.6643835616438 43.6643835616438 43.6643835616438 43.6643835616438 43.6643835616438 43.6643835616438 43.6643835616438 43.6643835616438 87.2374798061389 87.2374798061389 87.2374798061389 87.2374798061389 87.2374798061389 87.2374798061389 87.2374798061389 87.2374798061389 87.2374798061389 87.2374798061389 87.2374798061389 87.2374798061389 87.2374798061389 87.2374798061389 87.2374798061389 87.2374798061389 87.2374798061389 87.2374798061389 87.2374798061389 95.4606141522029 95.4606141522029 95.4606141522029 95.4606141522029 95.4606141522029 95.4606141522029 95.4606141522029 95.4606141522029 95.4606141522029 95.4606141522029 95.4606141522029 95.4606141522029 95.4606141522029 95.4606141522029 95.4606141522029 88.5780885780886 88.5780885780886 88.5780885780886 88.5780885780886 94.0460081190798 94.0460081190798 94.3238731218698 81.9327731092437 81.9327731092437 81.9327731092437 91.4760914760915 91.4760914760915 91.4760914760915 91.4760914760915 93.5754189944134 93.5754189944134 95.2380952380952 95.2380952380952 97.7653631284916 97.7653631284916 97.7653631284916 -9999 -9999 -9999 -9999 -9999 -9999 -9999 -9999 -9999 -9999 -9999
-9999 -9999 -9999 -9999 -9999 -9999 -9999 -9999 -9999 -9999 -9999 -9999 -9999 -9999 -9999 -9999 -9999 -9999 -9999 -9999 -9999 -9999 -9999 -9999 -9999 -9999 -9999 -9999 -9999 -9999 -9999 -9999 -9999 -9999 -9999 -9999 -9999 -9999 -9999 -9999 -9999 -9999 -9999 -9999 -9999 -9999 -9999 -9999 -9999 -9999 -9999 -9999 -9999 -9999 -9999 -9999 -9999 -9999 -9999 -9999 -9999 -9999 -9999 -9999 -9999 -9999 -9999 -9999 -9999 -9999 -9999 -9999 -9999 -9999 -9999 -9999 -9999 -9999 -9999 -9999 -9999 -9999 -9999 -9999 -9999 -9999 -9999 -9999 -9999 -9999 -9999 -9999 -9999 -9999 -9999 -9999 -9999 -9999 -9999 -9999 -9999 -9999 -9999 -9999 -9999 -9999 -9999 -9999 -9999 -9999 -9999 -9999 -9999 -9999 -9999 -9999 -9999 -9999 -9999 -9999 -9999 -9999 -9999 -9999 -9999 -9999 -9999 -9999 -9999 -9999 -9999 -9999 -9999 -9999 -9999 -9999 -9999 -9999 -9999 -9999 -9999 -9999 -9999 -9999 -9999 -9999 -9999 -9999 -9999 -9999 -9999 -9999 -9999 -9999 -9999 -9999 -9999 -9999 -9999 -9999 -9999 -9999 -9999 -9999 -9999 -9999 -9999 -9999 -9999 -9999 -9999 -9999 -9999 -9999 -9999 -9999 -9999 -9999 -9999 -9999 -9999 -9999 -9999 -9999 -9999 -9999 -9999 -9999 -9999 -9999 -9999 -9999 -9999 -9999 -9999 -9999 -9999 -9999 -9999 -9999 -9999 -9999 -9999 -9999 -9999 -9999 -9999 -9999 -9999 -9999 -9999 -9999 -9999 -9999 -9999 -9999 -9999 -9999 -9999 -9999 -9999 -9999 -9999 -9999 -9999 -9999 -9999 -9999 -9999 -9999 -9999 -9999 -9999 -9999 -9999 -9999 -9999 -9999 -9999 -9999 -9999 -9999 -9999 -9999 -9999 -9999 -9999 -9999 -9999 -9999 -9999 -9999 -9999 -9999 -9999 -9999 -9999 -9999 -9999 -9999 -9999 -9999 -9999 -9999 -9999 -9999 -9999 -9999 -9999 -9999 -9999 -9999 -9999 -9999 -9999 -9999 -9999 -9999 -9999 -9999 -9999 -9999 -9999 -9999 -9999 -9999 -9999 -9999 -9999 -9999 -9999 -9999 -9999 -9999 -9999 -9999 -9999 -9999 -9999 -9999 -9999 -9999 -9999 -9999 -9999 68.9655172413793 -9999 -9999 -9999 -9999 -9999 68.9655172413793 78.9855072463768 74.8031496062992 74.8031496062992 74.8031496062992 74.8031496062992 69.6902654867257 69.6902654867257 43.6590436590437 43.6590436590437 43.6590436590437 62.7035830618892 62.7035830618892 30.1810865191147 30.1810865191147 23.134328358209 23.134328358209 24.8901903367496 24.8901903367496 24.8901903367496 68.1211041852182 40.6553398058252 57.3355817875211 57.3355817875211 57.3355817875211 43.6643835616438 43.6643835616438 43.6643835616438 43.6643835616438 43.6643835616438 43.6643835616438 43.6643835616438 43.6643835616438 43.6643835616438 43.6643835616438 43.6643835616438 43.6643835616438 87.2374798061389 87.2374798061389 87.2374798061389 87.2374798061389 87.2374798061389 87.2374798061389 87.2374798061389 87.2374798061389 87.2374798061389 87.2374798061389 87.2374798061389 87.2374798061389 87.2374798061389 87.2374798061389 87.2374798061389 87.2374798061389 87.2374798061389 87.2374798061389 87.2374798061389 87.2374798061389 87.2374798061389 87.2374798061389 95.4606141522029 95.4606141522029 95.4606141522029 95.4606141522029 95.4606141522029 95.4606141522029 95.4606141522029 95.4606141522029 95.4606141522029 95.4606141522029 95.4606141522029 95.4606141522029 95.4606141522029 93.9130434782609 93.9130434782609 88.5780885780886 88.5780885780886 94.0460081190798 94.0460081190798 94.0460081190798 94.0460081190798 94.0460081190798 94.0460081190798 94.0460081190798 88.6075949367088 95.2380952380952 95.2380952380952 95.2380952380952 95.2380952380952 95.2380952380952 95.2380952380952 97.7653631284916 97.7653631284916 97.7653631284916 -9999 -9999 -9999 -9999 -9999 -9999 -9999 -9999 -9999 -9999 -9999
-9999 -9999 -9999 -9999 -9999 -9999 -9999 -9999 -9999 -9999 -9999 -9999 -9999 -9999 -9999 -9999 -9999 -9999 -9999 -9999 -9999 -9999 -9999 -9999 -9999 -9999 -9999 -9999 -9999 -9999 -9999 -9999 -9999 -9999 -9999 -9999 -9999 -9999 -9999 -9999 -9999 -9999 -9999 -9999 -9999 -9999 -9999 -9999 -9999 -9999 -9999 -9999 -9999 -9999 -9999 -9999 -9999 -9999 -9999 -9999 -9999 -9999 -9999 -9999 -9999 -9999 -9999 -9999 -9999 -9999 -9999 -9999 -9999 -9999 -9999 -9999 -9999 -9999 -9999 -9999 -9999 -9999 -9999 -9999 -9999 -9999 -9999 -9999 -9999 -9999 -9999 -9999 -9999 -9999 -9999 -9999 -9999 -9999 -9999 -9999 -9999 -9999 -9999 -9999 -9999 -9999 -9999 -9999 -9999 -9999 -9999 -9999 -9999 -9999 -9999 -9999 -9999 -9999 -9999 -9999 -9999 -9999 -9999 -9999 -9999 -9999 -9999 -9999 -9999 -9999 -9999 -9999 -9999 -9999 -9999 -9999 -9999 -9999 -9999 -9999 -9999 -9999 -9999 -9999 -9999 -9999 -9999 -9999 -9999 -9999 -9999 -9999 -9999 -9999 -9999 -9999 -9999 -9999 -9999 -9999 -9999 -9999 -9999 -9999 -9999 -9999 -9999 -9999 -9999 -9999 -9999 -9999 -9999 -9999 -9999 -9999 -9999 -9999 -9999 -9999 -9999 -9999 -9999 -9999 -9999 -9999 -9999 -9999 -9999 -9999 -9999 -9999 -9999 -9999 -9999 -9999 -9999 -9999 -9999 -9999 -9999 -9999 -9999 -9999 -9999 -9999 -9999 -9999 -9999 -9999 -9999 -9999 -9999 -9999 -9999 -9999 -9999 -9999 -9999 -9999 -9999 -9999 -9999 -9999 -9999 -9999 -9999 -9999 -9999 -9999 -9999 -9999 -9999 -9999 -9999 -9999 -9999 -9999 -9999 -9999 -9999 -9999 -9999 -9999 -9999 -9999 -9999 -9999 -9999 -9999 -9999 -9999 -9999 -9999 -9999 -9999 -9999 -9999 -9999 -9999 -9999 -9999 -9999 -9999 -9999 -9999 -9999 -9999 -9999 -9999 -9999 -9999 -9999 -9999 -9999 -9999 -9999 -9999 -9999 -9999 -9999 -9999 -9999 -9999 -9999 -9999 -9999 -9999 -9999 -9999 -9999 -9999 -9999 -9999 -9999 -9999 -9999 -9999 -9999 -9999 -9999 -9999 -9999 -9999 68.9655172413793 68.9655172413793 68.9655172413793 -9999 -9999 -9999 78.9855072463768 78.9855072463768 78.9855072463768 78.9855072463768 74.8031496062992 74.8031496062992 74.8031496062992 74.8031496062992 68.6440677966102 43.6590436590437 43.6590436590437 43.6590436590437 43.6590436590437 62.7035830618892 30.1810865191147 30.1810865191147 30.1810865191147 24.8901903367496 24.8901903367496 24.8901903367496 56 40.6553398058252 40.6553398058252 57.3355817875211 57.3355817875211 41.2371134020619 41.2371134020619 43.6643835616438 43.6643835616438 43.6643835616438 43.6643835616438 43.6643835616438 43.6643835616438 43.6643835616438 43.6643835616438 43.6643835616438 87.2374798061389 87.2374798061389 87.2374798061389 87.2374798061389 87.2374798061389 87.2374798061389 87.2374798061389 87.2374798061389 87.2374798061389 87.2374798061389 87.2374798061389 87.2374798061389 87.2374798061389 87.2374798061389 87.2374798061389 87.2374798061389 87.2374798061389 87.2374798061389 87.2374798061389 87.2374798061389 87.2374798061389 87.2374798061389 87.2374798061389 87.2374798061389 87.2374798061389 87.2374798061389 95.4606141522029 95.4606141522029 95.4606141522029 95.4606141522029 95.4606141522029 95.4606141522029 95.4606141522029 95.4606141522029 95.4606141522029 95.4606141522029 93.9130434782609 93.9130434782609 93.9130434782609 93.9130434782609 93.9130434782609 94.0460081190798 94.0460081190798 94.0460081190798 94.0460081190798 94.0460081190798 94.9554896142433 94.9554896142433 88.6075949367088 88.6075949367088 88.6075949367088 93.2914046121593 93.2914046121593 93.2914046121593 93.2914046121593 97.7653631284916 97.7653631284916 97.7653631284916 97.7653631284916 -9999 -9999 -9999 -9999 -9999 -9999 -9999 -9999 -9999 -9999
-9999 -9999 -9999 -9999 -9999 -9999 -9999 -9999 -9999 -9999 -9999 -9999 -9999 -9999 -9999 -9999 -9999 -9999 -9999 -9999 -9999 -9999 -9999 -9999 -9999 -9999 -9999 -9999 -9999 -9999 -9999 -9999 -9999 -9999 -9999 -9999 -9999 -9999 -9999 -9999 -9999 -9999 -9999 -9999 -9999 -9999 -9999 -9999 -9999 -9999 -9999 -9999 -9999 -9999 -9999 -9999 -9999 -9999 -9999 -9999 -9999 -9999 -9999 -9999 -9999 -9999 -9999 -9999 -9999 -9999 -9999 -9999 -9999 -9999 -9999 -9999 -9999 -9999 -9999 -9999 -9999 -9999 -9999 -9999 -9999 -9999 -9999 -9999 -9999 -9999 -9999 -9999 -9999 -9999 -9999 -9999 -9999 -9999 -9999 -9999 -9999 -9999 -9999 -9999 -9999 -9999 -9999 -9999 -9999 -9999 -9999 -9999 -9999 -9999 -9999 -9999 -9999 -9999 -9999 -9999 -9999 -9999 -9999 -9999 -9999 -9999 -9999 -9999 -9999 -9999 -9999 -9999 -9999 -9999 -9999 -9999 -9999 -9999 -9999 -9999 -9999 -9999 -9999 -9999 -9999 -9999 -9999 -9999 -9999 -9999 -9999 -9999 -9999 -9999 -9999 -9999 -9999 -9999 -9999 -9999 -9999 -9999 -9999 -9999 -9999 -9999 -9999 -9999 -9999 -9999 -9999 -9999 -9999 -9999 -9999 -9999 -9999 -9999 -9999 -9999 -9999 -9999 -9999 -9999 -9999 -9999 -9999 -9999 -9999 -9999 -9999 -9999 -9999 -9999 -9999 -9999 -9999 -9999 -9999 -9999 -9999 -9999 -9999 -9999 -9999 -9999 -9999 -9999 -9999 -9999 -9999 -9999 -9999 -9999 -9999 -9999 -9999 -9999 -9999 -9999 -9999 -9999 -9999 -9999 -9999 -9999 -9999 -9999 -9999 -9999 -9999 -9999 -9999 -9999 -9999 -9999 -9999 -9999 -9999 -9999 -9999 -9999 -9999 -9999 -9999 -9999 -9999 -9999 -9999 -9999 -9999 -9999 -9999 -9999 -9999 -9999 -9999 -9999 -9999 -9999 -9999 -9999 -9999 -9999 -9999 -9999 -9999 -9999 -9999 -9999 -9999 -9999 -9999 -9999 -9999 -9999 -9999 -9999 -9999 -9999 -9999 -9999 -9999 -9999 -9999 -9999 -9999 -9999 -9999 -9999 -9999 -9999 -9999 -9999 -9999 -9999 -9999 -9999 -9999 -9999 -9999 -9999 -9999 -9999 -9999 -9999 -9999 -9999 68.9655172413793 68.9655172413793 78.9855072463768 78.9855072463768 78.9855072463768 78.9855072463768 74.8031496062992 74.8031496062992 64.0449438202247 68.6440677966102 68.6440677966102 68.6440677966102 43.6590436590437 30.1810865191147 30.1810865191147 30.1810865191147 30.1810865191147 35.2798053527981 35.2798053527981 35.2798053527981 24.8901903367496 56 22.508038585209 22.508038585209 40.6553398058252 41.2371134020619 41.2371134020619 41.2371134020619 41.2371134020619 41.2371134020619 43.6643835616438 43.6643835616438 43.6643835616438 43.6643835616438 43.6643835616438 43.6643835616438 43.6643835616438 87.2374798061389 87.2374798061389 87.2374798061389 87.2374798061389 87.2374798061389 87.2374798061389 87.2374798061389 87.2374798061389 87.2374798061389 87.2374798061389 87.2374798061389 87.2374798061389 87.2374798061389 87.2374798061389 87.2374798061389 87.2374798061389 87.2374798061389 87.2374798061389 87.2374798061389 87.2374798061389 87.2374798061389 87.2374798061389 87.2374798061389 87.2374798061389 87.2374798061389 87.2374798061389 87.2374798061389 87.2374798061389 87.2374798061389 95.4606141522029 95.4606141522029 95.4606141522029 95.4606141522029 95.4606141522029 95.4606141522029 95.4606141522029 95.4606141522029 93.9130434782609 93.9130434782609 93.9130434782609 93.9130434782609 93.9130434782609 94.0460081190798 94.0460081190798 94.0460081190798 94.0460081190798 94.9554896142433 94.9554896142433 94.9554896142433 88.6075949367088 88.6075949367088 94.2307692307692 93.2914046121593 93.2914046121593 93.2914046121593 93.2914046121593 92.5925925925926 92.5925925925926 92.5925925925926 77.3584905660377 -9999 -9999 -9999 -9999 -9999 -9999 -9999 -9999 -9999 -9999
-9999 -9999 -9999 -9999 -9999 -9999 -9999 -9999 -9999 -9999 -9999 -9999 -9999 -9999 -9999 -9999 -9999 -9999 -9999 -9999 -9999 -9999 -9999 -9999 -9999 -9999 -9999 -9999 -9999 -9999 -9999 -9999 -9999 -9999 -9999 -9999 -9999 -9999 -9999 -9999 -9999 -9999 -9999 -9999 -9999 -9999 -9999 -9999 -9999 -9999 -9999 -9999 -9999 -9999 -9999 -9999 -9999 -9999 -9999 -9999 -9999 -9999 -9999 -9999 -9999 -9999 -9999 -9999 -9999 -9999 -9999 -9999 -9999 -9999 -9999 -9999 -9999 -9999 -9999 -9999 -9999 -9999 -9999 -9999 -9999 -9999 -9999 -9999 -9999 -9999 -9999 -9999 -9999 -9999 -9999 -9999 -9999 -9999 -9999 -9999 -9999 -9999 -9999 -9999 -9999 -9999 -9999 -9999 -9999 -9999 -9999 -9999 -9999 -9999 -9999 -9999 -9999 -9999 -9999 -9999 -9999 -9999 -9999 -9999 -9999 -9999 -9999 -9999 -9999 -9999 -9999 -9999 -9999 -9999 -9999 -9999 -9999 -9999 -9999 -9999 -9999 -9999 -9999 -9999 -9999 -9999 -9999 -9999 -9999 -9999 -9999 -9999 -9999 -9999 -9999 -9999 -9999 -9999 -9999 -9999 -9999 -9999 -9999 -9999 -9999 -9999 -9999 -9999 -9999 -9999 -9999 -9999 -9999 -9999 -9999 -9999 -9999 -9999 -9999 -9999 -9999 -9999 -9999 -9999 -9999 -9999 -9999 -9999 -9999 -9999 -9999 -9999 -9999 -9999 -9999 -9999 -9999 -9999 -9999 -9999 -9999 -9999 -9999 -9999 -9999 -9999 -9999 -9999 -9999 -9999 -9999 -9999 -9999 -9999 -9999 -9999 -9999 -9999 -9999 -9999 -9999 -9999 -9999 -9999 -9999 -9999 -9999 -9999 -9999 -9999 -9999 -9999 -9999 -9999 -9999 -9999 -9999 -9999 -9999 -9999 -9999 -9999 -9999 -9999 -9999 -9999 -9999 -9999 -9999 -9999 -9999 -9999 -9999 -9999 -9999 -9999 -9999 -9999 -9999 -9999 -9999 -9999 -9999 -9999 -9999 -9999 -9999 -9999 -9999 -9999 -9999 -9999 -9999 -9999 -9999 -9999 -9999 -9999 -9999 -9999 -9999 -9999 -9999 -9999 -9999 -9999 -9999 -9999 -9999 -9999 -9999 -9999 -9999 -9999 -9999 -9999 -9999 -9999 -9999 -9999 -9999 92.0344456404736 -9999 -9999 92.0344456404736 -9999 -9999 68.9655172413793 68.9655172413793 68.9655172413793 78.9855072463768 78.9855072463768 69.0515806988353 69.0515806988353 69.0515806988353 64.0449438202247 64.0449438202247 77.8008298755187 68.6440677966102 68.6440677966102 68.6440677966102 30.1810865191147 30.1810865191147 40.1785714285714 40.1785714285714 30.1810865191147 35.2798053527981 35.2798053527981 38.1165919282511 56 22.508038585209 41.2371134020619 40.6553398058252 40.6553398058252 41.2371134020619 41.2371134020619 41.2371134020619 41.2371134020619 41.2371134020619 43.6643835616438 43.6643835616438 43.6643835616438 43.6643835616438 87.2374798061389 87.2374798061389 87.2374798061389 87.2374798061389 87.2374798061389 87.2374798061389 87.2374798061389 87.2374798061389 87.2374798061389 87.2374798061389 87.2374798061389 87.2374798061389 87.2374798061389 87.2374798061389 87.2374798061389 87.2374798061389 87.2374798061389 87.2374798061389 87.2374798061389 87.2374798061389 87.2374798061389 87.2374798061389 87.2374798061389 87.2374798061389 87.2374798061389 87.2374798061389 87.2374798061389 87.2374798061389 87.2374798061389 87.2374798061389 87.2374798061389 87.2374798061389 87.2374798061389 87.2374798061389 95.4606141522029 95.4606141522029 95.4606141522029 95.4606141522029 95.4606141522029 93.9130434782609 93.9130434782609 93.9130434782609 93.9130434782609 93.9130434782609 93.9130434782609 93.9130434782609 93.9130434782609 93.9130434782609 93.0962343096234 93.0962343096234 88.6075949367088 88.6075949367088 88.6075949367088 95.4861111111111 94.2307692307692 94.2307692307692 94.2307692307692 92.5925925925926 92.5925925925926 77.3584905660377 77.3584905660377 -9999 -9999 -9999 -9999 -9999 -9999 -9999 -9999 -9999 -9999 -9999
-9999 -9999 -9999 -9999 -9999 -9999 -9999 -9999 -9999 -9999 -9999 -9999 -9999 -9999 -9999 -9999 -9999 -9999 -9999 -9999 -9999 -9999 -9999 -9999 -9999 -9999 -9999 -9999 -9999 -9999 -9999 -9999 -9999 -9999 -9999 -9999 -9999 -9999 -9999 -9999 -9999 -9999 -9999 -9999 -9999 -9999 -9999 -9999 -9999 -9999 -9999 -9999 -9999 -9999 -9999 -9999 -9999 -9999 -9999 -9999 -9999 -9999 -9999 -9999 -9999 -9999 -9999 -9999 -9999 -9999 -9999 -9999 -9999 -9999 -9999 -9999 -9999 -9999 -9999 -9999 -9999 -9999 -9999 -9999 -9999 -9999 -9999 -9999 -9999 -9999 -9999 -9999 -9999 -9999 -9999 -9999 -9999 -9999 -9999 -9999 -9999 -9999 -9999 -9999 -9999 -9999 -9999 -9999 -9999 -9999 -9999 -9999 -9999 -9999 -9999 -9999 -9999 -9999 -9999 -9999 -9999 -9999 -9999 -9999 -9999 -9999 -9999 -9999 -9999 -9999 -9999 -9999 -9999 -9999 -9999 -9999 -9999 -9999 -9999 -9999 -9999 -9999 -9999 -9999 -9999 -9999 -9999 -9999 -9999 -9999 -9999 -9999 -9999 -9999 -9999 -9999 -9999 -9999 -9999 -9999 -9999 -9999 -9999 -9999 -9999 -9999 -9999 -9999 -9999 -9999 -9999 -9999 -9999 -9999 -9999 -9999 -9999 -9999 -9999 -9999 -9999 -9999 -9999 -9999 -9999 -9999 -9999 -9999 -9999 -9999 -9999 -9999 -9999 -9999 -9999 -9999 -9999 -9999 -9999 -9999 -9999 -9999 -9999 -9999 -9999 -9999 -9999 -9999 -9999 -9999 -9999 -9999 -9999 -9999 -9999 -9999 -9999 -9999 -9999 -9999 -9999 -9999 -9999 -9999 -9999 -9999 -9999 -9999 -9999 -9999 -9999 -9999 -9999 -9999 -9999 -9999 -9999 -9999 -9999 -9999 -9999 -9999 -9999 -9999 -9999 -9999 -9999 -9999 -9999 -9999 -9999 -9999 -9999 -9999 -9999 -9999 -9999 -9999 -9999 -9999 -9999 -9999 -9999 -9999 -9999 -9999 -9999 -9999 -9999 -9999 -9999 -9999 -9999 -9999 -9999 -9999 -9999 -9999 -9999 -9999 -9999 -9999 -9999 -9999 -9999 -9999 -9999 -9999 -9999 -9999 -9999 -9999 -9999 -9999 -9999 -9999 -9999 -9999 -9999 92.0344456404736 -9999 -9999 92.0344456404736 92.0344456404736 -9999 92.0344456404736 87.0841487279843 87.0841487279843 68.9655172413793 68.9655172413793 68.9655172413793 78.9855072463768 65.53911205074 65.53911205074 69.0515806988353 69.0515806988353 79.3357933579336 79.3357933579336 77.8008298755187 77.8008298755187 68.6440677966102 39.5833333333333 39.5833333333333 39.5833333333333 40.1785714285714 40.1785714285714 38.1165919282511 38.1165919282511 38.1165919282511 22.508038585209 41.2371134020619 41.2371134020619 40.6553398058252 40.6553398058252 41.2371134020619 41.2371134020619 41.2371134020619 41.2371134020619 41.2371134020619 41.2371134020619 43.6643835616438 87.2374798061389 87.2374798061389 87.2374798061389 87.2374798061389 87.2374798061389 87.2374798061389 87.2374798061389 87.2374798061389 87.2374798061389 87.2374798061389 87.2374798061389 87.2374798061389 87.2374798061389 87.2374798061389 87.2374798061389 87.2374798061389 87.2374798061389 87.2374798061389 87.2374798061389 87.2374798061389 87.2374798061389 87.2374798061389 87.2374798061389 87.2374798061389 87.2374798061389 87.2374798061389 87.2374798061389 87.2374798061389 87.2374798061389 87.2374798061389 87.2374798061389 87.2374798061389 87.2374798061389 87.2374798061389 87.2374798061389 87.2374798061389 87.2374798061389 87.2374798061389 87.2374798061389 87.2374798061389 93.9130434782609 93.9130434782609 93.9130434782609 93.9130434782609 93.9130434782609 93.9130434782609 93.9130434782609 93.9130434782609 93.9130434782609 93.9130434782609 93.0962343096234 93.0962343096234 88.8157894736842 88.8157894736842 88.8157894736842 95.4861111111111 95.4861111111111 95.4861111111111 95.4861111111111 92.5925925925926 92.5925925925926 77.3584905660377 -9999 -9999 -9999 -9999 -9999 -9999 -9999 -9999 -9999 -9999 -9999 -9999
-9999 -9999 -9999 -9999 -9999 -9999 -9999 -9999 -9999 -9999 -9999 -9999 -9999 -9999 -9999 -9999 -9999 -9999 -9999 -9999 -9999 -9999 -9999 -9999 -9999 -9999 -9999 -9999 -9999 -9999 -9999 -9999 -9999 -9999 -9999 -9999 -9999 -9999 -9999 -9999 -9999 -9999 -9999 -9999 -9999 -9999 -9999 -9999 -9999 -9999 -9999 -9999 -9999 -9999 -9999 -9999 -9999 -9999 -9999 -9999 -9999 -9999 -9999 -9999 -9999 -9999 -9999 -9999 -9999 -9999 -9999 -9999 -9999 -9999 -9999 -9999 -9999 -9999 -9999 -9999 -9999 -9999 -9999 -9999 -9999 -9999 -9999 -9999 -9999 -9999 -9999 -9999 -9999 -9999 -9999 -9999 -9999 -9999 -9999 -9999 -9999 -9999 -9999 -9999 -9999 -9999 -9999 -9999 -9999 -9999 -9999 -9999 -9999 -9999 -9999 -9999 -9999 -9999 -9999 -9999 -9999 -9999 -9999 -9999 -9999 -9999 -9999 -9999 -9999 -9999 -9999 -9999 -9999 -9999 -9999 -9999 -9999 -9999 -9999 -9999 -9999 -9999 -9999 -9999 -9999 -9999 -9999 -9999 -9999 -9999 -9999 -9999 -9999 -9999 -9999 -9999 -9999 -9999 -9999 -9999 -9999 -9999 -9999 -9999 -9999 -9999 -9999 -9999 -9999 -9999 -9999 -9999 -9999 -9999 -9999 -9999 -9999 -9999 -9999 -9999 -9999 -9999 -9999 -9999 -9999 -9999 -9999 -9999 -9999 -9999 -9999 -9999 -9999 -9999 -9999 -9999 -9999 -9999 -9999 -9999 -9999 -9999 -9999 -9999 -9999 -9999 -9999 -9999 -9999 -9999 -9999 -9999 -9999 -9999 -9999 -9999 -9999 -9999 -9999 -9999 -9999 -9999 -9999 -9999 -9999 -9999 -9999 -9999 -9999 -9999 -9999 -9999 -9999 -9999 -9999 -9999 -9999 -9999 -9999 -9999 -9999 -9999 -9999 -9999 -9999 -9999 -9999 -9999 -9999 -9999 -9999 -9999 -9999 -9999 -9999 -9999 -9999 -9999 -9999 -9999 -9999 -9999 -9999 -9999 -9999 -9999 -9999 -9999 -9999 -9999 -9999 -9999 -9999 -9999 -9999 -9999 -9999 -9999 -9999 -9999 -9999 -9999 -9999 -9999 -9999 -9999 -9999 -9999 -9999 -9999 -9999 -9999 -9999 -9999 -9999 -9999 -9999 -9999 92.0344456404736 92.0344456404736 92.0344456404736 92.0344456404736 92.0344456404736 -9999 92.0344456404736 87.0841487279843 87.0841487279843 87.0841487279843 87.0841487279843 68.9655172413793 31.496062992126 65.53911205074 69.0515806988353 69.0515806988353 43.75 43.75 69.0515806988353 79.3357933579336 77.8008298755187 50.8474576271186 50.8474576271186 39.5833333333333 39.5833333333333 39.5833333333333 39.5833333333333 57.6519916142558 57.6519916142558 38.1165919282511 38.1165919282511 38.1165919282511 38.8235294117647 41.2371134020619 41.2371134020619 41.2371134020619 41.2371134020619 41.2371134020619 41.2371134020619 41.2371134020619 41.2371134020619 87.2374798061389 87.2374798061389 87.2374798061389 87.2374798061389 87.2374798061389 87.2374798061389 87.2374798061389 87.2374798061389 87.2374798061389 87.2374798061389 87.2374798061389 87.2374798061389 87.2374798061389 87.2374798061389 87.2374798061389 87.2374798061389 87.2374798061389 87.2374798061389 87.2374798061389 87.2374798061389 87.2374798061389 87.2374798061389 87.2374798061389 87.2374798061389 87.2374798061389 87.2374798061389 87.2374798061389 87.2374798061389 87.2374798061389 87.2374798061389 87.2374798061389 87.2374798061389 87.2374798061389 87.2374798061389 87.2374798061389 87.2374798061389 87.2374798061389 87.2374798061389 87.2374798061389 87.2374798061389 87.2374798061389 87.2374798061389 87.2374798061389 87.2374798061389 87.2374798061389 87.2374798061389 87.2374798061389 87.2374798061389 93.9130434782609 93.9130434782609 93.9130434782609 93.0962343096234 93.0962343096234 93.0962343096234 88.8157894736842 88.8157894736842 86.9565217391304 86.9565217391304 86.9565217391304 95.4861111111111 95.4198473282443 95.4198473282443 77.3584905660377 77.3584905660377 -9999 -9999 -9999 -9999 -9999 -9999 -9999 -9999 -9999 -9999 -9999 -9999
-9999 -9999 -9999 -9999 -9999 -9999 -9999 -9999 -9999 -9999 -9999 -9999 -9999 -9999 -9999 -9999 -9999 -9999 -9999 -9999 -9999 -9999 -9999 -9999 -9999 -9999 -9999 -9999 -9999 -9999 -9999 -9999 -9999 -9999 -9999 -9999 -9999 -9999 -9999 -9999 -9999 -9999 -9999 -9999 -9999 -9999 -9999 -9999 -9999 -9999 -9999 -9999 -9999 -9999 -9999 -9999 -9999 -9999 -9999 -9999 -9999 -9999 -9999 -9999 -9999 -9999 -9999 -9999 -9999 -9999 -9999 -9999 -9999 -9999 -9999 -9999 -9999 -9999 -9999 -9999 -9999 -9999 -9999 -9999 -9999 -9999 -9999 -9999 -9999 -9999 -9999 -9999 -9999 -9999 -9999 -9999 -9999 -9999 -9999 -9999 -9999 -9999 -9999 -9999 -9999 -9999 -9999 -9999 -9999 -9999 -9999 -9999 -9999 -9999 -9999 -9999 -9999 -9999 -9999 -9999 -9999 -9999 -9999 -9999 -9999 -9999 -9999 -9999 -9999 -9999 -9999 -9999 -9999 -9999 -9999 -9999 -9999 -9999 -9999 -9999 -9999 -9999 -9999 -9999 -9999 -9999 -9999 -9999 -9999 -9999 -9999 -9999 -9999 -9999 -9999 -9999 -9999 -9999 -9999 -9999 -9999 -9999 -9999 -9999 -9999 -9999 -9999 -9999 -9999 -9999 -9999 -9999 -9999 -9999 -9999 -9999 -9999 -9999 -9999 -9999 -9999 -9999 -9999 -9999 -9999 -9999 -9999 -9999 -9999 -9999 -9999 -9999 -9999 -9999 -9999 -9999 -9999 -9999 -9999 -9999 -9999 -9999 -9999 -9999 -9999 -9999 -9999 -9999 -9999 -9999 -9999 -9999 -9999 -9999 -9999 -9999 -9999 -9999 -9999 -9999 -9999 -9999 -9999 -9999 -9999 -9999 -9999 -9999 -9999 -9999 -9999 -9999 -9999 -9999 -9999 -9999 -9999 -9999 -9999 -9999 -9999 -9999 -9999 -9999 -9999 -9999 -9999 -9999 -9999 -9999 -9999 -9999 -9999 -9999 -9999 -9999 -9999 -9999 -9999 -9999 -9999 -9999 -9999 -9999 -9999 -9999 -9999 -9999 -9999 -9999 -9999 -9999 -9999 -9999 -9999 -9999 -9999 -9999 -9999 -9999 -9999 -9999 -9999 -9999 -9999 -9999 -9999 -9999 -9999 -9999 -9999 -9999 -9999 -9999 -9999 -9999 -9999 -9999 -9999 -9999 -9999 -9999 -9999 66.0592255125285 66.0592255125285 81.0810810810811 87.0841487279843 87.0841487279843 75.5743651753325 75.5743651753325 31.496062992126 31.496062992126 65.53911205074 43.75 43.75 43.75 43.75 67.8642714570858 84.5588235294118 50.8474576271186 50.8474576271186 50.8474576271186 50.8474576271186 50.8474576271186 57.6519916142558 57.6519916142558 45.0346420323326 45.0346420323326 45.0346420323326 38.8235294117647 38.8235294117647 38.8235294117647 41.2371134020619 41.2371134020619 41.2371134020619 41.2371134020619 41.2371134020619 41.2371134020619 87.2374798061389 87.2374798061389 87.2374798061389 87.2374798061389 87.2374798061389 87.2374798061389 87.2374798061389 87.2374798061389 87.2374798061389 87.2374798061389 87.2374798061389 87.2374798061389 87.2374798061389 87.2374798061389 87.2374798061389 87.2374798061389 87.2374798061389 87.2374798061389 87.2374798061389 87.2374798061389 87.2374798061389 87.2374798061389 87.2374798061389 87.2374798061389 87.2374798061389 87.2374798061389 87.2374798061389 87.2374798061389 87.2374798061389 87.2374798061389 87.2374798061389 87.2374798061389 87.2374798061389 87.2374798061389 87.2374798061389 87.2374798061389 87.2374798061389 87.2374798061389 87.2374798061389 87.2374798061389 87.2374798061389 87.2374798061389 87.2374798061389 87.2374798061389 87.2374798061389 87.2374798061389 87.2374798061389 87.2374798061389 87.2374798061389 87.2374798061389 87.2374798061389 87.2374798061389 87.2374798061389 87.2374798061389 87.2374798061389 88.8157894736842 88.8157894736842 86.9565217391304 86.9565217391304 86.9565217391304 95.4198473282443 95.4198473282443 95.4198473282443 77.3584905660377 -9999 -9999 -9999 -9999 -9999 -9999 -9999 -9999 -9999 -9999 -9999 -9999 -9999
-9999 -9999 -9999 -9999 -9999 -9999 -9999 -9999 -9999 -9999 -9999 -9999 -9999 -9999 -9999 -9999 -9999 -9999 -9999 -9999 -9999 -9999 -9999 -9999 -9999 -9999 -9999 -9999 -9999 -9999 -9999 -9999 -9999 -9999 -9999 -9999 -9999 -9999 -9999 -9999 -9999 -9999 -9999 -9999 -9999 -9999 -9999 -9999 -9999 -9999 -9999 -9999 -9999 -9999 -9999 -9999 -9999 -9999 -9999 -9999 -9999 -9999 -9999 -9999 -9999 -9999 -9999 -9999 -9999 -9999 -9999 -9999 -9999 -9999 -9999 -9999 -9999 -9999 -9999 -9999 -9999 -9999 -9999 -9999 -9999 -9999 -9999 -9999 -9999 -9999 -9999 -9999 -9999 -9999 -9999 -9999 -9999 -9999 -9999 -9999 -9999 -9999 -9999 -9999 -9999 -9999 -9999 -9999 -9999 -9999 -9999 -9999 -9999 -9999 -9999 -9999 -9999 -9999 -9999 -9999 -9999 -9999 -9999 -9999 -9999 -9999 -9999 -9999 -9999 -9999 -9999 -9999 -9999 -9999 -9999 -9999 -9999 -9999 -9999 -9999 -9999 -9999 -9999 -9999 -9999 -9999 -9999 -9999 -9999 -9999 -9999 -9999 -9999 -9999 -9999 -9999 -9999 -9999 -9999 -9999 -9999 -9999 -9999 -9999 -9999 -9999 -9999 -9999 -9999 -9999 -9999 -9999 -9999 -9999 -9999 -9999 -9999 -9999 -9999 -9999 -9999 -9999 -9999 -9999 -9999 -9999 -9999 -9999 -9999 -9999 -9999 -9999 -9999 -9999 -9999 -9999 -9999 -9999 -9999 -9999 -9999 -9999 -9999 -9999 -9999 -9999 -9999 -9999 -9999 -9999 -9999 -9999 -9999 -9999 -9999 -9999 -9999 -9999 -9999 -9999 -9999 -9999 -9999 -9999 -9999 -9999 -9999 -9999 -9999 -9999 -9999 -9999 -9999 -9999 -9999 -9999 -9999 -9999 -9999 -9999 -9999 -9999 -9999 -9999 -9999 -9999 -9999 -9999 -9999 -9999 -9999 -9999 -9999 -9999 -9999 -9999 -9999 -9999 -9999 -9999 -9999 -9999 -9999 -9999 -9999 -9999 -9999 -9999 -9999 -9999 -9999 -9999 -9999 -9999 -9999 -9999 -9999 -9999 -9999 -9999 -9999 -9999 -9999 -9999 -9999 -9999 -9999 -9999 -9999 -9999 -9999 -9999 -9999 -9999 -9999 -9999 -9999 -9999 -9999 -9999 92.0344456404736 92.0344456404736 66.0592255125285 66.0592255125285 66.0592255125285 81.0810810810811 71.0823909531502 71.0823909531502 75.5743651753325 75.5743651753325 75.5743651753325 31.496062992126 31.496062992126 65.53911205074 43.75 46.3362068965517 46.3362068965517 67.8642714570858 67.8642714570858 84.5588235294118 50.8474576271186 84.5588235294118 50.8474576271186 36 36 36 57.6519916142558 45.0346420323326 36 36 36 41.2371134020619 41.2371134020619 41.2371134020619 41.2371134020619 41.2371134020619 71.4285714285714 71.4285714285714 71.4285714285714 71.4285714285714 87.2374798061389 87.2374798061389 87.2374798061389 87.2374798061389 87.2374798061389 87.2374798061389 87.2374798061389 87.2374798061389 87.2374798061389 87.2374798061389 87.2374798061389 87.2374798061389 87.2374798061389 87.2374798061389 87.2374798061389 87.2374798061389 87.2374798061389 87.2374798061389 87.2374798061389 87.2374798061389 87.2374798061389 87.2374798061389 87.2374798061389 87.2374798061389 87.2374798061389 87.2374798061389 87.2374798061389 87.2374798061389 87.2374798061389 87.2374798061389 87.2374798061389 87.2374798061389 87.2374798061389 87.2374798061389 87.2374798061389 87.2374798061389 87.2374798061389 87.2374798061389 87.2374798061389 87.2374798061389 87.2374798061389 87.2374798061389 92.7291886195996 87.2374798061389 87.2374798061389 87.2374798061389 87.2374798061389 87.2374798061389 87.2374798061389 87.2374798061389 87.2374798061389 87.2374798061389 87.2374798061389 87.2374798061389 87.2374798061389 91.743119266055 91.743119266055 91.743119266055 91.743119266055 95.4198473282443 77.3584905660377 77.3584905660377 -9999 -9999 -9999 -9999 -9999 -9999 -9999 -9999 -9999 -9999 -9999 -9999 -9999
-9999 -9999 -9999 -9999 -9999 -9999 -9999 -9999 -9999 -9999 -9999 -9999 -9999 -9999 -9999 -9999 -9999 -9999 -9999 -9999 -9999 -9999 -9999 -9999 -9999 -9999 -9999 -9999 -9999 -9999 -9999 -9999 -9999 -9999 -9999 -9999 -9999 -9999 -9999 -9999 -9999 -9999 -9999 -9999 -9999 -9999 -9999 -9999 -9999 -9999 -9999 -9999 -9999 -9999 -9999 -9999 -9999 -9999 -9999 -9999 -9999 -9999 -9999 -9999 -9999 -9999 -9999 -9999 -9999 -9999 -9999 -9999 -9999 -9999 -9999 -9999 -9999 -9999 -9999 -9999 -9999 -9999 -9999 -9999 -9999 -9999 -9999 -9999 -9999 -9999 -9999 -9999 -9999 -9999 -9999 -9999 -9999 -9999 -9999 -9999 -9999 -9999 -9999 -9999 -9999 -9999 -9999 -9999 -9999 -9999 -9999 -9999 -9999 -9999 -9999 -9999 -9999 -9999 -9999 -9999 -9999 -9999 -9999 -9999 -9999 -9999 -9999 -9999 -9999 -9999 -9999 -9999 -9999 -9999 -9999 -9999 -9999 -9999 -9999 -9999 -9999 -9999 -9999 -9999 -9999 -9999 -9999 -9999 -9999 -9999 -9999 -9999 -9999 -9999 -9999 -9999 -9999 -9999 -9999 -9999 -9999 -9999 -9999 -9999 -9999 -9999 -9999 -9999 -9999 -9999 -9999 -9999 -9999 -9999 -9999 -9999 -9999 -9999 -9999 -9999 -9999 -9999 -9999 -9999 -9999 -9999 -9999 -9999 -9999 -9999 -9999 -9999 -9999 -9999 -9999 -9999 -9999 -9999 -9999 -9999 -9999 -9999 -9999 -9999 -9999 -9999 -9999 -9999 -9999 -9999 -9999 -9999 -9999 -9999 -9999 -9999 -9999 -9999 -9999 -9999 -9999 -9999 -9999 -9999 -9999 -9999 -9999 -9999 -9999 -9999 -9999 -9999 -9999 -9999 -9999 -9999 -9999 -9999 -9999 -9999 -9999 -9999 -9999 -9999 -9999 -9999 -9999 -9999 -9999 -9999 -9999 -9999 -9999 -9999 -9999 -9999 -9999 -9999 -9999 -9999 -9999 -9999 -9999 -9999 -9999 -9999 -9999 -9999 -9999 -9999 -9999 -9999 -9999 -9999 -9999 -9999 -9999 -9999 -9999 -9999 -9999 -9999 -9999 -9999 -9999 -9999 -9999 -9999 -9999 -9999 -9999 -9999 -9999 -9999 -9999 -9999 -9999 -9999 92.0344456404736 92.0344456404736 76.158940397351 76.158940397351 66.0592255125285 66.0592255125285 63.3074935400517 42.1511627906977 42.1511627906977 71.0823909531502 71.0823909531502 75.5743651753325 75.5743651753325 75.5743651753325 31.496062992126 37.3001776198934 46.3362068965517 46.3362068965517 46.3362068965517 46.3362068965517 67.8642714570858 67.6959619952494 84.5588235294118 50.6692160611855 50.6692160611855 50.6692160611855 50.6692160611855 50.6692160611855 36 36 36 41.2371134020619 41.2371134020619 41.2371134020619 41.2371134020619 41.2371134020619 41.2371134020619 71.4285714285714 71.4285714285714 71.4285714285714 71.4285714285714 71.4285714285714 71.4285714285714 71.4285714285714 87.2374798061389 87.2374798061389 87.2374798061389 87.2374798061389 87.2374798061389 87.2374798061389 87.2374798061389 87.2374798061389 87.2374798061389 87.2374798061389 87.2374798061389 87.2374798061389 87.2374798061389 87.2374798061389 87.2374798061389 87.2374798061389 87.2374798061389 87.2374798061389 87.2374798061389 87.2374798061389 87.2374798061389 87.2374798061389 87.2374798061389 87.2374798061389 87.2374798061389 87.2374798061389 87.2374798061389 87.2374798061389 87.2374798061389 87.2374798061389 87.2374798061389 87.2374798061389 87.2374798061389 87.2374798061389 87.2374798061389 87.2374798061389 87.2374798061389 87.2374798061389 87.2374798061389 92.7291886195996 92.7291886195996 92.7291886195996 92.7291886195996 92.7291886195996 92.7291886195996 92.7291886195996 92.7291886195996 87.2374798061389 87.2374798061389 87.2374798061389 93.1558935361217 93.1558935361217 91.743119266055 91.743119266055 82.4742268041237 91.743119266055 91.743119266055 90.4761904761905 90.4761904761905 -9999 -9999 -9999 -9999 -9999 -9999 -9999 -9999 -9999 -9999 -9999 -9999 -9999 -9999
-9999 -9999 -9999 -9999 -9999 -9999 -9999 -9999 -9999 -9999 -9999 -9999 -9999 -9999 -9999 -9999 -9999 -9999 -9999 -9999 -9999 -9999 -9999 -9999 -9999 -9999 -9999 -9999 -9999 -9999 -9999 -9999 -9999 -9999 -9999 -9999 -9999 -9999 -9999 -9999 -9999 -9999 -9999 -9999 -9999 -9999 -9999 -9999 -9999 -9999 -9999 -9999 -9999 -9999 -9999 -9999 -9999 -9999 -9999 -9999 -9999 -9999 -9999 -9999 -9999 -9999 -9999 -9999 -9999 -9999 -9999 -9999 -9999 -9999 -9999 -9999 -9999 -9999 -9999 -9999 -9999 -9999 -9999 -9999 -9999 -9999 -9999 -9999 -9999 -9999 -9999 -9999 -9999 -9999 -9999 -9999 -9999 -9999 -9999 -9999 -9999 -9999 -9999 -9999 -9999 -9999 -9999 -9999 -9999 -9999 -9999 -9999 -9999 -9999 -9999 -9999 -9999 -9999 -9999 -9999 -9999 -9999 -9999 -9999 -9999 -9999 -9999 -9999 -9999 -9999 -9999 -9999 -9999 -9999 -9999 -9999 -9999 -9999 -9999 -9999 -9999 -9999 -9999 -9999 -9999 -9999 -9999 -9999 -9999 -9999 -9999 -9999 -9999 -9999 -9999 -9999 -9999 -9999 -9999 -9999 -9999 -9999 -9999 -9999 -9999 -9999 -9999 -9999 -9999 -9999 -9999 -9999 -9999 -9999 -9999 -9999 -9999 -9999 -9999 -9999 -9999 -9999 -9999 -9999 -9999 -9999 -9999 -9999 -9999 -9999 -9999 -9999 -9999 -9999 -9999 -9999 -9999 -9999 -9999 -9999 -9999 -9999 -9999 -9999 -9999 -9999 -9999 -9999 -9999 -9999 -9999 -9999 -9999 -9999 -9999 -9999 -9999 -9999 -9999 -9999 -9999 -9999 -9999 -9999 -9999 -9999 -9999 -9999 -9999 -9999 -9999 -9999 -9999 -9999 -9999 -9999 -9999 -9999 -9999 -9999 -9999 -9999 -9999 -9999 -9999 -9999 -9999 -9999 -9999 -9999 -9999 -9999 -9999 -9999 -9999 -9999 -9999 -9999 -9999 -9999 -9999 -9999 -9999 -9999 -9999 -9999 -9999 -9999 -9999 -9999 -9999 -9999 -9999 -9999 -9999 -9999 -9999 -9999 -9999 -9999 -9999 -9999 -9999 -9999 -9999 -9999 -9999 -9999 -9999 -9999 -9999 -9999 -9999 -9999 -9999 92.0344456404736 92.0344456404736 92.0344456404736 76.158940397351 76.158940397351 76.158940397351 76.158940397351 76.158940397351 63.3074935400517 63.3074935400517 43.5356200527704 42.1511627906977 42.1511627906977 71.0823909531502 71.0823909531502 75.5743651753325 72.6027397260274 72.6027397260274 37.3001776198934 37.3001776198934 46.3362068965517 37.3001776198934 67.6959619952494 67.6959619952494 67.6959619952494 64.1975308641975 50.6692160611855 50.6692160611855 50.6692160611855 50.6692160611855 50.6692160611855 50.6692160611855 41.2371134020619 41.2371134020619 41.2371134020619 41.2371134020619 41.2371134020619 41.2371134020619 71.4285714285714 71.4285714285714 71.4285714285714 71.4285714285714 71.4285714285714 71.4285714285714 71.4285714285714 71.4285714285714 71.4285714285714 71.4285714285714 71.4285714285714 87.2374798061389 87.2374798061389 87.2374798061389 87.2374798061389 87.2374798061389 87.2374798061389 87.2374798061389 87.2374798061389 87.2374798061389 87.2374798061389 87.2374798061389 87.2374798061389 87.2374798061389 87.2374798061389 87.2374798061389 87.2374798061389 87.2374798061389 87.2374798061389 87.2374798061389 87.2374798061389 87.2374798061389 87.2374798061389 87.2374798061389 87.2374798061389 87.2374798061389 87.2374798061389 87.2374798061389 87.2374798061389 87.2374798061389 87.2374798061389 87.2374798061389 87.2374798061389 87.2374798061389 87.2374798061389 87.2374798061389 87.2374798061389 87.2374798061389 92.7291886195996 92.7291886195996 92.7291886195996 92.7291886195996 92.7291886195996 92.7291886195996 92.7291886195996 92.7291886195996 93.9393939393939 93.9393939393939 93.9393939393939 93.1558935361217 93.1558935361217 93.1558935361217 82.4742268041237 82.4742268041237 82.4742268041237 90.4761904761905 90.4761904761905 90.4761904761905 -9999 -9999 -9999 -9999 -9999 -9999 -9999 -9999 -9999 -9999 -9999 -9999 -9999 -9999
-9999 -9999 -9999 -9999 -9999 -9999 -9999 -9999 -9999 -9999 -9999 -9999 -9999 -9999 -9999 -9999 -9999 -9999 -9999 -9999 -9999 -9999 -9999 -9999 -9999 -9999 -9999 -9999 -9999 -9999 -9999 -9999 -9999 -9999 -9999 -9999 -9999 -9999 -9999 -9999 -9999 -9999 -9999 -9999 -9999 -9999 -9999 -9999 -9999 -9999 -9999 -9999 -9999 -9999 -9999 -9999 -9999 -9999 -9999 -9999 -9999 -9999 -9999 -9999 -9999 -9999 -9999 -9999 -9999 -9999 -9999 -9999 -9999 -9999 -9999 -9999 -9999 -9999 -9999 -9999 -9999 -9999 -9999 -9999 -9999 -9999 -9999 -9999 -9999 -9999 -9999 -9999 -9999 -9999 -9999 -9999 -9999 -9999 -9999 -9999 -9999 -9999 -9999 -9999 -9999 -9999 -9999 -9999 -9999 -9999 -9999 -9999 -9999 -9999 -9999 -9999 -9999 -9999 -9999 -9999 -9999 -9999 -9999 -9999 -9999 -9999 -9999 -9999 -9999 -9999 -9999 -9999 -9999 -9999 -9999 -9999 -9999 -9999 -9999 -9999 -9999 -9999 -9999 -9999 -9999 -9999 -9999 -9999 -9999 -9999 -9999 -9999 -9999 -9999 -9999 -9999 -9999 -9999 -9999 -9999 -9999 -9999 -9999 -9999 -9999 -9999 -9999 -9999 -9999 -9999 -9999 -9999 -9999 -9999 -9999 -9999 -9999 -9999 -9999 -9999 -9999 -9999 -9999 -9999 -9999 -9999 -9999 -9999 -9999 -9999 -9999 -9999 -9999 -9999 -9999 -9999 -9999 -9999 -9999 -9999 -9999 -9999 -9999 -9999 -9999 -9999 -9999 -9999 -9999 -9999 -9999 -9999 -9999 -9999 -9999 -9999 -9999 -9999 -9999 -9999 -9999 -9999 -9999 -9999 -9999 -9999 -9999 -9999 -9999 -9999 -9999 -9999 -9999 -9999 -9999 -9999 -9999 -9999 -9999 -9999 -9999 -9999 -9999 -9999 -9999 -9999 -9999 -9999 -9999 -9999 -9999 -9999 -9999 -9999 -9999 -9999 -9999 -9999 -9999 -9999 -9999 -9999 -9999 -9999 -9999 -9999 -9999 -9999 -9999 -9999 -9999 -9999 -9999 -9999 -9999 -9999 -9999 -9999 -9999 -9999 -9999 -9999 -9999 -9999 -9999 -9999 -9999 -9999 -9999 -9999 -9999 -9999 -9999 -9999 -9999 92.0344456404736 76.8500948766603 76.8500948766603 76.158940397351 76.158940397351 76.158940397351 76.158940397351 -9999 -9999 63.3074935400517 63.3074935400517 43.5356200527704 43.5356200527704 42.1511627906977 60.0558659217877 60.0558659217877 72.6027397260274 72.6027397260274 72.6027397260274 37.3001776198934 37.3001776198934 37.3001776198934 37.3001776198934 67.6959619952494 59.7345132743363 64.1975308641975 64.1975308641975 64.1975308641975 50.6692160611855 50.6692160611855 50.6692160611855 50.6692160611855 41.2371134020619 41.2371134020619 41.2371134020619 41.2371134020619 41.2371134020619 71.4285714285714 71.4285714285714 71.4285714285714 71.4285714285714 71.4285714285714 71.4285714285714 71.4285714285714 71.4285714285714 71.4285714285714 71.4285714285714 71.4285714285714 71.4285714285714 71.4285714285714 71.4285714285714 71.4285714285714 87.2374798061389 87.2374798061389 87.2374798061389 87.2374798061389 87.2374798061389 87.2374798061389 87.2374798061389 87.2374798061389 87.2374798061389 87.2374798061389 87.2374798061389 87.2374798061389 87.2374798061389 87.2374798061389 87.2374798061389 87.2374798061389 87.2374798061389 87.2374798061389 87.2374798061389 87.2374798061389 87.2374798061389 87.2374798061389 87.2374798061389 87.2374798061389 87.2374798061389 87.2374798061389 87.2374798061389 87.2374798061389 87.2374798061389 87.2374798061389 87.2374798061389 87.2374798061389 87.2374798061389 92.7291886195996 92.7291886195996 92.7291886195996 92.7291886195996 92.7291886195996 92.7291886195996 92.7291886195996 92.7291886195996 92.7291886195996 93.9393939393939 93.9393939393939 93.9393939393939 93.9393939393939 93.9393939393939 82.4742268041237 82.4742268041237 82.4742268041237 82.4742268041237 90.4761904761905 -9999 -9999 -9999 -9999 -9999 -9999 -9999 -9999 -9999 -9999 -9999 -9999 -9999 -9999 -9999 -9999
-9999 -9999 -9999 -9999 -9999 -9999 -9999 -9999 -9999 -9999 -9999 -9999 -9999 -9999 -9999 -9999 -9999 -9999 -9999 -9999 -9999 -9999 -9999 -9999 -9999 -9999 -9999 -9999 -9999 -9999 -9999 -9999 -9999 -9999 -9999 -9999 -9999 -9999 -9999 -9999 -9999 -9999 -9999 -9999 -9999 -9999 -9999 -9999 -9999 -9999 -9999 -9999 -9999 -9999 -9999 -9999 -9999 -9999 -9999 -9999 -9999 -9999 -9999 -9999 -9999 -9999 -9999 -9999 -9999 -9999 -9999 -9999 -9999 -9999 -9999 -9999 -9999 -9999 -9999 -9999 -9999 -9999 -9999 -9999 -9999 -9999 -9999 -9999 -9999 -9999 -9999 -9999 -9999 -9999 -9999 -9999 -9999 -9999 -9999 -9999 -9999 -9999 -9999 -9999 -9999 -9999 -9999 -9999 -9999 -9999 -9999 -9999 -9999 -9999 -9999 -9999 -9999 -9999 -9999 -9999 -9999 -9999 -9999 -9999 -9999 -9999 -9999 -9999 -9999 -9999 -9999 -9999 -9999 -9999 -9999 -9999 -9999 -9999 -9999 -9999 -9999 -9999 -9999 -9999 -9999 -9999 -9999 -9999 -9999 -9999 -9999 -9999 -9999 -9999 -9999 -9999 -9999 -9999 -9999 -9999 -9999 -9999 -9999 -9999 -9999 -9999 -9999 -9999 -9999 -9999 -9999 -9999 -9999 -9999 -9999 -9999 -9999 -9999 -9999 -9999 -9999 -9999 -9999 -9999 -9999 -9999 -9999 -9999 -9999 -9999 -9999 -9999 -9999 -9999 -9999 -9999 -9999 -9999 -9999 -9999 -9999 -9999 -9999 -9999 -9999 -9999 -9999 -9999 -9999 -9999 -9999 -9999 -9999 -9999 -9999 -9999 -9999 -9999 -9999 -9999 -9999 -9999 -9999 -9999 -9999 -9999 -9999 -9999 -9999 -9999 -9999 -9999 -9999 -9999 -9999 -9999 -9999 -9999 -9999 -9999 -9999 -9999 -9999 -9999 -9999 -9999 -9999 -9999 -9999 -9999 -9999 -9999 -9999 -9999 -9999 -9999 -9999 -9999 -9999 -9999 -9999 -9999 -9999 -9999 -9999 -9999 -9999 -9999 -9999 -9999 -9999 -9999 -9999 -9999 -9999 -9999 -9999 -9999 -9999 -9999 -9999 -9999 -9999 -9999 -9999 -9999 -9999 -9999 -9999 -9999 -9999 -9999 -9999 -9999 80.2690582959641 -9999 76.8500948766603 76.8500948766603 76.8500948766603 76.158940397351 76.158940397351 -9999 -9999 -9999 -9999 63.3074935400517 63.3074935400517 43.5356200527704 43.5356200527704 60.0558659217877 60.0558659217877 60.0558659217877 72.6027397260274 60.0558659217877 60.0558659217877 37.3001776198934 37.3001776198934 36.3849765258216 59.7345132743363 59.7345132743363 59.7345132743363 64.1975308641975 43.6590436590437 43.6590436590437 50.6692160611855 50.6692160611855 50.6692160611855 50.6692160611855 41.2371134020619 41.2371134020619 41.2371134020619 71.4285714285714 71.4285714285714 71.4285714285714 71.4285714285714 71.4285714285714 71.4285714285714 71.4285714285714 71.4285714285714 71.4285714285714 71.4285714285714 71.4285714285714 71.4285714285714 71.4285714285714 71.4285714285714 71.4285714285714 71.4285714285714 71.4285714285714 71.4285714285714 87.2374798061389 87.2374798061389 87.2374798061389 87.2374798061389 87.2374798061389 87.2374798061389 87.2374798061389 87.2374798061389 87.2374798061389 87.2374798061389 87.2374798061389 87.2374798061389 87.2374798061389 87.2374798061389 87.2374798061389 87.2374798061389 87.2374798061389 87.2374798061389 87.2374798061389 87.2374798061389 87.2374798061389 87.2374798061389 87.2374798061389 87.2374798061389 87.2374798061389 87.2374798061389 87.2374798061389 87.2374798061389 87.2374798061389 87.2374798061389 87.2374798061389 92.7291886195996 92.7291886195996 92.7291886195996 92.7291886195996 92.7291886195996 92.7291886195996 92.7291886195996 92.7291886195996 92.7291886195996 92.7291886195996 92.7291886195996 92.7291886195996 92.7291886195996 82.4742268041237 82.4742268041237 90.4761904761905 90.4761904761905 90.4761904761905 -9999 -9999 -9999 -9999 -9999 -9999 -9999 -9999 -9999 -9999 -9999 -9999 -9999 -9999 -9999 -9999 -9999
-9999 -9999 -9999 -9999 -9999 -9999 -9999 -9999 -9999 -9999 -9999 -9999 -9999 -9999 -9999 -9999 -9999 -9999 -9999 -9999 -9999 -9999 -9999 -9999 -9999 -9999 -9999 -9999 -9999 -9999 -9999 -9999 -9999 -9999 -9999 -9999 -9999 -9999 -9999 -9999 -9999 -9999 -9999 -9999 -9999 -9999 -9999 -9999 -9999 -9999 -9999 -9999 -9999 -9999 -9999 -9999 -9999 -9999 -9999 -9999 -9999 -9999 -9999 -9999 -9999 -9999 -9999 -9999 -9999 -9999 -9999 -9999 -9999 -9999 -9999 -9999 -9999 -9999 -9999 -9999 -9999 -9999 -9999 -9999 -9999 -9999 -9999 -9999 -9999 -9999 -9999 -9999 -9999 -9999 -9999 -9999 -9999 -9999 -9999 -9999 -9999 -9999 -9999 -9999 -9999 -9999 -9999 -9999 -9999 -9999 -9999 -9999 -9999 -9999 -9999 -9999 -9999 -9999 -9999 -9999 -9999 -9999 -9999 -9999 -9999 -9999 -9999 -9999 -9999 -9999 -9999 -9999 -9999 -9999 -9999 -9999 -9999 -9999 -9999 -9999 -9999 -9999 -9999 -9999 -9999 -9999 -9999 -9999 -9999 -9999 -9999 -9999 -9999 -9999 -9999 -9999 -9999 -9999 -9999 -9999 -9999 -9999 -9999 -9999 -9999 -9999 -9999 -9999 -9999 -9999 -9999 -9999 -9999 -9999 -9999 -9999 -9999 -9999 -9999 -9999 -9999 -9999 -9999 -9999 -9999 -9999 -9999 -9999 -9999 -9999 -9999 -9999 -9999 -9999 -9999 -9999 -9999 -9999 -9999 -9999 -9999 -9999 -9999 -9999 -9999 -9999 -9999 -9999 -9999 -9999 -9999 -9999 -9999 -9999 -9999 -9999 -9999 -9999 -9999 -9999 -9999 -9999 -9999 -9999 -9999 -9999 -9999 -9999 -9999 -9999 -9999 -9999 -9999 -9999 -9999 -9999 -9999 -9999 -9999 -9999 -9999 -9999 -9999 -9999 -9999 -9999 -9999 -9999 -9999 -9999 -9999 -9999 -9999 -9999 -9999 -9999 -9999 -9999 -9999 -9999 -9999 -9999 -9999 -9999 -9999 -9999 -9999 -9999 -9999 -9999 -9999 -9999 -9999 -9999 -9999 -9999 -9999 -9999 -9999 -9999 -9999 -9999 -9999 -9999 -9999 -9999 -9999 -9999 -9999 -9999 -9999 -9999 80.2690582959641 80.2690582959641 -9999 -9999 -9999 -9999 76.8500948766603 -9999 -9999 -9999 -9999 -9999 -9999 -9999 53.7383177570093 53.7383177570093 43.5356200527704 43.5356200527704 43.5356200527704 61.5942028985507 60.0558659217877 60.0558659217877 60.0558659217877 37.3001776198934 36.3849765258216 36.3849765258216 36.3849765258216 59.7345132743363 59.7345132743363 36.3849765258216 43.6590436590437 43.6590436590437 43.6590436590437 50.6692160611855 50.6692160611855 50.6692160611855 50.6692160611855 71.4285714285714 71.4285714285714 71.4285714285714 71.4285714285714 71.4285714285714 71.4285714285714 71.4285714285714 71.4285714285714 71.4285714285714 71.4285714285714 71.4285714285714 71.4285714285714 71.4285714285714 71.4285714285714 71.4285714285714 71.4285714285714 71.4285714285714 71.4285714285714 71.4285714285714 71.4285714285714 71.4285714285714 71.4285714285714 71.4285714285714 87.2374798061389 87.2374798061389 87.2374798061389 87.2374798061389 87.2374798061389 87.2374798061389 87.2374798061389 87.2374798061389 87.2374798061389 87.2374798061389 87.2374798061389 87.2374798061389 87.2374798061389 87.2374798061389 87.2374798061389 87.2374798061389 87.2374798061389 87.2374798061389 87.2374798061389 87.2374798061389 87.2374798061389 87.2374798061389 87.2374798061389 87.2374798061389 87.2374798061389 87.2374798061389 87.2374798061389 92.7291886195996 92.7291886195996 92.7291886195996 92.7291886195996 92.7291886195996 92.7291886195996 92.7291886195996 92.7291886195996 92.7291886195996 92.7291886195996 92.7291886195996 92.7291886195996 92.7291886195996 82.4742268041237 82.4742268041237 90.4761904761905 90.4761904761905 90.4761904761905 90.4761904761905 90.4761904761905 -9999 -9999 -9999 -9999 -9999 -9999 -9999 -9999 -9999 -9999 -9999 -9999 -9999 -9999 -9999 -9999
-9999 -9999 -9999 -9999 -9999 -9999 -9999 -9999 -9999 -9999 -9999 -9999 -9999 -9999 -9999 -9999 -9999 -9999 -9999 -9999 -9999 -9999 -9999 -9999 -9999 -9999 -9999 -9999 -9999 -9999 -9999 -9999 -9999 -9999 -9999 -9999 -9999 -9999 -9999 -9999 -9999 -9999 -9999 -9999 -9999 -9999 -9999 -9999 -9999 -9999 -9999 -9999 -9999 -9999 -9999 -9999 -9999 -9999 -9999 -9999 -9999 -9999 -9999 -9999 -9999 -9999 -9999 -9999 -9999 -9999 -9999 -9999 -9999 -9999 -9999 -9999 -9999 -9999 -9999 -9999 -9999 -9999 -9999 -9999 -9999 -9999 -9999 -9999 -9999 -9999 -9999 -9999 -9999 -9999 -9999 -9999 -9999 -9999 -9999 -9999 -9999 -9999 -9999 -9999 -9999 -9999 -9999 -9999 -9999 -9999 -9999 -9999 -9999 -9999 -9999 -9999 -9999 -9999 -9999 -9999 -9999 -9999 -9999 -9999 -9999 -9999 -9999 -9999 -9999 -9999 -9999 -9999 -9999 -9999 -9999 -9999 -9999 -9999 -9999 -9999 -9999 -9999 -9999 -9999 -9999 -9999 -9999 -9999 -9999 -9999 -9999 -9999 -9999 -9999 -9999 -9999 -9999 -9999 -9999 -9999 -9999 -9999 -9999 -9999 -9999 -9999 -9999 -9999 -9999 -9999 -9999 -9999 -9999 -9999 -9999 -9999 -9999 -9999 -9999 -9999 -9999 -9999 -9999 -9999 -9999 -9999 -9999 -9999 -9999 -9999 -9999 -9999 -9999 -9999 -9999 -9999 -9999 -9999 -9999 -9999 -9999 -9999 -9999 -9999 -9999 -9999 -9999 -9999 -9999 -9999 -9999 -9999 -9999 -9999 -9999 -9999 -9999 -9999 -9999 -9999 -9999 -9999 -9999 -9999 -9999 -9999 -9999 -9999 -9999 -9999 -9999 -9999 -9999 -9999 -9999 -9999 -9999 -9999 -9999 -9999 -9999 -9999 -9999 -9999 -9999 -9999 -9999 -9999 -9999 -9999 -9999 -9999 -9999 -9999 -9999 -9999 -9999 -9999 -9999 -9999 -9999 -9999 -9999 -9999 -9999 -9999 -9999 -9999 -9999 -9999 -9999 -9999 -9999 -9999 -9999 -9999 -9999 -9999 -9999 -9999 -9999 -9999 -9999 -9999 -9999 -9999 -9999 -9999 -9999 -9999 -9999 80.2690582959641 -9999 -9999 -9999 -9999 -9999 -9999 84.8909657320872 -9999 -9999 -9999 -9999 -9999 -9999 -9999 -9999 53.7383177570093 53.7383177570093 61.5942028985507 61.5942028985507 61.5942028985507 60.0558659217877 60.0558659217877 43.6590436590437 43.6590436590437 36.3849765258216 36.3849765258216 36.3849765258216 36.3849765258216 36.3849765258216 36.3849765258216 43.6590436590437 43.6590436590437 43.6590436590437 43.6590436590437 43.6590436590437 50.6692160611855 71.4285714285714 71.4285714285714 71.4285714285714 71.4285714285714 71.4285714285714 71.4285714285714 71.4285714285714 71.4285714285714 71.4285714285714 71.4285714285714 71.4285714285714 71.4285714285714 71.4285714285714 71.4285714285714 71.4285714285714 71.4285714285714 71.4285714285714 71.4285714285714 71.4285714285714 71.4285714285714 71.4285714285714 71.4285714285714 71.4285714285714 71.4285714285714 71.4285714285714 87.2374798061389 87.2374798061389 87.2374798061389 87.2374798061389 87.2374798061389 87.2374798061389 87.2374798061389 87.2374798061389 87.2374798061389 87.2374798061389 87.2374798061389 87.2374798061389 87.2374798061389 87.2374798061389 87.2374798061389 87.2374798061389 87.2374798061389 87.2374798061389 87.2374798061389 87.2374798061389 87.2374798061389 87.2374798061389 87.2374798061389 87.2374798061389 87.2374798061389 87.2374798061389 92.7291886195996 92.7291886195996 92.7291886195996 92.7291886195996 92.7291886195996 92.7291886195996 92.7291886195996 92.7291886195996 92.7291886195996 92.7291886195996 92.7291886195996 92.7291886195996 92.7291886195996 92.7291886195996 90.4761904761905 90.4761904761905 90.4761904761905 90.4761904761905 -9999 -9999 -9999 -9999 -9999 -9999 -9999 -9999 -9999 -9999 -9999 -9999 -9999 -9999 -9999 -9999 -9999 -9999
-9999 -9999 -9999 -9999 -9999 -9999 -9999 -9999 -9999 -9999 -9999 -9999 -9999 -9999 -9999 -9999 -9999 -9999 -9999 -9999 -9999 -9999 -9999 -9999 -9999 -9999 -9999 -9999 -9999 -9999 -9999 -9999 -9999 -9999 -9999 -9999 -9999 -9999 -9999 -9999 -9999 -9999 -9999 -9999 -9999 -9999 -9999 -9999 -9999 -9999 -9999 -9999 -9999 -9999 -9999 -9999 -9999 -9999 -9999 -9999 -9999 -9999 -9999 -9999 -9999 -9999 -9999 -9999 -9999 -9999 -9999 -9999 -9999 -9999 -9999 -9999 -9999 -9999 -9999 -9999 -9999 -9999 -9999 -9999 -9999 -9999 -9999 -9999 -9999 -9999 -9999 -9999 -9999 -9999 -9999 -9999 -9999 -9999 -9999 -9999 -9999 -9999 -9999 -9999 -9999 -9999 -9999 -9999 -9999 -9999 -9999 -9999 -9999 -9999 -9999 -9999 -9999 -9999 -9999 -9999 -9999 -9999 -9999 -9999 -9999 -9999 -9999 -9999 -9999 -9999 -9999 -9999 -9999 -9999 -9999 -9999 -9999 -9999 -9999 -9999 -9999 -9999 -9999 -9999 -9999 -9999 -9999 -9999 -9999 -9999 -9999 -9999 -9999 -9999 -9999 -9999 -9999 -9999 -9999 -9999 -9999 -9999 -9999 -9999 -9999 -9999 -9999 -9999 -9999 -9999 -9999 -9999 -9999 -9999 -9999 -9999 -9999 -9999 -9999 -9999 -9999 -9999 -9999 -9999 -9999 -9999 -9999 -9999 -9999 -9999 -9999 -9999 -9999 -9999 -9999 -9999 -9999 -9999 -9999 -9999 -9999 -9999 -9999 -9999 -9999 -9999 -9999 -9999 -9999 -9999 -9999 -9999 -9999 -9999 -9999 -9999 -9999 -9999 -9999 -9999 -9999 -9999 -9999 -9999 -9999 -9999 -9999 -9999 -9999 -9999 -9999 -9999 -9999 -9999 -9999 -9999 -9999 -9999 -9999 -9999 -9999 -9999 -9999 -9999 -9999 -9999 -9999 -9999 -9999 -9999 -9999 -9999 -9999 -9999 -9999 -9999 -9999 -9999 -9999 -9999 -9999 -9999 -9999 -9999 -9999 -9999 -9999 -9999 -9999 -9999 -9999 -9999 -9999 -9999 -9999 -9999 -9999 -9999 -9999 -9999 -9999 -9999 -9999 -9999 -9999 -9999 -9999 -9999 -9999 -9999 80.2690582959641 64.5994832041344 90.6593406593407 84.8909657320872 -9999 -9999 84.8909657320872 84.8909657320872 84.8909657320872 84.8909657320872 -9999 -9999 -9999 -9999 -9999 -9999 -9999 -9999 53.7383177570093 53.7383177570093 61.5942028985507 61.5942028985507 43.6590436590437 43.6590436590437 43.6590436590437 43.6590436590437 43.6590436590437 43.6590436590437 43.6590436590437 36.3849765258216 43.6590436590437 43.6590436590437 43.6590436590437 43.6590436590437 43.6590436590437 43.6590436590437 43.6590436590437 71.4285714285714 71.4285714285714 71.4285714285714 71.4285714285714 71.4285714285714 71.4285714285714 71.4285714285714 71.4285714285714 71.4285714285714 71.4285714285714 71.4285714285714 71.4285714285714 71.4285714285714 71.4285714285714 71.4285714285714 71.4285714285714 71.4285714285714 71.4285714285714 71.4285714285714 71.4285714285714 71.4285714285714 71.4285714285714 71.4285714285714 71.4285714285714 71.4285714285714 71.4285714285714 71.4285714285714 82.8402366863905 87.2374798061389 87.2374798061389 87.2374798061389 87.2374798061389 87.2374798061389 87.2374798061389 87.2374798061389 87.2374798061389 87.2374798061389 87.2374798061389 87.2374798061389 87.2374798061389 87.2374798061389 87.2374798061389 87.2374798061389 87.2374798061389 87.2374798061389 87.2374798061389 87.2374798061389 87.2374798061389 87.2374798061389 87.2374798061389 87.2374798061389 92.7291886195996 92.7291886195996 92.7291886195996 92.7291886195996 92.7291886195996 92.7291886195996 92.7291886195996 92.7291886195996 92.7291886195996 92.7291886195996 92.7291886195996 92.7291886195996 92.7291886195996 92.7291886195996 90.4761904761905 90.4761904761905 90.4761904761905 -9999 90.4761904761905 -9999 -9999 -9999 -9999 -9999 -9999 -9999 -9999 -9999 -9999 -9999 -9999 -9999 -9999 -9999 -9999 -9999 -9999
-9999 -9999 -9999 -9999 -9999 -9999 -9999 -9999 -9999 -9999 -9999 -9999 -9999 -9999 -9999 -9999 -9999 -9999 -9999 -9999 -9999 -9999 -9999 -9999 -9999 -9999 -9999 -9999 -9999 -9999 -9999 -9999 -9999 -9999 -9999 -9999 -9999 -9999 -9999 -9999 -9999 -9999 -9999 -9999 -9999 -9999 -9999 -9999 -9999 -9999 -9999 -9999 -9999 -9999 -9999 -9999 -9999 -9999 -9999 -9999 -9999 -9999 -9999 -9999 -9999 -9999 -9999 -9999 -9999 -9999 -9999 -9999 -9999 -9999 -9999 -9999 -9999 -9999 -9999 -9999 -9999 -9999 -9999 -9999 -9999 -9999 -9999 -9999 -9999 -9999 -9999 -9999 -9999 -9999 -9999 -9999 -9999 -9999 -9999 -9999 -9999 -9999 -9999 -9999 -9999 -9999 -9999 -9999 -9999 -9999 -9999 -9999 -9999 -9999 -9999 -9999 -9999 -9999 -9999 -9999 -9999 -9999 -9999 -9999 -9999 -9999 -9999 -9999 -9999 -9999 -9999 -9999 -9999 -9999 -9999 -9999 -9999 -9999 -9999 -9999 -9999 -9999 -9999 -9999 -9999 -9999 -9999 -9999 -9999 -9999 -9999 -9999 -9999 -9999 -9999 -9999 -9999 -9999 -9999 -9999 -9999 -9999 -9999 -9999 -9999 -9999 -9999 -9999 -9999 -9999 -9999 -9999 -9999 -9999 -9999 -9999 -9999 -9999 -9999 -9999 -9999 -9999 -9999 -9999 -9999 -9999 -9999 -9999 -9999 -9999 -9999 -9999 -9999 -9999 -9999 -9999 -9999 -9999 -9999 -9999 -9999 -9999 -9999 -9999 -9999 -9999 -9999 -9999 -9999 -9999 -9999 -9999 -9999 -9999 -9999 -9999 -9999 -9999 -9999 -9999 -9999 -9999 -9999 -9999 -9999 -9999 -9999 -9999 -9999 -9999 -9999 -9999 -9999 -9999 -9999 -9999 -9999 -9999 -9999 -9999 -9999 -9999 -9999 -9999 -9999 -9999 -9999 -9999 -9999 -9999 -9999 -9999 -9999 -9999 -9999 -9999 -9999 -9999 -9999 -9999 -9999 -9999 -9999 -9999 -9999 -9999 -9999 -9999 -9999 -9999 -9999 -9999 -9999 -9999 -9999 -9999 -9999 -9999 -9999 -9999 -9999 -9999 -9999 -9999 -9999 -9999 -9999 -9999 80.2690582959641 64.5994832041344 64.5994832041344 90.6593406593407 90.6593406593407 90.6593406593407 84.8909657320872 84.8909657320872 84.8909657320872 84.8909657320872 84.8909657320872 84.8909657320872 84.8909657320872 -9999 -9999 -9999 -9999 -9999 -9999 -9999 -9999 53.7383177570093 -9999 43.6590436590437 43.6590436590437 43.6590436590437 43.6590436590437 43.6590436590437 43.6590436590437 43.6590436590437 43.6590436590437 43.6590436590437 43.6590436590437 43.6590436590437 43.6590436590437 43.6590436590437 43.6590436590437 71.4285714285714 71.4285714285714 71.4285714285714 71.4285714285714 71.4285714285714 71.4285714285714 71.4285714285714 71.4285714285714 71.4285714285714 71.4285714285714 71.4285714285714 71.4285714285714 71.4285714285714 71.4285714285714 71.4285714285714 71.4285714285714 71.4285714285714 71.4285714285714 71.4285714285714 71.4285714285714 71.4285714285714 71.4285714285714 71.4285714285714 71.4285714285714 71.4285714285714 71.4285714285714 71.4285714285714 71.4285714285714 82.8402366863905 82.8402366863905 82.8402366863905 82.8402366863905 87.2374798061389 87.2374798061389 87.2374798061389 87.2374798061389 87.2374798061389 87.2374798061389 87.2374798061389 87.2374798061389 87.2374798061389 87.2374798061389 87.2374798061389 87.2374798061389 87.2374798061389 87.2374798061389 87.2374798061389 87.2374798061389 87.2374798061389 87.2374798061389 87.2374798061389 87.2374798061389 87.2374798061389 92.7291886195996 92.7291886195996 92.7291886195996 92.7291886195996 92.7291886195996 92.7291886195996 92.7291886195996 92.7291886195996 92.7291886195996 92.7291886195996 92.7291886195996 92.7291886195996 92.7291886195996 90.4761904761905 90.4761904761905 90.4761904761905 -9999 -9999 -9999 -9999 -9999 -9999 -9999 -9999 -9999 -9999 -9999 -9999 -9999 -9999 -9999 -9999 -9999 -9999 -9999 -9999 -9999
-9999 -9999 -9999 -9999 -9999 -9999 -9999 -9999 -9999 -9999 -9999 -9999 -9999 -9999 -9999 -9999 -9999 -9999 -9999 -9999 -9999 -9999 -9999 -9999 -9999 -9999 -9999 -9999 -9999 -9999 -9999 -9999 -9999 -9999 -9999 -9999 -9999 -9999 -9999 -9999 -9999 -9999 -9999 -9999 -9999 -9999 -9999 -9999 -9999 -9999 -9999 -9999 -9999 -9999 -9999 -9999 -9999 -9999 -9999 -9999 -9999 -9999 -9999 -9999 -9999 -9999 -9999 -9999 -9999 -9999 -9999 -9999 -9999 -9999 -9999 -9999 -9999 -9999 -9999 -9999 -9999 -9999 -9999 -9999 -9999 -9999 -9999 -9999 -9999 -9999 -9999 -9999 -9999 -9999 -9999 -9999 -9999 -9999 -9999 -9999 -9999 -9999 -9999 -9999 -9999 -9999 -9999 -9999 -9999 -9999 -9999 -9999 -9999 -9999 -9999 -9999 -9999 -9999 -9999 -9999 -9999 -9999 -9999 -9999 -9999 -9999 -9999 -9999 -9999 -9999 -9999 -9999 -9999 -9999 -9999 -9999 -9999 -9999 -9999 -9999 -9999 -9999 -9999 -9999 -9999 -9999 -9999 -9999 -9999 -9999 -9999 -9999 -9999 -9999 -9999 -9999 -9999 -9999 -9999 -9999 -9999 -9999 -9999 -9999 -9999 -9999 -9999 -9999 -9999 -9999 -9999 -9999 -9999 -9999 -9999 -9999 -9999 -9999 -9999 -9999 -9999 -9999 -9999 -9999 -9999 -9999 -9999 -9999 -9999 -9999 -9999 -9999 -9999 -9999 -9999 -9999 -9999 -9999 -9999 -9999 -9999 -9999 -9999 -9999 -9999 -9999 -9999 -9999 -9999 -9999 -9999 -9999 -9999 -9999 -9999 -9999 -9999 -9999 -9999 -9999 -9999 -9999 -9999 -9999 -9999 -9999 -9999 -9999 -9999 -9999 -9999 -9999 -9999 -9999 -9999 -9999 -9999 -9999 -9999 -9999 -9999 -9999 -9999 -9999 -9999 -9999 -9999 -9999 -9999 -9999 -9999 -9999 -9999 -9999 -9999 -9999 -9999 -9999 -9999 -9999 -9999 -9999 -9999 -9999 -9999 -9999 -9999 -9999 -9999 -9999 -9999 -9999 -9999 -9999 -9999 -9999 -9999 -9999 -9999 -9999 -9999 -9999 -9999 -9999 -9999 -9999 -9999 75.7874015748031 75.7874015748031 75.7874015748031 64.5994832041344 64.5994832041344 89.7277227722772 89.7277227722772 85.6453558504222 80.6451612903226 84.8909657320872 84.8909657320872 84.8909657320872 84.8909657320872 85.4922279792746 85.4922279792746 -9999 -9999 -9999 -9999 -9999 -9999 -9999 -9999 -9999 -9999 43.6590436590437 43.6590436590437 43.6590436590437 43.6590436590437 43.6590436590437 43.6590436590437 43.6590436590437 43.6590436590437 43.6590436590437 43.6590436590437 43.6590436590437 43.6590436590437 71.4285714285714 71.4285714285714 71.4285714285714 71.4285714285714 71.4285714285714 71.4285714285714 71.4285714285714 71.4285714285714 71.4285714285714 71.4285714285714 71.4285714285714 71.4285714285714 71.4285714285714 71.4285714285714 71.4285714285714 71.4285714285714 71.4285714285714 71.4285714285714 71.4285714285714 71.4285714285714 71.4285714285714 71.4285714285714 71.4285714285714 71.4285714285714 71.4285714285714 71.4285714285714 71.4285714285714 71.4285714285714 82.8402366863905 82.8402366863905 82.8402366863905 82.8402366863905 82.8402366863905 82.8402366863905 82.8402366863905 87.2374798061389 87.2374798061389 87.2374798061389 87.2374798061389 87.2374798061389 87.2374798061389 87.2374798061389 87.2374798061389 87.2374798061389 87.2374798061389 87.2374798061389 87.2374798061389 87.2374798061389 87.2374798061389 87.2374798061389 87.2374798061389 87.2374798061389 87.2374798061389 87.2374798061389 92.7291886195996 92.7291886195996 92.7291886195996 92.7291886195996 92.7291886195996 92.7291886195996 92.7291886195996 92.7291886195996 92.7291886195996 92.7291886195996 92.7291886195996 92.7291886195996 90.4761904761905 90.4761904761905 90.4761904761905 90.4761904761905 90.4761904761905 -9999 -9999 -9999 -9999 -9999 -9999 -9999 -9999 -9999 -9999 -9999 -9999 -9999 -9999 -9999 -9999 -9999 -9999 -9999 -9999
-9999 -9999 -9999 -9999 -9999 -9999 -9999 -9999 -9999 -9999 -9999 -9999 -9999 -9999 -9999 -9999 -9999 -9999 -9999 -9999 -9999 -9999 -9999 -9999 -9999 -9999 -9999 -9999 -9999 -9999 -9999 -9999 -9999 -9999 -9999 -9999 -9999 -9999 -9999 -9999 -9999 -9999 -9999 -9999 -9999 -9999 -9999 -9999 -9999 -9999 -9999 -9999 -9999 -9999 -9999 -9999 -9999 -9999 -9999 -9999 -9999 -9999 -9999 -9999 -9999 -9999 -9999 -9999 -9999 -9999 -9999 -9999 -9999 -9999 -9999 -9999 -9999 -9999 -9999 -9999 -9999 -9999 -9999 -9999 -9999 -9999 -9999 -9999 -9999 -9999 -9999 -9999 -9999 -9999 -9999 -9999 -9999 -9999 -9999 -9999 -9999 -9999 -9999 -9999 -9999 -9999 -9999 -9999 -9999 -9999 -9999 -9999 -9999 -9999 -9999 -9999 -9999 -9999 -9999 -9999 -9999 -9999 -9999 -9999 -9999 -9999 -9999 -9999 -9999 -9999 -9999 -9999 -9999 -9999 -9999 -9999 -9999 -9999 -9999 -9999 -9999 -9999 -9999 -9999 -9999 -9999 -9999 -9999 -9999 -9999 -9999 -9999 -9999 -9999 -9999 -9999 -9999 -9999 -9999 -9999 -9999 -9999 -9999 -9999 -9999 -9999 -9999 -9999 -9999 -9999 -9999 -9999 -9999 -9999 -9999 -9999 -9999 -9999 -9999 -9999 -9999 -9999 -9999 -9999 -9999 -9999 -9999 -9999 -9999 -9999 -9999 -9999 -9999 -9999 -9999 -9999 -9999 -9999 -9999 -9999 -9999 -9999 -9999 -9999 -9999 -9999 -9999 -9999 -9999 -9999 -9999 -9999 -9999 -9999 -9999 -9999 -9999 -9999 -9999 -9999 -9999 -9999 -9999 -9999 -9999 -9999 -9999 -9999 -9999 -9999 -9999 -9999 -9999 -9999 -9999 -9999 -9999 -9999 -9999 -9999 -9999 -9999 -9999 -9999 -9999 -9999 -9999 -9999 -9999 -9999 -9999 -9999 -9999 -9999 -9999 -9999 -9999 -9999 -9999 -9999 -9999 -9999 -9999 -9999 -9999 -9999 -9999 -9999 -9999 -9999 -9999 -9999 -9999 -9999 -9999 -9999 -9999 -9999 -9999 -9999 -9999 -9999 -9999 -9999 -9999 -9999 65.5737704918033 65.5737704918033 75.7874015748031 75.7874015748031 75.7874015748031 89.7277227722772 85.6453558504222 91.1528150134048 82.1917808219178 82.4175824175824 80.6451612903226 84.8909657320872 84.8909657320872 85.4922279792746 85.4922279792746 85.4922279792746 85.4922279792746 -9999 -9999 -9999 -9999 -9999 -9999 -9999 -9999 -9999 -9999 43.6590436590437 43.6590436590437 43.6590436590437 43.6590436590437 43.6590436590437 43.6590436590437 43.6590436590437 43.6590436590437 43.6590436590437 71.4285714285714 71.4285714285714 71.4285714285714 71.4285714285714 71.4285714285714 71.4285714285714 71.4285714285714 71.4285714285714 71.4285714285714 71.4285714285714 71.4285714285714 71.4285714285714 71.4285714285714 71.4285714285714 71.4285714285714 71.4285714285714 71.4285714285714 71.4285714285714 71.4285714285714 71.4285714285714 71.4285714285714 71.4285714285714 71.4285714285714 71.4285714285714 71.4285714285714 71.4285714285714 71.4285714285714 71.4285714285714 71.4285714285714 71.4285714285714 82.8402366863905 82.8402366863905 82.8402366863905 82.8402366863905 82.8402366863905 82.8402366863905 82.8402366863905 82.8402366863905 82.8402366863905 82.8402366863905 87.2374798061389 87.2374798061389 87.2374798061389 87.2374798061389 87.2374798061389 87.2374798061389 87.2374798061389 87.2374798061389 87.2374798061389 87.2374798061389 87.2374798061389 87.2374798061389 87.2374798061389 87.2374798061389 87.2374798061389 92.7291886195996 92.7291886195996 92.7291886195996 92.7291886195996 92.7291886195996 92.7291886195996 92.7291886195996 92.7291886195996 92.7291886195996 92.7291886195996 92.7291886195996 92.7291886195996 92.7291886195996 90.4761904761905 90.4761904761905 90.4761904761905 90.4761904761905 -9999 -9999 -9999 -9999 -9999 -9999 -9999 -9999 -9999 -9999 -9999 -9999 -9999 -9999 -9999 -9999 -9999 -9999 -9999 -9999 -9999
-9999 -9999 -9999 -9999 -9999 -9999 -9999 -9999 -9999 -9999 -9999 -9999 -9999 -9999 -9999 -9999 -9999 -9999 -9999 -9999 -9999 -9999 -9999 -9999 -9999 -9999 -9999 -9999 -9999 -9999 -9999 -9999 -9999 -9999 -9999 -9999 -9999 -9999 -9999 -9999 -9999 -9999 -9999 -9999 -9999 -9999 -9999 -9999 -9999 -9999 -9999 -9999 -9999 -9999 -9999 -9999 -9999 -9999 -9999 -9999 -9999 -9999 -9999 -9999 -9999 -9999 -9999 -9999 -9999 -9999 -9999 -9999 -9999 -9999 -9999 -9999 -9999 -9999 -9999 -9999 -9999 -9999 -9999 -9999 -9999 -9999 -9999 -9999 -9999 -9999 -9999 -9999 -9999 -9999 -9999 -9999 -9999 -9999 -9999 -9999 -9999 -9999 -9999 -9999 -9999 -9999 -9999 -9999 -9999 -9999 -9999 -9999 -9999 -9999 -9999 -9999 -9999 -9999 -9999 -9999 -9999 -9999 -9999 -9999 -9999 -9999 -9999 -9999 -9999 -9999 -9999 -9999 -9999 -9999 -9999 -9999 -9999 -9999 -9999 -9999 -9999 -9999 -9999 -9999 -9999 -9999 -9999 -9999 -9999 -9999 -9999 -9999 -9999 -9999 -9999 -9999 -9999 -9999 -9999 -9999 -9999 -9999 -9999 -9999 -9999 -9999 -9999 -9999 -9999 -9999 -9999 -9999 -9999 -9999 -9999 -9999 -9999 -9999 -9999 -9999 -9999 -9999 -9999 -9999 -9999 -9999 -9999 -9999 -9999 -9999 -9999 -9999 -9999 -9999 -9999 -9999 -9999 -9999 -9999 -9999 -9999 -9999 -9999 -9999 -9999 -9999 -9999 -9999 -9999 -9999 -9999 -9999 -9999 -9999 -9999 -9999 -9999 -9999 -9999 -9999 -9999 -9999 -9999 -9999 -9999 -9999 -9999 -9999 -9999 -9999 -9999 -9999 -9999 -9999 -9999 -9999 -9999 -9999 -9999 -9999 -9999 -9999 -9999 -9999 -9999 -9999 -9999 -9999 -9999 -9999 -9999 -9999 -9999 -9999 -9999 -9999 -9999 -9999 -9999 -9999 -9999 -9999 -9999 -9999 -9999 -9999 -9999 -9999 -9999 -9999 -9999 -9999 -9999 -9999 -9999 -9999 -9999 -9999 -9999 -9999 -9999 -9999 -9999 -9999 80.2690582959641 65.5737704918033 65.5737704918033 65.5737704918033 65.5737704918033 75.7874015748031 87.9120879120879 79.8687089715536 91.869918699187 91.869918699187 91.1528150134048 82.1917808219178 88.4401114206128 77.9069767441861 85.4922279792746 85.4922279792746 85.4922279792746 85.4922279792746 85.4922279792746 85.4922279792746 -9999 -9999 -9999 -9999 -9999 -9999 -9999 -9999 -9999 -9999 43.6590436590437 43.6590436590437 43.6590436590437 43.6590436590437 43.6590436590437 43.6590436590437 43.6590436590437 71.4285714285714 71.4285714285714 71.4285714285714 71.4285714285714 71.4285714285714 71.4285714285714 71.4285714285714 71.4285714285714 71.4285714285714 71.4285714285714 71.4285714285714 71.4285714285714 71.4285714285714 71.4285714285714 71.4285714285714 71.4285714285714 71.4285714285714 71.4285714285714 71.4285714285714 71.4285714285714 71.4285714285714 71.4285714285714 71.4285714285714 71.4285714285714 71.4285714285714 71.4285714285714 71.4285714285714 71.4285714285714 71.4285714285714 71.4285714285714 82.8402366863905 82.8402366863905 82.8402366863905 82.8402366863905 82.8402366863905 82.8402366863905 82.8402366863905 82.8402366863905 82.8402366863905 82.8402366863905 82.8402366863905 82.8402366863905 82.8402366863905 87.2374798061389 87.2374798061389 87.2374798061389 87.2374798061389 87.2374798061389 87.2374798061389 87.2374798061389 87.2374798061389 87.2374798061389 87.2374798061389 87.2374798061389 87.2374798061389 87.2374798061389 92.7291886195996 92.7291886195996 92.7291886195996 92.7291886195996 92.7291886195996 92.7291886195996 92.7291886195996 92.7291886195996 92.7291886195996 92.7291886195996 92.7291886195996 92.7291886195996 90.4761904761905 90.4761904761905 90.4761904761905 90.4761904761905 -9999 -9999 -9999 -9999 -9999 -9999 -9999 -9999 -9999 -9999 -9999 -9999 -9999 -9999 -9999 -9999 -9999 -9999 -9999 -9999 -9999 -9999
-9999 -9999 -9999 -9999 -9999 -9999 -9999 -9999 -9999 -9999 -9999 -9999 -9999 -9999 -9999 -9999 -9999 -9999 -9999 -9999 -9999 -9999 -9999 -9999 -9999 -9999 -9999 -9999 -9999 -9999 -9999 -9999 -9999 -9999 -9999 -9999 -9999 -9999 -9999 -9999 -9999 -9999 -9999 -9999 -9999 -9999 -9999 -9999 -9999 -9999 -9999 -9999 -9999 -9999 -9999 -9999 -9999 -9999 -9999 -9999 -9999 -9999 -9999 -9999 -9999 -9999 -9999 -9999 -9999 -9999 -9999 -9999 -9999 -9999 -9999 -9999 -9999 -9999 -9999 -9999 -9999 -9999 -9999 -9999 -9999 -9999 -9999 -9999 -9999 -9999 -9999 -9999 -9999 -9999 -9999 -9999 -9999 -9999 -9999 -9999 -9999 -9999 -9999 -9999 -9999 -9999 -9999 -9999 -9999 -9999 -9999 -9999 -9999 -9999 -9999 -9999 -9999 -9999 -9999 -9999 -9999 -9999 -9999 -9999 -9999 -9999 -9999 -9999 -9999 -9999 -9999 -9999 -9999 -9999 -9999 -9999 -9999 -9999 -9999 -9999 -9999 -9999 -9999 -9999 -9999 -9999 -9999 -9999 -9999 -9999 -9999 -9999 -9999 -9999 -9999 -9999 -9999 -9999 -9999 -9999 -9999 -9999 -9999 -9999 -9999 -9999 -9999 -9999 -9999 -9999 -9999 -9999 -9999 -9999 -9999 -9999 -9999 -9999 -9999 -9999 -9999 -9999 -9999 -9999 -9999 -9999 -9999 -9999 -9999 -9999 -9999 -9999 -9999 -9999 -9999 -9999 -9999 -9999 -9999 -9999 -9999 -9999 -9999 -9999 -9999 -9999 -9999 -9999 -9999 -9999 -9999 -9999 -9999 -9999 -9999 -9999 -9999 -9999 -9999 -9999 -9999 -9999 -9999 -9999 -9999 -9999 -9999 -9999 -9999 -9999 -9999 -9999 -9999 -9999 -9999 -9999 -9999 -9999 -9999 -9999 -9999 -9999 -9999 -9999 -9999 -9999 -9999 -9999 -9999 -9999 -9999 -9999 -9999 -9999 -9999 -9999 -9999 -9999 -9999 -9999 -9999 -9999 -9999 -9999 -9999 -9999 -9999 -9999 -9999 -9999 -9999 -9999 -9999 -9999 -9999 -9999 -9999 -9999 -9999 -9999 -9999 -9999 -9999 -9999 64.5161290322581 65.5737704918033 65.5737704918033 65.5737704918033 65.5737704918033 87.9120879120879 81.419624217119 81.419624217119 79.8687089715536 91.869918699187 88.4401114206128 87.378640776699 87.378640776699 86.5921787709497 77.9069767441861 85.4922279792746 85.4922279792746 85.4922279792746 72.6577437858509 72.6577437858509 72.6577437858509 72.6577437858509 -9999 -9999 -9999 -9999 -9999 -9999 -9999 -9999 -9999 43.6590436590437 43.6590436590437 43.6590436590437 43.6590436590437 71.4285714285714 71.4285714285714 71.4285714285714 71.4285714285714 71.4285714285714 71.4285714285714 71.4285714285714 71.4285714285714 71.4285714285714 71.4285714285714 71.4285714285714 71.4285714285714 71.4285714285714 71.4285714285714 71.4285714285714 71.4285714285714 71.4285714285714 71.4285714285714 71.4285714285714 71.4285714285714 71.4285714285714 71.4285714285714 71.4285714285714 71.4285714285714 71.4285714285714 71.4285714285714 71.4285714285714 71.4285714285714 71.4285714285714 71.4285714285714 71.4285714285714 87.9218472468916 87.9218472468916 82.8402366863905 82.8402366863905 82.8402366863905 82.8402366863905 82.8402366863905 82.8402366863905 82.8402366863905 82.8402366863905 82.8402366863905 82.8402366863905 82.8402366863905 82.8402366863905 82.8402366863905 87.2374798061389 87.2374798061389 87.2374798061389 87.2374798061389 87.2374798061389 87.2374798061389 87.2374798061389 87.2374798061389 87.2374798061389 87.2374798061389 87.2374798061389 92.7291886195996 92.7291886195996 92.7291886195996 92.7291886195996 92.7291886195996 92.7291886195996 92.7291886195996 92.7291886195996 92.7291886195996 92.7291886195996 92.7291886195996 92.7291886195996 92.7291886195996 90.4761904761905 90.4761904761905 90.4761904761905 90.4761904761905 -9999 -9999 -9999 -9999 -9999 -9999 -9999 -9999 -9999 -9999 -9999 -9999 -9999 -9999 -9999 -9999 -9999 -9999 -9999 -9999 -9999 -9999
-9999 -9999 -9999 -9999 -9999 -9999 -9999 -9999 -9999 -9999 -9999 -9999 -9999 -9999 -9999 -9999 -9999 -9999 -9999 -9999 -9999 -9999 -9999 -9999 -9999 -9999 -9999 -9999 -9999 -9999 -9999 -9999 -9999 -9999 -9999 -9999 -9999 -9999 -9999 -9999 -9999 -9999 -9999 -9999 -9999 -9999 -9999 -9999 -9999 -9999 -9999 -9999 -9999 -9999 -9999 -9999 -9999 -9999 -9999 -9999 -9999 -9999 -9999 -9999 -9999 -9999 -9999 -9999 -9999 -9999 -9999 -9999 -9999 -9999 -9999 -9999 -9999 -9999 -9999 -9999 -9999 -9999 -9999 -9999 -9999 -9999 -9999 -9999 -9999 -9999 -9999 -9999 -9999 -9999 -9999 -9999 -9999 -9999 -9999 -9999 -9999 -9999 -9999 -9999 -9999 -9999 -9999 -9999 -9999 -9999 -9999 -9999 -9999 -9999 -9999 -9999 -9999 -9999 -9999 -9999 -9999 -9999 -9999 -9999 -9999 -9999 -9999 -9999 -9999 -9999 -9999 -9999 -9999 -9999 -9999 -9999 -9999 -9999 -9999 -9999 -9999 -9999 -9999 -9999 -9999 -9999 -9999 -9999 -9999 -9999 -9999 -9999 -9999 -9999 -9999 -9999 -9999 -9999 -9999 -9999 -9999 -9999 -9999 -9999 -9999 -9999 -9999 -9999 -9999 -9999 -9999 -9999 -9999 -9999 -9999 -9999 -9999 -9999 -9999 -9999 -9999 -9999 -9999 -9999 -9999 -9999 -9999 -9999 -9999 -9999 -9999 -9999 -9999 -9999 -9999 -9999 -9999 -9999 -9999 -9999 -9999 -9999 -9999 -9999 -9999 -9999 -9999 -9999 -9999 -9999 -9999 -9999 -9999 -9999 -9999 -9999 -9999 -9999 -9999 -9999 -9999 -9999 -9999 -9999 -9999 -9999 -9999 -9999 -9999 -9999 -9999 -9999 -9999 -9999 -9999 -9999 -9999 -9999 -9999 -9999 -9999 -9999 -9999 -9999 -9999 -9999 -9999 -9999 -9999 -9999 -9999 -9999 -9999 -9999 -9999 -9999 -9999 -9999 -9999 -9999 -9999 -9999 -9999 -9999 -9999 -9999 -9999 -9999 -9999 -9999 -9999 -9999 -9999 -9999 -9999 -9999 -9999 -9999 -9999 -9999 -9999 -9999 -9999 64.5161290322581 64.5161290322581 64.5161290322581 65.5737704918033 65.5737704918033 59.2369477911647 59.2369477911647 69.9523052464229 81.419624217119 81.419624217119 69.9523052464229 87.378640776699 87.8504672897196 86.6261398176292 88.9830508474576 85.4922279792746 85.4922279792746 72.6577437858509 72.6577437858509 72.6577437858509 72.6577437858509 72.6577437858509 72.6577437858509 72.6577437858509 -9999 -9999 -9999 -9999 -9999 -9999 -9999 -9999 -9999 43.6590436590437 43.6590436590437 71.4285714285714 71.4285714285714 71.4285714285714 71.4285714285714 71.4285714285714 71.4285714285714 71.4285714285714 71.4285714285714 71.4285714285714 71.4285714285714 71.4285714285714 71.4285714285714 71.4285714285714 71.4285714285714 71.4285714285714 71.4285714285714 71.4285714285714 71.4285714285714 71.4285714285714 71.4285714285714 71.4285714285714 71.4285714285714 71.4285714285714 71.4285714285714 71.4285714285714 71.4285714285714 71.4285714285714 71.4285714285714 71.4285714285714 71.4285714285714 71.4285714285714 87.9218472468916 87.9218472468916 87.9218472468916 87.9218472468916 90.4347826086957 82.8402366863905 82.8402366863905 82.8402366863905 82.8402366863905 82.8402366863905 82.8402366863905 82.8402366863905 82.8402366863905 82.8402366863905 82.8402366863905 87.2374798061389 87.2374798061389 87.2374798061389 87.2374798061389 87.2374798061389 87.2374798061389 87.2374798061389 87.2374798061389 87.2374798061389 87.2374798061389 87.2374798061389 87.2374798061389 92.7291886195996 92.7291886195996 92.7291886195996 92.7291886195996 92.7291886195996 92.7291886195996 92.7291886195996 92.7291886195996 92.7291886195996 92.7291886195996 92.7291886195996 92.7291886195996 90.4761904761905 90.4761904761905 90.4761904761905 90.4761904761905 -9999 -9999 -9999 -9999 -9999 -9999 -9999 -9999 -9999 -9999 -9999 -9999 -9999 -9999 -9999 -9999 -9999 -9999 -9999 -9999 -9999 -9999 -9999
-9999 -9999 -9999 -9999 -9999 -9999 -9999 -9999 -9999 -9999 -9999 -9999 -9999 -9999 -9999 -9999 -9999 -9999 -9999 -9999 -9999 -9999 -9999 -9999 -9999 -9999 -9999 -9999 -9999 -9999 -9999 -9999 -9999 -9999 -9999 -9999 -9999 -9999 -9999 -9999 -9999 -9999 -9999 -9999 -9999 -9999 -9999 -9999 -9999 -9999 -9999 -9999 -9999 -9999 -9999 -9999 -9999 -9999 -9999 -9999 -9999 -9999 -9999 -9999 -9999 -9999 -9999 -9999 -9999 -9999 -9999 -9999 -9999 -9999 -9999 -9999 -9999 -9999 -9999 -9999 -9999 -9999 -9999 -9999 -9999 -9999 -9999 -9999 -9999 -9999 -9999 -9999 -9999 -9999 -9999 -9999 -9999 -9999 -9999 -9999 -9999 -9999 -9999 -9999 -9999 -9999 -9999 -9999 -9999 -9999 -9999 -9999 -9999 -9999 -9999 -9999 -9999 -9999 -9999 -9999 -9999 -9999 -9999 -9999 -9999 -9999 -9999 -9999 -9999 -9999 -9999 -9999 -9999 -9999 -9999 -9999 -9999 -9999 -9999 -9999 -9999 -9999 -9999 -9999 -9999 -9999 -9999 -9999 -9999 -9999 -9999 -9999 -9999 -9999 -9999 -9999 -9999 -9999 -9999 -9999 -9999 -9999 -9999 -9999 -9999 -9999 -9999 -9999 -9999 -9999 -9999 -9999 -9999 -9999 -9999 -9999 -9999 -9999 -9999 -9999 -9999 -9999 -9999 -9999 -9999 -9999 -9999 -9999 -9999 -9999 -9999 -9999 -9999 -9999 -9999 -9999 -9999 -9999 -9999 -9999 -9999 -9999 -9999 -9999 -9999 -9999 -9999 -9999 -9999 -9999 -9999 -9999 -9999 -9999 -9999 -9999 -9999 -9999 -9999 -9999 -9999 -9999 -9999 -9999 -9999 -9999 -9999 -9999 -9999 -9999 -9999 -9999 -9999 -9999 -9999 -9999 -9999 -9999 -9999 -9999 -9999 -9999 -9999 -9999 -9999 -9999 -9999 -9999 -9999 -9999 -9999 -9999 -9999 -9999 -9999 -9999 -9999 -9999 -9999 -9999 -9999 -9999 -9999 -9999 -9999 -9999 -9999 -9999 -9999 -9999 -9999 -9999 -9999 -9999 -9999 -9999 -9999 -9999 -9999 -9999 -9999 -9999 65.439672801636 64.5161290322581 64.5161290322581 64.5161290322581 64.5161290322581 65.5737704918033 59.2369477911647 59.2369477911647 59.2369477911647 69.9523052464229 69.9523052464229 69.9523052464229 69.9523052464229 89.4495412844037 87.8504672897196 86.6261398176292 82.6645264847512 82.6645264847512 82.6645264847512 72.6577437858509 72.6577437858509 72.6577437858509 72.6577437858509 79.3388429752066 79.3388429752066 79.3388429752066 -9999 -9999 -9999 -9999 -9999 -9999 -9999 -9999 78.6264441591784 78.6264441591784 71.4285714285714 71.4285714285714 71.4285714285714 71.4285714285714 71.4285714285714 71.4285714285714 71.4285714285714 71.4285714285714 71.4285714285714 71.4285714285714 71.4285714285714 71.4285714285714 71.4285714285714 71.4285714285714 71.4285714285714 71.4285714285714 71.4285714285714 71.4285714285714 71.4285714285714 71.4285714285714 71.4285714285714 71.4285714285714 71.4285714285714 71.4285714285714 71.4285714285714 71.4285714285714 71.4285714285714 71.4285714285714 71.4285714285714 71.4285714285714 87.3239436619718 87.3239436619718 89.2448512585812 87.9218472468916 90.4347826086957 90.4347826086957 90.4347826086957 90.4347826086957 82.8402366863905 82.8402366863905 82.8402366863905 82.8402366863905 82.8402366863905 82.8402366863905 82.8402366863905 82.8402366863905 87.2374798061389 87.2374798061389 87.2374798061389 87.2374798061389 87.2374798061389 87.2374798061389 87.2374798061389 87.2374798061389 87.2374798061389 87.2374798061389 87.2374798061389 92.7291886195996 92.7291886195996 92.7291886195996 92.7291886195996 92.7291886195996 92.7291886195996 92.7291886195996 92.7291886195996 92.7291886195996 92.7291886195996 92.7291886195996 92.7291886195996 92.7291886195996 90.4761904761905 90.4761904761905 90.4761904761905 -9999 -9999 -9999 -9999 -9999 -9999 -9999 -9999 -9999 -9999 -9999 -9999 -9999 -9999 -9999 -9999 -9999 -9999 -9999 -9999 -9999 -9999 -9999 -9999
-9999 -9999 -9999 -9999 -9999 -9999 -9999 -9999 -9999 -9999 -9999 -9999 -9999 -9999 -9999 -9999 -9999 -9999 -9999 -9999 -9999 -9999 -9999 -9999 -9999 -9999 -9999 -9999 -9999 -9999 -9999 -9999 -9999 -9999 -9999 -9999 -9999 -9999 -9999 -9999 -9999 -9999 -9999 -9999 -9999 -9999 -9999 -9999 -9999 -9999 -9999 -9999 -9999 -9999 -9999 -9999 -9999 -9999 -9999 -9999 -9999 -9999 -9999 -9999 -9999 -9999 -9999 -9999 -9999 -9999 -9999 -9999 -9999 -9999 -9999 -9999 -9999 -9999 -9999 -9999 -9999 -9999 -9999 -9999 -9999 -9999 -9999 -9999 -9999 -9999 -9999 -9999 -9999 -9999 -9999 -9999 -9999 -9999 -9999 -9999 -9999 -9999 -9999 -9999 -9999 -9999 -9999 -9999 -9999 -9999 -9999 -9999 -9999 -9999 -9999 -9999 -9999 -9999 -9999 -9999 -9999 -9999 -9999 -9999 -9999 -9999 -9999 -9999 -9999 -9999 -9999 -9999 -9999 -9999 -9999 -9999 -9999 -9999 -9999 -9999 -9999 -9999 -9999 -9999 -9999 -9999 -9999 -9999 -9999 -9999 -9999 -9999 -9999 -9999 -9999 -9999 -9999 -9999 -9999 -9999 -9999 -9999 -9999 -9999 -9999 -9999 -9999 -9999 -9999 -9999 -9999 -9999 -9999 -9999 -9999 -9999 -9999 -9999 -9999 -9999 -9999 -9999 -9999 -9999 -9999 -9999 -9999 -9999 -9999 -9999 -9999 -9999 -9999 -9999 -9999 -9999 -9999 -9999 -9999 -9999 -9999 -9999 -9999 -9999 -9999 -9999 -9999 -9999 -9999 -9999 -9999 -9999 -9999 -9999 -9999 -9999 -9999 -9999 -9999 -9999 -9999 -9999 -9999 -9999 -9999 -9999 -9999 -9999 -9999 -9999 -9999 -9999 -9999 -9999 -9999 -9999 -9999 -9999 -9999 -9999 -9999 -9999 -9999 -9999 -9999 -9999 -9999 -9999 -9999 -9999 -9999 -9999 -9999 -9999 -9999 -9999 -9999 -9999 -9999 -9999 -9999 -9999 -9999 -9999 -9999 -9999 -9999 -9999 -9999 -9999 -9999 -9999 -9999 -9999 -9999 -9999 -9999 -9999 -9999 -9999 -9999 -9999 65.439672801636 65.439672801636 65.439672801636 64.5161290322581 64.5161290322581 64.5161290322581 59.2369477911647 68.7086092715232 68.7086092715232 68.7086092715232 69.9523052464229 69.9523052464229 69.9523052464229 69.9523052464229 74.7330960854093 74.7330960854093 74.7330960854093 70.2247191011236 82.6645264847512 73.6940298507463 72.6577437858509 79.3388429752066 79.3388429752066 79.3388429752066 79.3388429752066 79.3388429752066 -9999 -9999 -9999 -9999 -9999 -9999 -9999 78.6264441591784 78.6264441591784 78.6264441591784 78.6264441591784 71.4285714285714 71.4285714285714 71.4285714285714 71.4285714285714 71.4285714285714 71.4285714285714 71.4285714285714 71.4285714285714 71.4285714285714 71.4285714285714 71.4285714285714 71.4285714285714 71.4285714285714 71.4285714285714 71.4285714285714 71.4285714285714 71.4285714285714 71.4285714285714 71.4285714285714 71.4285714285714 71.4285714285714 71.4285714285714 71.4285714285714 71.4285714285714 71.4285714285714 71.4285714285714 71.4285714285714 71.4285714285714 86.6510538641686 87.3239436619718 87.3239436619718 87.3239436619718 92.9432013769363 89.2448512585812 90.4347826086957 90.4347826086957 90.4347826086957 82.8402366863905 82.8402366863905 82.8402366863905 82.8402366863905 82.8402366863905 82.8402366863905 82.8402366863905 82.8402366863905 92.245153220763 92.245153220763 92.245153220763 92.245153220763 87.2374798061389 87.2374798061389 87.2374798061389 87.2374798061389 87.2374798061389 87.2374798061389 87.2374798061389 92.7291886195996 92.7291886195996 92.7291886195996 92.7291886195996 92.7291886195996 92.7291886195996 92.7291886195996 92.7291886195996 92.7291886195996 92.7291886195996 92.7291886195996 92.7291886195996 90.4761904761905 90.4761904761905 90.4761904761905 90.4761904761905 -9999 -9999 -9999 -9999 -9999 -9999 -9999 -9999 -9999 -9999 -9999 -9999 -9999 -9999 -9999 -9999 -9999 -9999 -9999 -9999 -9999 -9999 -9999 -9999
-9999 -9999 -9999 -9999 -9999 -9999 -9999 -9999 -9999 -9999 -9999 -9999 -9999 -9999 -9999 -9999 -9999 -9999 -9999 -9999 -9999 -9999 -9999 -9999 -9999 -9999 -9999 -9999 -9999 -9999 -9999 -9999 -9999 -9999 -9999 -9999 -9999 -9999 -9999 -9999 -9999 -9999 -9999 -9999 -9999 -9999 -9999 -9999 -9999 -9999 -9999 -9999 -9999 -9999 -9999 -9999 -9999 -9999 -9999 -9999 -9999 -9999 -9999 -9999 -9999 -9999 -9999 -9999 -9999 -9999 -9999 -9999 -9999 -9999 -9999 -9999 -9999 -9999 -9999 -9999 -9999 -9999 -9999 -9999 -9999 -9999 -9999 -9999 -9999 -9999 -9999 -9999 -9999 -9999 -9999 -9999 -9999 -9999 -9999 -9999 -9999 -9999 -9999 -9999 -9999 -9999 -9999 -9999 -9999 -9999 -9999 -9999 -9999 -9999 -9999 -9999 -9999 -9999 -9999 -9999 -9999 -9999 -9999 -9999 -9999 -9999 -9999 -9999 -9999 -9999 -9999 -9999 -9999 -9999 -9999 -9999 -9999 -9999 -9999 -9999 -9999 -9999 -9999 -9999 -9999 -9999 -9999 -9999 -9999 -9999 -9999 -9999 -9999 -9999 -9999 -9999 -9999 -9999 -9999 -9999 -9999 -9999 -9999 -9999 -9999 -9999 -9999 -9999 -9999 -9999 -9999 -9999 -9999 -9999 -9999 -9999 -9999 -9999 -9999 -9999 -9999 -9999 -9999 -9999 -9999 -9999 -9999 -9999 -9999 -9999 -9999 -9999 -9999 -9999 -9999 -9999 -9999 -9999 -9999 -9999 -9999 -9999 -9999 -9999 -9999 -9999 -9999 -9999 -9999 -9999 -9999 -9999 -9999 -9999 -9999 -9999 -9999 -9999 -9999 -9999 -9999 -9999 -9999 -9999 -9999 -9999 -9999 -9999 -9999 -9999 -9999 -9999 -9999 -9999 -9999 -9999 -9999 -9999 -9999 -9999 -9999 -9999 -9999 -9999 -9999 -9999 -9999 -9999 -9999 -9999 -9999 -9999 -9999 -9999 -9999 -9999 -9999 -9999 -9999 -9999 -9999 -9999 -9999 -9999 -9999 -9999 -9999 -9999 -9999 -9999 -9999 -9999 -9999 -9999 -9999 -9999 -9999 -9999 -9999 -9999 -9999 -9999 65.439672801636 65.439672801636 74.2574257425743 74.2574257425743 78.8530465949821 78.8530465949821 78.8530465949821 68.7086092715232 68.7086092715232 68.7086092715232 68.7086092715232 69.9523052464229 65.8995815899582 65.8995815899582 63.169164882227 70.2247191011236 70.2247191011236 70.2247191011236 73.6940298507463 81.3725490196078 81.3725490196078 83.8383838383838 79.3388429752066 79.3388429752066 79.3388429752066 79.3388429752066 79.3388429752066 -9999 -9999 -9999 -9999 78.6264441591784 78.6264441591784 78.6264441591784 78.6264441591784 78.6264441591784 78.6264441591784 78.6264441591784 78.6264441591784 71.4285714285714 71.4285714285714 71.4285714285714 71.4285714285714 71.4285714285714 71.4285714285714 71.4285714285714 71.4285714285714 71.4285714285714 71.4285714285714 71.4285714285714 71.4285714285714 71.4285714285714 71.4285714285714 71.4285714285714 71.4285714285714 71.4285714285714 71.4285714285714 71.4285714285714 71.4285714285714 71.4285714285714 71.4285714285714 71.4285714285714 71.4285714285714 71.4285714285714 86.6510538641686 86.6510538641686 86.6510538641686 86.6510538641686 90.0990099009901 90.0990099009901 92.9432013769363 92.9432013769363 89.6907216494845 89.6907216494845 89.6907216494845 92.245153220763 92.245153220763 92.245153220763 92.245153220763 92.245153220763 92.245153220763 92.245153220763 92.245153220763 92.245153220763 92.245153220763 92.245153220763 92.245153220763 92.245153220763 92.245153220763 92.245153220763 92.245153220763 87.2374798061389 92.7291886195996 92.7291886195996 92.7291886195996 92.7291886195996 92.7291886195996 92.7291886195996 92.7291886195996 92.7291886195996 92.7291886195996 92.7291886195996 92.7291886195996 92.7291886195996 92.7291886195996 90.4761904761905 90.4761904761905 90.4761904761905 -9999 -9999 -9999 -9999 -9999 -9999 -9999 -9999 -9999 -9999 -9999 -9999 -9999 -9999 -9999 -9999 -9999 -9999 -9999 -9999 -9999 -9999 -9999 -9999 -9999
-9999 -9999 -9999 -9999 -9999 -9999 -9999 -9999 -9999 -9999 -9999 -9999 -9999 -9999 -9999 -9999 -9999 -9999 -9999 -9999 -9999 -9999 -9999 -9999 -9999 -9999 -9999 -9999 -9999 -9999 -9999 -9999 -9999 -9999 -9999 -9999 -9999 -9999 -9999 -9999 -9999 -9999 -9999 -9999 -9999 -9999 -9999 -9999 -9999 -9999 -9999 -9999 -9999 -9999 -9999 -9999 -9999 -9999 -9999 -9999 -9999 -9999 -9999 -9999 -9999 -9999 -9999 -9999 -9999 -9999 -9999 -9999 -9999 -9999 -9999 -9999 -9999 -9999 -9999 -9999 -9999 -9999 -9999 -9999 -9999 -9999 -9999 -9999 -9999 -9999 -9999 -9999 -9999 -9999 -9999 -9999 -9999 -9999 -9999 -9999 -9999 -9999 -9999 -9999 -9999 -9999 -9999 -9999 -9999 -9999 -9999 -9999 -9999 -9999 -9999 -9999 -9999 -9999 -9999 -9999 -9999 -9999 -9999 -9999 -9999 -9999 -9999 -9999 -9999 -9999 -9999 -9999 -9999 -9999 -9999 -9999 -9999 -9999 -9999 -9999 -9999 -9999 -9999 -9999 -9999 -9999 -9999 -9999 -9999 -9999 -9999 -9999 -9999 -9999 -9999 -9999 -9999 -9999 -9999 -9999 -9999 -9999 -9999 -9999 -9999 -9999 -9999 -9999 -9999 -9999 -9999 -9999 -9999 -9999 -9999 -9999 -9999 -9999 -9999 -9999 -9999 -9999 -9999 -9999 -9999 -9999 -9999 -9999 -9999 -9999 -9999 -9999 -9999 -9999 -9999 -9999 -9999 -9999 -9999 -9999 -9999 -9999 -9999 -9999 -9999 -9999 -9999 -9999 -9999 -9999 -9999 -9999 -9999 -9999 -9999 -9999 -9999 -9999 -9999 -9999 -9999 -9999 -9999 -9999 -9999 -9999 -9999 -9999 -9999 -9999 -9999 -9999 -9999 -9999 -9999 -9999 -9999 -9999 -9999 -9999 -9999 -9999 -9999 -9999 -9999 -9999 -9999 -9999 -9999 -9999 -9999 -9999 -9999 -9999 -9999 -9999 -9999 -9999 -9999 -9999 -9999 -9999 -9999 -9999 -9999 -9999 -9999 -9999 -9999 -9999 -9999 -9999 -9999 -9999 -9999 -9999 -9999 -9999 -9999 -9999 -9999 79.5107033639144 78.740157480315 65.439672801636 74.2574257425743 74.2574257425743 78.8530465949821 78.8530465949821 78.8530465949821 78.8530465949821 68.7086092715232 68.7086092715232 71.7761557177616 66.9745958429561 66.9745958429561 65.8995815899582 65.8995815899582 63.169164882227 73.6940298507463 81.3725490196078 71.9339622641509 65.0095602294455 65.0095602294455 81.2431842966194 83.8383838383838 79.3388429752066 79.3388429752066 79.3388429752066 79.3388429752066 79.3388429752066 78.6264441591784 78.6264441591784 78.6264441591784 78.6264441591784 78.6264441591784 78.6264441591784 78.6264441591784 78.6264441591784 78.6264441591784 78.6264441591784 78.6264441591784 78.6264441591784 78.6264441591784 78.6264441591784 71.4285714285714 71.4285714285714 71.4285714285714 71.4285714285714 71.4285714285714 71.4285714285714 71.4285714285714 71.4285714285714 71.4285714285714 71.4285714285714 71.4285714285714 71.4285714285714 71.4285714285714 71.4285714285714 71.4285714285714 71.4285714285714 71.4285714285714 71.4285714285714 71.4285714285714 71.4285714285714 71.4285714285714 82.1554770318021 82.1554770318021 82.1554770318021 87.0901639344262 86.3039399624765 86.3039399624765 95.4724409448819 95.4724409448819 88.7174541947927 88.7174541947927 88.7174541947927 92.245153220763 91.3654618473896 92.245153220763 92.245153220763 80.5687203791469 92.245153220763 92.245153220763 92.245153220763 92.245153220763 92.245153220763 92.245153220763 92.245153220763 92.245153220763 92.245153220763 92.245153220763 92.245153220763 92.245153220763 92.245153220763 81.7204301075269 81.7204301075269 85.4368932038835 85.4368932038835 85.4368932038835 92.7291886195996 92.7291886195996 92.7291886195996 92.7291886195996 92.7291886195996 92.7291886195996 92.7291886195996 92.7291886195996 90.4761904761905 90.4761904761905 90.4761904761905 -9999 -9999 -9999 -9999 -9999 -9999 -9999 -9999 -9999 -9999 -9999 -9999 -9999 -9999 -9999 -9999 -9999 -9999 -9999 -9999 -9999 -9999 -9999 -9999 -9999
-9999 -9999 -9999 -9999 -9999 -9999 -9999 -9999 -9999 -9999 -9999 -9999 -9999 -9999 -9999 -9999 -9999 -9999 -9999 -9999 -9999 -9999 -9999 -9999 -9999 -9999 -9999 -9999 -9999 -9999 -9999 -9999 -9999 -9999 -9999 -9999 -9999 -9999 -9999 -9999 -9999 -9999 -9999 -9999 -9999 -9999 -9999 -9999 -9999 -9999 -9999 -9999 -9999 -9999 -9999 -9999 -9999 -9999 -9999 -9999 -9999 -9999 -9999 -9999 -9999 -9999 -9999 -9999 -9999 -9999 -9999 -9999 -9999 -9999 -9999 -9999 -9999 -9999 -9999 -9999 -9999 -9999 -9999 -9999 -9999 -9999 -9999 -9999 -9999 -9999 -9999 -9999 -9999 -9999 -9999 -9999 -9999 -9999 -9999 -9999 -9999 -9999 -9999 -9999 -9999 -9999 -9999 -9999 -9999 -9999 -9999 -9999 -9999 -9999 -9999 -9999 -9999 -9999 -9999 -9999 -9999 -9999 -9999 -9999 -9999 -9999 -9999 -9999 -9999 -9999 -9999 -9999 -9999 -9999 -9999 -9999 -9999 -9999 -9999 -9999 -9999 -9999 -9999 -9999 -9999 -9999 -9999 -9999 -9999 -9999 -9999 -9999 -9999 -9999 -9999 -9999 -9999 -9999 -9999 -9999 -9999 -9999 -9999 -9999 -9999 -9999 -9999 -9999 -9999 -9999 -9999 -9999 -9999 -9999 -9999 -9999 -9999 -9999 -9999 -9999 -9999 -9999 -9999 -9999 -9999 -9999 -9999 -9999 -9999 -9999 -9999 -9999 -9999 -9999 -9999 -9999 -9999 -9999 -9999 -9999 -9999 -9999 -9999 -9999 -9999 -9999 -9999 -9999 -9999 -9999 -9999 -9999 -9999 -9999 -9999 -9999 -9999 -9999 -9999 -9999 -9999 -9999 -9999 -9999 -9999 -9999 -9999 -9999 -9999 -9999 -9999 -9999 -9999 -9999 -9999 -9999 -9999 -9999 -9999 -9999 -9999 -9999 -9999 -9999 -9999 -9999 -9999 -9999 -9999 -9999 -9999 -9999 -9999 -9999 -9999 -9999 -9999 -9999 -9999 -9999 -9999 -9999 -9999 -9999 -9999 -9999 -9999 -9999 -9999 -9999 -9999 -9999 -9999 -9999 -9999 -9999 -9999 -9999 -9999 -9999 79.5107033639144 79.5107033639144 78.740157480315 78.740157480315 74.2574257425743 63.8888888888889 63.8888888888889 64.0535372848948 64.0535372848948 64.0535372848948 64.0535372848948 71.7761557177616 71.7761557177616 64.0776699029126 66.9745958429561 73.8095238095238 73.8095238095238 65.8995815899582 63.169164882227 71.9339622641509 71.9339622641509 65.0095602294455 65.0095602294455 65.0095602294455 81.2431842966194 79.3388429752066 79.3388429752066 80.1056338028169 80.1056338028169 80.1056338028169 78.6264441591784 78.6264441591784 78.6264441591784 78.6264441591784 78.6264441591784 78.6264441591784 78.6264441591784 78.6264441591784 78.6264441591784 78.6264441591784 78.6264441591784 78.6264441591784 78.6264441591784 78.6264441591784 78.6264441591784 78.6264441591784 71.4285714285714 71.4285714285714 71.4285714285714 71.4285714285714 71.4285714285714 71.4285714285714 71.4285714285714 71.4285714285714 71.4285714285714 71.4285714285714 71.4285714285714 71.4285714285714 71.4285714285714 71.4285714285714 71.4285714285714 71.4285714285714 71.4285714285714 71.4285714285714 71.4285714285714 82.1554770318021 82.1554770318021 87.0901639344262 87.0901639344262 88.7305699481865 88.7305699481865 86.3039399624765 89.1768292682927 89.1768292682927 89.1768292682927 88.7174541947927 88.7174541947927 88.7174541947927 91.3654618473896 91.3654618473896 90.6593406593407 90.6593406593407 80.5687203791469 80.5687203791469 92.245153220763 92.245153220763 92.245153220763 92.245153220763 92.245153220763 92.245153220763 92.245153220763 92.245153220763 92.245153220763 81.7204301075269 81.7204301075269 85.4368932038835 85.4368932038835 89.5372233400402 89.5372233400402 90.9090909090909 90.9090909090909 94.7176684881603 94.7176684881603 93.6123348017621 93.6123348017621 92.7291886195996 90.4761904761905 90.4761904761905 90.4761904761905 90.4761904761905 -9999 -9999 -9999 -9999 -9999 -9999 -9999 -9999 -9999 -9999 -9999 -9999 -9999 -9999 -9999 -9999 -9999 -9999 -9999 -9999 -9999 -9999 -9999 -9999 -9999
-9999 -9999 -9999 -9999 -9999 -9999 -9999 -9999 -9999 -9999 -9999 -9999 -9999 -9999 -9999 -9999 -9999 -9999 -9999 -9999 -9999 -9999 -9999 -9999 -9999 -9999 -9999 -9999 -9999 -9999 -9999 -9999 -9999 -9999 -9999 -9999 -9999 -9999 -9999 -9999 -9999 -9999 -9999 -9999 -9999 -9999 -9999 -9999 -9999 -9999 -9999 -9999 -9999 -9999 -9999 -9999 -9999 -9999 -9999 -9999 -9999 -9999 -9999 -9999 -9999 -9999 -9999 -9999 -9999 -9999 -9999 -9999 -9999 -9999 -9999 -9999 -9999 -9999 -9999 -9999 -9999 -9999 -9999 -9999 -9999 -9999 -9999 -9999 -9999 -9999 -9999 -9999 -9999 -9999 -9999 -9999 -9999 -9999 -9999 -9999 -9999 -9999 -9999 -9999 -9999 -9999 -9999 -9999 -9999 -9999 -9999 -9999 -9999 -9999 -9999 -9999 -9999 -9999 -9999 -9999 -9999 -9999 -9999 -9999 -9999 -9999 -9999 -9999 -9999 -9999 -9999 -9999 -9999 -9999 -9999 -9999 -9999 -9999 -9999 -9999 -9999 -9999 -9999 -9999 -9999 -9999 -9999 -9999 -9999 -9999 -9999 -9999 -9999 -9999 -9999 -9999 -9999 -9999 -9999 -9999 -9999 -9999 -9999 -9999 -9999 -9999 -9999 -9999 -9999 -9999 -9999 -9999 -9999 -9999 -9999 -9999 -9999 -9999 -9999 -9999 -9999 -9999 -9999 -9999 -9999 -9999 -9999 -9999 -9999 -9999 -9999 -9999 -9999 -9999 -9999 -9999 -9999 -9999 -9999 -9999 -9999 -9999 -9999 -9999 -9999 -9999 -9999 -9999 -9999 -9999 -9999 -9999 -9999 -9999 -9999 -9999 -9999 -9999 -9999 -9999 -9999 -9999 -9999 -9999 -9999 -9999 -9999 -9999 -9999 -9999 -9999 -9999 -9999 -9999 -9999 -9999 -9999 -9999 -9999 -9999 -9999 -9999 -9999 -9999 -9999 -9999 -9999 -9999 -9999 -9999 -9999 -9999 -9999 -9999 -9999 -9999 -9999 -9999 -9999 -9999 -9999 -9999 -9999 -9999 -9999 -9999 -9999 -9999 -9999 -9999 -9999 -9999 -9999 -9999 -9999 -9999 -9999 -9999 -9999 -9999 79.5107033639144 79.5107033639144 79.5107033639144 78.740157480315 78.740157480315 63.8888888888889 64.0535372848948 64.0535372848948 64.0535372848948 64.0535372848948 79.136690647482 79.136690647482 71.7761557177616 64.0776699029126 64.0776699029126 73.8095238095238 64.3015521064302 65.8995815899582 65.8995815899582 65.8995815899582 80.1056338028169 80.1056338028169 81.2431842966194 81.2431842966194 80.1056338028169 80.1056338028169 65.1260504201681 65.1260504201681 80.1056338028169 65.1260504201681 65.1260504201681 78.6264441591784 78.6264441591784 78.6264441591784 78.6264441591784 78.6264441591784 78.6264441591784 78.6264441591784 78.6264441591784 78.6264441591784 78.6264441591784 78.6264441591784 78.6264441591784 78.6264441591784 78.6264441591784 78.6264441591784 71.4285714285714 71.4285714285714 71.4285714285714 71.4285714285714 71.4285714285714 71.4285714285714 71.4285714285714 71.4285714285714 71.4285714285714 71.4285714285714 71.4285714285714 71.4285714285714 71.4285714285714 71.4285714285714 71.4285714285714 71.4285714285714 71.4285714285714 71.4285714285714 85.6481481481482 85.6481481481482 82.3863636363636 87.0901639344262 87.0901639344262 86.9565217391304 88.7305699481865 88.7305699481865 88.7305699481865 89.1768292682927 89.1768292682927 89.1768292682927 87.4587458745875 88.7174541947927 91.3654618473896 91.3654618473896 90.6593406593407 90.6593406593407 80.5687203791469 80.5687203791469 92.8571428571429 92.8571428571429 92.245153220763 91.8196994991653 91.8196994991653 91.8196994991653 92.245153220763 92.245153220763 92.245153220763 88.8704318936877 88.8704318936877 89.5372233400402 89.5372233400402 89.5372233400402 90.9090909090909 90.9090909090909 94.7176684881603 94.7176684881603 93.6123348017621 93.6123348017621 87.1478873239437 87.1478873239437 87.1478873239437 95.2380952380952 95.2380952380952 -9999 -9999 -9999 -9999 -9999 -9999 -9999 -9999 -9999 -9999 -9999 -9999 -9999 -9999 -9999 -9999 -9999 -9999 -9999 -9999 -9999 -9999 -9999 -9999 -9999 -9999
-9999 -9999 -9999 -9999 -9999 -9999 -9999 -9999 -9999 -9999 -9999 -9999 -9999 -9999 -9999 -9999 -9999 -9999 -9999 -9999 -9999 -9999 -9999 -9999 -9999 -9999 -9999 -9999 -9999 -9999 -9999 -9999 -9999 -9999 -9999 -9999 -9999 -9999 -9999 -9999 -9999 -9999 -9999 -9999 -9999 -9999 -9999 -9999 -9999 -9999 -9999 -9999 -9999 -9999 -9999 -9999 -9999 -9999 -9999 -9999 -9999 -9999 -9999 -9999 -9999 -9999 -9999 -9999 -9999 -9999 -9999 -9999 -9999 -9999 -9999 -9999 -9999 -9999 -9999 -9999 -9999 -9999 -9999 -9999 -9999 -9999 -9999 -9999 -9999 -9999 -9999 -9999 -9999 -9999 -9999 -9999 -9999 -9999 -9999 -9999 -9999 -9999 -9999 -9999 -9999 -9999 -9999 -9999 -9999 -9999 -9999 -9999 -9999 -9999 -9999 -9999 -9999 -9999 -9999 -9999 -9999 -9999 -9999 -9999 -9999 -9999 -9999 -9999 -9999 -9999 -9999 -9999 -9999 -9999 -9999 -9999 -9999 -9999 -9999 -9999 -9999 -9999 -9999 -9999 -9999 -9999 -9999 -9999 -9999 -9999 -9999 -9999 -9999 -9999 -9999 -9999 -9999 -9999 -9999 -9999 -9999 -9999 -9999 -9999 -9999 -9999 -9999 -9999 -9999 -9999 -9999 -9999 -9999 -9999 -9999 -9999 -9999 -9999 -9999 -9999 -9999 -9999 -9999 -9999 -9999 -9999 -9999 -9999 -9999 -9999 -9999 -9999 -9999 -9999 -9999 -9999 -9999 -9999 -9999 -9999 -9999 -9999 -9999 -9999 -9999 -9999 -9999 -9999 -9999 -9999 -9999 -9999 -9999 -9999 -9999 -9999 -9999 -9999 -9999 -9999 -9999 -9999 -9999 -9999 -9999 -9999 -9999 -9999 -9999 -9999 -9999 -9999 -9999 -9999 -9999 -9999 -9999 -9999 -9999 -9999 -9999 -9999 -9999 -9999 -9999 -9999 -9999 -9999 -9999 -9999 -9999 -9999 -9999 -9999 -9999 -9999 -9999 -9999 -9999 -9999 -9999 -9999 -9999 -9999 -9999 -9999 -9999 -9999 -9999 -9999 -9999 -9999 -9999 -9999 -9999 -9999 -9999 -9999 -9999 79.5107033639144 85.8369098712446 79.5107033639144 71.4285714285714 71.4285714285714 71.4285714285714 71.4285714285714 63.8888888888889 64.0535372848948 64.0535372848948 81.3449023861171 79.136690647482 81.3449023861171 79.136690647482 73.7483085250338 64.0776699029126 73.7483085250338 64.3015521064302 64.3015521064302 77.6 77.6 77.6 80.1056338028169 80.1056338028169 80.1056338028169 80.1056338028169 65.1260504201681 65.1260504201681 65.1260504201681 65.1260504201681 65.1260504201681 65.1260504201681 65.1260504201681 65.1260504201681 65.1260504201681 78.6264441591784 78.6264441591784 78.6264441591784 78.6264441591784 78.6264441591784 78.6264441591784 78.6264441591784 78.6264441591784 78.6264441591784 78.6264441591784 78.6264441591784 78.6264441591784 71.4285714285714 71.4285714285714 71.4285714285714 71.4285714285714 71.4285714285714 71.4285714285714 71.4285714285714 71.4285714285714 71.4285714285714 71.4285714285714 71.4285714285714 71.4285714285714 71.4285714285714 71.4285714285714 71.4285714285714 71.4285714285714 71.4285714285714 85.6481481481482 85.6481481481482 85.6481481481482 82.3863636363636 82.3863636363636 82.3863636363636 86.9565217391304 86.9565217391304 88.7305699481865 88.3297644539615 88.3297644539615 88.3297644539615 87.4587458745875 87.4587458745875 87.4587458745875 87.4587458745875 88.7174541947927 88.7174541947927 89.3186003683241 89.3186003683241 89.3186003683241 89.3186003683241 92.8571428571429 89.3186003683241 91.8196994991653 89.3186003683241 91.8196994991653 88.4691848906561 88.4691848906561 88.8704318936877 88.8704318936877 88.8704318936877 85.7438016528926 85.6854838709677 86.4312267657993 86.4312267657993 90.9090909090909 94.105480868666 94.105480868666 93.6123348017621 94.105480868666 92.3076923076923 92.3076923076923 95.2380952380952 95.2380952380952 95.2380952380952 -9999 -9999 -9999 -9999 -9999 -9999 -9999 -9999 -9999 -9999 -9999 -9999 -9999 -9999 -9999 -9999 -9999 -9999 -9999 -9999 -9999 -9999 -9999 -9999 -9999 -9999
-9999 -9999 -9999 -9999 -9999 -9999 -9999 -9999 -9999 -9999 -9999 -9999 -9999 -9999 -9999 -9999 -9999 -9999 -9999 -9999 -9999 -9999 -9999 -9999 -9999 -9999 -9999 -9999 -9999 -9999 -9999 -9999 -9999 -9999 -9999 -9999 -9999 -9999 -9999 -9999 -9999 -9999 -9999 -9999 -9999 -9999 -9999 -9999 -9999 -9999 -9999 -9999 -9999 -9999 -9999 -9999 -9999 -9999 -9999 -9999 -9999 -9999 -9999 -9999 -9999 -9999 -9999 -9999 -9999 -9999 -9999 -9999 -9999 -9999 -9999 -9999 -9999 -9999 -9999 -9999 -9999 -9999 -9999 -9999 -9999 -9999 -9999 -9999 -9999 -9999 -9999 -9999 -9999 -9999 -9999 -9999 -9999 -9999 -9999 -9999 -9999 -9999 -9999 -9999 -9999 -9999 -9999 -9999 -9999 -9999 -9999 -9999 -9999 -9999 -9999 -9999 -9999 -9999 -9999 -9999 -9999 -9999 -9999 -9999 -9999 -9999 -9999 -9999 -9999 -9999 -9999 -9999 -9999 -9999 -9999 -9999 -9999 -9999 -9999 -9999 -9999 -9999 -9999 -9999 -9999 -9999 -9999 -9999 -9999 -9999 -9999 -9999 -9999 -9999 -9999 -9999 -9999 -9999 -9999 -9999 -9999 -9999 -9999 -9999 -9999 -9999 -9999 -9999 -9999 -9999 -9999 -9999 -9999 -9999 -9999 -9999 -9999 -9999 -9999 -9999 -9999 -9999 -9999 -9999 -9999 -9999 -9999 -9999 -9999 -9999 -9999 -9999 -9999 -9999 -9999 -9999 -9999 -9999 -9999 -9999 -9999 -9999 -9999 -9999 -9999 -9999 -9999 -9999 -9999 -9999 -9999 -9999 -9999 -9999 -9999 -9999 -9999 -9999 -9999 -9999 -9999 -9999 -9999 -9999 -9999 -9999 -9999 -9999 -9999 -9999 -9999 -9999 -9999 -9999 -9999 -9999 -9999 -9999 -9999 -9999 -9999 -9999 -9999 -9999 -9999 -9999 -9999 -9999 -9999 -9999 -9999 -9999 -9999 -9999 -9999 -9999 -9999 -9999 -9999 -9999 -9999 -9999 -9999 -9999 -9999 -9999 -9999 -9999 -9999 -9999 -9999 -9999 -9999 -9999 -9999 -9999 -9999 -9999 88.1877022653722 79.5107033639144 85.8369098712446 85.8369098712446 79.5107033639144 71.4285714285714 80.945558739255 80.945558739255 80.945558739255 63.8888888888889 63.8888888888889 63.8888888888889 81.3449023861171 81.3449023861171 84.1836734693878 84.1836734693878 73.7483085250338 73.7483085250338 73.7483085250338 77.6 80.1056338028169 80.1056338028169 80.1056338028169 80.1056338028169 80.1056338028169 80.1056338028169 65.1260504201681 65.1260504201681 65.1260504201681 65.1260504201681 65.1260504201681 65.1260504201681 65.1260504201681 65.1260504201681 65.1260504201681 65.1260504201681 65.1260504201681 65.1260504201681 78.6264441591784 78.6264441591784 78.6264441591784 78.6264441591784 78.6264441591784 78.6264441591784 78.6264441591784 78.6264441591784 78.6264441591784 80.1825293350717 71.4285714285714 71.4285714285714 71.4285714285714 63.5910224438903 63.5910224438903 71.4285714285714 71.4285714285714 71.4285714285714 71.4285714285714 71.4285714285714 71.4285714285714 71.4285714285714 71.4285714285714 71.4285714285714 71.4285714285714 71.4285714285714 85.6481481481482 82.48730964467 82.48730964467 85.6481481481482 82.3863636363636 82.3863636363636 82.3863636363636 79.5880149812734 79.5880149812734 83.7520938023451 83.7520938023451 83.7520938023451 88.3297644539615 88.3297644539615 88.3297644539615 88.3297644539615 87.4384236453202 87.4384236453202 88.7174541947927 86.8421052631579 89.3186003683241 89.3186003683241 89.3186003683241 89.3186003683241 89.3186003683241 89.3186003683241 89.3186003683241 83.0090791180285 88.4691848906561 80.7622504537205 80.7622504537205 85.7438016528926 85.7438016528926 85.6854838709677 85.6854838709677 85.6854838709677 85.6854838709677 94.105480868666 94.105480868666 94.105480868666 94.105480868666 92.3076923076923 92.3076923076923 95.2380952380952 95.2380952380952 95.2380952380952 -9999 -9999 -9999 -9999 -9999 -9999 -9999 -9999 -9999 -9999 -9999 -9999 -9999 -9999 -9999 -9999 -9999 -9999 -9999 -9999 -9999 -9999 -9999 -9999 -9999 -9999 -9999
-9999 -9999 -9999 -9999 -9999 -9999 -9999 -9999 -9999 -9999 -9999 -9999 -9999 -9999 -9999 -9999 -9999 -9999 -9999 -9999 -9999 -9999 -9999 -9999 -9999 -9999 -9999 -9999 -9999 -9999 -9999 -9999 -9999 -9999 -9999 -9999 -9999 -9999 -9999 -9999 -9999 -9999 -9999 -9999 -9999 -9999 -9999 -9999 -9999 -9999 -9999 -9999 -9999 -9999 -9999 -9999 -9999 -9999 -9999 -9999 -9999 -9999 -9999 -9999 -9999 -9999 -9999 -9999 -9999 -9999 -9999 -9999 -9999 -9999 -9999 -9999 -9999 -9999 -9999 -9999 -9999 -9999 -9999 -9999 -9999 -9999 -9999 -9999 -9999 -9999 -9999 -9999 -9999 -9999 -9999 -9999 -9999 -9999 -9999 -9999 -9999 -9999 -9999 -9999 -9999 -9999 -9999 -9999 -9999 -9999 -9999 -9999 -9999 -9999 -9999 -9999 -9999 -9999 -9999 -9999 -9999 -9999 -9999 -9999 -9999 -9999 -9999 -9999 -9999 -9999 -9999 -9999 -9999 -9999 -9999 -9999 -9999 -9999 -9999 -9999 -9999 -9999 -9999 -9999 -9999 -9999 -9999 -9999 -9999 -9999 -9999 -9999 -9999 -9999 -9999 -9999 -9999 -9999 -9999 -9999 -9999 -9999 -9999 -9999 -9999 -9999 -9999 -9999 -9999 -9999 -9999 -9999 -9999 -9999 -9999 -9999 -9999 -9999 -9999 -9999 -9999 -9999 -9999 -9999 -9999 -9999 -9999 -9999 -9999 -9999 -9999 -9999 -9999 -9999 -9999 -9999 -9999 -9999 -9999 -9999 -9999 -9999 -9999 -9999 -9999 -9999 -9999 -9999 -9999 -9999 -9999 -9999 -9999 -9999 -9999 -9999 -9999 -9999 -9999 -9999 -9999 -9999 -9999 -9999 -9999 -9999 -9999 -9999 -9999 -9999 -9999 -9999 -9999 -9999 -9999 -9999 -9999 -9999 -9999 -9999 -9999 -9999 -9999 -9999 -9999 -9999 -9999 -9999 -9999 -9999 -9999 -9999 -9999 -9999 -9999 -9999 -9999 -9999 -9999 -9999 -9999 -9999 -9999 -9999 -9999 -9999 -9999 -9999 -9999 -9999 -9999 -9999 -9999 -9999 -9999 -9999 -9999 -9999 88.1877022653722 88.1877022653722 85.8369098712446 85.8369098712446 85.8369098712446 80.945558739255 80.945558739255 80.945558739255 80.945558739255 81.9964349376114 63.8888888888889 63.8888888888889 63.8888888888889 63.8888888888889 78.8381742738589 78.8381742738589 78.8381742738589 80.1056338028169 80.1056338028169 80.1056338028169 80.1056338028169 80.1056338028169 80.1056338028169 80.1056338028169 80.1056338028169 65.1260504201681 65.1260504201681 65.1260504201681 65.1260504201681 65.1260504201681 65.1260504201681 65.1260504201681 65.1260504201681 65.1260504201681 65.1260504201681 65.1260504201681 65.1260504201681 65.1260504201681 65.1260504201681 43.1578947368421 78.6264441591784 78.6264441591784 78.6264441591784 78.6264441591784 78.6264441591784 80.1825293350717 80.1825293350717 80.1825293350717 80.1825293350717 80.1825293350717 75.3968253968254 75.3968253968254 63.5910224438903 63.5910224438903 71.4285714285714 71.4285714285714 71.4285714285714 71.4285714285714 70.6921944035346 71.4285714285714 71.4285714285714 71.4285714285714 71.4285714285714 85.6481481481482 85.6481481481482 82.48730964467 82.48730964467 82.48730964467 82.3863636363636 82.3863636363636 79.5880149812734 79.5880149812734 79.5880149812734 83.7520938023451 83.7520938023451 83.7520938023451 83.7520938023451 83.7520938023451 83.7520938023451 88.7265135699374 88.7265135699374 88.7265135699374 85.2272727272727 86.8421052631579 86.8421052631579 88.0782918149466 89.3186003683241 89.3186003683241 89.3186003683241 83.0090791180285 83.0090791180285 83.0090791180285 83.0090791180285 80.7622504537205 80.7622504537205 88.8671875 88.8671875 88.8671875 88.8671875 79.7872340425532 85.6854838709677 94.105480868666 94.105480868666 94.105480868666 94.105480868666 95.2380952380952 95.2380952380952 95.2380952380952 95.2380952380952 95.2380952380952 -9999 -9999 -9999 -9999 -9999 -9999 -9999 -9999 -9999 -9999 -9999 -9999 -9999 -9999 -9999 -9999 -9999 -9999 -9999 -9999 -9999 -9999 -9999 -9999 -9999 -9999 -9999
-9999 -9999 -9999 -9999 -9999 -9999 -9999 -9999 -9999 -9999 -9999 -9999 -9999 -9999 -9999 -9999 -9999 -9999 -9999 -9999 -9999 -9999 -9999 -9999 -9999 -9999 -9999 -9999 -9999 -9999 -9999 -9999 -9999 -9999 -9999 -9999 -9999 -9999 -9999 -9999 -9999 -9999 -9999 -9999 -9999 -9999 -9999 -9999 -9999 -9999 -9999 -9999 -9999 -9999 -9999 -9999 -9999 -9999 -9999 -9999 -9999 -9999 -9999 -9999 -9999 -9999 -9999 -9999 -9999 -9999 -9999 -9999 -9999 -9999 -9999 -9999 -9999 -9999 -9999 -9999 -9999 -9999 -9999 -9999 -9999 -9999 -9999 -9999 -9999 -9999 -9999 -9999 -9999 -9999 -9999 -9999 -9999 -9999 -9999 -9999 -9999 -9999 -9999 -9999 -9999 -9999 -9999 -9999 -9999 -9999 -9999 -9999 -9999 -9999 -9999 -9999 -9999 -9999 -9999 -9999 -9999 -9999 -9999 -9999 -9999 -9999 -9999 -9999 -9999 -9999 -9999 -9999 -9999 -9999 -9999 -9999 -9999 -9999 -9999 -9999 -9999 -9999 -9999 -9999 -9999 -9999 -9999 -9999 -9999 -9999 -9999 -9999 -9999 -9999 -9999 -9999 -9999 -9999 -9999 -9999 -9999 -9999 -9999 -9999 -9999 -9999 -9999 -9999 -9999 -9999 -9999 -9999 -9999 -9999 -9999 -9999 -9999 -9999 -9999 -9999 -9999 -9999 -9999 -9999 -9999 -9999 -9999 -9999 -9999 -9999 -9999 -9999 -9999 -9999 -9999 -9999 -9999 -9999 -9999 -9999 -9999 -9999 -9999 -9999 -9999 -9999 -9999 -9999 -9999 -9999 -9999 -9999 -9999 -9999 -9999 -9999 -9999 -9999 -9999 -9999 -9999 -9999 -9999 -9999 -9999 -9999 -9999 -9999 -9999 -9999 -9999 -9999 -9999 -9999 -9999 -9999 -9999 -9999 -9999 -9999 -9999 -9999 -9999 -9999 -9999 -9999 -9999 -9999 -9999 -9999 -9999 -9999 -9999 -9999 -9999 -9999 -9999 -9999 -9999 -9999 -9999 -9999 -9999 -9999 -9999 -9999 -9999 -9999 -9999 -9999 -9999 -9999 -9999 -9999 -9999 -9999 -9999 88.1877022653722 88.1877022653722 88.1877022653722 85.0694444444444 85.8369098712446 83.3333333333333 83.3333333333333 80.945558739255 81.9964349376114 81.9964349376114 81.9964349376114 81.9964349376114 63.8888888888889 63.8888888888889 63.8888888888889 74.7899159663866 74.7899159663866 74.7899159663866 74.7899159663866 74.7899159663866 80.1056338028169 80.1056338028169 80.1056338028169 80.1056338028169 80.1056338028169 65.1260504201681 65.1260504201681 65.1260504201681 65.1260504201681 65.1260504201681 65.1260504201681 65.1260504201681 65.1260504201681 65.1260504201681 65.1260504201681 65.1260504201681 65.1260504201681 43.1578947368421 43.1578947368421 43.1578947368421 43.1578947368421 43.1578947368421 43.1578947368421 78.6264441591784 83.9041095890411 83.9041095890411 83.9041095890411 83.9041095890411 83.9041095890411 80.1825293350717 80.1825293350717 75.3968253968254 75.3968253968254 75.3968253968254 71.4285714285714 71.4285714285714 71.4285714285714 71.4285714285714 70.6921944035346 70.6921944035346 70.6921944035346 71.4285714285714 71.4285714285714 71.4285714285714 85.6481481481482 85.6481481481482 79.5228628230616 79.7413793103448 82.48730964467 80.4511278195489 80.4511278195489 80.4511278195489 80.4511278195489 79.5880149812734 81.9277108433735 81.9277108433735 81.9277108433735 77.4193548387097 77.4193548387097 77.4193548387097 88.7265135699374 88.7265135699374 86.4093959731544 86.4093959731544 85.2272727272727 85.2272727272727 88.0782918149466 88.0782918149466 88.0782918149466 89.8148148148148 89.8148148148148 89.8148148148148 89.8148148148148 91.4634146341463 91.4634146341463 91.4634146341463 91.4634146341463 91.4634146341463 91.4634146341463 79.7872340425532 79.7872340425532 93.4959349593496 94.105480868666 94.105480868666 94.105480868666 91.4893617021277 91.4893617021277 95.2380952380952 95.2380952380952 95.2380952380952 -9999 -9999 -9999 -9999 -9999 -9999 -9999 -9999 -9999 -9999 -9999 -9999 -9999 -9999 -9999 -9999 -9999 -9999 -9999 -9999 -9999 -9999 -9999 -9999 -9999 -9999 -9999 -9999
-9999 -9999 -9999 -9999 -9999 -9999 -9999 -9999 -9999 -9999 -9999 -9999 -9999 -9999 -9999 -9999 -9999 -9999 -9999 -9999 -9999 -9999 -9999 -9999 -9999 -9999 -9999 -9999 -9999 -9999 -9999 -9999 -9999 -9999 -9999 -9999 -9999 -9999 -9999 -9999 -9999 -9999 -9999 -9999 -9999 -9999 -9999 -9999 -9999 -9999 -9999 -9999 -9999 -9999 -9999 -9999 -9999 -9999 -9999 -9999 -9999 -9999 -9999 -9999 -9999 -9999 -9999 -9999 -9999 -9999 -9999 -9999 -9999 -9999 -9999 -9999 -9999 -9999 -9999 -9999 -9999 -9999 -9999 -9999 -9999 -9999 -9999 -9999 -9999 -9999 -9999 -9999 -9999 -9999 -9999 -9999 -9999 -9999 -9999 -9999 -9999 -9999 -9999 -9999 -9999 -9999 -9999 -9999 -9999 -9999 -9999 -9999 -9999 -9999 -9999 -9999 -9999 -9999 -9999 -9999 -9999 -9999 -9999 -9999 -9999 -9999 -9999 -9999 -9999 -9999 -9999 -9999 -9999 -9999 -9999 -9999 -9999 -9999 -9999 -9999 -9999 -9999 -9999 -9999 -9999 -9999 -9999 -9999 -9999 -9999 -9999 -9999 -9999 -9999 -9999 -9999 -9999 -9999 -9999 -9999 -9999 -9999 -9999 -9999 -9999 -9999 -9999 -9999 -9999 -9999 -9999 -9999 -9999 -9999 -9999 -9999 -9999 -9999 -9999 -9999 -9999 -9999 -9999 -9999 -9999 -9999 -9999 -9999 -9999 -9999 -9999 -9999 -9999 -9999 -9999 -9999 -9999 -9999 -9999 -9999 -9999 -9999 -9999 -9999 -9999 -9999 -9999 -9999 -9999 -9999 -9999 -9999 -9999 -9999 -9999 -9999 -9999 -9999 -9999 -9999 -9999 -9999 -9999 -9999 -9999 -9999 -9999 -9999 -9999 -9999 -9999 -9999 -9999 -9999 -9999 -9999 -9999 -9999 -9999 -9999 -9999 -9999 -9999 -9999 -9999 -9999 -9999 -9999 -9999 -9999 -9999 -9999 -9999 -9999 -9999 -9999 -9999 -9999 -9999 -9999 -9999 -9999 -9999 -9999 -9999 -9999 -9999 -9999 -9999 -9999 -9999 -9999 -9999 -9999 -9999 -9999 -9999 85.1648351648352 85.1648351648352 85.0694444444444 85.0694444444444 85.0694444444444 83.3333333333333 83.3333333333333 83.3333333333333 81.9964349376114 81.9964349376114 81.9964349376114 81.9964349376114 78.4132841328413 80.0865800865801 80.0865800865801 72.6027397260274 72.6027397260274 70.1388888888889 70.1388888888889 70.1388888888889 74.7899159663866 77.6595744680851 80.1056338028169 80.1056338028169 80.1056338028169 65.1260504201681 65.1260504201681 65.1260504201681 65.1260504201681 65.1260504201681 65.1260504201681 65.1260504201681 65.1260504201681 65.1260504201681 65.1260504201681 65.1260504201681 43.1578947368421 43.1578947368421 43.1578947368421 43.1578947368421 43.1578947368421 43.1578947368421 43.1578947368421 43.1578947368421 43.1578947368421 43.1578947368421 83.9041095890411 83.9041095890411 83.9041095890411 83.9041095890411 70.694087403599 70.694087403599 70.694087403599 76.4006791171477 76.4006791171477 71.4285714285714 71.4285714285714 -9999 70.6921944035346 70.6921944035346 70.6921944035346 70.6921944035346 70.6921944035346 82.1812596006144 82.1812596006144 85.6481481481482 85.6481481481482 79.7413793103448 79.7413793103448 80.6111696522655 76.6609880749574 76.6609880749574 76.6609880749574 80.7860262008734 80.7860262008734 81.9277108433735 77.4193548387097 77.4193548387097 85.480093676815 77.7777777777778 77.7777777777778 88.7265135699374 77.7777777777778 77.7777777777778 86.4093959731544 86.4093959731544 85.2272727272727 88.0782918149466 88.0782918149466 87.7016129032258 89.8148148148148 87.7016129032258 89.8148148148148 90.293453724605 90.293453724605 90.293453724605 91.4634146341463 91.4634146341463 91.4634146341463 79.7872340425532 79.7872340425532 93.4959349593496 93.4959349593496 91.4096916299559 94.105480868666 91.4893617021277 91.4893617021277 93.4150076569678 93.4150076569678 95.2380952380952 -9999 -9999 -9999 -9999 -9999 -9999 -9999 -9999 -9999 -9999 -9999 -9999 -9999 -9999 -9999 -9999 -9999 -9999 -9999 -9999 -9999 -9999 -9999 -9999 -9999 -9999 -9999 -9999
-9999 -9999 -9999 -9999 -9999 -9999 -9999 -9999 -9999 -9999 -9999 -9999 -9999 -9999 -9999 -9999 -9999 -9999 -9999 -9999 -9999 -9999 -9999 -9999 -9999 -9999 -9999 -9999 -9999 -9999 -9999 -9999 -9999 -9999 -9999 -9999 -9999 -9999 -9999 -9999 -9999 -9999 -9999 -9999 -9999 -9999 -9999 -9999 -9999 -9999 -9999 -9999 -9999 -9999 -9999 -9999 -9999 -9999 -9999 -9999 -9999 -9999 -9999 -9999 -9999 -9999 -9999 -9999 -9999 -9999 -9999 -9999 -9999 -9999 -9999 -9999 -9999 -9999 -9999 -9999 -9999 -9999 -9999 -9999 -9999 -9999 -9999 -9999 -9999 -9999 -9999 -9999 -9999 -9999 -9999 -9999 -9999 -9999 -9999 -9999 -9999 -9999 -9999 -9999 -9999 -9999 -9999 -9999 -9999 -9999 -9999 -9999 -9999 -9999 -9999 -9999 -9999 -9999 -9999 -9999 -9999 -9999 -9999 -9999 -9999 -9999 -9999 -9999 -9999 -9999 -9999 -9999 -9999 -9999 -9999 -9999 -9999 -9999 -9999 -9999 -9999 -9999 -9999 -9999 -9999 -9999 -9999 -9999 -9999 -9999 -9999 -9999 -9999 -9999 -9999 -9999 -9999 -9999 -9999 -9999 -9999 -9999 -9999 -9999 -9999 -9999 -9999 -9999 -9999 -9999 -9999 -9999 -9999 -9999 -9999 -9999 -9999 -9999 -9999 -9999 -9999 -9999 -9999 -9999 -9999 -9999 -9999 -9999 -9999 -9999 -9999 -9999 -9999 -9999 -9999 -9999 -9999 -9999 -9999 -9999 -9999 -9999 -9999 -9999 -9999 -9999 -9999 -9999 -9999 -9999 -9999 -9999 -9999 -9999 -9999 -9999 -9999 -9999 -9999 -9999 -9999 -9999 -9999 -9999 -9999 -9999 -9999 -9999 -9999 -9999 -9999 -9999 -9999 -9999 -9999 -9999 -9999 -9999 -9999 -9999 -9999 -9999 -9999 -9999 -9999 -9999 -9999 -9999 -9999 -9999 -9999 -9999 -9999 -9999 -9999 -9999 -9999 -9999 -9999 -9999 -9999 -9999 -9999 -9999 -9999 -9999 -9999 -9999 -9999 -9999 -9999 -9999 -9999 -9999 -9999 -9999 88.1877022653722 85.1648351648352 85.1648351648352 85.0694444444444 85.0694444444444 87.0337477797513 87.0337477797513 83.3333333333333 83.3333333333333 83.3333333333333 87.6865671641791 82.9831932773109 78.4132841328413 78.4132841328413 78.4132841328413 72.6027397260274 72.6027397260274 72.6027397260274 72.6027397260274 70.1388888888889 77.2727272727273 77.2727272727273 77.2727272727273 77.6595744680851 80.1056338028169 65.1260504201681 65.1260504201681 65.1260504201681 65.1260504201681 65.1260504201681 65.1260504201681 65.1260504201681 65.1260504201681 65.1260504201681 65.1260504201681 63.6531365313653 43.1578947368421 43.1578947368421 43.1578947368421 43.1578947368421 43.1578947368421 43.1578947368421 43.1578947368421 43.1578947368421 43.1578947368421 43.1578947368421 43.1578947368421 43.1578947368421 65.3370013755158 83.9041095890411 86.3247863247863 86.3247863247863 86.3247863247863 70.694087403599 76.4006791171477 76.4006791171477 76.4006791171477 -9999 -9999 -9999 70.6921944035346 70.6921944035346 70.6921944035346 82.1812596006144 82.1812596006144 82.1812596006144 82.1812596006144 82.1812596006144 85.6481481481482 85.6481481481482 76.6609880749574 76.6609880749574 76.6609880749574 80.6111696522655 80.7860262008734 80.7860262008734 80.7860262008734 85.480093676815 85.480093676815 85.480093676815 77.7777777777778 77.7777777777778 77.7777777777778 85.6777493606138 85.6777493606138 85.6777493606138 85.6777493606138 85.2272727272727 34.0346534653465 87.7016129032258 87.7016129032258 87.7016129032258 87.7016129032258 88.6194029850746 88.6194029850746 92.1348314606742 90.293453724605 92.1348314606742 93.5185185185185 93.5185185185185 91.4634146341463 93.4959349593496 93.4959349593496 91.4096916299559 91.4096916299559 95.2380952380952 95.2380952380952 93.4150076569678 93.4150076569678 93.4150076569678 95.2380952380952 -9999 -9999 -9999 -9999 -9999 -9999 -9999 -9999 -9999 -9999 -9999 -9999 -9999 -9999 -9999 -9999 -9999 -9999 -9999 -9999 -9999 -9999 -9999 -9999 -9999 -9999 -9999 -9999
-9999 -9999 -9999 -9999 -9999 -9999 -9999 -9999 -9999 -9999 -9999 -9999 -9999 -9999 -9999 -9999 -9999 -9999 -9999 -9999 -9999 -9999 -9999 -9999 -9999 -9999 -9999 -9999 -9999 -9999 -9999 -9999 -9999 -9999 -9999 -9999 -9999 -9999 -9999 -9999 -9999 -9999 -9999 -9999 -9999 -9999 -9999 -9999 -9999 -9999 -9999 -9999 -9999 -9999 -9999 -9999 -9999 -9999 -9999 -9999 -9999 -9999 -9999 -9999 -9999 -9999 -9999 -9999 -9999 -9999 -9999 -9999 -9999 -9999 -9999 -9999 -9999 -9999 -9999 -9999 -9999 -9999 -9999 -9999 -9999 -9999 -9999 -9999 -9999 -9999 -9999 -9999 -9999 -9999 -9999 -9999 -9999 -9999 -9999 -9999 -9999 -9999 -9999 -9999 -9999 -9999 -9999 -9999 -9999 -9999 -9999 -9999 -9999 -9999 -9999 -9999 -9999 -9999 -9999 -9999 -9999 -9999 -9999 -9999 -9999 -9999 -9999 -9999 -9999 -9999 -9999 -9999 -9999 -9999 -9999 -9999 -9999 -9999 -9999 -9999 -9999 -9999 -9999 -9999 -9999 -9999 -9999 -9999 -9999 -9999 -9999 -9999 -9999 -9999 -9999 -9999 -9999 -9999 -9999 -9999 -9999 -9999 -9999 -9999 -9999 -9999 -9999 -9999 -9999 -9999 -9999 -9999 -9999 -9999 -9999 -9999 -9999 -9999 -9999 -9999 -9999 -9999 -9999 -9999 -9999 -9999 -9999 -9999 -9999 -9999 -9999 -9999 -9999 -9999 -9999 -9999 -9999 -9999 -9999 -9999 -9999 -9999 -9999 -9999 -9999 -9999 -9999 -9999 -9999 -9999 -9999 -9999 -9999 -9999 -9999 -9999 -9999 -9999 -9999 -9999 -9999 -9999 -9999 -9999 -9999 -9999 -9999 -9999 -9999 -9999 -9999 -9999 -9999 -9999 -9999 -9999 -9999 -9999 -9999 -9999 -9999 -9999 -9999 -9999 -9999 -9999 -9999 -9999 -9999 -9999 -9999 -9999 -9999 -9999 -9999 -9999 -9999 -9999 -9999 -9999 -9999 -9999 -9999 -9999 -9999 -9999 -9999 -9999 -9999 -9999 -9999 -9999 -9999 -9999 -9999 -9999 88.1877022653722 88.1877022653722 65.3153153153153 85.0694444444444 85.0694444444444 87.0337477797513 87.0337477797513 81.1567164179104 87.6865671641791 87.6865671641791 83.1556503198294 82.9831932773109 82.9831932773109 78.4132841328413 84.8765432098765 84.8765432098765 72.6027397260274 72.6027397260274 81.2146892655367 81.2146892655367 77.2727272727273 77.2727272727273 77.2727272727273 77.2727272727273 65.1260504201681 65.1260504201681 65.1260504201681 65.1260504201681 65.1260504201681 65.1260504201681 65.1260504201681 65.1260504201681 65.1260504201681 65.1260504201681 65.1260504201681 63.6531365313653 63.6531365313653 63.6531365313653 43.1578947368421 43.1578947368421 43.1578947368421 43.1578947368421 43.1578947368421 43.1578947368421 43.1578947368421 43.1578947368421 43.1578947368421 65.3370013755158 65.3370013755158 65.3370013755158 65.3370013755158 86.3247863247863 86.3247863247863 84.0064620355412 84.0064620355412 84.0064620355412 79.0513833992095 -9999 -9999 70.6921944035346 70.6921944035346 70.6921944035346 82.1812596006144 82.1812596006144 82.1812596006144 82.1812596006144 82.1812596006144 82.1812596006144 82.1812596006144 82.1812596006144 76.6609880749574 76.6609880749574 76.6609880749574 76.6609880749574 80.7860262008734 80.7860262008734 74.468085106383 74.468085106383 85.480093676815 85.480093676815 77.7777777777778 77.7777777777778 85.6777493606138 77.7777777777778 77.7777777777778 77.7777777777778 85.6777493606138 34.0346534653465 92.1908893709328 92.1908893709328 92.1908893709328 92.1908893709328 88.6194029850746 88.6194029850746 88.6194029850746 88.6194029850746 88.6194029850746 92.1348314606742 92.1348314606742 95.0920245398773 93.5185185185185 93.5185185185185 93.5185185185185 94.5736434108527 91.4096916299559 95.2380952380952 95.2380952380952 95.2380952380952 95.2380952380952 95.2380952380952 89.527027027027 -9999 -9999 -9999 -9999 -9999 -9999 -9999 -9999 -9999 -9999 -9999 -9999 -9999 -9999 -9999 -9999 -9999 -9999 -9999 -9999 -9999 -9999 -9999 -9999 -9999 -9999 -9999 -9999
-9999 -9999 -9999 -9999 -9999 -9999 -9999 -9999 -9999 -9999 -9999 -9999 -9999 -9999 -9999 -9999 -9999 -9999 -9999 -9999 -9999 -9999 -9999 -9999 -9999 -9999 -9999 -9999 -9999 -9999 -9999 -9999 -9999 -9999 -9999 -9999 -9999 -9999 -9999 -9999 -9999 -9999 -9999 -9999 -9999 -9999 -9999 -9999 -9999 -9999 -9999 -9999 -9999 -9999 -9999 -9999 -9999 -9999 -9999 -9999 -9999 -9999 -9999 -9999 -9999 -9999 -9999 -9999 -9999 -9999 -9999 -9999 -9999 -9999 -9999 -9999 -9999 -9999 -9999 -9999 -9999 -9999 -9999 -9999 -9999 -9999 -9999 -9999 -9999 -9999 -9999 -9999 -9999 -9999 -9999 -9999 -9999 -9999 -9999 -9999 -9999 -9999 -9999 -9999 -9999 -9999 -9999 -9999 -9999 -9999 -9999 -9999 -9999 -9999 -9999 -9999 -9999 -9999 -9999 -9999 -9999 -9999 -9999 -9999 -9999 -9999 -9999 -9999 -9999 -9999 -9999 -9999 -9999 -9999 -9999 -9999 -9999 -9999 -9999 -9999 -9999 -9999 -9999 -9999 -9999 -9999 -9999 -9999 -9999 -9999 -9999 -9999 -9999 -9999 -9999 -9999 -9999 -9999 -9999 -9999 -9999 -9999 -9999 -9999 -9999 -9999 -9999 -9999 -9999 -9999 -9999 -9999 -9999 -9999 -9999 -9999 -9999 -9999 -9999 -9999 -9999 -9999 -9999 -9999 -9999 -9999 -9999 -9999 -9999 -9999 -9999 -9999 -9999 -9999 -9999 -9999 -9999 -9999 -9999 -9999 -9999 -9999 -9999 -9999 -9999 -9999 -9999 -9999 -9999 -9999 -9999 -9999 -9999 -9999 -9999 -9999 -9999 -9999 -9999 -9999 -9999 -9999 -9999 -9999 -9999 -9999 -9999 -9999 -9999 -9999 -9999 -9999 -9999 -9999 -9999 -9999 -9999 -9999 -9999 -9999 -9999 -9999 -9999 -9999 -9999 -9999 -9999 -9999 -9999 -9999 -9999 -9999 -9999 -9999 -9999 -9999 -9999 -9999 -9999 -9999 -9999 -9999 -9999 -9999 -9999 -9999 -9999 -9999 -9999 -9999 -9999 -9999 -9999 -9999 -9999 -9999 88.1877022653722 65.3153153153153 65.3153153153153 65.3153153153153 85.0694444444444 81.1567164179104 81.1567164179104 81.1567164179104 85 83.1556503198294 83.1556503198294 83.1556503198294 81.7717206132879 81.7717206132879 84.8765432098765 84.8765432098765 81.2146892655367 81.2146892655367 77.2727272727273 77.2727272727273 77.2727272727273 77.2727272727273 77.2727272727273 46.8409586056645 46.8409586056645 65.1260504201681 65.1260504201681 63.7393767705383 63.7393767705383 63.7393767705383 65.1260504201681 65.1260504201681 63.2368703108253 61.9047619047619 65.1260504201681 65.1260504201681 54.089709762533 58.2750582750583 58.2750582750583 58.2750582750583 43.1578947368421 43.1578947368421 69.4444444444444 69.4444444444444 69.4444444444444 69.4444444444444 65.3370013755158 65.3370013755158 65.3370013755158 65.3370013755158 65.3370013755158 65.3370013755158 65.3370013755158 65.3370013755158 84.0064620355412 81.5508021390374 79.0513833992095 79.0513833992095 79.0513833992095 -9999 -9999 82.1812596006144 82.1812596006144 82.1812596006144 82.1812596006144 82.1812596006144 82.1812596006144 82.1812596006144 82.1812596006144 82.1812596006144 82.1812596006144 82.1812596006144 76.6609880749574 80.7860262008734 80.7860262008734 80.7860262008734 74.468085106383 74.468085106383 74.468085106383 74.468085106383 77.7777777777778 77.7777777777778 85.6777493606138 85.6777493606138 85.6777493606138 85.6777493606138 34.0346534653465 34.0346534653465 34.0346534653465 34.0346534653465 34.0346534653465 34.0346534653465 89.9122807017544 89.9122807017544 91.254752851711 91.254752851711 92.1348314606742 92.1348314606742 95.0920245398773 95.0920245398773 95.0920245398773 95.0920245398773 94.5736434108527 94.5736434108527 92.2431865828092 95.2380952380952 95.2380952380952 95.2380952380952 95.2380952380952 95.2380952380952 89.527027027027 -9999 -9999 -9999 -9999 -9999 -9999 -9999 -9999 -9999 -9999 -9999 -9999 -9999 -9999 -9999 -9999 -9999 -9999 -9999 -9999 -9999 -9999 -9999 -9999 -9999 -9999 -9999 -9999
-9999 -9999 -9999 -9999 -9999 -9999 -9999 -9999 -9999 -9999 -9999 -9999 -9999 -9999 -9999 -9999 -9999 -9999 -9999 -9999 -9999 -9999 -9999 -9999 -9999 -9999 -9999 -9999 -9999 -9999 -9999 -9999 -9999 -9999 -9999 -9999 -9999 -9999 -9999 -9999 -9999 -9999 -9999 -9999 -9999 -9999 -9999 -9999 -9999 -9999 -9999 -9999 -9999 -9999 -9999 -9999 -9999 -9999 -9999 -9999 -9999 -9999 -9999 -9999 -9999 -9999 -9999 -9999 -9999 -9999 -9999 -9999 -9999 -9999 -9999 -9999 -9999 -9999 -9999 -9999 -9999 -9999 -9999 -9999 -9999 -9999 -9999 -9999 -9999 -9999 -9999 -9999 -9999 -9999 -9999 -9999 -9999 -9999 -9999 -9999 -9999 -9999 -9999 -9999 -9999 -9999 -9999 -9999 -9999 -9999 -9999 -9999 -9999 -9999 -9999 -9999 -9999 -9999 -9999 -9999 -9999 -9999 -9999 -9999 -9999 -9999 -9999 -9999 -9999 -9999 -9999 -9999 -9999 -9999 -9999 -9999 -9999 -9999 -9999 -9999 -9999 -9999 -9999 -9999 -9999 -9999 -9999 -9999 -9999 -9999 -9999 -9999 -9999 -9999 -9999 -9999 -9999 -9999 -9999 -9999 -9999 -9999 -9999 -9999 -9999 -9999 -9999 -9999 -9999 -9999 -9999 -9999 -9999 -9999 -9999 -9999 -9999 -9999 -9999 -9999 -9999 -9999 -9999 -9999 -9999 -9999 -9999 -9999 -9999 -9999 -9999 -9999 -9999 -9999 -9999 -9999 -9999 -9999 -9999 -9999 -9999 -9999 -9999 -9999 -9999 -9999 -9999 -9999 -9999 -9999 -9999 -9999 -9999 -9999 -9999 -9999 -9999 -9999 -9999 -9999 -9999 -9999 -9999 -9999 -9999 -9999 -9999 -9999 -9999 -9999 -9999 -9999 -9999 -9999 -9999 -9999 -9999 -9999 -9999 -9999 -9999 -9999 -9999 -9999 -9999 -9999 -9999 -9999 -9999 -9999 -9999 -9999 -9999 -9999 -9999 -9999 -9999 -9999 -9999 -9999 -9999 -9999 -9999 -9999 -9999 -9999 -9999 -9999 -9999 -9999 -9999 -9999 -9999 -9999 -9999 88.1877022653722 80.3921568627451 80.3921568627451 65.3153153153153 59.5942519019442 59.5942519019442 81.1567164179104 81.1567164179104 85 85 85 81.7717206132879 81.7717206132879 81.7717206132879 81.7717206132879 77.1470160116448 81.2146892655367 81.2146892655367 81.2146892655367 77.2727272727273 77.2727272727273 77.2727272727273 77.2727272727273 46.8409586056645 46.8409586056645 46.8409586056645 46.8409586056645 63.7393767705383 63.7393767705383 63.7393767705383 63.7393767705383 63.2368703108253 61.9047619047619 47.071129707113 47.071129707113 47.071129707113 47.071129707113 54.089709762533 62.2710622710623 62.2710622710623 58.2750582750583 58.2750582750583 69.4444444444444 69.4444444444444 69.4444444444444 69.4444444444444 65.3370013755158 65.3370013755158 65.3370013755158 65.3370013755158 65.3370013755158 65.3370013755158 65.3370013755158 65.3370013755158 65.3370013755158 65.3370013755158 65.3370013755158 81.5508021390374 81.5508021390374 79.0513833992095 79.0513833992095 82.1812596006144 82.1812596006144 82.1812596006144 82.1812596006144 82.1812596006144 82.1812596006144 82.1812596006144 82.1812596006144 82.1812596006144 82.1812596006144 82.1812596006144 82.1812596006144 82.1812596006144 82.1812596006144 74.468085106383 74.468085106383 74.468085106383 74.468085106383 74.468085106383 82.2102425876011 82.2102425876011 82.2102425876011 85.6777493606138 85.6777493606138 85.6777493606138 85.6777493606138 34.0346534653465 34.0346534653465 34.0346534653465 34.0346534653465 34.0346534653465 85.4503464203233 89.9122807017544 89.9122807017544 91.254752851711 91.254752851711 91.254752851711 91.254752851711 91.254752851711 95.0920245398773 95.0920245398773 94.5736434108527 94.5736434108527 94.5736434108527 92.2431865828092 92.2431865828092 91.9540229885057 91.9540229885057 91.9540229885057 89.527027027027 89.527027027027 -9999 -9999 -9999 -9999 -9999 -9999 -9999 -9999 -9999 -9999 -9999 -9999 -9999 -9999 -9999 -9999 -9999 -9999 -9999 -9999 -9999 -9999 -9999 -9999 -9999 -9999 -9999 -9999
-9999 -9999 -9999 -9999 -9999 -9999 -9999 -9999 -9999 -9999 -9999 -9999 -9999 -9999 -9999 -9999 -9999 -9999 -9999 -9999 -9999 -9999 -9999 -9999 -9999 -9999 -9999 -9999 -9999 -9999 -9999 -9999 -9999 -9999 -9999 -9999 -9999 -9999 -9999 -9999 -9999 -9999 -9999 -9999 -9999 -9999 -9999 -9999 -9999 -9999 -9999 -9999 -9999 -9999 -9999 -9999 -9999 -9999 -9999 -9999 -9999 -9999 -9999 -9999 -9999 -9999 -9999 -9999 -9999 -9999 -9999 -9999 -9999 -9999 -9999 -9999 -9999 -9999 -9999 -9999 -9999 -9999 -9999 -9999 -9999 -9999 -9999 -9999 -9999 -9999 -9999 -9999 -9999 -9999 -9999 -9999 -9999 -9999 -9999 -9999 -9999 -9999 -9999 -9999 -9999 -9999 -9999 -9999 -9999 -9999 -9999 -9999 -9999 -9999 -9999 -9999 -9999 -9999 -9999 -9999 -9999 -9999 -9999 -9999 -9999 -9999 -9999 -9999 -9999 -9999 -9999 -9999 -9999 -9999 -9999 -9999 -9999 -9999 -9999 -9999 -9999 -9999 -9999 -9999 -9999 -9999 -9999 -9999 -9999 -9999 -9999 -9999 -9999 -9999 -9999 -9999 -9999 -9999 -9999 -9999 -9999 -9999 -9999 -9999 -9999 -9999 -9999 -9999 -9999 -9999 -9999 -9999 -9999 -9999 -9999 -9999 -9999 -9999 -9999 -9999 -9999 -9999 -9999 -9999 -9999 -9999 -9999 -9999 -9999 -9999 -9999 -9999 -9999 -9999 -9999 -9999 -9999 -9999 -9999 -9999 -9999 -9999 -9999 -9999 -9999 -9999 -9999 -9999 -9999 -9999 -9999 -9999 -9999 -9999 -9999 -9999 -9999 -9999 -9999 -9999 -9999 -9999 -9999 -9999 -9999 -9999 -9999 -9999 -9999 -9999 -9999 -9999 -9999 -9999 -9999 -9999 -9999 -9999 -9999 -9999 -9999 -9999 -9999 -9999 -9999 -9999 -9999 -9999 -9999 -9999 -9999 -9999 -9999 -9999 -9999 -9999 -9999 -9999 -9999 -9999 -9999 -9999 -9999 -9999 -9999 -9999 -9999 -9999 -9999 -9999 -9999 -9999 -9999 -9999 88.1877022653722 80.3921568627451 80.3921568627451 80.3921568627451 87.2093023255814 59.5942519019442 59.5942519019442 59.5942519019442 81.1567164179104 81.1567164179104 71.5547703180212 71.5547703180212 71.5547703180212 81.7717206132879 77.1470160116448 77.1470160116448 77.1470160116448 77.1470160116448 79.2563600782779 77.2727272727273 77.2727272727273 77.2727272727273 77.2727272727273 46.8409586056645 46.8409586056645 46.8409586056645 46.8409586056645 46.8409586056645 46.8409586056645 63.7393767705383 63.7393767705383 63.7393767705383 57.0342205323194 57.0342205323194 63.2368703108253 61.9047619047619 61.9047619047619 47.071129707113 62.2710622710623 64.1025641025641 64.1025641025641 64.1025641025641 59.0200445434298 69.4444444444444 69.4444444444444 69.4444444444444 65.3370013755158 65.3370013755158 65.3370013755158 65.3370013755158 65.3370013755158 65.3370013755158 65.3370013755158 65.3370013755158 65.3370013755158 65.3370013755158 65.3370013755158 65.3370013755158 65.3370013755158 65.3370013755158 79.0513833992095 82.1812596006144 82.1812596006144 82.1812596006144 82.1812596006144 82.1812596006144 82.1812596006144 82.1812596006144 82.1812596006144 82.1812596006144 82.1812596006144 82.1812596006144 81.5485996705107 81.5485996705107 82.1812596006144 82.1812596006144 82.1812596006144 82.1812596006144 74.468085106383 74.468085106383 82.2102425876011 82.2102425876011 82.2102425876011 82.2102425876011 85.6777493606138 85.6777493606138 85.6777493606138 34.0346534653465 34.0346534653465 34.0346534653465 34.0346534653465 34.0346534653465 34.0346534653465 86.2676056338028 85.4503464203233 85.4503464203233 85.4503464203233 89.9122807017544 89.9122807017544 91.3654618473896 91.3654618473896 89.6381578947368 89.6381578947368 89.6381578947368 94.5736434108527 96.6386554621849 96.6386554621849 92.2431865828092 89.527027027027 91.9540229885057 91.9540229885057 89.527027027027 89.527027027027 -9999 -9999 -9999 -9999 -9999 -9999 -9999 -9999 -9999 -9999 -9999 -9999 -9999 -9999 -9999 -9999 -9999 -9999 -9999 -9999 -9999 -9999 -9999 -9999 -9999 -9999 -9999 -9999
-9999 -9999 -9999 -9999 -9999 -9999 -9999 -9999 -9999 -9999 -9999 -9999 -9999 -9999 -9999 -9999 -9999 -9999 -9999 -9999 -9999 -9999 -9999 -9999 -9999 -9999 -9999 -9999 -9999 -9999 -9999 -9999 -9999 -9999 -9999 -9999 -9999 -9999 -9999 -9999 -9999 -9999 -9999 -9999 -9999 -9999 -9999 -9999 -9999 -9999 -9999 -9999 -9999 -9999 -9999 -9999 -9999 -9999 -9999 -9999 -9999 -9999 -9999 -9999 -9999 -9999 -9999 -9999 -9999 -9999 -9999 -9999 -9999 -9999 -9999 -9999 -9999 -9999 -9999 -9999 -9999 -9999 -9999 -9999 -9999 -9999 -9999 -9999 -9999 -9999 -9999 -9999 -9999 -9999 -9999 -9999 -9999 -9999 -9999 -9999 -9999 -9999 -9999 -9999 -9999 -9999 -9999 -9999 -9999 -9999 -9999 -9999 -9999 -9999 -9999 -9999 -9999 -9999 -9999 -9999 -9999 -9999 -9999 -9999 -9999 -9999 -9999 -9999 -9999 -9999 -9999 -9999 -9999 -9999 -9999 -9999 -9999 -9999 -9999 -9999 -9999 -9999 -9999 -9999 -9999 -9999 -9999 -9999 -9999 -9999 -9999 -9999 -9999 -9999 -9999 -9999 -9999 -9999 -9999 -9999 -9999 -9999 -9999 -9999 -9999 -9999 -9999 -9999 -9999 -9999 -9999 -9999 -9999 -9999 -9999 -9999 -9999 -9999 -9999 -9999 -9999 -9999 -9999 -9999 -9999 -9999 -9999 -9999 -9999 -9999 -9999 -9999 -9999 -9999 -9999 -9999 -9999 -9999 -9999 -9999 -9999 -9999 -9999 -9999 -9999 -9999 -9999 -9999 -9999 -9999 -9999 -9999 -9999 -9999 -9999 -9999 -9999 -9999 -9999 -9999 -9999 -9999 -9999 -9999 -9999 -9999 -9999 -9999 -9999 -9999 -9999 -9999 -9999 -9999 -9999 -9999 -9999 -9999 -9999 -9999 -9999 -9999 -9999 -9999 -9999 -9999 -9999 -9999 -9999 -9999 -9999 -9999 -9999 -9999 -9999 -9999 -9999 -9999 -9999 -9999 -9999 -9999 -9999 -9999 -9999 -9999 -9999 -9999 -9999 -9999 -9999 -9999 -9999 -9999 -9999 75.2688172043011 80.3921568627451 81.7204301075269 81.7204301075269 87.2093023255814 59.5942519019442 59.5942519019442 59.5942519019442 59.5942519019442 71.5547703180212 71.5547703180212 80.3059273422562 80.3059273422562 77.1470160116448 77.1470160116448 77.1470160116448 79.2563600782779 79.2563600782779 79.2563600782779 77.2727272727273 77.2727272727273 77.2727272727273 -9999 46.8409586056645 46.8409586056645 46.8409586056645 46.8409586056645 46.8409586056645 46.8409586056645 63.7393767705383 63.7393767705383 57.0342205323194 57.0342205323194 63.2368703108253 38.7263339070568 38.7263339070568 38.7263339070568 38.7263339070568 38.7263339070568 64.1025641025641 59.0200445434298 69.4444444444444 63.4379263301501 63.4379263301501 63.4379263301501 59.9112426035503 59.9112426035503 65.3370013755158 65.3370013755158 65.3370013755158 65.3370013755158 65.3370013755158 65.3370013755158 65.3370013755158 65.3370013755158 65.3370013755158 65.3370013755158 65.3370013755158 65.3370013755158 66.5760869565217 66.5760869565217 66.5760869565217 56.3063063063063 82.1812596006144 82.1812596006144 82.1812596006144 82.1812596006144 82.9358770535241 82.1812596006144 82.1812596006144 82.1812596006144 81.5485996705107 81.5485996705107 81.5485996705107 90.2612826603325 82.1812596006144 82.1812596006144 82.1812596006144 82.1812596006144 78.8530465949821 82.2102425876011 82.2102425876011 82.2102425876011 85.6777493606138 85.6777493606138 78.6324786324786 78.6324786324786 78.6324786324786 78.6324786324786 78.6324786324786 34.0346534653465 86.2676056338028 85.4503464203233 85.4503464203233 85.4503464203233 91.3654618473896 91.3654618473896 91.3654618473896 91.3654618473896 91.3654618473896 91.3654618473896 86.0284605433376 89.6381578947368 86.0284605433376 96.6386554621849 96.6386554621849 96.6386554621849 96.830985915493 96.830985915493 89.527027027027 89.527027027027 89.527027027027 89.527027027027 -9999 -9999 -9999 -9999 -9999 -9999 -9999 -9999 -9999 -9999 -9999 -9999 -9999 -9999 -9999 -9999 -9999 -9999 -9999 -9999 -9999 -9999 -9999 -9999 -9999 -9999 -9999
-9999 -9999 -9999 -9999 -9999 -9999 -9999 -9999 -9999 -9999 -9999 -9999 -9999 -9999 -9999 -9999 -9999 -9999 -9999 -9999 -9999 -9999 -9999 -9999 -9999 -9999 -9999 -9999 -9999 -9999 -9999 -9999 -9999 -9999 -9999 -9999 -9999 -9999 -9999 -9999 -9999 -9999 -9999 -9999 -9999 -9999 -9999 -9999 -9999 -9999 -9999 -9999 -9999 -9999 -9999 -9999 -9999 -9999 -9999 -9999 -9999 -9999 -9999 -9999 -9999 -9999 -9999 -9999 -9999 -9999 -9999 -9999 -9999 -9999 -9999 -9999 -9999 -9999 -9999 -9999 -9999 -9999 -9999 -9999 -9999 -9999 -9999 -9999 -9999 -9999 -9999 -9999 -9999 -9999 -9999 -9999 -9999 -9999 -9999 -9999 -9999 -9999 -9999 -9999 -9999 -9999 -9999 -9999 -9999 -9999 -9999 -9999 -9999 -9999 -9999 -9999 -9999 -9999 -9999 -9999 -9999 -9999 -9999 -9999 -9999 -9999 -9999 -9999 -9999 -9999 -9999 -9999 -9999 -9999 -9999 -9999 -9999 -9999 -9999 -9999 -9999 -9999 -9999 -9999 -9999 -9999 -9999 -9999 -9999 -9999 -9999 -9999 -9999 -9999 -9999 -9999 -9999 -9999 -9999 -9999 -9999 -9999 -9999 -9999 -9999 -9999 -9999 -9999 -9999 -9999 -9999 -9999 -9999 -9999 -9999 -9999 -9999 -9999 -9999 -9999 -9999 -9999 -9999 -9999 -9999 -9999 -9999 -9999 -9999 -9999 -9999 -9999 -9999 -9999 -9999 -9999 -9999 -9999 -9999 -9999 -9999 -9999 -9999 -9999 -9999 -9999 -9999 -9999 -9999 -9999 -9999 -9999 -9999 -9999 -9999 -9999 -9999 -9999 -9999 -9999 -9999 -9999 -9999 -9999 -9999 -9999 -9999 -9999 -9999 -9999 -9999 -9999 -9999 -9999 -9999 -9999 -9999 -9999 -9999 -9999 -9999 -9999 -9999 -9999 -9999 -9999 -9999 -9999 -9999 -9999 -9999 -9999 -9999 -9999 -9999 -9999 -9999 -9999 -9999 -9999 -9999 -9999 -9999 -9999 -9999 -9999 -9999 -9999 -9999 -9999 -9999 -9999 -9999 -9999 75.2688172043011 75.2688172043011 75.2688172043011 81.7204301075269 81.7204301075269 81.7204301075269 79.967689822294 59.5942519019442 59.5942519019442 59.5942519019442 59.5942519019442 82.6996197718631 80.3059273422562 80.3059273422562 80.3059273422562 79.5454545454545 79.5454545454545 79.2563600782779 79.2563600782779 79.2563600782779 79.2563600782779 77.2727272727273 -9999 -9999 -9999 -9999 51.7647058823529 46.8409586056645 46.8409586056645 46.8409586056645 46.8409586056645 58.1113801452784 63.7393767705383 63.7393767705383 38.7263339070568 38.7263339070568 38.7263339070568 38.7263339070568 38.7263339070568 38.7263339070568 38.7263339070568 38.7263339070568 66.6666666666667 66.6666666666667 63.4379263301501 59.9112426035503 59.9112426035503 65.4205607476635 65.4205607476635 65.4205607476635 65.3370013755158 65.3370013755158 65.3370013755158 65.3370013755158 65.3370013755158 65.3370013755158 65.3370013755158 65.3370013755158 65.3370013755158 66.5760869565217 66.5760869565217 66.5760869565217 66.5760869565217 56.3063063063063 62.1761658031088 62.1761658031088 56.3063063063063 82.1812596006144 82.9358770535241 82.9358770535241 82.9358770535241 87.4635568513119 87.4635568513119 81.5485996705107 81.5485996705107 90.2612826603325 86.1807137433561 86.1807137433561 82.1812596006144 81.2641083521445 81.2641083521445 78.8530465949821 78.8530465949821 85.6777493606138 85.6777493606138 85.6777493606138 78.6324786324786 78.6324786324786 78.6324786324786 78.6324786324786 78.6324786324786 86.2676056338028 86.2676056338028 86.2676056338028 86.2676056338028 86.2676056338028 82.3293172690763 91.3654618473896 91.3654618473896 91.3654618473896 82.3293172690763 82.3293172690763 92.7505330490405 86.0284605433376 96.7413441955193 96.7413441955193 96.7413441955193 96.7413441955193 87.4125874125874 96.830985915493 96.830985915493 89.527027027027 89.527027027027 89.527027027027 -9999 -9999 -9999 -9999 -9999 -9999 -9999 -9999 -9999 -9999 -9999 -9999 -9999 -9999 -9999 -9999 -9999 -9999 -9999 -9999 -9999 -9999 -9999 -9999 -9999 -9999 -9999
-9999 -9999 -9999 -9999 -9999 -9999 -9999 -9999 -9999 -9999 -9999 -9999 -9999 -9999 -9999 -9999 -9999 -9999 -9999 -9999 -9999 -9999 -9999 -9999 -9999 -9999 -9999 -9999 -9999 -9999 -9999 -9999 -9999 -9999 -9999 -9999 -9999 -9999 -9999 -9999 -9999 -9999 -9999 -9999 -9999 -9999 -9999 -9999 -9999 -9999 -9999 -9999 -9999 -9999 -9999 -9999 -9999 -9999 -9999 -9999 -9999 -9999 -9999 -9999 -9999 -9999 -9999 -9999 -9999 -9999 -9999 -9999 -9999 -9999 -9999 -9999 -9999 -9999 -9999 -9999 -9999 -9999 -9999 -9999 -9999 -9999 -9999 -9999 -9999 -9999 -9999 -9999 -9999 -9999 -9999 -9999 -9999 -9999 -9999 -9999 -9999 -9999 -9999 -9999 -9999 -9999 -9999 -9999 -9999 -9999 -9999 -9999 -9999 -9999 -9999 -9999 -9999 -9999 -9999 -9999 -9999 -9999 -9999 -9999 -9999 -9999 -9999 -9999 -9999 -9999 -9999 -9999 -9999 -9999 -9999 -9999 -9999 -9999 -9999 -9999 -9999 -9999 -9999 -9999 -9999 -9999 -9999 -9999 -9999 -9999 -9999 -9999 -9999 -9999 -9999 -9999 -9999 -9999 -9999 -9999 -9999 -9999 -9999 -9999 -9999 -9999 -9999 -9999 -9999 -9999 -9999 -9999 -9999 -9999 -9999 -9999 -9999 -9999 -9999 -9999 -9999 -9999 -9999 -9999 -9999 -9999 -9999 -9999 -9999 -9999 -9999 -9999 -9999 -9999 -9999 -9999 -9999 -9999 -9999 -9999 -9999 -9999 -9999 -9999 -9999 -9999 -9999 -9999 -9999 -9999 -9999 -9999 -9999 -9999 -9999 -9999 -9999 -9999 -9999 -9999 -9999 -9999 -9999 -9999 -9999 -9999 -9999 -9999 -9999 -9999 -9999 -9999 -9999 -9999 -9999 -9999 -9999 -9999 -9999 -9999 -9999 -9999 -9999 -9999 -9999 -9999 -9999 -9999 -9999 -9999 -9999 -9999 -9999 -9999 -9999 -9999 -9999 -9999 -9999 -9999 -9999 -9999 -9999 -9999 -9999 -9999 -9999 -9999 -9999 -9999 -9999 -9999 84.2572062084257 84.2572062084257 75.2688172043011 75.2688172043011 83.3333333333333 83.3333333333333 79.967689822294 79.967689822294 79.967689822294 79.967689822294 82.6996197718631 82.6996197718631 82.6996197718631 82.6996197718631 82.6996197718631 83.4697217675941 83.4697217675941 83.4697217675941 79.5454545454545 79.2563600782779 79.2563600782779 79.2563600782779 79.2563600782779 -9999 -9999 -9999 -9999 -9999 51.7647058823529 51.7647058823529 51.7647058823529 46.8409586056645 46.8409586056645 58.1113801452784 58.1113801452784 58.1113801452784 58.1113801452784 38.7263339070568 38.7263339070568 38.7263339070568 38.7263339070568 38.7263339070568 50.4273504273504 50.4273504273504 50.4273504273504 66.6666666666667 53.030303030303 53.030303030303 47.8325859491779 47.8325859491779 65.4205607476635 65.3370013755158 65.3370013755158 48.7528344671202 59.447983014862 59.447983014862 65.3370013755158 65.3370013755158 65.3370013755158 66.5760869565217 66.5760869565217 66.5760869565217 66.5760869565217 66.5760869565217 66.5760869565217 66.5760869565217 56.3063063063063 62.1761658031088 56.3063063063063 67.6982591876209 67.6982591876209 67.6982591876209 82.9358770535241 82.9358770535241 87.4635568513119 87.4635568513119 86.2068965517241 86.2068965517241 86.1807137433561 86.1807137433561 86.1807137433561 86.1807137433561 78.8530465949821 78.2548476454294 78.2548476454294 78.2548476454294 92.0826161790017 92.0826161790017 78.6324786324786 78.6324786324786 78.6324786324786 78.6324786324786 78.6324786324786 86.2676056338028 86.2676056338028 86.2676056338028 90 90 90 82.3293172690763 82.3293172690763 82.3293172690763 82.3293172690763 92.7505330490405 86.0284605433376 86.0284605433376 96.7413441955193 96.7413441955193 87.4125874125874 87.4125874125874 91.2751677852349 91.2751677852349 83.6148648648649 83.6148648648649 83.0769230769231 83.0769230769231 -9999 -9999 -9999 -9999 -9999 -9999 -9999 -9999 -9999 -9999 -9999 -9999 -9999 -9999 -9999 -9999 -9999 -9999 -9999 -9999 -9999 -9999 -9999 -9999 -9999 -9999 -9999
-9999 -9999 -9999 -9999 -9999 -9999 -9999 -9999 -9999 -9999 -9999 -9999 -9999 -9999 -9999 -9999 -9999 -9999 -9999 -9999 -9999 -9999 -9999 -9999 -9999 -9999 -9999 -9999 -9999 -9999 -9999 -9999 -9999 -9999 -9999 -9999 -9999 -9999 -9999 -9999 -9999 -9999 -9999 -9999 -9999 -9999 -9999 -9999 -9999 -9999 -9999 -9999 -9999 -9999 -9999 -9999 -9999 -9999 -9999 -9999 -9999 -9999 -9999 -9999 -9999 -9999 -9999 -9999 -9999 -9999 -9999 -9999 -9999 -9999 -9999 -9999 -9999 -9999 -9999 -9999 -9999 -9999 -9999 -9999 -9999 -9999 -9999 -9999 -9999 -9999 -9999 -9999 -9999 -9999 -9999 -9999 -9999 -9999 -9999 -9999 -9999 -9999 -9999 -9999 -9999 -9999 -9999 -9999 -9999 -9999 -9999 -9999 -9999 -9999 -9999 -9999 -9999 -9999 -9999 -9999 -9999 -9999 -9999 -9999 -9999 -9999 -9999 -9999 -9999 -9999 -9999 -9999 -9999 -9999 -9999 -9999 -9999 -9999 -9999 -9999 -9999 -9999 -9999 -9999 -9999 -9999 -9999 -9999 -9999 -9999 -9999 -9999 -9999 -9999 -9999 -9999 -9999 -9999 -9999 -9999 -9999 -9999 -9999 -9999 -9999 -9999 -9999 -9999 -9999 -9999 -9999 -9999 -9999 -9999 -9999 -9999 -9999 -9999 -9999 -9999 -9999 -9999 -9999 -9999 -9999 -9999 -9999 -9999 -9999 -9999 -9999 -9999 -9999 -9999 -9999 -9999 -9999 -9999 -9999 -9999 -9999 -9999 -9999 -9999 -9999 -9999 -9999 -9999 -9999 -9999 -9999 -9999 -9999 -9999 -9999 -9999 -9999 -9999 -9999 -9999 -9999 -9999 -9999 -9999 -9999 -9999 -9999 -9999 -9999 -9999 -9999 -9999 -9999 -9999 -9999 -9999 -9999 -9999 -9999 -9999 -9999 -9999 -9999 -9999 -9999 -9999 -9999 -9999 -9999 -9999 -9999 -9999 -9999 -9999 -9999 -9999 -9999 -9999 -9999 -9999 -9999 -9999 -9999 -9999 -9999 -9999 -9999 -9999 -9999 -9999 -9999 -9999 88.4520884520884 84.2572062084257 84.2572062084257 71.5350223546945 83.3333333333333 83.3333333333333 83.3333333333333 79.967689822294 84.3949044585987 84.3949044585987 84.3949044585987 82.6996197718631 82.6996197718631 75.503355704698 75.503355704698 78.8934426229508 83.4697217675941 82.9015544041451 82.9015544041451 79.2563600782779 79.2563600782779 79.2563600782779 -9999 -9999 -9999 -9999 -9999 64.9466192170818 64.9466192170818 51.7647058823529 51.7647058823529 36.2976406533575 36.2976406533575 36.2976406533575 36.2976406533575 36.2976406533575 58.1113801452784 58.1113801452784 38.7263339070568 38.7263339070568 38.7263339070568 38.7263339070568 50.4273504273504 31.0077519379845 31.0077519379845 50.4273504273504 53.030303030303 47.8325859491779 47.8325859491779 47.8325859491779 47.8325859491779 48.7528344671202 48.7528344671202 59.447983014862 59.447983014862 59.447983014862 59.447983014862 59.447983014862 66.5760869565217 66.5760869565217 66.5760869565217 66.5760869565217 66.5760869565217 66.5760869565217 66.5760869565217 66.5760869565217 56.3063063063063 56.3063063063063 49.3827160493827 49.3827160493827 66.006600660066 66.006600660066 68.1137724550898 68.1137724550898 68.1137724550898 86.2068965517241 86.2068965517241 86.2068965517241 86.2068965517241 79.0155440414508 80.8510638297872 78.8530465949821 78.8530465949821 78.8530465949821 92.0826161790017 92.0826161790017 92.0826161790017 92.0826161790017 92.0826161790017 92.0826161790017 92.0826161790017 92.0826161790017 90 86.2676056338028 86.2676056338028 86.2676056338028 90 90 90 90 82.3293172690763 82.3293172690763 82.3293172690763 86.0284605433376 86.0284605433376 96.7413441955193 96.7413441955193 96.7413441955193 95.2380952380952 90.5511811023622 90.5511811023622 83.6148648648649 83.6148648648649 83.6148648648649 83.0769230769231 83.0769230769231 83.0769230769231 -9999 -9999 -9999 -9999 -9999 -9999 -9999 -9999 -9999 -9999 -9999 -9999 -9999 -9999 -9999 -9999 -9999 -9999 -9999 -9999 -9999 -9999 -9999 -9999 -9999 -9999
-9999 -9999 -9999 -9999 -9999 -9999 -9999 -9999 -9999 -9999 -9999 -9999 -9999 -9999 -9999 -9999 -9999 -9999 -9999 -9999 -9999 -9999 -9999 -9999 -9999 -9999 -9999 -9999 -9999 -9999 -9999 -9999 -9999 -9999 -9999 -9999 -9999 -9999 -9999 -9999 -9999 -9999 -9999 -9999 -9999 -9999 -9999 -9999 -9999 -9999 -9999 -9999 -9999 -9999 -9999 -9999 -9999 -9999 -9999 -9999 -9999 -9999 -9999 -9999 -9999 -9999 -9999 -9999 -9999 -9999 -9999 -9999 -9999 -9999 -9999 -9999 -9999 -9999 -9999 -9999 -9999 -9999 -9999 -9999 -9999 -9999 -9999 -9999 -9999 -9999 -9999 -9999 -9999 -9999 -9999 -9999 -9999 -9999 -9999 -9999 -9999 -9999 -9999 -9999 -9999 -9999 -9999 -9999 -9999 -9999 -9999 -9999 -9999 -9999 -9999 -9999 -9999 -9999 -9999 -9999 -9999 -9999 -9999 -9999 -9999 -9999 -9999 -9999 -9999 -9999 -9999 -9999 -9999 -9999 -9999 -9999 -9999 -9999 -9999 -9999 -9999 -9999 -9999 -9999 -9999 -9999 -9999 -9999 -9999 -9999 -9999 -9999 -9999 -9999 -9999 -9999 -9999 -9999 -9999 -9999 -9999 -9999 -9999 -9999 -9999 -9999 -9999 -9999 -9999 -9999 -9999 -9999 -9999 -9999 -9999 -9999 -9999 -9999 -9999 -9999 -9999 -9999 -9999 -9999 -9999 -9999 -9999 -9999 -9999 -9999 -9999 -9999 -9999 -9999 -9999 -9999 -9999 -9999 -9999 -9999 -9999 -9999 -9999 -9999 -9999 -9999 -9999 -9999 -9999 -9999 -9999 -9999 -9999 -9999 -9999 -9999 -9999 -9999 -9999 -9999 -9999 -9999 -9999 -9999 -9999 -9999 -9999 -9999 -9999 -9999 -9999 -9999 -9999 -9999 -9999 -9999 -9999 -9999 -9999 -9999 -9999 -9999 -9999 -9999 -9999 -9999 -9999 -9999 -9999 -9999 -9999 -9999 -9999 -9999 -9999 -9999 -9999 -9999 -9999 -9999 -9999 -9999 -9999 -9999 -9999 -9999 -9999 -9999 -9999 -9999 -9999 88.4520884520884 88.4520884520884 88.4520884520884 81.8181818181818 71.5350223546945 71.5350223546945 83.3333333333333 85.7664233576642 85.7664233576642 84.3949044585987 84.3949044585987 84.3949044585987 82.2683706070288 75.503355704698 75.503355704698 75.503355704698 82.9015544041451 82.9015544041451 82.9015544041451 82.9015544041451 82.9015544041451 79.2563600782779 46.2046204620462 -9999 -9999 -9999 -9999 -9999 -9999 64.9466192170818 64.9466192170818 66.4857530529172 36.2976406533575 36.2976406533575 36.2976406533575 36.2976406533575 36.2976406533575 36.2976406533575 45.9057071960298 58.1113801452784 42.6008968609865 42.6008968609865 50.4273504273504 31.0077519379845 31.0077519379845 31.0077519379845 31.0077519379845 47.8325859491779 47.8325859491779 47.8325859491779 47.8325859491779 47.8325859491779 47.8325859491779 59.447983014862 59.447983014862 59.447983014862 59.447983014862 59.447983014862 50.78125 50.78125 50.78125 50.78125 66.5760869565217 66.5760869565217 66.5760869565217 66.5760869565217 66.5760869565217 56.3063063063063 56.3063063063063 73 49.3827160493827 49.3827160493827 68.1137724550898 68.1137724550898 73 73 79.6943231441048 79.6943231441048 86.2068965517241 86.2068965517241 79.0155440414508 86.2068965517241 80.8510638297872 80.8510638297872 92.0826161790017 92.0826161790017 92.0826161790017 92.0826161790017 92.0826161790017 92.0826161790017 92.0826161790017 92.0826161790017 92.0826161790017 -9999 -9999 -9999 -9999 -9999 90 90 90 90 90 91.6030534351145 91.6030534351145 91.6030534351145 92.814371257485 92.814371257485 94.876660341556 95.2380952380952 95.2380952380952 95.2380952380952 92.3632610939112 92.3632610939112 83.0769230769231 83.0769230769231 83.0769230769231 83.0769230769231 -9999 -9999 -9999 -9999 -9999 -9999 -9999 -9999 -9999 -9999 -9999 -9999 -9999 -9999 -9999 -9999 -9999 -9999 -9999 -9999 -9999 -9999 -9999 -9999 -9999 -9999
-9999 -9999 -9999 -9999 -9999 -9999 -9999 -9999 -9999 -9999 -9999 -9999 -9999 -9999 -9999 -9999 -9999 -9999 -9999 -9999 -9999 -9999 -9999 -9999 -9999 -9999 -9999 -9999 -9999 -9999 -9999 -9999 -9999 -9999 -9999 -9999 -9999 -9999 -9999 -9999 -9999 -9999 -9999 -9999 -9999 -9999 -9999 -9999 -9999 -9999 -9999 -9999 -9999 -9999 -9999 -9999 -9999 -9999 -9999 -9999 -9999 -9999 -9999 -9999 -9999 -9999 -9999 -9999 -9999 -9999 -9999 -9999 -9999 -9999 -9999 -9999 -9999 -9999 -9999 -9999 -9999 -9999 -9999 -9999 -9999 -9999 -9999 -9999 -9999 -9999 -9999 -9999 -9999 -9999 -9999 -9999 -9999 -9999 -9999 -9999 -9999 -9999 -9999 -9999 -9999 -9999 -9999 -9999 -9999 -9999 -9999 -9999 -9999 -9999 -9999 -9999 -9999 -9999 -9999 -9999 -9999 -9999 -9999 -9999 -9999 -9999 -9999 -9999 -9999 -9999 -9999 -9999 -9999 -9999 -9999 -9999 -9999 -9999 -9999 -9999 -9999 -9999 -9999 -9999 -9999 -9999 -9999 -9999 -9999 -9999 -9999 -9999 -9999 -9999 -9999 -9999 -9999 -9999 -9999 -9999 -9999 -9999 -9999 -9999 -9999 -9999 -9999 -9999 -9999 -9999 -9999 -9999 -9999 -9999 -9999 -9999 -9999 -9999 -9999 -9999 -9999 -9999 -9999 -9999 -9999 -9999 -9999 -9999 -9999 -9999 -9999 -9999 -9999 -9999 -9999 -9999 -9999 -9999 -9999 -9999 -9999 -9999 -9999 -9999 -9999 -9999 -9999 -9999 -9999 -9999 -9999 -9999 -9999 -9999 -9999 -9999 -9999 -9999 -9999 -9999 -9999 -9999 -9999 -9999 -9999 -9999 -9999 -9999 -9999 -9999 -9999 -9999 -9999 -9999 -9999 -9999 -9999 -9999 -9999 -9999 -9999 -9999 -9999 -9999 -9999 -9999 -9999 -9999 -9999 -9999 -9999 -9999 -9999 -9999 -9999 -9999 -9999 -9999 -9999 -9999 -9999 -9999 -9999 -9999 -9999 -9999 -9999 -9999 -9999 -9999 57.0902394106814 57.0902394106814 88.4520884520884 81.8181818181818 81.8181818181818 81.8181818181818 71.5350223546945 71.5350223546945 85.7664233576642 85.7664233576642 85.7664233576642 82.2683706070288 82.2683706070288 82.2683706070288 82.2683706070288 71.4285714285714 71.4285714285714 82.9015544041451 82.9015544041451 82.9015544041451 82.9015544041451 82.9015544041451 46.2046204620462 46.2046204620462 46.2046204620462 46.2046204620462 -9999 -9999 -9999 -9999 -9999 -9999 66.4857530529172 66.4857530529172 66.4857530529172 36.2976406533575 36.2976406533575 58.3941605839416 58.3941605839416 45.9057071960298 45.9057071960298 58.1113801452784 42.6008968609865 42.6008968609865 42.6008968609865 31.0077519379845 31.0077519379845 44.4664031620553 44.4664031620553 47.8325859491779 47.8325859491779 47.8325859491779 47.8325859491779 47.8325859491779 59.447983014862 59.447983014862 59.447983014862 50.78125 50.78125 50.78125 70.1754385964912 70.1754385964912 68.9948892674617 68.9948892674617 68.9948892674617 67.4603174603175 66.5760869565217 66.5760869565217 66.5760869565217 73 73 73 73 73 73 73 79.6943231441048 79.6943231441048 79.6943231441048 79.6943231441048 79.6943231441048 79.6943231441048 86.2068965517241 86.2068965517241 86.2068965517241 92.0826161790017 92.0826161790017 92.0826161790017 92.0826161790017 92.0826161790017 92.0826161790017 92.0826161790017 92.0826161790017 -9999 -9999 -9999 -9999 -9999 -9999 -9999 -9999 -9999 90 90 91.6030534351145 91.6030534351145 92.814371257485 92.814371257485 92.814371257485 94.876660341556 94.876660341556 91.2280701754386 91.2280701754386 92.3632610939112 92.3632610939112 83.0769230769231 83.0769230769231 83.0769230769231 83.0769230769231 83.0769230769231 83.0769230769231 -9999 -9999 -9999 -9999 -9999 -9999 -9999 -9999 -9999 -9999 -9999 -9999 -9999 -9999 -9999 -9999 -9999 -9999 -9999 -9999 -9999 -9999 -9999 -9999
-9999 -9999 -9999 -9999 -9999 -9999 -9999 -9999 -9999 -9999 -9999 -9999 -9999 -9999 -9999 -9999 -9999 -9999 -9999 -9999 -9999 -9999 -9999 -9999 -9999 -9999 -9999 -9999 -9999 -9999 -9999 -9999 -9999 -9999 -9999 -9999 -9999 -9999 -9999 -9999 -9999 -9999 -9999 -9999 -9999 -9999 -9999 -9999 -9999 -9999 -9999 -9999 -9999 -9999 -9999 -9999 -9999 -9999 -9999 -9999 -9999 -9999 -9999 -9999 -9999 -9999 -9999 -9999 -9999 -9999 -9999 -9999 -9999 -9999 -9999 -9999 -9999 -9999 -9999 -9999 -9999 -9999 -9999 -9999 -9999 -9999 -9999 -9999 -9999 -9999 -9999 -9999 -9999 -9999 -9999 -9999 -9999 -9999 -9999 -9999 -9999 -9999 -9999 -9999 -9999 -9999 -9999 -9999 -9999 -9999 -9999 -9999 -9999 -9999 -9999 -9999 -9999 -9999 -9999 -9999 -9999 -9999 -9999 -9999 -9999 -9999 -9999 -9999 -9999 -9999 -9999 -9999 -9999 -9999 -9999 -9999 -9999 -9999 -9999 -9999 -9999 -9999 -9999 -9999 -9999 -9999 -9999 -9999 -9999 -9999 -9999 -9999 -9999 -9999 -9999 -9999 -9999 -9999 -9999 -9999 -9999 -9999 -9999 -9999 -9999 -9999 -9999 -9999 -9999 -9999 -9999 -9999 -9999 -9999 -9999 -9999 -9999 -9999 -9999 -9999 -9999 -9999 -9999 -9999 -9999 -9999 -9999 -9999 -9999 -9999 -9999 -9999 -9999 -9999 -9999 -9999 -9999 -9999 -9999 -9999 -9999 -9999 -9999 -9999 -9999 -9999 -9999 -9999 -9999 -9999 -9999 -9999 -9999 -9999 -9999 -9999 -9999 -9999 -9999 -9999 -9999 -9999 -9999 -9999 -9999 -9999 -9999 -9999 -9999 -9999 -9999 -9999 -9999 -9999 -9999 -9999 -9999 -9999 -9999 -9999 -9999 -9999 -9999 -9999 -9999 -9999 -9999 -9999 -9999 -9999 -9999 -9999 -9999 -9999 -9999 -9999 -9999 -9999 -9999 -9999 -9999 -9999 -9999 -9999 -9999 -9999 -9999 -9999 -9999 -9999 57.0902394106814 57.0902394106814 82.3223570190641 82.3223570190641 81.8181818181818 81.8181818181818 81.056466302368 75.6048387096774 85.7664233576642 85.7664233576642 85.7664233576642 83.4782608695652 83.5240274599542 83.5240274599542 83.5240274599542 71.4285714285714 71.4285714285714 71.4285714285714 82.9015544041451 82.9015544041451 82.9015544041451 82.9015544041451 46.2046204620462 46.2046204620462 46.2046204620462 46.2046204620462 46.2046204620462 46.2046204620462 -9999 -9999 -9999 62.5 61.5114235500879 59.9112426035503 59.9112426035503 58.3941605839416 58.3941605839416 58.3941605839416 45.9057071960298 45.9057071960298 44.5544554455446 45.9057071960298 45.9057071960298 42.6008968609865 42.6008968609865 42.6008968609865 44.4664031620553 44.4664031620553 44.4664031620553 44.4664031620553 44.4664031620553 51.9607843137255 47.8325859491779 59.447983014862 59.447983014862 59.447983014862 59.447983014862 50.78125 50.78125 50.78125 70.1754385964912 68.9948892674617 65.4648956356736 55.9125964010283 55.9125964010283 67.4603174603175 67.4603174603175 66.5760869565217 66.5760869565217 69.0978886756238 64.3939393939394 73 73 73 73 79.6943231441048 79.6943231441048 79.6943231441048 79.6943231441048 79.6943231441048 79.6943231441048 80.5626598465473 80.5626598465473 80.5626598465473 80.5626598465473 80.5626598465473 80.5626598465473 80.5626598465473 92.0826161790017 92.0826161790017 92.0826161790017 92.0826161790017 92.0826161790017 -9999 -9999 -9999 -9999 -9999 -9999 -9999 -9999 -9999 -9999 89.2531876138434 91.6030534351145 91.6030534351145 93.6883629191321 93.6883629191321 94.876660341556 94.876660341556 94.876660341556 91.2280701754386 91.2280701754386 91.2280701754386 92.4214417744917 92.4214417744917 83.0769230769231 83.0769230769231 83.0769230769231 83.0769230769231 83.0769230769231 -9999 -9999 -9999 -9999 -9999 -9999 -9999 -9999 -9999 -9999 -9999 -9999 -9999 -9999 -9999 -9999 -9999 -9999 -9999 -9999 -9999 -9999 -9999 -9999
-9999 -9999 -9999 -9999 -9999 -9999 -9999 -9999 -9999 -9999 -9999 -9999 -9999 -9999 -9999 -9999 -9999 -9999 -9999 -9999 -9999 -9999 -9999 -9999 -9999 -9999 -9999 -9999 -9999 -9999 -9999 -9999 -9999 -9999 -9999 -9999 -9999 -9999 -9999 -9999 -9999 -9999 -9999 -9999 -9999 -9999 -9999 -9999 -9999 -9999 -9999 -9999 -9999 -9999 -9999 -9999 -9999 -9999 -9999 -9999 -9999 -9999 -9999 -9999 -9999 -9999 -9999 -9999 -9999 -9999 -9999 -9999 -9999 -9999 -9999 -9999 -9999 -9999 -9999 -9999 -9999 -9999 -9999 -9999 -9999 -9999 -9999 -9999 -9999 -9999 -9999 -9999 -9999 -9999 -9999 -9999 -9999 -9999 -9999 -9999 -9999 -9999 -9999 -9999 -9999 -9999 -9999 -9999 -9999 -9999 -9999 -9999 -9999 -9999 -9999 -9999 -9999 -9999 -9999 -9999 -9999 -9999 -9999 -9999 -9999 -9999 -9999 -9999 -9999 -9999 -9999 -9999 -9999 -9999 -9999 -9999 -9999 -9999 -9999 -9999 -9999 -9999 -9999 -9999 -9999 -9999 -9999 -9999 -9999 -9999 -9999 -9999 -9999 -9999 -9999 -9999 -9999 -9999 -9999 -9999 -9999 -9999 -9999 -9999 -9999 -9999 -9999 -9999 -9999 -9999 -9999 -9999 -9999 -9999 -9999 -9999 -9999 -9999 -9999 -9999 -9999 -9999 -9999 -9999 -9999 -9999 -9999 -9999 -9999 -9999 -9999 -9999 -9999 -9999 -9999 -9999 -9999 -9999 -9999 -9999 -9999 -9999 -9999 -9999 -9999 -9999 -9999 -9999 -9999 -9999 -9999 -9999 -9999 -9999 -9999 -9999 -9999 -9999 -9999 -9999 -9999 -9999 -9999 -9999 -9999 -9999 -9999 -9999 -9999 -9999 -9999 -9999 -9999 -9999 -9999 -9999 -9999 -9999 -9999 -9999 -9999 -9999 -9999 -9999 -9999 -9999 -9999 -9999 -9999 -9999 -9999 -9999 -9999 -9999 -9999 -9999 -9999 -9999 -9999 -9999 -9999 -9999 -9999 -9999 -9999 -9999 -9999 -9999 -9999 75.5555555555556 57.0902394106814 57.0902394106814 71.3296398891967 82.3223570190641 82.3223570190641 81.056466302368 81.056466302368 81.056466302368 75.6048387096774 71.8283582089552 83.4782608695652 83.4782608695652 83.4782608695652 83.5240274599542 83.5240274599542 83.5240274599542 79.7266514806378 79.7266514806378 82.9015544041451 82.9015544041451 82.9015544041451 46.2046204620462 46.2046204620462 46.2046204620462 46.2046204620462 46.2046204620462 46.2046204620462 46.2046204620462 46.2046204620462 46.2046204620462 61.5114235500879 61.5114235500879 59.9112426035503 59.9112426035503 58.3941605839416 58.3941605839416 58.3941605839416 44.5544554455446 44.5544554455446 44.5544554455446 44.5544554455446 44.5544554455446 44.5544554455446 59.0200445434298 42.6008968609865 42.6008968609865 59.9343185550082 44.4664031620553 44.4664031620553 44.4664031620553 51.9607843137255 51.9607843137255 64.4820295983087 64.4820295983087 64.4820295983087 64.4820295983087 50.78125 50.78125 50.78125 65.9203980099502 65.4648956356736 65.4648956356736 55.9125964010283 55.9125964010283 55.9125964010283 78.8617886178862 78.8617886178862 66.5760869565217 66.5760869565217 66.5760869565217 69.0978886756238 64.3939393939394 64.3939393939394 64.3939393939394 73.1707317073171 79.6943231441048 79.6943231441048 79.6943231441048 79.6943231441048 79.6943231441048 79.6943231441048 80.5626598465473 80.5626598465473 80.5626598465473 80.5626598465473 80.5626598465473 80.5626598465473 80.5626598465473 80.5626598465473 80.5626598465473 80.5626598465473 80.5626598465473 -9999 -9999 -9999 -9999 -9999 -9999 -9999 -9999 -9999 -9999 -9999 89.2531876138434 89.2531876138434 90.1287553648069 90.1287553648069 93.6883629191321 93.6883629191321 93.6883629191321 93.6883629191321 93.6883629191321 91.2280701754386 91.2280701754386 92.4214417744917 92.4214417744917 92.4214417744917 92.4214417744917 90.9090909090909 90.9090909090909 83.0769230769231 -9999 -9999 -9999 -9999 -9999 -9999 -9999 -9999 -9999 -9999 -9999 -9999 -9999 -9999 -9999 -9999 -9999 -9999 -9999 -9999 -9999 -9999 -9999 -9999
-9999 -9999 -9999 -9999 -9999 -9999 -9999 -9999 -9999 -9999 -9999 -9999 -9999 -9999 -9999 -9999 -9999 -9999 -9999 -9999 -9999 -9999 -9999 -9999 -9999 -9999 -9999 -9999 -9999 -9999 -9999 -9999 -9999 -9999 -9999 -9999 -9999 -9999 -9999 -9999 -9999 -9999 -9999 -9999 -9999 -9999 -9999 -9999 -9999 -9999 -9999 -9999 -9999 -9999 -9999 -9999 -9999 -9999 -9999 -9999 -9999 -9999 -9999 -9999 -9999 -9999 -9999 -9999 -9999 -9999 -9999 -9999 -9999 -9999 -9999 -9999 -9999 -9999 -9999 -9999 -9999 -9999 -9999 -9999 -9999 -9999 -9999 -9999 -9999 -9999 -9999 -9999 -9999 -9999 -9999 -9999 -9999 -9999 -9999 -9999 -9999 -9999 -9999 -9999 -9999 -9999 -9999 -9999 -9999 -9999 -9999 -9999 -9999 -9999 -9999 -9999 -9999 -9999 -9999 -9999 -9999 -9999 -9999 -9999 -9999 -9999 -9999 -9999 -9999 -9999 -9999 -9999 -9999 -9999 -9999 -9999 -9999 -9999 -9999 -9999 -9999 -9999 -9999 -9999 -9999 -9999 -9999 -9999 -9999 -9999 -9999 -9999 -9999 -9999 -9999 -9999 -9999 -9999 -9999 -9999 -9999 -9999 -9999 -9999 -9999 -9999 -9999 -9999 -9999 -9999 -9999 -9999 -9999 -9999 -9999 -9999 -9999 -9999 -9999 -9999 -9999 -9999 -9999 -9999 -9999 -9999 -9999 -9999 -9999 -9999 -9999 -9999 -9999 -9999 -9999 -9999 -9999 -9999 -9999 -9999 -9999 -9999 -9999 -9999 -9999 -9999 -9999 -9999 -9999 -9999 -9999 -9999 -9999 -9999 -9999 -9999 -9999 -9999 -9999 -9999 -9999 -9999 -9999 -9999 -9999 -9999 -9999 -9999 -9999 -9999 -9999 -9999 -9999 -9999 -9999 -9999 -9999 -9999 -9999 -9999 -9999 -9999 -9999 -9999 -9999 -9999 -9999 -9999 -9999 -9999 -9999 -9999 -9999 -9999 -9999 -9999 -9999 -9999 -9999 -9999 -9999 -9999 -9999 -9999 -9999 -9999 -9999 -9999 90.316573556797 75.5555555555556 75.5555555555556 78.8381742738589 71.3296398891967 71.3296398891967 82.3223570190641 82.3223570190641 81.056466302368 71.1297071129707 71.1297071129707 71.1297071129707 71.8283582089552 83.4782608695652 80.5892547660312 80.5892547660312 83.5240274599542 83.5240274599542 79.7266514806378 79.7266514806378 82.9015544041451 82.9015544041451 46.2046204620462 46.2046204620462 46.2046204620462 46.2046204620462 46.2046204620462 46.2046204620462 46.2046204620462 46.2046204620462 46.2046204620462 55.735056542811 67.5675675675676 67.5675675675676 67.5675675675676 58.3941605839416 58.3941605839416 58.3941605839416 58.3941605839416 56.1797752808989 56.1797752808989 56.1797752808989 59.0200445434298 59.0200445434298 59.0200445434298 59.0200445434298 76.7160161507402 59.9343185550082 59.9343185550082 59.9343185550082 59.9343185550082 44.4664031620553 51.9607843137255 51.9607843137255 51.9607843137255 64.4820295983087 64.4820295983087 59.6026490066225 59.6026490066225 50.78125 65.9203980099502 65.9203980099502 64.6464646464647 64.6464646464647 64.6464646464647 64.6464646464647 78.8617886178862 78.8617886178862 78.8617886178862 78.8617886178862 66.5760869565217 71.7213114754098 71.7213114754098 69.0978886756238 73.1707317073171 73.1707317073171 77.4526678141136 77.4526678141136 79.6943231441048 79.9347471451876 79.9347471451876 79.9347471451876 80.5626598465473 80.5626598465473 80.5626598465473 80.5626598465473 80.5626598465473 80.5626598465473 80.5626598465473 80.5626598465473 80.5626598465473 80.5626598465473 80.5626598465473 -9999 -9999 -9999 -9999 -9999 -9999 -9999 -9999 -9999 -9999 -9999 -9999 89.2531876138434 89.2531876138434 90.1287553648069 90.1287553648069 90.1287553648069 90.1287553648069 90.1287553648069 90.1287553648069 90.1287553648069 93.6883629191321 93.6883629191321 93.6883629191321 90.9090909090909 90.9090909090909 92.4214417744917 90.9090909090909 90.9090909090909 90.9090909090909 -9999 -9999 -9999 -9999 -9999 -9999 -9999 -9999 -9999 -9999 -9999 -9999 -9999 -9999 -9999 -9999 -9999 -9999 -9999 -9999 -9999 -9999 -9999 -9999
-9999 -9999 -9999 -9999 -9999 -9999 -9999 -9999 -9999 -9999 -9999 -9999 -9999 -9999 -9999 -9999 -9999 -9999 -9999 -9999 -9999 -9999 -9999 -9999 -9999 -9999 -9999 -9999 -9999 -9999 -9999 -9999 -9999 -9999 -9999 -9999 -9999 -9999 -9999 -9999 -9999 -9999 -9999 -9999 -9999 -9999 -9999 -9999 -9999 -9999 -9999 -9999 -9999 -9999 -9999 -9999 -9999 -9999 -9999 -9999 -9999 -9999 -9999 -9999 -9999 -9999 -9999 -9999 -9999 -9999 -9999 -9999 -9999 -9999 -9999 -9999 -9999 -9999 -9999 -9999 -9999 -9999 -9999 -9999 -9999 -9999 -9999 -9999 -9999 -9999 -9999 -9999 -9999 -9999 -9999 -9999 -9999 -9999 -9999 -9999 -9999 -9999 -9999 -9999 -9999 -9999 -9999 -9999 -9999 -9999 -9999 -9999 -9999 -9999 -9999 -9999 -9999 -9999 -9999 -9999 -9999 -9999 -9999 -9999 -9999 -9999 -9999 -9999 -9999 -9999 -9999 -9999 -9999 -9999 -9999 -9999 -9999 -9999 -9999 -9999 -9999 -9999 -9999 -9999 -9999 -9999 -9999 -9999 -9999 -9999 -9999 -9999 -9999 -9999 -9999 -9999 -9999 -9999 -9999 -9999 -9999 -9999 -9999 -9999 -9999 -9999 -9999 -9999 -9999 -9999 -9999 -9999 -9999 -9999 -9999 -9999 -9999 -9999 -9999 -9999 -9999 -9999 -9999 -9999 -9999 -9999 -9999 -9999 -9999 -9999 -9999 -9999 -9999 -9999 -9999 -9999 -9999 -9999 -9999 -9999 -9999 -9999 -9999 -9999 -9999 -9999 -9999 -9999 -9999 -9999 -9999 -9999 -9999 -9999 -9999 -9999 -9999 -9999 -9999 -9999 -9999 -9999 -9999 -9999 -9999 -9999 -9999 -9999 -9999 -9999 -9999 -9999 -9999 -9999 -9999 -9999 -9999 -9999 -9999 -9999 -9999 -9999 -9999 -9999 -9999 -9999 -9999 -9999 -9999 -9999 -9999 -9999 -9999 -9999 -9999 -9999 -9999 -9999 -9999 -9999 -9999 -9999 -9999 -9999 -9999 -9999 -9999 90.316573556797 90.316573556797 81.0397553516819 75.5555555555556 78.8381742738589 78.8381742738589 71.3296398891967 71.3296398891967 78.6407766990291 78.6407766990291 71.1297071129707 71.1297071129707 71.1297071129707 79.2483660130719 79.2483660130719 79.2483660130719 80.5892547660312 80.5892547660312 83.5240274599542 83.5240274599542 82.9015544041451 82.9015544041451 46.2046204620462 46.2046204620462 46.2046204620462 46.2046204620462 46.2046204620462 46.2046204620462 26.7379679144385 46.2046204620462 46.2046204620462 55.735056542811 55.735056542811 55.735056542811 55.735056542811 67.5675675675676 59.7222222222222 59.7222222222222 58.3941605839416 58.3941605839416 56.1797752808989 57.9044117647059 57.9044117647059 57.9044117647059 76.7160161507402 76.7160161507402 76.7160161507402 76.7160161507402 76.7160161507402 59.9343185550082 59.9343185550082 59.9343185550082 59.9343185550082 59.9343185550082 64.4820295983087 64.4820295983087 64.4820295983087 59.6026490066225 59.6026490066225 59.6026490066225 59.6026490066225 81.7152103559871 64.9141630901288 64.9141630901288 64.9141630901288 64.6464646464647 78.8617886178862 78.8617886178862 78.8617886178862 78.8617886178862 66.4697193500739 48.3516483516484 48.3516483516484 48.3516483516484 48.3516483516484 73.1707317073171 73.1707317073171 77.4526678141136 77.4526678141136 77.4526678141136 79.9347471451876 71.6612377850163 81.1138014527845 89.0151515151515 81.1138014527845 86.5561694290976 80.5626598465473 80.5626598465473 80.5626598465473 80.5626598465473 80.5626598465473 80.5626598465473 80.5626598465473 80.5626598465473 -9999 -9999 -9999 -9999 -9999 -9999 -9999 -9999 -9999 -9999 -9999 -9999 89.2531876138434 90.1287553648069 90.1287553648069 90.1287553648069 90.1287553648069 90.1287553648069 90.1287553648069 90.1287553648069 90.1287553648069 90.1287553648069 90.1287553648069 90.1287553648069 93.6883629191321 93.6883629191321 93.6883629191321 90.9090909090909 90.9090909090909 90.9090909090909 -9999 -9999 -9999 -9999 -9999 -9999 -9999 -9999 -9999 -9999 -9999 -9999 -9999 -9999 -9999 -9999 -9999 -9999 -9999 -9999 -9999 -9999 -9999 -9999
-9999 -9999 -9999 -9999 -9999 -9999 -9999 -9999 -9999 -9999 -9999 -9999 -9999 -9999 -9999 -9999 -9999 -9999 -9999 -9999 -9999 -9999 -9999 -9999 -9999 -9999 -9999 -9999 -9999 -9999 -9999 -9999 -9999 -9999 -9999 -9999 -9999 -9999 -9999 -9999 -9999 -9999 -9999 -9999 -9999 -9999 -9999 -9999 -9999 -9999 -9999 -9999 -9999 -9999 -9999 -9999 -9999 -9999 -9999 -9999 -9999 -9999 -9999 -9999 -9999 -9999 -9999 -9999 -9999 -9999 -9999 -9999 -9999 -9999 -9999 -9999 -9999 -9999 -9999 -9999 -9999 -9999 -9999 -9999 -9999 -9999 -9999 -9999 -9999 -9999 -9999 -9999 -9999 -9999 -9999 -9999 -9999 -9999 -9999 -9999 -9999 -9999 -9999 -9999 -9999 -9999 -9999 -9999 -9999 -9999 -9999 -9999 -9999 -9999 -9999 -9999 -9999 -9999 -9999 -9999 -9999 -9999 -9999 -9999 -9999 -9999 -9999 -9999 -9999 -9999 -9999 -9999 -9999 -9999 -9999 -9999 -9999 -9999 -9999 -9999 -9999 -9999 -9999 -9999 -9999 -9999 -9999 -9999 -9999 -9999 -9999 -9999 -9999 -9999 -9999 -9999 -9999 -9999 -9999 -9999 -9999 -9999 -9999 -9999 -9999 -9999 -9999 -9999 -9999 -9999 -9999 -9999 -9999 -9999 -9999 -9999 -9999 -9999 -9999 -9999 -9999 -9999 -9999 -9999 -9999 -9999 -9999 -9999 -9999 -9999 -9999 -9999 -9999 -9999 -9999 -9999 -9999 -9999 -9999 -9999 -9999 -9999 -9999 -9999 -9999 -9999 -9999 -9999 -9999 -9999 -9999 -9999 -9999 -9999 -9999 -9999 -9999 -9999 -9999 -9999 -9999 -9999 -9999 -9999 -9999 -9999 -9999 -9999 -9999 -9999 -9999 -9999 -9999 -9999 -9999 -9999 -9999 -9999 -9999 -9999 -9999 -9999 -9999 -9999 -9999 -9999 -9999 -9999 -9999 -9999 -9999 -9999 -9999 -9999 -9999 -9999 -9999 -9999 -9999 -9999 -9999 -9999 -9999 -9999 -9999 90.3490759753593 -9999 90.316573556797 94.1385435168739 81.0397553516819 81.0397553516819 78.8381742738589 78.8381742738589 73.0434782608696 73.0434782608696 78.6407766990291 78.6407766990291 78.6407766990291 69.3693693693694 81.3308687615527 81.3308687615527 79.2483660130719 79.2483660130719 75.6704980842912 75.6704980842912 75.6704980842912 83.5240274599542 83.5240274599542 46.2046204620462 76.8194070080862 76.8194070080862 76.8194070080862 46.2046204620462 57.9268292682927 26.7379679144385 26.7379679144385 26.7379679144385 70.6051873198847 63.169164882227 57.1955719557196 57.1955719557196 57.1955719557196 59.7222222222222 59.7222222222222 59.7222222222222 59.7222222222222 66.2251655629139 57.9044117647059 57.9044117647059 76.7160161507402 76.7160161507402 76.7160161507402 76.7160161507402 76.7160161507402 55.4187192118227 65.9851301115242 65.9851301115242 59.9343185550082 59.9343185550082 59.9343185550082 59.9343185550082 59.9343185550082 59.9343185550082 65.0224215246637 59.6026490066225 56.1622464898596 56.1622464898596 56.1622464898596 64.9141630901288 59.7222222222222 59.7222222222222 58.6690017513135 58.6690017513135 58.6690017513135 78.8617886178862 78.8617886178862 77.0142180094787 77.0142180094787 66.4697193500739 48.3516483516484 48.3516483516484 88.5200553250346 88.5200553250346 81.9502074688797 76.9230769230769 76.9230769230769 76.9230769230769 79.9347471451876 71.6612377850163 81.1138014527845 89.0151515151515 86.5561694290976 86.5561694290976 82.815734989648 80.5626598465473 82.1256038647343 80.5626598465473 80.5626598465473 80.5626598465473 80.5626598465473 -9999 -9999 -9999 -9999 -9999 -9999 -9999 -9999 -9999 -9999 -9999 -9999 89.2531876138434 89.2531876138434 90.1287553648069 90.1287553648069 90.1287553648069 90.1287553648069 90.1287553648069 90.1287553648069 90.1287553648069 90.1287553648069 90.1287553648069 90.1287553648069 90.1287553648069 90.1287553648069 90.1287553648069 90.1287553648069 -9999 -9999 -9999 -9999 -9999 -9999 -9999 -9999 -9999 -9999 -9999 -9999 -9999 -9999 -9999 -9999 -9999 -9999 -9999 -9999 -9999 -9999 -9999 -9999 -9999 -9999 -9999
-9999 -9999 -9999 -9999 -9999 -9999 -9999 -9999 -9999 -9999 -9999 -9999 -9999 -9999 -9999 -9999 -9999 -9999 -9999 -9999 -9999 -9999 -9999 -9999 -9999 -9999 -9999 -9999 -9999 -9999 -9999 -9999 -9999 -9999 -9999 -9999 -9999 -9999 -9999 -9999 -9999 -9999 -9999 -9999 -9999 -9999 -9999 -9999 -9999 -9999 -9999 -9999 -9999 -9999 -9999 -9999 -9999 -9999 -9999 -9999 -9999 -9999 -9999 -9999 -9999 -9999 -9999 -9999 -9999 -9999 -9999 -9999 -9999 -9999 -9999 -9999 -9999 -9999 -9999 -9999 -9999 -9999 -9999 -9999 -9999 -9999 -9999 -9999 -9999 -9999 -9999 -9999 -9999 -9999 -9999 -9999 -9999 -9999 -9999 -9999 -9999 -9999 -9999 -9999 -9999 -9999 -9999 -9999 -9999 -9999 -9999 -9999 -9999 -9999 -9999 -9999 -9999 -9999 -9999 -9999 -9999 -9999 -9999 -9999 -9999 -9999 -9999 -9999 -9999 -9999 -9999 -9999 -9999 -9999 -9999 -9999 -9999 -9999 -9999 -9999 -9999 -9999 -9999 -9999 -9999 -9999 -9999 -9999 -9999 -9999 -9999 -9999 -9999 -9999 -9999 -9999 -9999 -9999 -9999 -9999 -9999 -9999 -9999 -9999 -9999 -9999 -9999 -9999 -9999 -9999 -9999 -9999 -9999 -9999 -9999 -9999 -9999 -9999 -9999 -9999 -9999 -9999 -9999 -9999 -9999 -9999 -9999 -9999 -9999 -9999 -9999 -9999 -9999 -9999 -9999 -9999 -9999 -9999 -9999 -9999 -9999 -9999 -9999 -9999 -9999 -9999 -9999 -9999 -9999 -9999 -9999 -9999 -9999 -9999 -9999 -9999 -9999 -9999 -9999 -9999 -9999 -9999 -9999 -9999 -9999 -9999 -9999 -9999 -9999 -9999 -9999 -9999 -9999 -9999 -9999 -9999 -9999 -9999 -9999 -9999 -9999 -9999 -9999 -9999 -9999 -9999 -9999 -9999 -9999 -9999 -9999 -9999 -9999 -9999 -9999 -9999 -9999 -9999 -9999 -9999 -9999 -9999 -9999 -9999 -9999 -9999 -9999 90.316573556797 90.316573556797 86.7256637168142 79.5947901591896 78.8381742738589 73.0434782608696 73.0434782608696 73.0434782608696 73.0434782608696 78.6407766990291 69.3693693693694 69.3693693693694 69.3693693693694 81.3308687615527 76.6990291262136 76.6990291262136 75.6704980842912 75.6704980842912 75.6704980842912 75.6704980842912 46.2046204620462 76.8194070080862 76.8194070080862 76.8194070080862 76.8194070080862 73.482428115016 57.9268292682927 57.9268292682927 26.7379679144385 64.957264957265 64.957264957265 64.957264957265 70.6051873198847 63.169164882227 57.1955719557196 59.7222222222222 59.7222222222222 59.7222222222222 66.2251655629139 66.2251655629139 74.3127147766323 74.3127147766323 76.7160161507402 76.7160161507402 76.7160161507402 76.7160161507402 45.4545454545455 50.8928571428571 50.8928571428571 55.4187192118227 65.9851301115242 65.9851301115242 59.9343185550082 59.9343185550082 59.9343185550082 65.0224215246637 65.0224215246637 65.0224215246637 65.0224215246637 56.1622464898596 56.1622464898596 64.9141630901288 64.9141630901288 64.9141630901288 55.5555555555556 55.5555555555556 55.5555555555556 55.5555555555556 77.0142180094787 77.0142180094787 66.4697193500739 62.5 62.5 62.5 88.5200553250346 67.7480916030534 81.9502074688797 81.9502074688797 72.463768115942 72.463768115942 72.463768115942 89.0151515151515 89.0151515151515 86.5561694290976 86.5561694290976 82.815734989648 82.815734989648 82.815734989648 82.1256038647343 82.1256038647343 82.1256038647343 80.5626598465473 80.5626598465473 -9999 -9999 -9999 -9999 -9999 -9999 -9999 -9999 -9999 -9999 -9999 89.2531876138434 89.2531876138434 90.1287553648069 90.1287553648069 90.1287553648069 90.1287553648069 90.1287553648069 90.1287553648069 90.1287553648069 90.1287553648069 90.1287553648069 90.1287553648069 90.1287553648069 90.1287553648069 90.1287553648069 90.1287553648069 -9999 -9999 -9999 -9999 -9999 -9999 -9999 -9999 -9999 -9999 -9999 -9999 -9999 -9999 -9999 -9999 -9999 -9999 -9999 -9999 -9999 -9999 -9999 -9999 -9999 -9999 -9999 -9999
-9999 -9999 -9999 -9999 -9999 -9999 -9999 -9999 -9999 -9999 -9999 -9999 -9999 -9999 -9999 -9999 -9999 -9999 -9999 -9999 -9999 -9999 -9999 -9999 -9999 -9999 -9999 -9999 -9999 -9999 -9999 -9999 -9999 -9999 -9999 -9999 -9999 -9999 -9999 -9999 -9999 -9999 -9999 -9999 -9999 -9999 -9999 -9999 -9999 -9999 -9999 -9999 -9999 -9999 -9999 -9999 -9999 -9999 -9999 -9999 -9999 -9999 -9999 -9999 -9999 -9999 -9999 -9999 -9999 -9999 -9999 -9999 -9999 -9999 -9999 -9999 -9999 -9999 -9999 -9999 -9999 -9999 -9999 -9999 -9999 -9999 -9999 -9999 -9999 -9999 -9999 -9999 -9999 -9999 -9999 -9999 -9999 -9999 -9999 -9999 -9999 -9999 -9999 -9999 -9999 -9999 -9999 -9999 -9999 -9999 -9999 -9999 -9999 -9999 -9999 -9999 -9999 -9999 -9999 -9999 -9999 -9999 -9999 -9999 -9999 -9999 -9999 -9999 -9999 -9999 -9999 -9999 -9999 -9999 -9999 -9999 -9999 -9999 -9999 -9999 -9999 -9999 -9999 -9999 -9999 -9999 -9999 -9999 -9999 -9999 -9999 -9999 -9999 -9999 -9999 -9999 -9999 -9999 -9999 -9999 -9999 -9999 -9999 -9999 -9999 -9999 -9999 -9999 -9999 -9999 -9999 -9999 -9999 -9999 -9999 -9999 -9999 -9999 -9999 -9999 -9999 -9999 -9999 -9999 -9999 -9999 -9999 -9999 -9999 -9999 -9999 -9999 -9999 -9999 -9999 -9999 -9999 -9999 -9999 -9999 -9999 -9999 -9999 -9999 -9999 -9999 -9999 -9999 -9999 -9999 -9999 -9999 -9999 -9999 -9999 -9999 -9999 -9999 -9999 -9999 -9999 -9999 -9999 -9999 -9999 -9999 -9999 -9999 -9999 -9999 -9999 -9999 -9999 -9999 -9999 -9999 -9999 -9999 -9999 -9999 -9999 -9999 -9999 -9999 -9999 -9999 -9999 -9999 -9999 -9999 -9999 -9999 -9999 -9999 -9999 -9999 -9999 -9999 -9999 -9999 -9999 -9999 -9999 -9999 -9999 -9999 93.1208053691275 93.1208053691275 85.5263157894737 86.7256637168142 79.5947901591896 79.5947901591896 79.5947901591896 79.5947901591896 73.0434782608696 72.289156626506 72.289156626506 72.289156626506 69.3693693693694 74.6402877697842 74.6402877697842 76.6990291262136 76.6990291262136 76.6990291262136 75.6704980842912 75.6704980842912 75.6704980842912 77.1558245083207 77.1558245083207 76.8194070080862 78.7269681742044 79.002079002079 79.002079002079 73.482428115016 66.3900414937759 57.9268292682927 57.9268292682927 57.9268292682927 64 64.957264957265 57.5916230366492 57.5916230366492 37.122969837587 37.122969837587 37.122969837587 66.2251655629139 74.3127147766323 74.3127147766323 74.3127147766323 76.7160161507402 51.6795865633075 51.6795865633075 45.4545454545455 45.4545454545455 50.8928571428571 50.8928571428571 54.5808966861598 54.5808966861598 0 0 0 65.0224215246637 65.0224215246637 65.0224215246637 65.0224215246637 65.0224215246637 54.1922290388548 54.1922290388548 58.6552217453505 58.6552217453505 52.2260273972603 52.2260273972603 52.2260273972603 65.1815181518152 65.1815181518152 66.6666666666667 77.0142180094787 77.0142180094787 62.5 62.5 88.5200553250346 88.5200553250346 67.7480916030534 81.9502074688797 81.9502074688797 81.9502074688797 72.463768115942 89.0151515151515 89.0151515151515 89.0151515151515 89.0151515151515 89.0151515151515 82.815734989648 82.815734989648 82.1256038647343 82.1256038647343 82.1256038647343 82.1256038647343 82.1256038647343 81.3356164383562 81.3356164383562 -9999 -9999 -9999 -9999 -9999 -9999 -9999 -9999 -9999 89.2531876138434 89.2531876138434 89.2531876138434 90.1287553648069 90.1287553648069 90.1287553648069 90.1287553648069 90.1287553648069 90.1287553648069 90.1287553648069 90.1287553648069 90.1287553648069 90.1287553648069 90.1287553648069 90.1287553648069 90.1287553648069 -9999 -9999 -9999 -9999 -9999 -9999 -9999 -9999 -9999 -9999 -9999 -9999 -9999 -9999 -9999 -9999 -9999 -9999 -9999 -9999 -9999 -9999 -9999 -9999 -9999 -9999 -9999 -9999 -9999
-9999 -9999 -9999 -9999 -9999 -9999 -9999 -9999 -9999 -9999 -9999 -9999 -9999 -9999 -9999 -9999 -9999 -9999 -9999 -9999 -9999 -9999 -9999 -9999 -9999 -9999 -9999 -9999 -9999 -9999 -9999 -9999 -9999 -9999 -9999 -9999 -9999 -9999 -9999 -9999 -9999 -9999 -9999 -9999 -9999 -9999 -9999 -9999 -9999 -9999 -9999 -9999 -9999 -9999 -9999 -9999 -9999 -9999 -9999 -9999 -9999 -9999 -9999 -9999 -9999 -9999 -9999 -9999 -9999 -9999 -9999 -9999 -9999 -9999 -9999 -9999 -9999 -9999 -9999 -9999 -9999 -9999 -9999 -9999 -9999 -9999 -9999 -9999 -9999 -9999 -9999 -9999 -9999 -9999 -9999 -9999 -9999 -9999 -9999 -9999 -9999 -9999 -9999 -9999 -9999 -9999 -9999 -9999 -9999 -9999 -9999 -9999 -9999 -9999 -9999 -9999 -9999 -9999 -9999 -9999 -9999 -9999 -9999 -9999 -9999 -9999 -9999 -9999 -9999 -9999 -9999 -9999 -9999 -9999 -9999 -9999 -9999 -9999 -9999 -9999 -9999 -9999 -9999 -9999 -9999 -9999 -9999 -9999 -9999 -9999 -9999 -9999 -9999 -9999 -9999 -9999 -9999 -9999 -9999 -9999 -9999 -9999 -9999 -9999 -9999 -9999 -9999 -9999 -9999 -9999 -9999 -9999 -9999 -9999 -9999 -9999 -9999 -9999 -9999 -9999 -9999 -9999 -9999 -9999 -9999 -9999 -9999 -9999 -9999 -9999 -9999 -9999 -9999 -9999 -9999 -9999 -9999 -9999 -9999 -9999 -9999 -9999 -9999 -9999 -9999 -9999 -9999 -9999 -9999 -9999 -9999 -9999 -9999 -9999 -9999 -9999 -9999 -9999 -9999 -9999 -9999 -9999 -9999 -9999 -9999 -9999 -9999 -9999 -9999 -9999 -9999 -9999 -9999 -9999 -9999 -9999 -9999 -9999 -9999 -9999 -9999 -9999 -9999 -9999 -9999 -9999 -9999 -9999 -9999 -9999 -9999 -9999 -9999 -9999 -9999 -9999 -9999 -9999 -9999 -9999 -9999 -9999 -9999 -9999 -9999 93.1208053691275 93.1208053691275 93.1208053691275 93.1208053691275 85.5263157894737 85.5263157894737 79.5947901591896 79.5947901591896 79.5947901591896 76.7160161507402 72.289156626506 72.289156626506 72.289156626506 66.8058455114823 66.4893617021277 74.6402877697842 74.6402877697842 75.6704980842912 75.6704980842912 75.6704980842912 75.6704980842912 77.1558245083207 77.1558245083207 77.1558245083207 77.1558245083207 77.1558245083207 79.002079002079 81.3084112149533 81.3084112149533 86.3723608445298 74.9588138385502 66.3900414937759 66.3900414937759 64 64 57.5916230366492 61.2009237875289 61.2009237875289 37.122969837587 37.122969837587 60.7344632768362 60.7344632768362 61.1353711790393 74.3127147766323 74.3127147766323 54.6296296296296 51.6795865633075 51.6795865633075 48.780487804878 50.8928571428571 50.8928571428571 54.5808966861598 54.5808966861598 0 0 50.5376344086022 46 50.5376344086022 50.5376344086022 54.1922290388548 54.1922290388548 54.1922290388548 54.1922290388548 58.6552217453505 58.6552217453505 58.6552217453505 58.6552217453505 52.2260273972603 46.3483146067416 46.3483146067416 66.6666666666667 66.6666666666667 87.6897133220911 87.6897133220911 88.5200553250346 88.5200553250346 67.7480916030534 67.7480916030534 67.7480916030534 84.251968503937 84.251968503937 84.251968503937 89.0151515151515 89.0151515151515 89.0151515151515 89.0151515151515 89.0151515151515 82.1428571428571 82.1428571428571 82.1428571428571 81.9047619047619 82.1256038647343 82.1256038647343 81.3356164383562 81.3356164383562 81.3356164383562 81.3356164383562 89.8161244695898 89.8161244695898 -9999 -9999 -9999 -9999 -9999 89.2531876138434 89.2531876138434 89.2531876138434 90.1287553648069 90.1287553648069 90.1287553648069 90.1287553648069 90.1287553648069 90.1287553648069 90.1287553648069 90.1287553648069 90.1287553648069 90.1287553648069 90.1287553648069 90.1287553648069 90.1287553648069 -9999 -9999 -9999 -9999 -9999 -9999 -9999 -9999 -9999 -9999 -9999 -9999 -9999 -9999 -9999 -9999 -9999 -9999 -9999 -9999 -9999 -9999 -9999 -9999 -9999 -9999 -9999 -9999 -9999 -9999
-9999 -9999 -9999 -9999 -9999 -9999 -9999 -9999 -9999 -9999 -9999 -9999 -9999 -9999 -9999 -9999 -9999 -9999 -9999 -9999 -9999 -9999 -9999 -9999 -9999 -9999 -9999 -9999 -9999 -9999 -9999 -9999 -9999 -9999 -9999 -9999 -9999 -9999 -9999 -9999 -9999 -9999 -9999 -9999 -9999 -9999 -9999 -9999 -9999 -9999 -9999 -9999 -9999 -9999 -9999 -9999 -9999 -9999 -9999 -9999 -9999 -9999 -9999 -9999 -9999 -9999 -9999 -9999 -9999 -9999 -9999 -9999 -9999 -9999 -9999 -9999 -9999 -9999 -9999 -9999 -9999 -9999 -9999 -9999 -9999 -9999 -9999 -9999 -9999 -9999 -9999 -9999 -9999 -9999 -9999 -9999 -9999 -9999 -9999 -9999 -9999 -9999 -9999 -9999 -9999 -9999 -9999 -9999 -9999 -9999 -9999 -9999 -9999 -9999 -9999 -9999 -9999 -9999 -9999 -9999 -9999 -9999 -9999 -9999 -9999 -9999 -9999 -9999 -9999 -9999 -9999 -9999 -9999 -9999 -9999 -9999 -9999 -9999 -9999 -9999 -9999 -9999 -9999 -9999 -9999 -9999 -9999 -9999 -9999 -9999 -9999 -9999 -9999 -9999 -9999 -9999 -9999 -9999 -9999 -9999 -9999 -9999 -9999 -9999 -9999 -9999 -9999 -9999 -9999 -9999 -9999 -9999 -9999 -9999 -9999 -9999 -9999 -9999 -9999 -9999 -9999 -9999 -9999 -9999 -9999 -9999 -9999 -9999 -9999 -9999 -9999 -9999 -9999 -9999 -9999 -9999 -9999 -9999 -9999 -9999 -9999 -9999 -9999 -9999 -9999 -9999 -9999 -9999 -9999 -9999 -9999 -9999 -9999 -9999 -9999 -9999 -9999 -9999 -9999 -9999 -9999 -9999 -9999 -9999 -9999 -9999 -9999 -9999 -9999 -9999 -9999 -9999 -9999 -9999 -9999 -9999 -9999 -9999 -9999 -9999 -9999 -9999 -9999 -9999 -9999 -9999 -9999 -9999 -9999 -9999 -9999 -9999 -9999 -9999 -9999 -9999 -9999 -9999 -9999 -9999 -9999 90.3490759753593 -9999 -9999 93.1208053691275 93.1208053691275 90.4605263157895 90.4605263157895 93.1208053691275 85.5263157894737 85.5263157894737 85.5263157894737 84.3971631205674 84.3971631205674 76.7160161507402 76.7160161507402 76.7160161507402 72.3270440251572 66.8058455114823 66.8058455114823 66.4893617021277 73.9856801909308 75.6704980842912 75.6704980842912 75.6704980842912 77.1558245083207 77.1558245083207 77.1558245083207 77.1558245083207 77.1558245083207 77.1558245083207 77.1558245083207 69.5876288659794 69.5876288659794 86.3723608445298 74.9588138385502 74.9588138385502 60.2040816326531 60.2040816326531 60.2040816326531 64.5161290322581 61.2009237875289 61.2009237875289 57.6086956521739 57.6086956521739 53.6277602523659 63.973063973064 61.1353711790393 61.1353711790393 54.6296296296296 54.6296296296296 54.6296296296296 48.780487804878 48.780487804878 48.780487804878 48.780487804878 54.5808966861598 0 0 50.5376344086022 46 46 46 54.1922290388548 54.1922290388548 54.1922290388548 54.1922290388548 55.2016985138004 55.2016985138004 55.2016985138004 58.6552217453505 52.2260273972603 46.3483146067416 46.3483146067416 46.3483146067416 46.3483146067416 46.3483146067416 62.7659574468085 87.6897133220911 87.6897133220911 87.6897133220911 67.7480916030534 67.7480916030534 67.7480916030534 67.7480916030534 67.7480916030534 86.7052023121387 86.7052023121387 86.7052023121387 83.1325301204819 89.0151515151515 82.1428571428571 82.1428571428571 82.1428571428571 71.4285714285714 81.9047619047619 81.9047619047619 81.9047619047619 81.3356164383562 81.3356164383562 81.3356164383562 81.3356164383562 89.8161244695898 89.8161244695898 89.8161244695898 89.8161244695898 86.2068965517241 -9999 -9999 89.2531876138434 89.2531876138434 89.2531876138434 90.1287553648069 90.1287553648069 90.1287553648069 90.1287553648069 90.7079646017699 90.7079646017699 90.1287553648069 90.7079646017699 90.1287553648069 90.1287553648069 90.1287553648069 90.1287553648069 -9999 -9999 -9999 -9999 -9999 -9999 -9999 -9999 -9999 -9999 -9999 -9999 -9999 -9999 -9999 -9999 -9999 -9999 -9999 -9999 -9999 -9999 -9999 -9999 -9999 -9999 -9999 -9999 -9999 -9999 -9999
-9999 -9999 -9999 -9999 -9999 -9999 -9999 -9999 -9999 -9999 -9999 -9999 -9999 -9999 -9999 -9999 -9999 -9999 -9999 -9999 -9999 -9999 -9999 -9999 -9999 -9999 -9999 -9999 -9999 -9999 -9999 -9999 -9999 -9999 -9999 -9999 -9999 -9999 -9999 -9999 -9999 -9999 -9999 -9999 -9999 -9999 -9999 -9999 -9999 -9999 -9999 -9999 -9999 -9999 -9999 -9999 -9999 -9999 -9999 -9999 -9999 -9999 -9999 -9999 -9999 -9999 -9999 -9999 -9999 -9999 -9999 -9999 -9999 -9999 -9999 -9999 -9999 -9999 -9999 -9999 -9999 -9999 -9999 -9999 -9999 -9999 -9999 -9999 -9999 -9999 -9999 -9999 -9999 -9999 -9999 -9999 -9999 -9999 -9999 -9999 -9999 -9999 -9999 -9999 -9999 -9999 -9999 -9999 -9999 -9999 -9999 -9999 -9999 -9999 -9999 -9999 -9999 -9999 -9999 -9999 -9999 -9999 -9999 -9999 -9999 -9999 -9999 -9999 -9999 -9999 -9999 -9999 -9999 -9999 -9999 -9999 -9999 -9999 -9999 -9999 -9999 -9999 -9999 -9999 -9999 -9999 -9999 -9999 -9999 -9999 -9999 -9999 -9999 -9999 -9999 -9999 -9999 -9999 -9999 -9999 -9999 -9999 -9999 -9999 -9999 -9999 -9999 -9999 -9999 -9999 -9999 -9999 -9999 -9999 -9999 -9999 -9999 -9999 -9999 -9999 -9999 -9999 -9999 -9999 -9999 -9999 -9999 -9999 -9999 -9999 -9999 -9999 -9999 -9999 -9999 -9999 -9999 -9999 -9999 -9999 -9999 -9999 -9999 -9999 -9999 -9999 -9999 -9999 -9999 -9999 -9999 -9999 -9999 -9999 -9999 -9999 -9999 -9999 -9999 -9999 -9999 -9999 -9999 -9999 -9999 -9999 -9999 -9999 -9999 -9999 -9999 -9999 -9999 -9999 -9999 -9999 -9999 -9999 -9999 -9999 -9999 -9999 -9999 -9999 -9999 -9999 -9999 -9999 -9999 -9999 -9999 -9999 -9999 -9999 -9999 -9999 -9999 -9999 -9999 -9999 -9999 90.3490759753593 -9999 93.1208053691275 93.1208053691275 93.1208053691275 90.4605263157895 90.4605263157895 83.5843373493976 83.5843373493976 83.5843373493976 85.5263157894737 84.3971631205674 84.3971631205674 84.3971631205674 65.2173913043478 72.3270440251572 72.3270440251572 72.3270440251572 66.8058455114823 66.4893617021277 66.4893617021277 73.9856801909308 75.6704980842912 77.1558245083207 77.1558245083207 77.1558245083207 77.1558245083207 77.1558245083207 77.1558245083207 77.1558245083207 69.5876288659794 69.5876288659794 69.5876288659794 69.5876288659794 69.5876288659794 68.3168316831683 72.0250521920668 72.0250521920668 70.1357466063348 70.1357466063348 70.1357466063348 57.6086956521739 56.9620253164557 56.9620253164557 57.3122529644269 57.3122529644269 63.973063973064 54.6296296296296 54.6296296296296 54.6296296296296 54.5886075949367 54.5886075949367 48.780487804878 48.780487804878 63.013698630137 63.013698630137 63.013698630137 0 50.5376344086022 68.1818181818182 50.5376344086022 52.5727069351231 52.5727069351231 52.5727069351231 54.1922290388548 54.1922290388548 51.3428120063191 51.3428120063191 55.2016985138004 51.3428120063191 77.0547945205479 81.9148936170213 81.9148936170213 81.9148936170213 81.9148936170213 62.7659574468085 62.7659574468085 62.7659574468085 62.7659574468085 76.5765765765766 76.5765765765766 81.858407079646 81.858407079646 81.858407079646 90.4977375565611 90.4977375565611 90.4977375565611 90.4977375565611 83.1325301204819 90.4977375565611 83.1325301204819 86.2884160756501 82.1428571428571 71.4285714285714 71.4285714285714 71.4285714285714 -9999 83.8607594936709 72.2477064220184 72.2477064220184 81.5307820299501 81.5307820299501 90.6488549618321 90.6488549618321 87.8693623639191 86.2068965517241 87.8693623639191 89.2531876138434 89.2531876138434 89.2531876138434 89.2531876138434 -9999 -9999 90.1287553648069 90.1287553648069 90.1287553648069 90.1287553648069 90.1287553648069 90.7079646017699 90.7079646017699 90.7079646017699 90.7079646017699 90.1287553648069 -9999 -9999 -9999 -9999 -9999 -9999 -9999 -9999 -9999 -9999 -9999 -9999 -9999 -9999 -9999 -9999 -9999 -9999 -9999 -9999 -9999 -9999 -9999 -9999 -9999 -9999 -9999 -9999 -9999 -9999 -9999
-9999 -9999 -9999 -9999 -9999 -9999 -9999 -9999 -9999 -9999 -9999 -9999 -9999 -9999 -9999 -9999 -9999 -9999 -9999 -9999 -9999 -9999 -9999 -9999 -9999 -9999 -9999 -9999 -9999 -9999 -9999 -9999 -9999 -9999 -9999 -9999 -9999 -9999 -9999 -9999 -9999 -9999 -9999 -9999 -9999 -9999 -9999 -9999 -9999 -9999 -9999 -9999 -9999 -9999 -9999 -9999 -9999 -9999 -9999 -9999 -9999 -9999 -9999 -9999 -9999 -9999 -9999 -9999 -9999 -9999 -9999 -9999 -9999 -9999 -9999 -9999 -9999 -9999 -9999 -9999 -9999 -9999 -9999 -9999 -9999 -9999 -9999 -9999 -9999 -9999 -9999 -9999 -9999 -9999 -9999 -9999 -9999 -9999 -9999 -9999 -9999 -9999 -9999 -9999 -9999 -9999 -9999 -9999 -9999 -9999 -9999 -9999 -9999 -9999 -9999 -9999 -9999 -9999 -9999 -9999 -9999 -9999 -9999 -9999 -9999 -9999 -9999 -9999 -9999 -9999 -9999 -9999 -9999 -9999 -9999 -9999 -9999 -9999 -9999 -9999 -9999 -9999 -9999 -9999 -9999 -9999 -9999 -9999 -9999 -9999 -9999 -9999 -9999 -9999 -9999 -9999 -9999 -9999 -9999 -9999 -9999 -9999 -9999 -9999 -9999 -9999 -9999 -9999 -9999 -9999 -9999 -9999 -9999 -9999 -9999 -9999 -9999 -9999 -9999 -9999 -9999 -9999 -9999 -9999 -9999 -9999 -9999 -9999 -9999 -9999 -9999 -9999 -9999 -9999 -9999 -9999 -9999 -9999 -9999 -9999 -9999 -9999 -9999 -9999 -9999 -9999 -9999 -9999 -9999 -9999 -9999 -9999 -9999 -9999 -9999 -9999 -9999 -9999 -9999 -9999 -9999 -9999 -9999 -9999 -9999 -9999 -9999 -9999 -9999 -9999 -9999 -9999 -9999 -9999 -9999 -9999 -9999 -9999 -9999 -9999 -9999 -9999 -9999 -9999 -9999 -9999 -9999 -9999 -9999 -9999 -9999 -9999 -9999 -9999 -9999 -9999 -9999 -9999 -9999 -9999 90.3490759753593 -9999 90.3490759753593 90.3490759753593 93.1208053691275 93.1208053691275 93.1208053691275 85.3462157809984 85.3462157809984 85.3462157809984 83.5843373493976 83.5843373493976 83.5843373493976 84.3971631205674 73.8137082601054 73.8137082601054 65.2173913043478 65.2173913043478 65.2173913043478 66.4893617021277 66.4893617021277 66.4893617021277 66.4893617021277 77.1558245083207 77.1558245083207 77.1558245083207 77.1558245083207 77.1558245083207 77.1558245083207 77.1558245083207 69.5876288659794 69.5876288659794 69.5876288659794 69.5876288659794 69.5876288659794 69.5876288659794 69.5876288659794 69.5876288659794 70.1357466063348 70.1357466063348 70.1357466063348 77.9816513761468 77.9816513761468 77.9816513761468 56.9620253164557 52.0833333333333 52.0833333333333 52.0833333333333 54.6296296296296 54.6296296296296 54.5886075949367 56.7612687813022 56.7612687813022 54.5886075949367 63.013698630137 63.013698630137 63.013698630137 63.013698630137 60.672514619883 60.672514619883 68.1818181818182 68.1818181818182 68.1818181818182 68.1818181818182 68.1818181818182 68.1818181818182 49.6688741721854 49.6688741721854 49.6688741721854 51.3428120063191 51.3428120063191 77.0547945205479 73.7931034482759 73.7931034482759 73.7931034482759 81.9148936170213 62.7659574468085 62.7659574468085 62.7659574468085 76.5765765765766 76.5765765765766 81.858407079646 81.858407079646 81.858407079646 81.858407079646 -9999 -9999 90.4977375565611 90.4977375565611 90.4977375565611 90.4977375565611 86.2884160756501 86.2884160756501 92.8308823529412 92.8308823529412 92.8308823529412 71.4285714285714 -9999 -9999 -9999 83.8607594936709 83.8607594936709 77.8781038374718 77.8781038374718 87.8693623639191 87.8693623639191 87.8693623639191 89.2531876138434 89.2531876138434 89.2531876138434 89.2531876138434 -9999 -9999 -9999 -9999 -9999 -9999 90.1287553648069 90.1287553648069 90.1287553648069 90.1287553648069 90.1287553648069 90.7079646017699 -9999 -9999 -9999 -9999 -9999 -9999 -9999 -9999 -9999 -9999 -9999 -9999 -9999 -9999 -9999 -9999 -9999 -9999 -9999 -9999 -9999 -9999 -9999 -9999 -9999 -9999 -9999 -9999 -9999 -9999 -9999 -9999
-9999 -9999 -9999 -9999 -9999 -9999 -9999 -9999 -9999 -9999 -9999 -9999 -9999 -9999 -9999 -9999 -9999 -9999 -9999 -9999 -9999 -9999 -9999 -9999 -9999 -9999 -9999 -9999 -9999 -9999 -9999 -9999 -9999 -9999 -9999 -9999 -9999 -9999 -9999 -9999 -9999 -9999 -9999 -9999 -9999 -9999 -9999 -9999 -9999 -9999 -9999 -9999 -9999 -9999 -9999 -9999 -9999 -9999 -9999 -9999 -9999 -9999 -9999 -9999 -9999 -9999 -9999 -9999 -9999 -9999 -9999 -9999 -9999 -9999 -9999 -9999 -9999 -9999 -9999 -9999 -9999 -9999 -9999 -9999 -9999 -9999 -9999 -9999 -9999 -9999 -9999 -9999 -9999 -9999 -9999 -9999 -9999 -9999 -9999 -9999 -9999 -9999 -9999 -9999 -9999 -9999 -9999 -9999 -9999 -9999 -9999 -9999 -9999 -9999 -9999 -9999 -9999 -9999 -9999 -9999 -9999 -9999 -9999 -9999 -9999 -9999 -9999 -9999 -9999 -9999 -9999 -9999 -9999 -9999 -9999 -9999 -9999 -9999 -9999 -9999 -9999 -9999 -9999 -9999 -9999 -9999 -9999 -9999 -9999 -9999 -9999 -9999 -9999 -9999 -9999 -9999 -9999 -9999 -9999 -9999 -9999 -9999 -9999 -9999 -9999 -9999 -9999 -9999 -9999 -9999 -9999 -9999 -9999 -9999 -9999 -9999 -9999 -9999 -9999 -9999 -9999 -9999 -9999 -9999 -9999 -9999 -9999 -9999 -9999 -9999 -9999 -9999 -9999 -9999 -9999 -9999 -9999 -9999 -9999 -9999 -9999 -9999 -9999 -9999 -9999 -9999 -9999 -9999 -9999 -9999 -9999 -9999 -9999 -9999 -9999 -9999 -9999 -9999 -9999 -9999 -9999 -9999 -9999 -9999 -9999 -9999 -9999 -9999 -9999 -9999 -9999 -9999 -9999 -9999 -9999 -9999 -9999 -9999 -9999 -9999 -9999 -9999 -9999 -9999 -9999 -9999 -9999 -9999 -9999 -9999 -9999 -9999 -9999 -9999 -9999 -9999 -9999 -9999 -9999 90.3490759753593 90.3490759753593 -9999 90.3490759753593 90.3490759753593 84.4262295081967 84.4262295081967 84.4262295081967 85.3462157809984 85.3462157809984 85.3462157809984 77.5401069518716 77.5401069518716 83.5843373493976 73.8137082601054 73.8137082601054 73.8137082601054 73.8137082601054 73.8137082601054 65.2173913043478 65.2173913043478 60.9137055837564 66.4893617021277 77.1558245083207 77.1558245083207 77.1558245083207 77.1558245083207 78.3718104495747 78.3718104495747 78.3718104495747 69.5876288659794 69.5876288659794 69.5876288659794 69.5876288659794 69.5876288659794 69.5876288659794 69.5876288659794 69.5876288659794 75.7328990228013 75.7328990228013 75.7328990228013 75.7328990228013 75.591985428051 75.591985428051 77.9816513761468 72.2543352601156 80.0653594771242 80.0653594771242 52.1978021978022 52.1978021978022 52.1978021978022 52.1978021978022 56.7612687813022 54.5886075949367 63.013698630137 63.013698630137 63.013698630137 63.013698630137 68.1818181818182 68.1818181818182 68.1818181818182 60.672514619883 60.672514619883 60.672514619883 68.1818181818182 68.1818181818182 68.1818181818182 69.1244239631336 69.1244239631336 49.6688741721854 49.6688741721854 77.0547945205479 77.0547945205479 60.7613469985359 60.7613469985359 73.7931034482759 79.6296296296296 79.6296296296296 79.6296296296296 62.7659574468085 86.2068965517241 86.2068965517241 86.2068965517241 81.858407079646 81.858407079646 -9999 -9999 -9999 -9999 90.4977375565611 84.349593495935 84.349593495935 86.2884160756501 86.2884160756501 92.8308823529412 92.8308823529412 92.8308823529412 87.1459694989107 87.1459694989107 87.1459694989107 -9999 -9999 -9999 -9999 77.8781038374718 87.8693623639191 87.8693623639191 87.8693623639191 89.2531876138434 89.2531876138434 89.2531876138434 89.2531876138434 -9999 -9999 -9999 -9999 -9999 -9999 -9999 -9999 -9999 90.1287553648069 90.1287553648069 -9999 -9999 -9999 -9999 -9999 -9999 -9999 -9999 -9999 -9999 -9999 -9999 -9999 -9999 -9999 -9999 -9999 -9999 -9999 -9999 -9999 -9999 -9999 -9999 -9999 -9999 -9999 -9999 -9999 -9999 -9999 -9999 -9999
-9999 -9999 -9999 -9999 -9999 -9999 -9999 -9999 -9999 -9999 -9999 -9999 -9999 -9999 -9999 -9999 -9999 -9999 -9999 -9999 -9999 -9999 -9999 -9999 -9999 -9999 -9999 -9999 -9999 -9999 -9999 -9999 -9999 -9999 -9999 -9999 -9999 -9999 -9999 -9999 -9999 -9999 -9999 -9999 -9999 -9999 -9999 -9999 -9999 -9999 -9999 -9999 -9999 -9999 -9999 -9999 -9999 -9999 -9999 -9999 -9999 -9999 -9999 -9999 -9999 -9999 -9999 -9999 -9999 -9999 -9999 -9999 -9999 -9999 -9999 -9999 -9999 -9999 -9999 -9999 -9999 -9999 -9999 -9999 -9999 -9999 -9999 -9999 -9999 -9999 -9999 -9999 -9999 -9999 -9999 -9999 -9999 -9999 -9999 -9999 -9999 -9999 -9999 -9999 -9999 -9999 -9999 -9999 -9999 -9999 -9999 -9999 -9999 -9999 -9999 -9999 -9999 -9999 -9999 -9999 -9999 -9999 -9999 -9999 -9999 -9999 -9999 -9999 -9999 -9999 -9999 -9999 -9999 -9999 -9999 -9999 -9999 -9999 -9999 -9999 -9999 -9999 -9999 -9999 -9999 -9999 -9999 -9999 -9999 -9999 -9999 -9999 -9999 -9999 -9999 -9999 -9999 -9999 -9999 -9999 -9999 -9999 -9999 -9999 -9999 -9999 -9999 -9999 -9999 -9999 -9999 -9999 -9999 -9999 -9999 -9999 -9999 -9999 -9999 -9999 -9999 -9999 -9999 -9999 -9999 -9999 -9999 -9999 -9999 -9999 -9999 -9999 -9999 -9999 -9999 -9999 -9999 -9999 -9999 -9999 -9999 -9999 -9999 -9999 -9999 -9999 -9999 -9999 -9999 -9999 -9999 -9999 -9999 -9999 -9999 -9999 -9999 -9999 -9999 -9999 -9999 -9999 -9999 -9999 -9999 -9999 -9999 -9999 -9999 -9999 -9999 -9999 -9999 -9999 -9999 -9999 -9999 -9999 -9999 -9999 -9999 -9999 -9999 -9999 -9999 -9999 -9999 -9999 -9999 -9999 -9999 -9999 -9999 -9999 -9999 -9999 -9999 -9999 90.3490759753593 90.3490759753593 90.3490759753593 90.3490759753593 90.3490759753593 90.3490759753593 84.4262295081967 84.4262295081967 86.6788321167883 86.6788321167883 86.6788321167883 86.7430441898527 77.5401069518716 77.5401069518716 77.6942355889724 73.8137082601054 73.8137082601054 73.8137082601054 73.8137082601054 73.8137082601054 73.8137082601054 60.9137055837564 60.9137055837564 60.9137055837564 59.1966173361522 77.1558245083207 77.1558245083207 79.7962648556876 59.4262295081967 59.4262295081967 69.5876288659794 69.5876288659794 69.5876288659794 69.5876288659794 69.5876288659794 69.5876288659794 69.5876288659794 69.5876288659794 75.7328990228013 75.7328990228013 75.7328990228013 75.7328990228013 75.7328990228013 75.7328990228013 75.7328990228013 75.591985428051 72.2543352601156 72.2543352601156 72.5952813067151 72.5952813067151 69.1114245416079 52.1978021978022 56.7612687813022 56.7612687813022 63.013698630137 63.013698630137 63.013698630137 63.013698630137 60.672514619883 60.672514619883 60.672514619883 68.1818181818182 68.1818181818182 68.1818181818182 68.1818181818182 68.1818181818182 68.1818181818182 73.449401523395 73.449401523395 73.449401523395 69.1244239631336 60.7613469985359 60.7613469985359 60.7613469985359 60.7613469985359 60.7613469985359 86.1513687600644 86.1513687600644 86.1513687600644 79.6296296296296 86.2913096695226 86.2913096695226 86.2913096695226 86.2068965517241 86.2068965517241 -9999 -9999 -9999 -9999 -9999 -9999 -9999 84.349593495935 84.349593495935 82.2147651006711 82.2147651006711 82.2147651006711 88.7096774193548 87.1459694989107 87.1459694989107 92.3482849604222 92.3482849604222 89.4736842105263 89.4736842105263 -9999 87.8693623639191 87.8693623639191 87.8693623639191 89.2531876138434 89.2531876138434 89.2531876138434 89.2531876138434 -9999 -9999 -9999 -9999 -9999 -9999 -9999 -9999 -9999 -9999 -9999 -9999 -9999 -9999 -9999 -9999 -9999 -9999 -9999 -9999 -9999 -9999 -9999 -9999 -9999 -9999 -9999 -9999 -9999 -9999 -9999 -9999 -9999 -9999 -9999 -9999 -9999 -9999 -9999 -9999 -9999 -9999 -9999 -9999 -9999
-9999 -9999 -9999 -9999 -9999 -9999 -9999 -9999 -9999 -9999 -9999 -9999 -9999 -9999 -9999 -9999 -9999 -9999 -9999 -9999 -9999 -9999 -9999 -9999 -9999 -9999 -9999 -9999 -9999 -9999 -9999 -9999 -9999 -9999 -9999 -9999 -9999 -9999 -9999 -9999 -9999 -9999 -9999 -9999 -9999 -9999 -9999 -9999 -9999 -9999 -9999 -9999 -9999 -9999 -9999 -9999 -9999 -9999 -9999 -9999 -9999 -9999 -9999 -9999 -9999 -9999 -9999 -9999 -9999 -9999 -9999 -9999 -9999 -9999 -9999 -9999 -9999 -9999 -9999 -9999 -9999 -9999 -9999 -9999 -9999 -9999 -9999 -9999 -9999 -9999 -9999 -9999 -9999 -9999 -9999 -9999 -9999 -9999 -9999 -9999 -9999 -9999 -9999 -9999 -9999 -9999 -9999 -9999 -9999 -9999 -9999 -9999 -9999 -9999 -9999 -9999 -9999 -9999 -9999 -9999 -9999 -9999 -9999 -9999 -9999 -9999 -9999 -9999 -9999 -9999 -9999 -9999 -9999 -9999 -9999 -9999 -9999 -9999 -9999 -9999 -9999 -9999 -9999 -9999 -9999 -9999 -9999 -9999 -9999 -9999 -9999 -9999 -9999 -9999 -9999 -9999 -9999 -9999 -9999 -9999 -9999 -9999 -9999 -9999 -9999 -9999 -9999 -9999 -9999 -9999 -9999 -9999 -9999 -9999 -9999 -9999 -9999 -9999 -9999 -9999 -9999 -9999 -9999 -9999 -9999 -9999 -9999 -9999 -9999 -9999 -9999 -9999 -9999 -9999 -9999 -9999 -9999 -9999 -9999 -9999 -9999 -9999 -9999 -9999 -9999 -9999 -9999 -9999 -9999 -9999 -9999 -9999 -9999 -9999 -9999 -9999 -9999 -9999 -9999 -9999 -9999 -9999 -9999 -9999 -9999 -9999 -9999 -9999 -9999 -9999 -9999 -9999 -9999 -9999 -9999 -9999 -9999 -9999 -9999 -9999 -9999 -9999 -9999 -9999 -9999 -9999 -9999 -9999 -9999 -9999 -9999 -9999 -9999 -9999 -9999 -9999 -9999 90.3490759753593 90.3490759753593 90.3490759753593 90.3490759753593 90.3490759753593 88.4879725085911 81.1088295687885 81.1088295687885 88.0681818181818 88.0681818181818 86.6788321167883 86.7430441898527 86.7430441898527 86.7430441898527 86.7430441898527 77.6942355889724 77.6942355889724 77.6942355889724 73.8137082601054 73.8137082601054 73.8137082601054 63.943161634103 63.943161634103 63.943161634103 59.1966173361522 59.1966173361522 59.1966173361522 61.491935483871 77.1558245083207 59.4262295081967 59.4262295081967 70.4697986577181 75.3086419753086 75.3086419753086 69.5876288659794 69.5876288659794 69.5876288659794 69.5876288659794 75.7328990228013 75.7328990228013 75.7328990228013 75.7328990228013 75.7328990228013 75.7328990228013 75.7328990228013 75.7328990228013 75.7328990228013 75.7328990228013 64.2523364485981 64.2523364485981 64.2523364485981 69.1114245416079 69.1114245416079 69.1114245416079 63.013698630137 63.013698630137 63.013698630137 63.013698630137 60.672514619883 60.672514619883 60.672514619883 60.672514619883 60.672514619883 60.672514619883 55 68.1818181818182 68.1818181818182 73.449401523395 69.5681973954763 73.449401523395 73.449401523395 60.7613469985359 60.7613469985359 60.7613469985359 60.7613469985359 60.7613469985359 86.1513687600644 86.1513687600644 86.1513687600644 86.1513687600644 89.9390243902439 89.9390243902439 89.9390243902439 86.2913096695226 91.7910447761194 91.7910447761194 94.53125 -9999 -9999 -9999 -9999 -9999 -9999 -9999 -9999 -9999 82.2147651006711 82.2147651006711 88.7096774193548 88.7096774193548 88.7096774193548 90.080971659919 92.3482849604222 89.4736842105263 89.4736842105263 89.2448512585812 89.2448512585812 89.2448512585812 87.8693623639191 89.2531876138434 89.2531876138434 89.2531876138434 89.2531876138434 -9999 -9999 -9999 -9999 -9999 -9999 -9999 -9999 -9999 -9999 -9999 -9999 -9999 -9999 -9999 -9999 -9999 -9999 -9999 -9999 -9999 -9999 -9999 -9999 -9999 -9999 -9999 -9999 -9999 -9999 -9999 -9999 -9999 -9999 -9999 -9999 -9999 -9999 -9999 -9999 -9999 -9999 -9999 -9999 -9999
-9999 -9999 -9999 -9999 -9999 -9999 -9999 -9999 -9999 -9999 -9999 -9999 -9999 -9999 -9999 -9999 -9999 -9999 -9999 -9999 -9999 -9999 -9999 -9999 -9999 -9999 -9999 -9999 -9999 -9999 -9999 -9999 -9999 -9999 -9999 -9999 -9999 -9999 -9999 -9999 -9999 -9999 -9999 -9999 -9999 -9999 -9999 -9999 -9999 -9999 -9999 -9999 -9999 -9999 -9999 -9999 -9999 -9999 -9999 -9999 -9999 -9999 -9999 -9999 -9999 -9999 -9999 -9999 -9999 -9999 -9999 -9999 -9999 -9999 -9999 -9999 -9999 -9999 -9999 -9999 -9999 -9999 -9999 -9999 -9999 -9999 -9999 -9999 -9999 -9999 -9999 -9999 -9999 -9999 -9999 -9999 -9999 -9999 -9999 -9999 -9999 -9999 -9999 -9999 -9999 -9999 -9999 -9999 -9999 -9999 -9999 -9999 -9999 -9999 -9999 -9999 -9999 -9999 -9999 -9999 -9999 -9999 -9999 -9999 -9999 -9999 -9999 -9999 -9999 -9999 -9999 -9999 -9999 -9999 -9999 -9999 -9999 -9999 -9999 -9999 -9999 -9999 -9999 -9999 -9999 -9999 -9999 -9999 -9999 -9999 -9999 -9999 -9999 -9999 -9999 -9999 -9999 -9999 -9999 -9999 -9999 -9999 -9999 -9999 -9999 -9999 -9999 -9999 -9999 -9999 -9999 -9999 -9999 -9999 -9999 -9999 -9999 -9999 -9999 -9999 -9999 -9999 -9999 -9999 -9999 -9999 -9999 -9999 -9999 -9999 -9999 -9999 -9999 -9999 -9999 -9999 -9999 -9999 -9999 -9999 -9999 -9999 -9999 -9999 -9999 -9999 -9999 -9999 -9999 -9999 -9999 -9999 -9999 -9999 -9999 -9999 -9999 -9999 -9999 -9999 -9999 -9999 -9999 -9999 -9999 -9999 -9999 -9999 -9999 -9999 -9999 -9999 -9999 -9999 -9999 -9999 -9999 -9999 -9999 -9999 -9999 -9999 -9999 -9999 -9999 -9999 -9999 -9999 -9999 -9999 -9999 -9999 -9999 -9999 -9999 -9999 -9999 -9999 -9999 90.3490759753593 90.3490759753593 90.3490759753593 88.4879725085911 88.4879725085911 81.1088295687885 88.0681818181818 88.0681818181818 88.0681818181818 86.7430441898527 86.7430441898527 86.7430441898527 87.0786516853933 87.0786516853933 87.0786516853933 73.8916256157635 73.8916256157635 73.8137082601054 73.8916256157635 63.943161634103 63.943161634103 71.6743119266055 71.6743119266055 59.1966173361522 61.491935483871 61.491935483871 61.491935483871 61.491935483871 67.3624288425047 67.3624288425047 70.4697986577181 69.7674418604651 69.5876288659794 69.5876288659794 69.5876288659794 75.7328990228013 75.7328990228013 75.7328990228013 75.7328990228013 75.7328990228013 75.7328990228013 75.7328990228013 75.7328990228013 75.7328990228013 75.7328990228013 75.7328990228013 75.7328990228013 75.7328990228013 64.2523364485981 64.2523364485981 64.2523364485981 69.1114245416079 63.013698630137 63.013698630137 63.013698630137 60.672514619883 60.672514619883 60.672514619883 60.672514619883 60.672514619883 60.672514619883 55 55 60.672514619883 68.1818181818182 69.5681973954763 69.5681973954763 69.5681973954763 75.6457564575646 75.6457564575646 75.6457564575646 75.6457564575646 60.7613469985359 80.7899461400359 80.7899461400359 80.7899461400359 86.1513687600644 91.3120567375886 91.3120567375886 91.3120567375886 89.9390243902439 91.7910447761194 91.7910447761194 94.53125 94.53125 94.53125 -9999 -9999 -9999 -9999 -9999 -9999 -9999 -9999 -9999 92.8571428571429 92.8571428571429 88.7096774193548 92.8571428571429 90.080971659919 90.080971659919 90.080971659919 90.080971659919 94.392523364486 94.392523364486 89.2448512585812 89.2531876138434 89.2531876138434 89.2531876138434 89.2531876138434 -9999 -9999 -9999 -9999 -9999 -9999 -9999 -9999 -9999 -9999 -9999 -9999 -9999 -9999 -9999 -9999 -9999 -9999 -9999 -9999 -9999 -9999 -9999 -9999 -9999 -9999 -9999 -9999 -9999 -9999 -9999 -9999 -9999 -9999 -9999 -9999 -9999 -9999 -9999 -9999 -9999 -9999 -9999 -9999 -9999 -9999
-9999 -9999 -9999 -9999 -9999 -9999 -9999 -9999 -9999 -9999 -9999 -9999 -9999 -9999 -9999 -9999 -9999 -9999 -9999 -9999 -9999 -9999 -9999 -9999 -9999 -9999 -9999 -9999 -9999 -9999 -9999 -9999 -9999 -9999 -9999 -9999 -9999 -9999 -9999 -9999 -9999 -9999 -9999 -9999 -9999 -9999 -9999 -9999 -9999 -9999 -9999 -9999 -9999 -9999 -9999 -9999 -9999 -9999 -9999 -9999 -9999 -9999 -9999 -9999 -9999 -9999 -9999 -9999 -9999 -9999 -9999 -9999 -9999 -9999 -9999 -9999 -9999 -9999 -9999 -9999 -9999 -9999 -9999 -9999 -9999 -9999 -9999 -9999 -9999 -9999 -9999 -9999 -9999 -9999 -9999 -9999 -9999 -9999 -9999 -9999 -9999 -9999 -9999 -9999 -9999 -9999 -9999 -9999 -9999 -9999 -9999 -9999 -9999 -9999 -9999 -9999 -9999 -9999 -9999 -9999 -9999 -9999 -9999 -9999 -9999 -9999 -9999 -9999 -9999 -9999 -9999 -9999 -9999 -9999 -9999 -9999 -9999 -9999 -9999 -9999 -9999 -9999 -9999 -9999 -9999 -9999 -9999 -9999 -9999 -9999 -9999 -9999 -9999 -9999 -9999 -9999 -9999 -9999 -9999 -9999 -9999 -9999 -9999 -9999 -9999 -9999 -9999 -9999 -9999 -9999 -9999 -9999 -9999 -9999 -9999 -9999 -9999 -9999 -9999 -9999 -9999 -9999 -9999 -9999 -9999 -9999 -9999 -9999 -9999 -9999 -9999 -9999 -9999 -9999 -9999 -9999 -9999 -9999 -9999 -9999 -9999 -9999 -9999 -9999 -9999 -9999 -9999 -9999 -9999 -9999 -9999 -9999 -9999 -9999 -9999 -9999 -9999 -9999 -9999 -9999 -9999 -9999 -9999 -9999 -9999 -9999 -9999 -9999 -9999 -9999 -9999 -9999 -9999 -9999 -9999 -9999 -9999 -9999 -9999 -9999 -9999 -9999 -9999 -9999 -9999 -9999 -9999 -9999 -9999 -9999 -9999 -9999 -9999 -9999 -9999 -9999 -9999 -9999 -9999 -9999 -9999 88.4879725085911 88.4879725085911 88.4879725085911 83.8150289017341 83.8150289017341 83.8150289017341 89.7435897435898 89.7435897435898 89.7435897435898 86.2068965517241 86.2068965517241 86.2068965517241 71.6253443526171 73.9191073919107 73.9191073919107 73.9191073919107 73.8916256157635 73.8916256157635 71.6743119266055 71.6743119266055 71.6743119266055 61.491935483871 61.491935483871 61.491935483871 61.491935483871 71.2451861360719 71.2451861360719 71.2451861360719 67.3624288425047 67.3624288425047 67.3624288425047 69.7674418604651 75.7328990228013 75.7328990228013 75.7328990228013 75.7328990228013 75.7328990228013 75.7328990228013 75.7328990228013 75.7328990228013 75.7328990228013 75.7328990228013 75.7328990228013 75.7328990228013 75.7328990228013 75.7328990228013 75.7328990228013 75.7328990228013 75.7328990228013 68.7772925764192 68.7772925764192 68.7772925764192 60.672514619883 60.672514619883 60.672514619883 64.7948164146868 64.7948164146868 64.7948164146868 60.672514619883 60.672514619883 60.672514619883 60.672514619883 69.5681973954763 69.5681973954763 69.5681973954763 79.9748110831234 79.9748110831234 79.9748110831234 79.9748110831234 75.6457564575646 83.4813499111901 83.4813499111901 83.4813499111901 80.7899461400359 79.330422125182 79.330422125182 79.330422125182 91.3120567375886 91.7910447761194 91.7910447761194 91.7910447761194 94.53125 94.53125 94.53125 -9999 -9999 94.53125 94.53125 94.53125 -9999 -9999 -9999 92.8571428571429 92.8571428571429 92.8571428571429 92.8571428571429 92.8571428571429 92.8571428571429 92.8571428571429 92.8571428571429 97.0149253731343 97.0149253731343 94.392523364486 89.5348837209302 89.5348837209302 89.5348837209302 89.2531876138434 86.2903225806452 -9999 -9999 -9999 -9999 -9999 -9999 -9999 -9999 -9999 -9999 -9999 -9999 -9999 -9999 -9999 -9999 -9999 -9999 -9999 -9999 -9999 -9999 -9999 -9999 -9999 -9999 -9999 -9999 -9999 -9999 -9999 -9999 -9999 -9999 -9999 -9999 -9999 -9999 -9999 -9999 -9999 -9999 -9999 -9999 -9999 -9999
-9999 -9999 -9999 -9999 -9999 -9999 -9999 -9999 -9999 -9999 -9999 -9999 -9999 -9999 -9999 -9999 -9999 -9999 -9999 -9999 -9999 -9999 -9999 -9999 -9999 -9999 -9999 -9999 -9999 -9999 -9999 -9999 -9999 -9999 -9999 -9999 -9999 -9999 -9999 -9999 -9999 -9999 -9999 -9999 -9999 -9999 -9999 -9999 -9999 -9999 -9999 -9999 -9999 -9999 -9999 -9999 -9999 -9999 -9999 -9999 -9999 -9999 -9999 -9999 -9999 -9999 -9999 -9999 -9999 -9999 -9999 -9999 -9999 -9999 -9999 -9999 -9999 -9999 -9999 -9999 -9999 -9999 -9999 -9999 -9999 -9999 -9999 -9999 -9999 -9999 -9999 -9999 -9999 -9999 -9999 -9999 -9999 -9999 -9999 -9999 -9999 -9999 -9999 -9999 -9999 -9999 -9999 -9999 -9999 -9999 -9999 -9999 -9999 -9999 -9999 -9999 -9999 -9999 -9999 -9999 -9999 -9999 -9999 -9999 -9999 -9999 -9999 -9999 -9999 -9999 -9999 -9999 -9999 -9999 -9999 -9999 -9999 -9999 -9999 -9999 -9999 -9999 -9999 -9999 -9999 -9999 -9999 -9999 -9999 -9999 -9999 -9999 -9999 -9999 -9999 -9999 -9999 -9999 -9999 -9999 -9999 -9999 -9999 -9999 -9999 -9999 -9999 -9999 -9999 -9999 -9999 -9999 -9999 -9999 -9999 -9999 -9999 -9999 -9999 -9999 -9999 -9999 -9999 -9999 -9999 -9999 -9999 -9999 -9999 -9999 -9999 -9999 -9999 -9999 -9999 -9999 -9999 -9999 -9999 -9999 -9999 -9999 -9999 -9999 -9999 -9999 -9999 -9999 -9999 -9999 -9999 -9999 -9999 -9999 -9999 -9999 -9999 -9999 -9999 -9999 -9999 -9999 -9999 -9999 -9999 -9999 -9999 -9999 -9999 -9999 -9999 -9999 -9999 -9999 -9999 -9999 -9999 -9999 -9999 -9999 -9999 -9999 -9999 -9999 -9999 -9999 -9999 -9999 -9999 -9999 -9999 -9999 -9999 -9999 -9999 -9999 -9999 -9999 -9999 -9999 0 0 82.5958702064897 88.4879725085911 83.8150289017341 83.8150289017341 83.8150289017341 89.7435897435898 89.7435897435898 79.6116504854369 79.6116504854369 86.2068965517241 71.6253443526171 71.6253443526171 71.6253443526171 71.6253443526171 73.9191073919107 73.9191073919107 76.5845070422535 76.5845070422535 76.5845070422535 71.6743119266055 61.491935483871 61.491935483871 61.491935483871 58.2278481012658 58.2278481012658 67.1232876712329 66.2751677852349 74.26597582038 74.26597582038 74.26597582038 70.5426356589147 70.5426356589147 70.5426356589147 64.128256513026 64.128256513026 75.7328990228013 75.7328990228013 75.7328990228013 75.7328990228013 75.7328990228013 75.7328990228013 75.7328990228013 75.7328990228013 75.7328990228013 75.7328990228013 75.7328990228013 75.7328990228013 67.5213675213675 68.7772925764192 68.7772925764192 68.7772925764192 68.7772925764192 68.7772925764192 60.672514619883 59.1216216216216 59.1216216216216 59.1216216216216 59.1216216216216 59.1216216216216 59.1216216216216 63.0182421227197 63.0182421227197 69.5681973954763 79.9748110831234 79.9748110831234 79.9748110831234 79.9748110831234 79.9748110831234 81.8505338078292 81.8505338078292 81.8505338078292 83.4813499111901 86.232980332829 86.232980332829 86.232980332829 79.330422125182 79.330422125182 91.7910447761194 91.7910447761194 94.53125 94.53125 94.53125 94.53125 -9999 94.53125 94.53125 94.53125 94.53125 94.53125 94.53125 94.53125 92.8571428571429 92.8571428571429 92.8571428571429 92.8571428571429 92.8571428571429 92.8571428571429 92.8571428571429 97.0149253731343 97.0149253731343 97.0149253731343 97.0149253731343 91.3140311804009 91.3140311804009 91.3140311804009 91.3140311804009 86.2903225806452 87.5984251968504 87.5984251968504 86.2903225806452 -9999 -9999 -9999 -9999 -9999 -9999 -9999 -9999 -9999 -9999 -9999 -9999 -9999 -9999 -9999 -9999 -9999 -9999 -9999 -9999 -9999 -9999 -9999 -9999 -9999 -9999 -9999 -9999 -9999 -9999 -9999 -9999 -9999 -9999 -9999 -9999 -9999 -9999 -9999 -9999 -9999 -9999 -9999
-9999 -9999 -9999 -9999 -9999 -9999 -9999 -9999 -9999 -9999 -9999 -9999 -9999 -9999 -9999 -9999 -9999 -9999 -9999 -9999 -9999 -9999 -9999 -9999 -9999 -9999 -9999 -9999 -9999 -9999 -9999 -9999 -9999 -9999 -9999 -9999 -9999 -9999 -9999 -9999 -9999 -9999 -9999 -9999 -9999 -9999 -9999 -9999 -9999 -9999 -9999 -9999 -9999 -9999 -9999 -9999 -9999 -9999 -9999 -9999 -9999 -9999 -9999 -9999 -9999 -9999 -9999 -9999 -9999 -9999 -9999 -9999 -9999 -9999 -9999 -9999 -9999 -9999 -9999 -9999 -9999 -9999 -9999 -9999 -9999 -9999 -9999 -9999 -9999 -9999 -9999 -9999 -9999 -9999 -9999 -9999 -9999 -9999 -9999 -9999 -9999 -9999 -9999 -9999 -9999 -9999 -9999 -9999 -9999 -9999 -9999 -9999 -9999 -9999 -9999 -9999 -9999 -9999 -9999 -9999 -9999 -9999 -9999 -9999 -9999 -9999 -9999 -9999 -9999 -9999 -9999 -9999 -9999 -9999 -9999 -9999 -9999 -9999 -9999 -9999 -9999 -9999 -9999 -9999 -9999 -9999 -9999 -9999 -9999 -9999 -9999 -9999 -9999 -9999 -9999 -9999 -9999 -9999 -9999 -9999 -9999 -9999 -9999 -9999 -9999 -9999 -9999 -9999 -9999 -9999 -9999 -9999 -9999 -9999 -9999 -9999 -9999 -9999 -9999 -9999 -9999 -9999 -9999 -9999 -9999 -9999 -9999 -9999 -9999 -9999 -9999 -9999 -9999 -9999 -9999 -9999 -9999 -9999 -9999 -9999 -9999 -9999 -9999 -9999 -9999 -9999 -9999 -9999 -9999 -9999 -9999 -9999 -9999 -9999 -9999 -9999 -9999 -9999 -9999 -9999 -9999 -9999 -9999 -9999 -9999 -9999 -9999 -9999 -9999 -9999 -9999 -9999 -9999 -9999 -9999 -9999 -9999 -9999 -9999 -9999 -9999 -9999 -9999 -9999 -9999 -9999 -9999 -9999 -9999 -9999 -9999 -9999 -9999 -9999 -9999 -9999 -9999 -9999 -9999 -9999 0 0 82.5958702064897 83.8574423480084 83.8574423480084 83.8150289017341 89.7435897435898 89.7435897435898 83.1775700934579 79.6116504854369 79.6116504854369 68.5413005272408 71.6253443526171 71.6253443526171 71.6253443526171 73.9191073919107 73.9191073919107 62.6283367556468 66.5499124343257 66.5499124343257 76.5845070422535 76.5845070422535 65.1785714285714 65.1785714285714 64.0138408304498 70.7762557077626 65.8995815899582 66.2337662337662 66.2751677852349 66.2751677852349 66.2751677852349 67.5675675675676 67.5675675675676 67.5675675675676 64.6186440677966 73.1132075471698 73.1132075471698 66.9491525423729 75.7328990228013 75.7328990228013 75.7328990228013 75.7328990228013 75.7328990228013 75.7328990228013 75.7328990228013 75.7328990228013 75.7328990228013 75.7328990228013 68.7022900763359 67.5213675213675 67.5213675213675 75.5813953488372 75.5813953488372 75.5813953488372 68.7772925764192 71.8038528896673 71.8038528896673 59.1216216216216 59.1216216216216 59.1216216216216 59.1216216216216 63.0182421227197 63.0182421227197 63.0182421227197 63.0182421227197 79.9748110831234 83.3333333333333 79.9748110831234 79.9748110831234 81.8505338078292 81.8505338078292 86.7117117117117 81.8505338078292 81.8505338078292 86.864406779661 86.864406779661 86.232980332829 86.232980332829 86.232980332829 86.232980332829 94.53125 94.53125 94.53125 94.53125 94.53125 94.53125 94.53125 94.53125 94.53125 94.53125 94.53125 94.53125 92.8571428571429 92.8571428571429 92.8571428571429 92.8571428571429 92.8571428571429 92.8571428571429 92.8571428571429 92.8571428571429 97.0149253731343 97.0149253731343 97.0149253731343 91.3140311804009 91.3140311804009 91.3140311804009 91.3140311804009 86.2903225806452 86.2903225806452 86.2903225806452 86.2903225806452 86.2903225806452 86.2903225806452 92.2165820642978 92.2165820642978 92.2165820642978 92.2165820642978 -9999 -9999 -9999 -9999 -9999 -9999 -9999 -9999 -9999 -9999 -9999 -9999 -9999 -9999 -9999 -9999 -9999 -9999 -9999 -9999 -9999 -9999 -9999 -9999 -9999 -9999 -9999 -9999 -9999 -9999 -9999 -9999 -9999 -9999 -9999 -9999 -9999 -9999
-9999 -9999 -9999 -9999 -9999 -9999 -9999 -9999 -9999 -9999 -9999 -9999 -9999 -9999 -9999 -9999 -9999 -9999 -9999 -9999 -9999 -9999 -9999 -9999 -9999 -9999 -9999 -9999 -9999 -9999 -9999 -9999 -9999 -9999 -9999 -9999 -9999 -9999 -9999 -9999 -9999 -9999 -9999 -9999 -9999 -9999 -9999 -9999 -9999 -9999 -9999 -9999 -9999 -9999 -9999 -9999 -9999 -9999 -9999 -9999 -9999 -9999 -9999 -9999 -9999 -9999 -9999 -9999 -9999 -9999 -9999 -9999 -9999 -9999 -9999 -9999 -9999 -9999 -9999 -9999 -9999 -9999 -9999 -9999 -9999 -9999 -9999 -9999 -9999 -9999 -9999 -9999 -9999 -9999 -9999 -9999 -9999 -9999 -9999 -9999 -9999 -9999 -9999 -9999 -9999 -9999 -9999 -9999 -9999 -9999 -9999 -9999 -9999 -9999 -9999 -9999 -9999 -9999 -9999 -9999 -9999 -9999 -9999 -9999 -9999 -9999 -9999 -9999 -9999 -9999 -9999 -9999 -9999 -9999 -9999 -9999 -9999 -9999 -9999 -9999 -9999 -9999 -9999 -9999 -9999 -9999 -9999 -9999 -9999 -9999 -9999 -9999 -9999 -9999 -9999 -9999 -9999 -9999 -9999 -9999 -9999 -9999 -9999 -9999 -9999 -9999 -9999 -9999 -9999 -9999 -9999 -9999 -9999 -9999 -9999 -9999 -9999 -9999 -9999 -9999 -9999 -9999 -9999 -9999 -9999 -9999 -9999 -9999 -9999 -9999 -9999 -9999 -9999 -9999 -9999 -9999 -9999 -9999 -9999 -9999 -9999 -9999 -9999 -9999 -9999 -9999 -9999 -9999 -9999 -9999 -9999 -9999 -9999 -9999 -9999 -9999 -9999 -9999 -9999 -9999 -9999 -9999 -9999 -9999 -9999 -9999 -9999 -9999 -9999 -9999 -9999 -9999 -9999 -9999 -9999 -9999 -9999 -9999 -9999 -9999 -9999 -9999 -9999 -9999 -9999 -9999 -9999 -9999 -9999 -9999 -9999 -9999 -9999 -9999 -9999 -9999 -9999 -9999 -9999 0 0 0 82.5958702064897 83.8574423480084 83.8574423480084 83.8574423480084 83.8574423480084 83.8574423480084 83.1775700934579 83.1775700934579 83.1775700934579 68.5413005272408 68.5413005272408 68.5413005272408 64.2123287671233 64.2123287671233 73.9191073919107 62.6283367556468 62.6283367556468 66.5499124343257 66.5499124343257 65.1785714285714 65.1785714285714 64.0138408304498 64.0138408304498 64.0138408304498 64.0138408304498 64.0138408304498 66.2337662337662 66.2337662337662 70.281124497992 62.7413127413127 62.7413127413127 77.8443113772455 77.8443113772455 77.8443113772455 64.6186440677966 64.6186440677966 62.2083981337481 75.7328990228013 75.7328990228013 75.7328990228013 75.7328990228013 75.7328990228013 75.7328990228013 75.7328990228013 75.7328990228013 68.7022900763359 68.7022900763359 68.7022900763359 68.7022900763359 75.5813953488372 75.5813953488372 75.5813953488372 75.5813953488372 71.8038528896673 71.8038528896673 71.5130023640662 71.5130023640662 71.5130023640662 63.0182421227197 63.0182421227197 63.0182421227197 63.0182421227197 -9999 -9999 83.3333333333333 83.3333333333333 83.3333333333333 89.2857142857143 86.7117117117117 86.7117117117117 86.7117117117117 86.864406779661 86.864406779661 86.864406779661 86.864406779661 86.864406779661 86.864406779661 -9999 -9999 -9999 -9999 94.53125 94.53125 94.53125 94.53125 94.53125 94.53125 94.53125 94.53125 -9999 92.8571428571429 92.8571428571429 92.8571428571429 92.8571428571429 92.8571428571429 92.8571428571429 92.8571428571429 97.0149253731343 97.0149253731343 97.0149253731343 97.0149253731343 91.3140311804009 91.3140311804009 91.3140311804009 91.3140311804009 86.2903225806452 86.2903225806452 86.2903225806452 86.2903225806452 86.2903225806452 86.2903225806452 86.2903225806452 86.2903225806452 86.2903225806452 -9999 -9999 -9999 -9999 -9999 -9999 -9999 -9999 -9999 -9999 -9999 -9999 -9999 -9999 -9999 -9999 -9999 -9999 -9999 -9999 -9999 -9999 -9999 -9999 -9999 -9999 -9999 -9999 -9999 -9999 -9999 -9999 -9999 -9999 -9999 -9999 -9999 -9999 -9999
-9999 -9999 -9999 -9999 -9999 -9999 -9999 -9999 -9999 -9999 -9999 -9999 -9999 -9999 -9999 -9999 -9999 -9999 -9999 -9999 -9999 -9999 -9999 -9999 -9999 -9999 -9999 -9999 -9999 -9999 -9999 -9999 -9999 -9999 -9999 -9999 -9999 -9999 -9999 -9999 -9999 -9999 -9999 -9999 -9999 -9999 -9999 -9999 -9999 -9999 -9999 -9999 -9999 -9999 -9999 -9999 -9999 -9999 -9999 -9999 -9999 -9999 -9999 -9999 -9999 -9999 -9999 -9999 -9999 -9999 -9999 -9999 -9999 -9999 -9999 -9999 -9999 -9999 -9999 -9999 -9999 -9999 -9999 -9999 -9999 -9999 -9999 -9999 -9999 -9999 -9999 -9999 -9999 -9999 -9999 -9999 -9999 -9999 -9999 -9999 -9999 -9999 -9999 -9999 -9999 -9999 -9999 -9999 -9999 -9999 -9999 -9999 -9999 -9999 -9999 -9999 -9999 -9999 -9999 -9999 -9999 -9999 -9999 -9999 -9999 -9999 -9999 -9999 -9999 -9999 -9999 -9999 -9999 -9999 -9999 -9999 -9999 -9999 -9999 -9999 -9999 -9999 -9999 -9999 -9999 -9999 -9999 -9999 -9999 -9999 -9999 -9999 -9999 -9999 -9999 -9999 -9999 -9999 -9999 -9999 -9999 -9999 -9999 -9999 -9999 -9999 -9999 -9999 -9999 -9999 -9999 -9999 -9999 -9999 -9999 -9999 -9999 -9999 -9999 -9999 -9999 -9999 -9999 -9999 -9999 -9999 -9999 -9999 -9999 -9999 -9999 -9999 -9999 -9999 -9999 -9999 -9999 -9999 -9999 -9999 -9999 -9999 -9999 -9999 -9999 -9999 -9999 -9999 -9999 -9999 -9999 -9999 -9999 -9999 -9999 -9999 -9999 -9999 -9999 -9999 -9999 -9999 -9999 -9999 -9999 -9999 -9999 -9999 -9999 -9999 -9999 -9999 -9999 -9999 -9999 -9999 -9999 -9999 -9999 -9999 -9999 -9999 -9999 -9999 -9999 -9999 -9999 -9999 -9999 -9999 -9999 -9999 -9999 -9999 -9999 -9999 -9999 -9999 -9999 0 0 90.6040268456376 83.8574423480084 86.1386138613861 77.8145695364238 83.8574423480084 83.8574423480084 86.1650485436893 86.1650485436893 86.1650485436893 68.5413005272408 68.5413005272408 68.5413005272408 64.2123287671233 64.2123287671233 64.2123287671233 65.1785714285714 62.6283367556468 65.1785714285714 65.1785714285714 65.1785714285714 65.1785714285714 64.0138408304498 64.0138408304498 64.0138408304498 64.0138408304498 64.0138408304498 64.0138408304498 64.0138408304498 70.281124497992 70.281124497992 70.281124497992 70.281124497992 77.8443113772455 77.8443113772455 77.8443113772455 70.281124497992 70.281124497992 64.6186440677966 64.6186440677966 62.2083981337481 56.4053537284895 56.4053537284895 75.7328990228013 75.7328990228013 75.7328990228013 73.7951807228916 73.7951807228916 68.7022900763359 68.7022900763359 68.7022900763359 68.7022900763359 68.7022900763359 75.5813953488372 75.5813953488372 75.5813953488372 71.5130023640662 71.5130023640662 71.5130023640662 71.5130023640662 71.5130023640662 71.5130023640662 63.0182421227197 -9999 83.9793281653747 83.9793281653747 80.7127882599581 -9999 88.7372013651877 87.7598152424942 87.7598152424942 89.2857142857143 86.864406779661 86.864406779661 86.864406779661 86.864406779661 86.864406779661 86.864406779661 -9999 -9999 -9999 -9999 -9999 -9999 -9999 -9999 94.53125 94.53125 94.53125 94.53125 94.53125 -9999 -9999 -9999 -9999 92.8571428571429 92.8571428571429 92.8571428571429 92.8571428571429 92.8571428571429 92.8571428571429 92.8571428571429 91.3140311804009 91.3140311804009 91.3140311804009 91.3140311804009 86.2903225806452 86.2903225806452 86.2903225806452 86.2903225806452 86.2903225806452 86.2903225806452 86.2903225806452 86.2903225806452 86.2903225806452 86.2903225806452 -9999 -9999 -9999 -9999 -9999 -9999 -9999 -9999 -9999 -9999 -9999 -9999 -9999 -9999 -9999 -9999 -9999 -9999 -9999 -9999 -9999 -9999 -9999 -9999 -9999 -9999 -9999 -9999 -9999 -9999 -9999 -9999 -9999 -9999 -9999 -9999 -9999 -9999 -9999
-9999 -9999 -9999 -9999 -9999 -9999 -9999 -9999 -9999 -9999 -9999 -9999 -9999 -9999 -9999 -9999 -9999 -9999 -9999 -9999 -9999 -9999 -9999 -9999 -9999 -9999 -9999 -9999 -9999 -9999 -9999 -9999 -9999 -9999 -9999 -9999 -9999 -9999 -9999 -9999 -9999 -9999 -9999 -9999 -9999 -9999 -9999 -9999 -9999 -9999 -9999 -9999 -9999 -9999 -9999 -9999 -9999 -9999 -9999 -9999 -9999 -9999 -9999 -9999 -9999 -9999 -9999 -9999 -9999 -9999 -9999 -9999 -9999 -9999 -9999 -9999 -9999 -9999 -9999 -9999 -9999 -9999 -9999 -9999 -9999 -9999 -9999 -9999 -9999 -9999 -9999 -9999 -9999 -9999 -9999 -9999 -9999 -9999 -9999 -9999 -9999 -9999 -9999 -9999 -9999 -9999 -9999 -9999 -9999 -9999 -9999 -9999 -9999 -9999 -9999 -9999 -9999 -9999 -9999 -9999 -9999 -9999 -9999 -9999 -9999 -9999 -9999 -9999 -9999 -9999 -9999 -9999 -9999 -9999 -9999 -9999 -9999 -9999 -9999 -9999 -9999 -9999 -9999 -9999 -9999 -9999 -9999 -9999 -9999 -9999 -9999 -9999 -9999 -9999 -9999 -9999 -9999 -9999 -9999 -9999 -9999 -9999 -9999 -9999 -9999 -9999 -9999 -9999 -9999 -9999 -9999 -9999 -9999 -9999 -9999 -9999 -9999 -9999 -9999 -9999 -9999 -9999 -9999 -9999 -9999 -9999 -9999 -9999 -9999 -9999 -9999 -9999 -9999 -9999 -9999 -9999 -9999 -9999 -9999 -9999 -9999 -9999 -9999 -9999 -9999 -9999 -9999 -9999 -9999 -9999 -9999 -9999 -9999 -9999 -9999 -9999 -9999 -9999 -9999 -9999 -9999 -9999 -9999 -9999 -9999 -9999 -9999 -9999 -9999 -9999 -9999 -9999 -9999 -9999 -9999 -9999 -9999 -9999 -9999 -9999 -9999 -9999 -9999 -9999 -9999 -9999 -9999 -9999 -9999 -9999 -9999 -9999 -9999 -9999 -9999 -9999 -9999 -9999 -9999 0 90.6040268456376 90.6040268456376 86.1386138613861 86.1386138613861 77.8145695364238 77.8145695364238 77.8145695364238 88.7931034482759 86.1650485436893 80.9102402022756 80.9102402022756 80.9102402022756 85.9133126934985 64.2123287671233 64.2123287671233 65.1785714285714 65.1785714285714 65.1785714285714 65.1785714285714 65.1785714285714 65.1785714285714 64.0138408304498 64.0138408304498 64.0138408304498 64.0138408304498 64.0138408304498 64.0138408304498 64.0138408304498 70.281124497992 70.281124497992 70.281124497992 70.281124497992 70.281124497992 70.281124497992 70.281124497992 70.281124497992 70.281124497992 70.281124497992 74.6561886051081 74.6561886051081 74.6561886051081 56.4053537284895 56.4053537284895 56.4053537284895 56.4053537284895 73.7951807228916 73.7951807228916 73.7951807228916 73.7951807228916 69.9558173784978 68.7022900763359 68.7022900763359 71.2098009188361 71.2098009188361 71.2098009188361 71.5130023640662 71.5130023640662 71.5130023640662 78.544061302682 78.544061302682 78.544061302682 71.5130023640662 71.5130023640662 77.9014308426073 77.9014308426073 83.9793281653747 83.9793281653747 90.7563025210084 90.7563025210084 90.7563025210084 90.7563025210084 86.7875647668394 86.7875647668394 86.864406779661 86.864406779661 85.1688693098385 85.1688693098385 -9999 -9999 -9999 -9999 -9999 -9999 -9999 -9999 -9999 -9999 -9999 -9999 94.53125 -9999 -9999 -9999 -9999 -9999 -9999 -9999 -9999 92.8571428571429 92.8571428571429 92.8571428571429 91.3140311804009 91.3140311804009 91.3140311804009 91.3140311804009 91.3140311804009 86.2903225806452 86.2903225806452 86.2903225806452 86.2903225806452 86.2903225806452 86.2903225806452 86.2903225806452 86.2903225806452 86.2903225806452 86.2903225806452 -9999 -9999 -9999 -9999 -9999 -9999 -9999 -9999 -9999 -9999 -9999 -9999 -9999 -9999 -9999 -9999 -9999 -9999 -9999 -9999 -9999 -9999 -9999 -9999 -9999 -9999 -9999 -9999 -9999 -9999 -9999 -9999 -9999 -9999 -9999 -9999 -9999 -9999 -9999
-9999 -9999 -9999 -9999 -9999 -9999 -9999 -9999 -9999 -9999 -9999 -9999 -9999 -9999 -9999 -9999 -9999 -9999 -9999 -9999 -9999 -9999 -9999 -9999 -9999 -9999 -9999 -9999 -9999 -9999 -9999 -9999 -9999 -9999 -9999 -9999 -9999 -9999 -9999 -9999 -9999 -9999 -9999 -9999 -9999 -9999 -9999 -9999 -9999 -9999 -9999 -9999 -9999 -9999 -9999 -9999 -9999 -9999 -9999 -9999 -9999 -9999 -9999 -9999 -9999 -9999 -9999 -9999 -9999 -9999 -9999 -9999 -9999 -9999 -9999 -9999 -9999 -9999 -9999 -9999 -9999 -9999 -9999 -9999 -9999 -9999 -9999 -9999 -9999 -9999 -9999 -9999 -9999 -9999 -9999 -9999 -9999 -9999 -9999 -9999 -9999 -9999 -9999 -9999 -9999 -9999 -9999 -9999 -9999 -9999 -9999 -9999 -9999 -9999 -9999 -9999 -9999 -9999 -9999 -9999 -9999 -9999 -9999 -9999 -9999 -9999 -9999 -9999 -9999 -9999 -9999 -9999 -9999 -9999 -9999 -9999 -9999 -9999 -9999 -9999 -9999 -9999 -9999 -9999 -9999 -9999 -9999 -9999 -9999 -9999 -9999 -9999 -9999 -9999 -9999 -9999 -9999 -9999 -9999 -9999 -9999 -9999 -9999 -9999 -9999 -9999 -9999 -9999 -9999 -9999 -9999 -9999 -9999 -9999 -9999 -9999 -9999 -9999 -9999 -9999 -9999 -9999 -9999 -9999 -9999 -9999 -9999 -9999 -9999 -9999 -9999 -9999 -9999 -9999 -9999 -9999 -9999 -9999 -9999 -9999 -9999 -9999 -9999 -9999 -9999 -9999 -9999 -9999 -9999 -9999 -9999 -9999 -9999 -9999 -9999 -9999 -9999 -9999 -9999 -9999 -9999 -9999 -9999 -9999 -9999 -9999 -9999 -9999 -9999 -9999 -9999 -9999 -9999 -9999 -9999 -9999 -9999 -9999 -9999 -9999 -9999 -9999 -9999 -9999 -9999 -9999 -9999 -9999 -9999 -9999 -9999 -9999 -9999 -9999 -9999 -9999 -9999 -9999 -9999 90.6040268456376 90.6040268456376 94.1176470588235 94.1176470588235 92.3507462686567 92.3507462686567 92.3507462686567 88.7931034482759 88.7931034482759 88.7931034482759 88.7931034482759 80.9102402022756 80.9102402022756 85.9133126934985 85.9133126934985 86.2068965517241 65.1785714285714 65.1785714285714 65.1785714285714 65.1785714285714 65.1785714285714 65.1785714285714 64.0138408304498 64.0138408304498 64.0138408304498 64.0138408304498 64.0138408304498 64.0138408304498 70.281124497992 70.281124497992 70.281124497992 70.281124497992 70.281124497992 70.281124497992 70.281124497992 70.281124497992 70.281124497992 70.281124497992 70.281124497992 71.5502555366269 71.5502555366269 74.6561886051081 69.9300699300699 69.9300699300699 56.4053537284895 74.7126436781609 74.7126436781609 74.7126436781609 73.7951807228916 73.7951807228916 69.9558173784978 69.9558173784978 71.2788259958071 71.2098009188361 71.2788259958071 71.2098009188361 72.6643598615917 72.6643598615917 75.0382848392037 78.544061302682 78.544061302682 78.544061302682 78.544061302682 72.1153846153846 72.1153846153846 77.9014308426073 77.9014308426073 83.5835835835836 83.5835835835836 83.5835835835836 83.5835835835836 92.3913043478261 92.3913043478261 86.7875647668394 86.7875647668394 86.7875647668394 86.7875647668394 -9999 -9999 -9999 -9999 -9999 -9999 -9999 -9999 -9999 -9999 -9999 -9999 -9999 -9999 -9999 -9999 -9999 -9999 -9999 -9999 -9999 -9999 -9999 -9999 -9999 91.3140311804009 91.3140311804009 91.3140311804009 91.3140311804009 86.2903225806452 86.2903225806452 86.2903225806452 86.2903225806452 86.2903225806452 86.2903225806452 86.2903225806452 86.2903225806452 86.2903225806452 86.2903225806452 -9999 -9999 -9999 -9999 -9999 -9999 -9999 -9999 -9999 -9999 -9999 -9999 -9999 -9999 -9999 -9999 -9999 -9999 -9999 -9999 -9999 -9999 -9999 -9999 -9999 -9999 -9999 -9999 -9999 -9999 -9999 -9999 -9999 -9999 -9999 -9999 -9999 -9999 -9999 -9999
-9999 -9999 -9999 -9999 -9999 -9999 -9999 -9999 -9999 -9999 -9999 -9999 -9999 -9999 -9999 -9999 -9999 -9999 -9999 -9999 -9999 -9999 -9999 -9999 -9999 -9999 -9999 -9999 -9999 -9999 -9999 -9999 -9999 -9999 -9999 -9999 -9999 -9999 -9999 -9999 -9999 -9999 -9999 -9999 -9999 -9999 -9999 -9999 -9999 -9999 -9999 -9999 -9999 -9999 -9999 -9999 -9999 -9999 -9999 -9999 -9999 -9999 -9999 -9999 -9999 -9999 -9999 -9999 -9999 -9999 -9999 -9999 -9999 -9999 -9999 -9999 -9999 -9999 -9999 -9999 -9999 -9999 -9999 -9999 -9999 -9999 -9999 -9999 -9999 -9999 -9999 -9999 -9999 -9999 -9999 -9999 -9999 -9999 -9999 -9999 -9999 -9999 -9999 -9999 -9999 -9999 -9999 -9999 -9999 -9999 -9999 -9999 -9999 -9999 -9999 -9999 -9999 -9999 -9999 -9999 -9999 -9999 -9999 -9999 -9999 -9999 -9999 -9999 -9999 -9999 -9999 -9999 -9999 -9999 -9999 -9999 -9999 -9999 -9999 -9999 -9999 -9999 -9999 -9999 -9999 -9999 -9999 -9999 -9999 -9999 -9999 -9999 -9999 -9999 -9999 -9999 -9999 -9999 -9999 -9999 -9999 -9999 -9999 -9999 -9999 -9999 -9999 -9999 -9999 -9999 -9999 -9999 -9999 -9999 -9999 -9999 -9999 -9999 -9999 -9999 -9999 -9999 -9999 -9999 -9999 -9999 -9999 -9999 -9999 -9999 -9999 -9999 -9999 -9999 -9999 -9999 -9999 -9999 -9999 -9999 -9999 -9999 -9999 -9999 -9999 -9999 -9999 -9999 -9999 -9999 -9999 -9999 -9999 -9999 -9999 -9999 -9999 -9999 -9999 -9999 -9999 -9999 -9999 -9999 -9999 -9999 -9999 -9999 -9999 -9999 -9999 -9999 -9999 -9999 -9999 -9999 -9999 -9999 -9999 -9999 -9999 -9999 -9999 -9999 -9999 -9999 -9999 -9999 -9999 -9999 -9999 -9999 -9999 -9999 -9999 -9999 85.7933579335793 85.7933579335793 85.7933579335793 85.7933579335793 85.7933579335793 94.1176470588235 92.3507462686567 92.3507462686567 92.3507462686567 82.5035561877667 82.5035561877667 82.5035561877667 88.7931034482759 88.7931034482759 88.474025974026 88.474025974026 85.9133126934985 85.9133126934985 86.2068965517241 86.2068965517241 86.2068965517241 65.1785714285714 65.1785714285714 65.1785714285714 64.0138408304498 64.0138408304498 64.0138408304498 64.0138408304498 64.0138408304498 64.0138408304498 70.281124497992 70.281124497992 70.281124497992 70.281124497992 70.281124497992 70.281124497992 70.281124497992 70.281124497992 70.281124497992 70.281124497992 70.281124497992 70.281124497992 70.281124497992 71.5502555366269 71.5502555366269 71.5502555366269 69.9300699300699 69.9300699300699 53.9383561643836 74.7126436781609 74.7126436781609 64.0535372848948 64.0535372848948 73.7951807228916 71.2788259958071 71.2788259958071 71.2788259958071 71.2788259958071 74.0418118466899 74.0418118466899 72.6643598615917 75.0382848392037 75.0382848392037 75.0382848392037 78.544061302682 85.5670103092783 87.8378378378378 87.8378378378378 87.8378378378378 78.740157480315 78.740157480315 83.5835835835836 83.5835835835836 78.4722222222222 78.4722222222222 92.3913043478261 92.3913043478261 90.9090909090909 90.9090909090909 -9999 -9999 -9999 -9999 -9999 -9999 -9999 -9999 -9999 -9999 -9999 -9999 -9999 -9999 -9999 -9999 -9999 -9999 -9999 -9999 -9999 -9999 -9999 -9999 -9999 86.6035182679296 86.6035182679296 86.6035182679296 86.6035182679296 91.3140311804009 86.2903225806452 86.2903225806452 86.2903225806452 86.2903225806452 86.2903225806452 86.2903225806452 86.2903225806452 86.2903225806452 86.2903225806452 86.2903225806452 -9999 -9999 -9999 -9999 -9999 -9999 -9999 -9999 -9999 -9999 -9999 -9999 -9999 -9999 -9999 -9999 -9999 -9999 -9999 -9999 -9999 -9999 -9999 -9999 -9999 -9999 -9999 -9999 -9999 -9999 -9999 -9999 -9999 -9999 -9999 -9999 -9999 -9999 -9999 -9999
-9999 -9999 -9999 -9999 -9999 -9999 -9999 -9999 -9999 -9999 -9999 -9999 -9999 -9999 -9999 -9999 -9999 -9999 -9999 -9999 -9999 -9999 -9999 -9999 -9999 -9999 -9999 -9999 -9999 -9999 -9999 -9999 -9999 -9999 -9999 -9999 -9999 -9999 -9999 -9999 -9999 -9999 -9999 -9999 -9999 -9999 -9999 -9999 -9999 -9999 -9999 -9999 -9999 -9999 -9999 -9999 -9999 -9999 -9999 -9999 -9999 -9999 -9999 -9999 -9999 -9999 -9999 -9999 -9999 -9999 -9999 -9999 -9999 -9999 -9999 -9999 -9999 -9999 -9999 -9999 -9999 -9999 -9999 -9999 -9999 -9999 -9999 -9999 -9999 -9999 -9999 -9999 -9999 -9999 -9999 -9999 -9999 -9999 -9999 -9999 -9999 -9999 -9999 -9999 -9999 -9999 -9999 -9999 -9999 -9999 -9999 -9999 -9999 -9999 -9999 -9999 -9999 -9999 -9999 -9999 -9999 -9999 -9999 -9999 -9999 -9999 -9999 -9999 -9999 -9999 -9999 -9999 -9999 -9999 -9999 -9999 -9999 -9999 -9999 -9999 -9999 -9999 -9999 -9999 -9999 -9999 -9999 -9999 -9999 -9999 -9999 -9999 -9999 -9999 -9999 -9999 -9999 -9999 -9999 -9999 -9999 -9999 -9999 -9999 -9999 -9999 -9999 -9999 -9999 -9999 -9999 -9999 -9999 -9999 -9999 -9999 -9999 -9999 -9999 -9999 -9999 -9999 -9999 -9999 -9999 -9999 -9999 -9999 -9999 -9999 -9999 -9999 -9999 -9999 -9999 -9999 -9999 -9999 -9999 -9999 -9999 -9999 -9999 -9999 -9999 -9999 -9999 -9999 -9999 -9999 -9999 -9999 -9999 -9999 -9999 -9999 -9999 -9999 -9999 -9999 -9999 -9999 -9999 -9999 -9999 -9999 -9999 -9999 -9999 -9999 -9999 -9999 -9999 -9999 -9999 -9999 -9999 -9999 -9999 -9999 -9999 -9999 -9999 -9999 -9999 -9999 -9999 -9999 -9999 -9999 -9999 -9999 -9999 -9999 85.7933579335793 85.7933579335793 85.7933579335793 90.9090909090909 88.7096774193548 88.7096774193548 93.2642487046632 93.2642487046632 93.2642487046632 93.2642487046632 93.2642487046632 82.5035561877667 82.5035561877667 82.5035561877667 82.5035561877667 82.5035561877667 88.474025974026 88.474025974026 85.9133126934985 86.2068965517241 86.2068965517241 86.2068965517241 83.1234256926952 88.0102040816327 83.1234256926952 83.1234256926952 64.0138408304498 64.0138408304498 64.0138408304498 64.0138408304498 64.0138408304498 70.281124497992 70.281124497992 70.281124497992 70.281124497992 70.281124497992 70.281124497992 70.281124497992 70.281124497992 70.281124497992 70.281124497992 70.281124497992 70.281124497992 70.281124497992 70.281124497992 71.5502555366269 71.5502555366269 71.5502555366269 71.5502555366269 53.9383561643836 53.9383561643836 53.9383561643836 53.9383561643836 53.9383561643836 64.0535372848948 64.0535372848948 71.2788259958071 71.2788259958071 71.2788259958071 79.2563600782779 74.0418118466899 74.0418118466899 71.505376344086 71.505376344086 75.0382848392037 81.4432989690722 85.5670103092783 85.5670103092783 85.5670103092783 85.5670103092783 85.9154929577465 85.9154929577465 91.1214953271028 91.1214953271028 81.8965517241379 81.8965517241379 81.8965517241379 78.4722222222222 78.4722222222222 90.9090909090909 90.9090909090909 -9999 -9999 -9999 -9999 -9999 -9999 -9999 -9999 -9999 -9999 -9999 -9999 -9999 -9999 -9999 -9999 -9999 -9999 -9999 -9999 -9999 -9999 85.8995137763371 -9999 -9999 86.6035182679296 86.6035182679296 86.6035182679296 86.6035182679296 -9999 -9999 -9999 86.2903225806452 86.2903225806452 86.2903225806452 86.2903225806452 86.2903225806452 86.2903225806452 86.2903225806452 -9999 -9999 -9999 -9999 -9999 -9999 -9999 -9999 -9999 -9999 -9999 -9999 -9999 -9999 -9999 -9999 -9999 -9999 -9999 -9999 -9999 -9999 -9999 -9999 -9999 -9999 -9999 -9999 -9999 -9999 -9999 -9999 -9999 -9999 -9999 -9999 -9999 -9999 -9999 -9999 -9999
-9999 -9999 -9999 -9999 -9999 -9999 -9999 -9999 -9999 -9999 -9999 -9999 -9999 -9999 -9999 -9999 -9999 -9999 -9999 -9999 -9999 -9999 -9999 -9999 -9999 -9999 -9999 -9999 -9999 -9999 -9999 -9999 -9999 -9999 -9999 -9999 -9999 -9999 -9999 -9999 -9999 -9999 -9999 -9999 -9999 -9999 -9999 -9999 -9999 -9999 -9999 -9999 -9999 -9999 -9999 -9999 -9999 -9999 -9999 -9999 -9999 -9999 -9999 -9999 -9999 -9999 -9999 -9999 -9999 -9999 -9999 -9999 -9999 -9999 -9999 -9999 -9999 -9999 -9999 -9999 -9999 -9999 -9999 -9999 -9999 -9999 -9999 -9999 -9999 -9999 -9999 -9999 -9999 -9999 -9999 -9999 -9999 -9999 -9999 -9999 -9999 -9999 -9999 -9999 -9999 -9999 -9999 -9999 -9999 -9999 -9999 -9999 -9999 -9999 -9999 -9999 -9999 -9999 -9999 -9999 -9999 -9999 -9999 -9999 -9999 -9999 -9999 -9999 -9999 -9999 -9999 -9999 -9999 -9999 -9999 -9999 -9999 -9999 -9999 -9999 -9999 -9999 -9999 -9999 -9999 -9999 -9999 -9999 -9999 -9999 -9999 -9999 -9999 -9999 -9999 -9999 -9999 -9999 -9999 -9999 -9999 -9999 -9999 -9999 -9999 -9999 -9999 -9999 -9999 -9999 -9999 -9999 -9999 -9999 -9999 -9999 -9999 -9999 -9999 -9999 -9999 -9999 -9999 -9999 -9999 -9999 -9999 -9999 -9999 -9999 -9999 -9999 -9999 -9999 -9999 -9999 -9999 -9999 -9999 -9999 -9999 -9999 -9999 -9999 -9999 -9999 -9999 -9999 -9999 -9999 -9999 -9999 -9999 -9999 -9999 -9999 -9999 -9999 -9999 -9999 -9999 -9999 -9999 -9999 -9999 -9999 -9999 -9999 -9999 -9999 -9999 -9999 -9999 -9999 -9999 -9999 -9999 -9999 -9999 -9999 -9999 -9999 -9999 -9999 -9999 -9999 -9999 -9999 -9999 -9999 -9999 -9999 -9999 85.7933579335793 85.7933579335793 85.7933579335793 85.7933579335793 90.9090909090909 90.9090909090909 90.9090909090909 90.9090909090909 93.9334637964775 93.9334637964775 93.2642487046632 86.7237687366167 86.7237687366167 86.7237687366167 79.3499043977055 82.5035561877667 82.5035561877667 82.5035561877667 82.5035561877667 86.2068965517241 86.2068965517241 86.2068965517241 88.0102040816327 88.0102040816327 88.0102040816327 88.0102040816327 89.1647855530474 89.1647855530474 89.1647855530474 64.0138408304498 64.0138408304498 70.281124497992 70.281124497992 70.281124497992 70.281124497992 70.281124497992 70.281124497992 70.281124497992 70.281124497992 70.281124497992 70.281124497992 70.281124497992 70.281124497992 70.281124497992 70.281124497992 70.281124497992 70.281124497992 70.281124497992 70.281124497992 72.4522292993631 53.9383561643836 53.9383561643836 69.5970695970696 51.0335917312661 51.0335917312661 51.0335917312661 51.0335917312661 66.3366336633663 66.3366336633663 76.8551236749117 79.2563600782779 79.2563600782779 71.0702341137124 71.505376344086 71.505376344086 77.6223776223776 85.5670103092783 85.5670103092783 85.5670103092783 85.5670103092783 85.9154929577465 85.9154929577465 85.9154929577465 85.9154929577465 85.9154929577465 81.8965517241379 81.8965517241379 81.8965517241379 78.9133247089263 78.9133247089263 78.9133247089263 -9999 -9999 -9999 -9999 -9999 -9999 -9999 -9999 -9999 -9999 -9999 -9999 -9999 -9999 -9999 -9999 -9999 -9999 -9999 -9999 -9999 -9999 84.1645885286783 85.8995137763371 85.8995137763371 86.6035182679296 86.6035182679296 86.6035182679296 86.6035182679296 86.6035182679296 -9999 -9999 -9999 -9999 -9999 -9999 86.2903225806452 86.2903225806452 86.2903225806452 86.2903225806452 -9999 -9999 -9999 -9999 -9999 -9999 -9999 -9999 -9999 -9999 -9999 -9999 -9999 -9999 -9999 -9999 -9999 -9999 -9999 -9999 -9999 -9999 -9999 -9999 -9999 -9999 -9999 -9999 -9999 -9999 -9999 -9999 -9999 -9999 -9999 -9999 -9999 -9999 -9999 -9999 -9999
-9999 -9999 -9999 -9999 -9999 -9999 -9999 -9999 -9999 -9999 -9999 -9999 -9999 -9999 -9999 -9999 -9999 -9999 -9999 -9999 -9999 -9999 -9999 -9999 -9999 -9999 -9999 -9999 -9999 -9999 -9999 -9999 -9999 -9999 -9999 -9999 -9999 -9999 -9999 -9999 -9999 -9999 -9999 -9999 -9999 -9999 -9999 -9999 -9999 -9999 -9999 -9999 -9999 -9999 -9999 -9999 -9999 -9999 -9999 -9999 -9999 -9999 -9999 -9999 -9999 -9999 -9999 -9999 -9999 -9999 -9999 -9999 -9999 -9999 -9999 -9999 -9999 -9999 -9999 -9999 -9999 -9999 -9999 -9999 -9999 -9999 -9999 -9999 -9999 -9999 -9999 -9999 -9999 -9999 -9999 -9999 -9999 -9999 -9999 -9999 -9999 -9999 -9999 -9999 -9999 -9999 -9999 -9999 -9999 -9999 -9999 -9999 -9999 -9999 -9999 -9999 -9999 -9999 -9999 -9999 -9999 -9999 -9999 -9999 -9999 -9999 -9999 -9999 -9999 -9999 -9999 -9999 -9999 -9999 -9999 -9999 -9999 -9999 -9999 -9999 -9999 -9999 -9999 -9999 -9999 -9999 -9999 -9999 -9999 -9999 -9999 -9999 -9999 -9999 -9999 -9999 -9999 -9999 -9999 -9999 -9999 -9999 -9999 -9999 -9999 -9999 -9999 -9999 -9999 -9999 -9999 -9999 -9999 -9999 -9999 -9999 -9999 -9999 -9999 -9999 -9999 -9999 -9999 -9999 -9999 -9999 -9999 -9999 -9999 -9999 -9999 -9999 -9999 -9999 -9999 -9999 -9999 -9999 -9999 -9999 -9999 -9999 -9999 -9999 -9999 -9999 -9999 -9999 -9999 -9999 -9999 -9999 -9999 -9999 -9999 -9999 -9999 -9999 -9999 -9999 -9999 -9999 -9999 -9999 -9999 -9999 -9999 -9999 -9999 -9999 -9999 -9999 -9999 -9999 -9999 -9999 -9999 -9999 -9999 -9999 -9999 -9999 -9999 -9999 -9999 -9999 -9999 -9999 -9999 -9999 -9999 -9999 97.911227154047 85.7933579335793 85.7933579335793 85.7933579335793 88.7949260042283 85.0277264325323 88.7949260042283 88.7949260042283 90.9090909090909 93.9334637964775 93.9334637964775 93.9334637964775 86.7237687366167 86.7237687366167 86.7237687366167 79.3499043977055 79.3499043977055 79.3499043977055 79.3499043977055 79.3499043977055 86.2068965517241 86.2068965517241 87.4035989717224 87.4035989717224 87.4035989717224 87.4035989717224 88.4210526315789 89.1647855530474 89.1647855530474 85.5148342059337 85.5148342059337 85.5148342059337 70.281124497992 70.281124497992 70.281124497992 70.281124497992 70.281124497992 70.281124497992 70.281124497992 70.281124497992 70.281124497992 70.281124497992 70.281124497992 70.281124497992 70.281124497992 70.281124497992 70.281124497992 70.281124497992 70.281124497992 64.0394088669951 72.4522292993631 72.4522292993631 72.4522292993631 69.5970695970696 69.5970695970696 69.5970695970696 51.0335917312661 51.0335917312661 51.0335917312661 51.0335917312661 66.3366336633663 66.3366336633663 76.8551236749117 76.8551236749117 71.0702341137124 77.6223776223776 77.6223776223776 73.7704918032787 85.5670103092783 85.5670103092783 85.5670103092783 85.9154929577465 85.9154929577465 85.9154929577465 85.9154929577465 81.8965517241379 81.8965517241379 81.8965517241379 81.8965517241379 82.7538247566064 78.9133247089263 85.4961832061069 85.4961832061069 85.4961832061069 91.2162162162162 -9999 -9999 -9999 -9999 -9999 -9999 -9999 -9999 -9999 -9999 -9999 -9999 -9999 -9999 -9999 -9999 -9999 -9999 81.2064965197216 84.1645885286783 84.1645885286783 84.1645885286783 86.6035182679296 86.6035182679296 86.6035182679296 86.6035182679296 -9999 -9999 -9999 -9999 -9999 -9999 -9999 0 0 0 -9999 -9999 -9999 -9999 -9999 -9999 -9999 -9999 -9999 -9999 -9999 -9999 -9999 -9999 -9999 -9999 -9999 -9999 -9999 -9999 -9999 -9999 -9999 -9999 -9999 -9999 -9999 -9999 -9999 -9999 -9999 -9999 -9999 -9999 -9999 -9999 -9999 -9999 -9999 -9999 -9999 -9999
-9999 -9999 -9999 -9999 -9999 -9999 -9999 -9999 -9999 -9999 -9999 -9999 -9999 -9999 -9999 -9999 -9999 -9999 -9999 -9999 -9999 -9999 -9999 -9999 -9999 -9999 -9999 -9999 -9999 -9999 -9999 -9999 -9999 -9999 -9999 -9999 -9999 -9999 -9999 -9999 -9999 -9999 -9999 -9999 -9999 -9999 -9999 -9999 -9999 -9999 -9999 -9999 -9999 -9999 -9999 -9999 -9999 -9999 -9999 -9999 -9999 -9999 -9999 -9999 -9999 -9999 -9999 -9999 -9999 -9999 -9999 -9999 -9999 -9999 -9999 -9999 -9999 -9999 -9999 -9999 -9999 -9999 -9999 -9999 -9999 -9999 -9999 -9999 -9999 -9999 -9999 -9999 -9999 -9999 -9999 -9999 -9999 -9999 -9999 -9999 -9999 -9999 -9999 -9999 -9999 -9999 -9999 -9999 -9999 -9999 -9999 -9999 -9999 -9999 -9999 -9999 -9999 -9999 -9999 -9999 -9999 -9999 -9999 -9999 -9999 -9999 -9999 -9999 -9999 -9999 -9999 -9999 -9999 -9999 -9999 -9999 -9999 -9999 -9999 -9999 -9999 -9999 -9999 -9999 -9999 -9999 -9999 -9999 -9999 -9999 -9999 -9999 -9999 -9999 -9999 -9999 -9999 -9999 -9999 -9999 -9999 -9999 -9999 -9999 -9999 -9999 -9999 -9999 -9999 -9999 -9999 -9999 -9999 -9999 -9999 -9999 -9999 -9999 -9999 -9999 -9999 -9999 -9999 -9999 -9999 -9999 -9999 -9999 -9999 -9999 -9999 -9999 -9999 -9999 -9999 -9999 -9999 -9999 -9999 -9999 -9999 -9999 -9999 -9999 -9999 -9999 -9999 -9999 -9999 -9999 -9999 -9999 -9999 -9999 -9999 -9999 -9999 -9999 -9999 -9999 -9999 -9999 -9999 -9999 -9999 -9999 -9999 -9999 -9999 -9999 -9999 -9999 -9999 -9999 -9999 -9999 -9999 -9999 -9999 -9999 -9999 -9999 -9999 -9999 -9999 -9999 -9999 -9999 -9999 -9999 -9999 97.911227154047 97.911227154047 97.911227154047 97.911227154047 97.911227154047 85.0277264325323 85.0277264325323 85.0277264325323 85.0277264325323 96.7492260061919 96.7492260061919 96.7492260061919 95.0095969289827 95.0095969289827 95.0095969289827 79.3499043977055 79.3499043977055 79.3499043977055 86.9565217391304 79.3499043977055 68.4121621621622 86.2068965517241 86.2068965517241 87.4035989717224 87.4035989717224 87.4035989717224 88.4210526315789 88.4210526315789 88.4210526315789 85.5148342059337 85.5148342059337 85.5148342059337 -9999 -9999 -9999 79.002079002079 70.281124497992 70.281124497992 70.281124497992 70.281124497992 70.281124497992 70.281124497992 70.281124497992 70.281124497992 70.281124497992 70.281124497992 70.281124497992 70.281124497992 70.281124497992 70.281124497992 70.281124497992 64.0394088669951 72.4522292993631 72.4522292993631 72.4522292993631 65.7467532467532 65.7467532467532 56.4102564102564 56.4102564102564 51.0335917312661 71.1159737417943 71.1159737417943 79.0108564535585 72.4522292993631 72.4522292993631 72.4522292993631 72.4522292993631 85.3448275862069 73.7704918032787 73.7704918032787 73.7704918032787 82.6023391812866 82.6023391812866 82.6023391812866 82.6023391812866 81.8965517241379 81.8965517241379 81.8965517241379 81.8965517241379 82.7538247566064 82.7538247566064 90.4139433551198 90.4139433551198 90.4139433551198 87.8504672897196 87.8504672897196 87.8504672897196 87.1848739495798 87.1848739495798 -9999 -9999 -9999 -9999 -9999 -9999 -9999 -9999 -9999 -9999 -9999 -9999 -9999 -9999 -9999 81.2064965197216 81.2064965197216 81.2064965197216 92.6892950391645 86.6035182679296 86.6035182679296 86.6035182679296 86.6035182679296 -9999 -9999 -9999 -9999 -9999 -9999 92.3423423423423 92.3423423423423 90.1126408010012 90.1126408010012 90.1126408010012 90.1126408010012 -9999 90.1126408010012 -9999 -9999 -9999 -9999 -9999 -9999 -9999 -9999 -9999 -9999 -9999 -9999 -9999 -9999 -9999 -9999 -9999 -9999 -9999 -9999 -9999 -9999 -9999 -9999 -9999 -9999 -9999 -9999 -9999 -9999 -9999 -9999 -9999 -9999 -9999 -9999 -9999 -9999
-9999 -9999 -9999 -9999 -9999 -9999 -9999 -9999 -9999 -9999 -9999 -9999 -9999 -9999 -9999 -9999 -9999 -9999 -9999 -9999 -9999 -9999 -9999 -9999 -9999 -9999 -9999 -9999 -9999 -9999 -9999 -9999 -9999 -9999 -9999 -9999 -9999 -9999 -9999 -9999 -9999 -9999 -9999 -9999 -9999 -9999 -9999 -9999 -9999 -9999 -9999 -9999 -9999 -9999 -9999 -9999 -9999 -9999 -9999 -9999 -9999 -9999 -9999 -9999 -9999 -9999 -9999 -9999 -9999 -9999 -9999 -9999 -9999 -9999 -9999 -9999 -9999 -9999 -9999 -9999 -9999 -9999 -9999 -9999 -9999 -9999 -9999 -9999 -9999 -9999 -9999 -9999 -9999 -9999 -9999 -9999 -9999 -9999 -9999 -9999 -9999 -9999 -9999 -9999 -9999 -9999 -9999 -9999 -9999 -9999 -9999 -9999 -9999 -9999 -9999 -9999 -9999 -9999 -9999 -9999 -9999 -9999 -9999 -9999 -9999 -9999 -9999 -9999 -9999 -9999 -9999 -9999 -9999 -9999 -9999 -9999 -9999 -9999 -9999 -9999 -9999 -9999 -9999 -9999 -9999 -9999 -9999 -9999 -9999 -9999 -9999 -9999 -9999 -9999 -9999 -9999 -9999 -9999 -9999 -9999 -9999 -9999 -9999 -9999 -9999 -9999 -9999 -9999 -9999 -9999 -9999 -9999 -9999 -9999 -9999 -9999 -9999 -9999 -9999 -9999 -9999 -9999 -9999 -9999 -9999 -9999 -9999 -9999 -9999 -9999 -9999 -9999 -9999 -9999 -9999 -9999 -9999 -9999 -9999 -9999 -9999 -9999 -9999 -9999 -9999 -9999 -9999 -9999 -9999 -9999 -9999 -9999 -9999 -9999 -9999 -9999 -9999 -9999 -9999 -9999 -9999 -9999 -9999 -9999 -9999 -9999 -9999 -9999 -9999 -9999 -9999 -9999 -9999 -9999 -9999 -9999 -9999 -9999 -9999 -9999 -9999 -9999 -9999 -9999 -9999 -9999 -9999 -9999 -9999 -9999 -9999 97.911227154047 97.911227154047 97.911227154047 97.911227154047 97.911227154047 80.5369127516778 80.5369127516778 80.5369127516778 80.5369127516778 96.7492260061919 96.7492260061919 89.3854748603352 89.3854748603352 95.0095969289827 89.7920604914934 89.7920604914934 89.7920604914934 86.9565217391304 86.9565217391304 86.9565217391304 68.4121621621622 68.4121621621622 81.9397993311037 81.9397993311037 81.9397993311037 88.4210526315789 88.4210526315789 88.4210526315789 99.009900990099 99.009900990099 99.009900990099 93.1297709923664 93.1297709923664 -9999 79.002079002079 79.002079002079 79.002079002079 79.002079002079 70.281124497992 70.281124497992 70.281124497992 70.281124497992 70.281124497992 70.281124497992 70.281124497992 70.281124497992 70.281124497992 70.281124497992 83.7651122625216 66.6666666666667 66.6666666666667 62.5 62.5 64.0394088669951 65.7467532467532 65.7467532467532 77.5862068965517 77.5862068965517 77.5862068965517 71.1159737417943 71.1159737417943 71.1159737417943 79.0108564535585 79.0108564535585 79.0108564535585 79.0108564535585 88.5486018641811 85.3448275862069 85.3448275862069 85.3448275862069 91.0891089108911 82.6023391812866 82.6023391812866 82.6023391812866 81.8965517241379 81.8965517241379 81.8965517241379 81.8965517241379 81.8965517241379 81.8965517241379 87.1886120996441 87.1886120996441 87.1886120996441 93.167701863354 93.167701863354 93.167701863354 89.5522388059701 89.5522388059701 87.1848739495798 86.4661654135338 86.4661654135338 86.4661654135338 -9999 -9999 -9999 -9999 -9999 -9999 -9999 -9999 -9999 -9999 -9999 83.6820083682008 83.6820083682008 83.6820083682008 92.6892950391645 92.6892950391645 92.6892950391645 92.6892950391645 92.6892950391645 -9999 -9999 -9999 -9999 -9999 -9999 89.2156862745098 89.2156862745098 90.1126408010012 90.1126408010012 90.1126408010012 90.1126408010012 -9999 -9999 90.1126408010012 90.1126408010012 -9999 -9999 -9999 -9999 -9999 -9999 -9999 -9999 -9999 -9999 -9999 -9999 -9999 -9999 -9999 -9999 -9999 -9999 -9999 -9999 -9999 -9999 -9999 -9999 -9999 -9999 -9999 -9999 -9999 -9999 -9999 -9999 -9999 -9999 -9999 -9999 -9999
-9999 -9999 -9999 -9999 -9999 -9999 -9999 -9999 -9999 -9999 -9999 -9999 -9999 -9999 -9999 -9999 -9999 -9999 -9999 -9999 -9999 -9999 -9999 -9999 -9999 -9999 -9999 -9999 -9999 -9999 -9999 -9999 -9999 -9999 -9999 -9999 -9999 -9999 -9999 -9999 -9999 -9999 -9999 -9999 -9999 -9999 -9999 -9999 -9999 -9999 -9999 -9999 -9999 -9999 -9999 -9999 -9999 -9999 -9999 -9999 -9999 -9999 -9999 -9999 -9999 -9999 -9999 -9999 -9999 -9999 -9999 -9999 -9999 -9999 -9999 -9999 -9999 -9999 -9999 -9999 -9999 -9999 -9999 -9999 -9999 -9999 -9999 -9999 -9999 -9999 -9999 -9999 -9999 -9999 -9999 -9999 -9999 -9999 -9999 -9999 -9999 -9999 -9999 -9999 -9999 -9999 -9999 -9999 -9999 -9999 -9999 -9999 -9999 -9999 -9999 -9999 -9999 -9999 -9999 -9999 -9999 -9999 -9999 -9999 -9999 -9999 -9999 -9999 -9999 -9999 -9999 -9999 -9999 -9999 -9999 -9999 -9999 -9999 -9999 -9999 -9999 -9999 -9999 -9999 -9999 -9999 -9999 -9999 -9999 -9999 -9999 -9999 -9999 -9999 -9999 -9999 -9999 -9999 -9999 -9999 -9999 -9999 -9999 -9999 -9999 -9999 -9999 -9999 -9999 -9999 -9999 -9999 -9999 -9999 -9999 -9999 -9999 -9999 -9999 -9999 -9999 -9999 -9999 -9999 -9999 -9999 -9999 -9999 -9999 -9999 -9999 -9999 -9999 -9999 -9999 -9999 -9999 -9999 -9999 -9999 -9999 -9999 -9999 -9999 -9999 -9999 -9999 -9999 -9999 -9999 -9999 -9999 -9999 -9999 -9999 -9999 -9999 -9999 -9999 -9999 -9999 -9999 -9999 -9999 -9999 -9999 -9999 -9999 -9999 -9999 -9999 -9999 -9999 -9999 -9999 -9999 -9999 -9999 -9999 -9999 -9999 -9999 -9999 -9999 -9999 -9999 -9999 -9999 -9999 -9999 -9999 97.911227154047 97.911227154047 97.911227154047 97.911227154047 97.911227154047 80.5369127516778 80.5369127516778 80.5369127516778 80.5369127516778 80.5369127516778 80.5369127516778 92.274678111588 89.3854748603352 89.3854748603352 89.7920604914934 89.7920604914934 89.7920604914934 86.9565217391304 86.9565217391304 68.4121621621622 68.4121621621622 68.4121621621622 81.9397993311037 81.9397993311037 79.6370967741936 79.6370967741936 81.9397993311037 68.4121621621622 99.009900990099 99.009900990099 93.1297709923664 93.1297709923664 93.1297709923664 93.1297709923664 93.1297709923664 -9999 77.9527559055118 77.9527559055118 77.9527559055118 86.7620751341682 70.281124497992 70.281124497992 70.281124497992 70.281124497992 70.281124497992 70.281124497992 83.7651122625216 75.6880733944954 83.7651122625216 83.7651122625216 77.6255707762557 77.6255707762557 62.5 62.5 62.5 65.7467532467532 65.7467532467532 77.5862068965517 81.6498316498317 81.6498316498317 81.6498316498317 79.0108564535585 79.0108564535585 79.0108564535585 79.0108564535585 88.5486018641811 88.5486018641811 88.5486018641811 88.5486018641811 81.3464235624123 81.3464235624123 81.3464235624123 91.0891089108911 91.0891089108911 91.0891089108911 81.8965517241379 81.8965517241379 81.8965517241379 81.8965517241379 89.1812865497076 89.1812865497076 89.1812865497076 89.1812865497076 87.3440285204991 87.3440285204991 86.9175627240143 86.9175627240143 86.9175627240143 86.3708399366086 86.3708399366086 86.3708399366086 87.9501385041551 87.9501385041551 81.7805383022774 81.7805383022774 -9999 -9999 -9999 -9999 -9999 -9999 -9999 83.6820083682008 83.6820083682008 83.6820083682008 83.6820083682008 92.6892950391645 92.6892950391645 92.6892950391645 92.6892950391645 92.6892950391645 94.5945945945946 94.5945945945946 94.5945945945946 -9999 -9999 -9999 89.2156862745098 90.1126408010012 90.1126408010012 90.1126408010012 90.1126408010012 90.1126408010012 90.1126408010012 90.1126408010012 90.1126408010012 -9999 -9999 -9999 -9999 -9999 -9999 -9999 -9999 -9999 -9999 -9999 -9999 -9999 -9999 -9999 -9999 -9999 -9999 -9999 -9999 -9999 -9999 -9999 -9999 -9999 -9999 -9999 -9999 -9999 -9999 -9999 -9999 -9999 -9999 -9999 -9999 -9999 -9999
-9999 -9999 -9999 -9999 -9999 -9999 -9999 -9999 -9999 -9999 -9999 -9999 -9999 -9999 -9999 -9999 -9999 -9999 -9999 -9999 -9999 -9999 -9999 -9999 -9999 -9999 -9999 -9999 -9999 -9999 -9999 -9999 -9999 -9999 -9999 -9999 -9999 -9999 -9999 -9999 -9999 -9999 -9999 -9999 -9999 -9999 -9999 -9999 -9999 -9999 -9999 -9999 -9999 -9999 -9999 -9999 -9999 -9999 -9999 -9999 -9999 -9999 -9999 -9999 -9999 -9999 -9999 -9999 -9999 -9999 -9999 -9999 -9999 -9999 -9999 -9999 -9999 -9999 -9999 -9999 -9999 -9999 -9999 -9999 -9999 -9999 -9999 -9999 -9999 -9999 -9999 -9999 -9999 -9999 -9999 -9999 -9999 -9999 -9999 -9999 -9999 -9999 -9999 -9999 -9999 -9999 -9999 -9999 -9999 -9999 -9999 -9999 -9999 -9999 -9999 -9999 -9999 -9999 -9999 -9999 -9999 -9999 -9999 -9999 -9999 -9999 -9999 -9999 -9999 -9999 -9999 -9999 -9999 -9999 -9999 -9999 -9999 -9999 -9999 -9999 -9999 -9999 -9999 -9999 -9999 -9999 -9999 -9999 -9999 -9999 -9999 -9999 -9999 -9999 -9999 -9999 -9999 -9999 -9999 -9999 -9999 -9999 -9999 -9999 -9999 -9999 -9999 -9999 -9999 -9999 -9999 -9999 -9999 -9999 -9999 -9999 -9999 -9999 -9999 -9999 -9999 -9999 -9999 -9999 -9999 -9999 -9999 -9999 -9999 -9999 -9999 -9999 -9999 -9999 -9999 -9999 -9999 -9999 -9999 -9999 -9999 -9999 -9999 -9999 -9999 -9999 -9999 -9999 -9999 -9999 -9999 -9999 -9999 -9999 -9999 -9999 -9999 -9999 -9999 -9999 -9999 -9999 -9999 -9999 -9999 -9999 -9999 -9999 -9999 -9999 -9999 -9999 -9999 -9999 -9999 -9999 -9999 -9999 -9999 -9999 -9999 -9999 -9999 -9999 -9999 -9999 -9999 -9999 -9999 -9999 97.911227154047 93.4182590233546 80.9935205183585 80.9935205183585 80.9935205183585 83.0449826989619 83.0449826989619 80.5369127516778 80.5369127516778 80.5369127516778 80.5369127516778 92.274678111588 92.274678111588 92.274678111588 92.274678111588 92.274678111588 92.274678111588 86.9565217391304 86.9565217391304 68.4121621621622 68.4121621621622 68.4121621621622 68.4121621621622 68.4121621621622 79.6370967741936 79.6370967741936 68.4121621621622 81.9397993311037 68.4121621621622 68.4121621621622 68.4121621621622 84.1161400512382 84.1161400512382 93.1297709923664 93.1297709923664 93.1297709923664 93.1297709923664 91.5371329879102 77.9527559055118 86.7620751341682 86.7620751341682 86.7620751341682 86.7620751341682 70.281124497992 70.3703703703704 70.3703703703704 70.3703703703704 71.078431372549 75.6880733944954 75.6880733944954 82.1501014198783 77.6255707762557 77.6255707762557 77.6255707762557 77.6255707762557 77.6255707762557 81.0185185185185 78.8530465949821 80.3443328550933 80.3443328550933 81.6498316498317 86.2676056338028 86.2676056338028 86.2676056338028 86.2676056338028 88.5486018641811 88.5486018641811 88.5486018641811 88.5486018641811 73.7704918032787 81.3464235624123 81.3464235624123 81.3464235624123 84.7701149425287 84.7701149425287 84.7701149425287 84.7701149425287 90.3890160183066 90.3890160183066 90.7372400756144 90.7372400756144 90.7372400756144 90.7372400756144 87.3440285204991 87.3440285204991 87.3440285204991 90.5923344947735 90.5923344947735 86.283185840708 86.283185840708 82.9831932773109 82.9831932773109 87.9501385041551 87.9501385041551 87.9501385041551 86.9565217391304 86.9565217391304 86.9565217391304 86.9565217391304 -9999 -9999 -9999 -9999 81.6498316498317 81.6498316498317 81.6498316498317 92.6892950391645 92.6892950391645 92.6892950391645 92.6892950391645 92.6892950391645 90.9943714821764 90.9943714821764 90.9943714821764 95.0184501845018 95.0184501845018 96.3302752293578 96.3302752293578 86.4661654135338 90.1126408010012 90.1126408010012 90.1126408010012 90.1126408010012 90.1126408010012 90.1126408010012 90.1126408010012 -9999 -9999 -9999 -9999 -9999 -9999 -9999 -9999 -9999 -9999 -9999 -9999 -9999 -9999 -9999 -9999 -9999 -9999 -9999 -9999 -9999 -9999 -9999 -9999 -9999 -9999 -9999 -9999 -9999 -9999 -9999 -9999 -9999 -9999 -9999 -9999 -9999 -9999 -9999
-9999 -9999 -9999 -9999 -9999 -9999 -9999 -9999 -9999 -9999 -9999 -9999 -9999 -9999 -9999 -9999 -9999 -9999 -9999 -9999 -9999 -9999 -9999 -9999 -9999 -9999 -9999 -9999 -9999 -9999 -9999 -9999 -9999 -9999 -9999 -9999 -9999 -9999 -9999 -9999 -9999 -9999 -9999 -9999 -9999 -9999 -9999 -9999 -9999 -9999 -9999 -9999 -9999 -9999 -9999 -9999 -9999 -9999 -9999 -9999 -9999 -9999 -9999 -9999 -9999 -9999 -9999 -9999 -9999 -9999 -9999 -9999 -9999 -9999 -9999 -9999 -9999 -9999 -9999 -9999 -9999 -9999 -9999 -9999 -9999 -9999 -9999 -9999 -9999 -9999 -9999 -9999 -9999 -9999 -9999 -9999 -9999 -9999 -9999 -9999 -9999 -9999 -9999 -9999 -9999 -9999 -9999 -9999 -9999 -9999 -9999 -9999 -9999 -9999 -9999 -9999 -9999 -9999 -9999 -9999 -9999 -9999 -9999 -9999 -9999 -9999 -9999 -9999 -9999 -9999 -9999 -9999 -9999 -9999 -9999 -9999 -9999 -9999 -9999 -9999 -9999 -9999 -9999 -9999 -9999 -9999 -9999 -9999 -9999 -9999 -9999 -9999 -9999 -9999 -9999 -9999 -9999 -9999 -9999 -9999 -9999 -9999 -9999 -9999 -9999 -9999 -9999 -9999 -9999 -9999 -9999 -9999 -9999 -9999 -9999 -9999 -9999 -9999 -9999 -9999 -9999 -9999 -9999 -9999 -9999 -9999 -9999 -9999 -9999 -9999 -9999 -9999 -9999 -9999 -9999 -9999 -9999 -9999 -9999 -9999 -9999 -9999 -9999 -9999 -9999 -9999 -9999 -9999 -9999 -9999 -9999 -9999 -9999 -9999 -9999 -9999 -9999 -9999 -9999 -9999 -9999 -9999 -9999 -9999 -9999 -9999 -9999 -9999 -9999 -9999 -9999 -9999 -9999 -9999 -9999 -9999 -9999 -9999 -9999 -9999 -9999 -9999 -9999 -9999 -9999 -9999 -9999 -9999 -9999 97.911227154047 91.2280701754386 93.4182590233546 93.4182590233546 93.4182590233546 93.4182590233546 83.0449826989619 83.0449826989619 83.0449826989619 80.5369127516778 80.5369127516778 80.5369127516778 79.4085432639649 79.4085432639649 79.4085432639649 85.8267716535433 92.274678111588 92.274678111588 80.9352517985612 80.9352517985612 78.8643533123028 68.4121621621622 68.4121621621622 68.4121621621622 68.4121621621622 68.4121621621622 68.4121621621622 68.4121621621622 68.4121621621622 68.4121621621622 68.4121621621622 84.1161400512382 84.1161400512382 84.1161400512382 84.1161400512382 84.1161400512382 93.1297709923664 86.7620751341682 91.5371329879102 91.5371329879102 86.7620751341682 86.7620751341682 86.7620751341682 77.683615819209 78.8288288288288 77.683615819209 77.683615819209 71.078431372549 71.078431372549 71.078431372549 71.078431372549 82.1501014198783 82.1501014198783 74.9185667752443 77.6255707762557 77.6255707762557 81.0185185185185 81.0185185185185 78.8530465949821 78.8530465949821 78.8530465949821 84.5648604269294 80.3443328550933 80.3443328550933 86.2676056338028 89.2547660311958 89.2547660311958 89.2547660311958 89.2547660311958 73.7704918032787 73.7704918032787 73.7704918032787 73.7704918032787 73.7704918032787 84.7701149425287 84.7701149425287 84.7701149425287 90.3890160183066 90.3890160183066 88.5269121813031 90.9090909090909 90.9090909090909 90.9090909090909 93.232044198895 94.3775100401606 94.3775100401606 89.5295902883156 89.5295902883156 86.231884057971 86.231884057971 86.283185840708 86.283185840708 89.3169877408056 89.3169877408056 89.2857142857143 89.2857142857143 84.9397590361446 84.9397590361446 84.9397590361446 86.9565217391304 86.9565217391304 68.3453237410072 68.3453237410072 79.5677799607073 79.5677799607073 79.5677799607073 88.475499092559 88.475499092559 88.475499092559 88.475499092559 92.6892950391645 92.6892950391645 90.9943714821764 90.9943714821764 90.9943714821764 91.8181818181818 91.8181818181818 91.8181818181818 94.8081264108352 94.8081264108352 94.8081264108352 94.8081264108352 94.8081264108352 90.1126408010012 90.1126408010012 90.1126408010012 -9999 -9999 -9999 -9999 -9999 -9999 -9999 -9999 -9999 -9999 -9999 -9999 -9999 -9999 -9999 -9999 -9999 -9999 -9999 -9999 -9999 -9999 -9999 -9999 -9999 -9999 -9999 -9999 -9999 -9999 -9999 -9999 -9999 -9999 -9999 -9999 -9999 -9999 -9999 -9999
-9999 -9999 -9999 -9999 -9999 -9999 -9999 -9999 -9999 -9999 -9999 -9999 -9999 -9999 -9999 -9999 -9999 -9999 -9999 -9999 -9999 -9999 -9999 -9999 -9999 -9999 -9999 -9999 -9999 -9999 -9999 -9999 -9999 -9999 -9999 -9999 -9999 -9999 -9999 -9999 -9999 -9999 -9999 -9999 -9999 -9999 -9999 -9999 -9999 -9999 -9999 -9999 -9999 -9999 -9999 -9999 -9999 -9999 -9999 -9999 -9999 -9999 -9999 -9999 -9999 -9999 -9999 -9999 -9999 -9999 -9999 -9999 -9999 -9999 -9999 -9999 -9999 -9999 -9999 -9999 -9999 -9999 -9999 -9999 -9999 -9999 -9999 -9999 -9999 -9999 -9999 -9999 -9999 -9999 -9999 -9999 -9999 -9999 -9999 -9999 -9999 -9999 -9999 -9999 -9999 -9999 -9999 -9999 -9999 -9999 -9999 -9999 -9999 -9999 -9999 -9999 -9999 -9999 -9999 -9999 -9999 -9999 -9999 -9999 -9999 -9999 -9999 -9999 -9999 -9999 -9999 -9999 -9999 -9999 -9999 -9999 -9999 -9999 -9999 -9999 -9999 -9999 -9999 -9999 -9999 -9999 -9999 -9999 -9999 -9999 -9999 -9999 -9999 -9999 -9999 -9999 -9999 -9999 -9999 -9999 -9999 -9999 -9999 -9999 -9999 -9999 -9999 -9999 -9999 -9999 -9999 -9999 -9999 -9999 -9999 -9999 -9999 -9999 -9999 -9999 -9999 -9999 -9999 -9999 -9999 -9999 -9999 -9999 -9999 -9999 -9999 -9999 -9999 -9999 -9999 -9999 -9999 -9999 -9999 -9999 -9999 -9999 -9999 -9999 -9999 -9999 -9999 -9999 -9999 -9999 -9999 -9999 -9999 -9999 -9999 -9999 -9999 -9999 -9999 -9999 -9999 -9999 -9999 -9999 -9999 -9999 -9999 -9999 -9999 -9999 -9999 -9999 -9999 -9999 -9999 -9999 -9999 -9999 -9999 -9999 -9999 -9999 -9999 -9999 -9999 -9999 -9999 -9999 97.911227154047 91.2280701754386 91.2280701754386 91.2280701754386 91.2280701754386 93.4182590233546 83.0449826989619 83.0449826989619 83.0449826989619 88.2882882882883 88.2882882882883 80.5369127516778 91.8762088974855 79.4085432639649 79.4085432639649 85.8267716535433 85.8267716535433 85.8267716535433 80.9352517985612 80.9352517985612 78.8643533123028 78.8643533123028 82.4120603015075 82.4120603015075 82.4120603015075 68.4121621621622 68.4121621621622 68.4121621621622 68.4121621621622 68.4121621621622 68.4121621621622 84.1161400512382 84.1161400512382 84.1161400512382 84.1161400512382 84.1161400512382 84.1161400512382 84.1161400512382 86.7620751341682 86.7620751341682 86.7620751341682 86.7620751341682 77.683615819209 77.683615819209 77.683615819209 77.683615819209 77.683615819209 78.8288288288288 65.9246575342466 65.9246575342466 71.078431372549 77.7988614800759 77.7988614800759 69.1202872531418 69.1202872531418 74.9185667752443 84.5070422535211 81.0185185185185 81.0185185185185 81.0185185185185 81.0185185185185 89.5904436860068 84.5648604269294 84.5648604269294 84.5648604269294 92.9003021148036 92.9003021148036 92.9003021148036 89.2547660311958 90.4522613065327 88.7265135699374 88.7265135699374 88.7265135699374 73.7704918032787 73.7704918032787 73.7704918032787 73.7704918032787 90.3890160183066 90.3890160183066 90.3890160183066 88.5269121813031 92.8853754940711 88.5269121813031 88.5269121813031 93.232044198895 93.232044198895 93.232044198895 89.5295902883156 89.5295902883156 86.231884057971 86.231884057971 86.231884057971 85.8918128654971 85.8918128654971 85.8918128654971 85.8918128654971 93.9597315436242 93.9597315436242 87.9494655004859 87.9494655004859 84.9397590361446 80.8270676691729 80.8270676691729 87.0445344129555 88.9084507042253 88.9084507042253 88.9084507042253 87.8243512974052 88.475499092559 88.475499092559 88.475499092559 88.475499092559 86.3844393592677 86.3844393592677 90.9943714821764 90.9943714821764 91.3461538461538 91.8181818181818 91.3461538461538 93.5828877005348 93.5828877005348 93.5828877005348 94.8081264108352 94.8081264108352 94.8081264108352 94.8081264108352 94.8081264108352 -9999 -9999 -9999 -9999 -9999 -9999 -9999 -9999 -9999 -9999 -9999 -9999 -9999 -9999 -9999 -9999 -9999 -9999 -9999 -9999 -9999 -9999 -9999 -9999 -9999 -9999 -9999 -9999 -9999 -9999 -9999 -9999 -9999 -9999 -9999 -9999 -9999 -9999 -9999 -9999
-9999 -9999 -9999 -9999 -9999 -9999 -9999 -9999 -9999 -9999 -9999 -9999 -9999 -9999 -9999 -9999 -9999 -9999 -9999 -9999 -9999 -9999 -9999 -9999 -9999 -9999 -9999 -9999 -9999 -9999 -9999 -9999 -9999 -9999 -9999 -9999 -9999 -9999 -9999 -9999 -9999 -9999 -9999 -9999 -9999 -9999 -9999 -9999 -9999 -9999 -9999 -9999 -9999 -9999 -9999 -9999 -9999 -9999 -9999 -9999 -9999 -9999 -9999 -9999 -9999 -9999 -9999 -9999 -9999 -9999 -9999 -9999 -9999 -9999 -9999 -9999 -9999 -9999 -9999 -9999 -9999 -9999 -9999 -9999 -9999 -9999 -9999 -9999 -9999 -9999 -9999 -9999 -9999 -9999 -9999 -9999 -9999 -9999 -9999 -9999 -9999 -9999 -9999 -9999 -9999 -9999 -9999 -9999 -9999 -9999 -9999 -9999 -9999 -9999 -9999 -9999 -9999 -9999 -9999 -9999 -9999 -9999 -9999 -9999 -9999 -9999 -9999 -9999 -9999 -9999 -9999 -9999 -9999 -9999 -9999 -9999 -9999 -9999 -9999 -9999 -9999 -9999 -9999 -9999 -9999 -9999 -9999 -9999 -9999 -9999 -9999 -9999 -9999 -9999 -9999 -9999 -9999 -9999 -9999 -9999 -9999 -9999 -9999 -9999 -9999 -9999 -9999 -9999 -9999 -9999 -9999 -9999 -9999 -9999 -9999 -9999 -9999 -9999 -9999 -9999 -9999 -9999 -9999 -9999 -9999 -9999 -9999 -9999 -9999 -9999 -9999 -9999 -9999 -9999 -9999 -9999 -9999 -9999 -9999 -9999 -9999 -9999 -9999 -9999 -9999 -9999 -9999 -9999 -9999 -9999 -9999 -9999 -9999 -9999 -9999 -9999 -9999 -9999 -9999 -9999 -9999 -9999 -9999 -9999 -9999 -9999 -9999 -9999 -9999 -9999 -9999 -9999 -9999 -9999 -9999 -9999 -9999 -9999 -9999 -9999 -9999 -9999 -9999 -9999 -9999 -9999 -9999 90.3890160183066 90.3890160183066 90.3890160183066 80.5921052631579 91.2280701754386 91.2280701754386 91.2280701754386 87.2817955112219 87.2817955112219 87.2817955112219 88.2882882882883 88.2882882882883 88.2882882882883 91.8762088974855 91.8762088974855 91.8762088974855 85.8267716535433 85.8267716535433 85.8267716535433 85.8267716535433 85.8267716535433 78.8643533123028 78.8643533123028 82.4120603015075 82.4120603015075 82.4120603015075 88.3116883116883 88.3116883116883 88.3116883116883 87.9518072289157 68.4121621621622 68.4121621621622 84.1161400512382 84.1161400512382 84.1161400512382 84.1161400512382 84.1161400512382 84.1161400512382 84.1161400512382 84.1161400512382 86.7620751341682 72.4962630792227 72.4962630792227 72.4962630792227 77.683615819209 77.683615819209 77.683615819209 77.683615819209 85.3825136612022 77.5 77.5 77.5 65.9246575342466 72.3014256619145 72.3014256619145 67.6959619952494 69.1202872531418 77.6892430278884 77.6892430278884 84.5070422535211 84.5070422535211 89.5904436860068 89.5904436860068 89.5904436860068 89.5904436860068 84.5648604269294 93.9306358381503 93.9306358381503 92.9003021148036 92.9003021148036 95.2380952380952 95.2380952380952 90.4522613065327 88.7265135699374 90.5688622754491 90.5688622754491 90.5688622754491 90.9090909090909 90.3890160183066 90.3890160183066 95.1178451178451 95.1178451178451 93.75 92.8853754940711 94.4954128440367 94.4954128440367 94.4954128440367 81.2641083521445 81.2641083521445 86.231884057971 86.231884057971 86.231884057971 85.8918128654971 85.8918128654971 85.8918128654971 85.8918128654971 89.3300248138958 93.9597315436242 93.9597315436242 87.9494655004859 87.9494655004859 83.7696335078534 87.991718426501 87.991718426501 87.0445344129555 87.0445344129555 87.0445344129555 87.8243512974052 87.8243512974052 87.8243512974052 87.8243512974052 91.9540229885057 86.3844393592677 86.3844393592677 86.3844393592677 86.3844393592677 92.375366568915 92.375366568915 92.5925925925926 93.5828877005348 93.5828877005348 93.5828877005348 93.5828877005348 93.5828877005348 93.5828877005348 93.5828877005348 93.5828877005348 -9999 -9999 -9999 -9999 -9999 -9999 -9999 -9999 -9999 -9999 -9999 -9999 -9999 -9999 -9999 -9999 -9999 -9999 -9999 -9999 -9999 -9999 -9999 -9999 -9999 -9999 -9999 -9999 -9999 -9999 -9999 -9999 -9999 -9999 -9999 -9999 -9999 -9999 -9999 -9999 -9999
-9999 -9999 -9999 -9999 -9999 -9999 -9999 -9999 -9999 -9999 -9999 -9999 -9999 -9999 -9999 -9999 -9999 -9999 -9999 -9999 -9999 -9999 -9999 -9999 -9999 -9999 -9999 -9999 -9999 -9999 -9999 -9999 -9999 -9999 -9999 -9999 -9999 -9999 -9999 -9999 -9999 -9999 -9999 -9999 -9999 -9999 -9999 -9999 -9999 -9999 -9999 -9999 -9999 -9999 -9999 -9999 -9999 -9999 -9999 -9999 -9999 -9999 -9999 -9999 -9999 -9999 -9999 -9999 -9999 -9999 -9999 -9999 -9999 -9999 -9999 -9999 -9999 -9999 -9999 -9999 -9999 -9999 -9999 -9999 -9999 -9999 -9999 -9999 -9999 -9999 -9999 -9999 -9999 -9999 -9999 -9999 -9999 -9999 -9999 -9999 -9999 -9999 -9999 -9999 -9999 -9999 -9999 -9999 -9999 -9999 -9999 -9999 -9999 -9999 -9999 -9999 -9999 -9999 -9999 -9999 -9999 -9999 -9999 -9999 -9999 -9999 -9999 -9999 -9999 -9999 -9999 -9999 -9999 -9999 -9999 -9999 -9999 -9999 -9999 -9999 -9999 -9999 -9999 -9999 -9999 -9999 -9999 -9999 -9999 -9999 -9999 -9999 -9999 -9999 -9999 -9999 -9999 -9999 -9999 -9999 -9999 -9999 -9999 -9999 -9999 -9999 -9999 -9999 -9999 -9999 -9999 -9999 -9999 -9999 -9999 -9999 -9999 -9999 -9999 -9999 -9999 -9999 -9999 -9999 -9999 -9999 -9999 -9999 -9999 -9999 -9999 -9999 -9999 -9999 -9999 -9999 -9999 -9999 -9999 -9999 -9999 -9999 -9999 -9999 -9999 -9999 -9999 -9999 -9999 -9999 -9999 -9999 -9999 -9999 -9999 -9999 -9999 -9999 -9999 -9999 -9999 -9999 -9999 -9999 -9999 -9999 -9999 -9999 -9999 -9999 -9999 -9999 -9999 -9999 -9999 -9999 -9999 -9999 -9999 -9999 -9999 -9999 -9999 -9999 -9999 -9999 90.3890160183066 90.3890160183066 90.3890160183066 90.0216919739696 90.0216919739696 80.5921052631579 80.5921052631579 82.6771653543307 87.2817955112219 87.2817955112219 88.2882882882883 88.2882882882883 88.2882882882883 87.962962962963 87.962962962963 87.962962962963 87.962962962963 91.8762088974855 91.8762088974855 85.8267716535433 85.8267716535433 68.9424364123159 68.9424364123159 86.5209471766849 86.5209471766849 82.4120603015075 78.8177339901478 78.8177339901478 78.8177339901478 79.6812749003984 87.9518072289157 87.9518072289157 85.5106888361045 85.5106888361045 85.5106888361045 84.1161400512382 84.1161400512382 84.1161400512382 86.7620751341682 72.4962630792227 72.4962630792227 81.7120622568093 72.4962630792227 72.4962630792227 72.4962630792227 72.4962630792227 72.4962630792227 72.4962630792227 82.5991189427313 85.3825136612022 85.3825136612022 85.3825136612022 77.5 80.6451612903226 80.6451612903226 68.6813186813187 72.3014256619145 72.3014256619145 75.4437869822485 75.4437869822485 77.6892430278884 77.6892430278884 85.0903614457831 85.0903614457831 89.5904436860068 89.5904436860068 89.3909626719057 91.6179337231969 89.3909626719057 89.3909626719057 93.5114503816794 95.2380952380952 95.2380952380952 95.2380952380952 91.9243986254295 91.9243986254295 91.9243986254295 90.5688622754491 90.9090909090909 90.9090909090909 95.6651718983558 95.6651718983558 92.814371257485 92.814371257485 92.814371257485 93.75 93.75 94.4954128440367 91.5697674418605 81.2641083521445 86.231884057971 86.231884057971 85.8918128654971 88.9261744966443 85.8918128654971 85.8918128654971 85.8918128654971 89.9357601713062 89.3300248138958 89.3300248138958 87.9494655004859 83.7696335078534 83.7696335078534 87.991718426501 87.991718426501 87.991718426501 87.991718426501 87.991718426501 91.4826498422713 91.4826498422713 87.8243512974052 91.9540229885057 91.9540229885057 91.9540229885057 63.7860082304527 63.7860082304527 92.375366568915 92.375366568915 91.3348946135831 91.3348946135831 91.3348946135831 92.5925925925926 91.3348946135831 93.5828877005348 93.5828877005348 93.5828877005348 93.5828877005348 -9999 -9999 -9999 -9999 -9999 -9999 -9999 -9999 -9999 -9999 -9999 -9999 -9999 -9999 -9999 -9999 -9999 -9999 -9999 -9999 -9999 -9999 -9999 -9999 -9999 -9999 -9999 -9999 -9999 -9999 -9999 -9999 -9999 -9999 -9999 -9999 -9999 -9999 -9999 -9999 -9999 -9999
-9999 -9999 -9999 -9999 -9999 -9999 -9999 -9999 -9999 -9999 -9999 -9999 -9999 -9999 -9999 -9999 -9999 -9999 -9999 -9999 -9999 -9999 -9999 -9999 -9999 -9999 -9999 -9999 -9999 -9999 -9999 -9999 -9999 -9999 -9999 -9999 -9999 -9999 -9999 -9999 -9999 -9999 -9999 -9999 -9999 -9999 -9999 -9999 -9999 -9999 -9999 -9999 -9999 -9999 -9999 -9999 -9999 -9999 -9999 -9999 -9999 -9999 -9999 -9999 -9999 -9999 -9999 -9999 -9999 -9999 -9999 -9999 -9999 -9999 -9999 -9999 -9999 -9999 -9999 -9999 -9999 -9999 -9999 -9999 -9999 -9999 -9999 -9999 -9999 -9999 -9999 -9999 -9999 -9999 -9999 -9999 -9999 -9999 -9999 -9999 -9999 -9999 -9999 -9999 -9999 -9999 -9999 -9999 -9999 -9999 -9999 -9999 -9999 -9999 -9999 -9999 -9999 -9999 -9999 -9999 -9999 -9999 -9999 -9999 -9999 -9999 -9999 -9999 -9999 -9999 -9999 -9999 -9999 -9999 -9999 -9999 -9999 -9999 -9999 -9999 -9999 -9999 -9999 -9999 -9999 -9999 -9999 -9999 -9999 -9999 -9999 -9999 -9999 -9999 -9999 -9999 -9999 -9999 -9999 -9999 -9999 -9999 -9999 -9999 -9999 -9999 -9999 -9999 -9999 -9999 -9999 -9999 -9999 -9999 -9999 -9999 -9999 -9999 -9999 -9999 -9999 -9999 -9999 -9999 -9999 -9999 -9999 -9999 -9999 -9999 -9999 -9999 -9999 -9999 -9999 -9999 -9999 -9999 -9999 -9999 -9999 -9999 -9999 -9999 -9999 -9999 -9999 -9999 -9999 -9999 -9999 -9999 -9999 -9999 -9999 -9999 -9999 -9999 -9999 -9999 -9999 -9999 -9999 -9999 -9999 -9999 -9999 -9999 -9999 -9999 -9999 -9999 -9999 -9999 -9999 -9999 -9999 -9999 -9999 90.3890160183066 90.3890160183066 90.3890160183066 90.3890160183066 90.3890160183066 90.3890160183066 90.3890160183066 90.3890160183066 87.962962962963 87.962962962963 87.962962962963 87.962962962963 90.0216919739696 87.2340425531915 87.2340425531915 87.2340425531915 86.073500967118 86.073500967118 86.073500967118 79.5677799607073 79.5677799607073 87.962962962963 87.962962962963 87.962962962963 85.8267716535433 85.8267716535433 85.8267716535433 85.8267716535433 68.9424364123159 68.9424364123159 68.9424364123159 86.5209471766849 86.5209471766849 82.8025477707006 82.8025477707006 78.8177339901478 79.6812749003984 79.6812749003984 79.6812749003984 85.5106888361045 85.5106888361045 85.5106888361045 85.5106888361045 90.7012195121951 90.7012195121951 72.4962630792227 90.1253918495298 90.1253918495298 81.7120622568093 81.7120622568093 86.6141732283465 72.4962630792227 72.4962630792227 82.5991189427313 82.5991189427313 82.5991189427313 82.5991189427313 86.4583333333333 85.3825136612022 76.6550522648084 68.7074829931973 75.5939524838013 75.5939524838013 80.6451612903226 62.6666666666667 62.6666666666667 65.2680652680653 75.4437869822485 75.2923976608187 81.7204301075269 85.0903614457831 85.0903614457831 85.9649122807018 85.9649122807018 91.6179337231969 91.6179337231969 94.2812982998454 93.5114503816794 93.5114503816794 93.5114503816794 91.6824196597353 91.6824196597353 91.9243986254295 91.9243986254295 91.9395465994962 91.9395465994962 90.9980430528376 92.4453280318092 92.4453280318092 95.6651718983558 95.6651718983558 92.2431865828092 93.6426116838488 93.6426116838488 96.3222416812609 96.3222416812609 96.3222416812609 91.5697674418605 91.5697674418605 -9999 -9999 -9999 88.9261744966443 92.6275992438563 89.9357601713062 89.9357601713062 91.4285714285714 87.4439461883408 83.7696335078534 83.7696335078534 69.6095076400679 87.991718426501 87.991718426501 87.991718426501 69.0909090909091 69.0909090909091 69.0909090909091 91.8238993710692 91.8238993710692 91.8238993710692 91.9540229885057 63.7860082304527 63.7860082304527 87.6288659793814 87.6288659793814 89.4833948339483 92.375366568915 91.3348946135831 91.3348946135831 91.3348946135831 91.3348946135831 91.3348946135831 91.3348946135831 -9999 -9999 -9999 -9999 -9999 -9999 -9999 -9999 -9999 -9999 -9999 -9999 -9999 -9999 -9999 -9999 -9999 -9999 -9999 -9999 -9999 -9999 -9999 -9999 -9999 -9999 -9999 -9999 -9999 -9999 -9999 -9999 -9999 -9999 -9999 -9999 -9999 -9999 -9999 -9999 -9999 -9999 -9999
-9999 -9999 -9999 -9999 -9999 -9999 -9999 -9999 -9999 -9999 -9999 -9999 -9999 -9999 -9999 -9999 -9999 -9999 -9999 -9999 -9999 -9999 -9999 -9999 -9999 -9999 -9999 -9999 -9999 -9999 -9999 -9999 -9999 -9999 -9999 -9999 -9999 -9999 -9999 -9999 -9999 -9999 -9999 -9999 -9999 -9999 -9999 -9999 -9999 -9999 -9999 -9999 -9999 -9999 -9999 -9999 -9999 -9999 -9999 -9999 -9999 -9999 -9999 -9999 -9999 -9999 -9999 -9999 -9999 -9999 -9999 -9999 -9999 -9999 -9999 -9999 -9999 -9999 -9999 -9999 -9999 -9999 -9999 -9999 -9999 -9999 -9999 -9999 -9999 -9999 -9999 -9999 -9999 -9999 -9999 -9999 -9999 -9999 -9999 -9999 -9999 -9999 -9999 -9999 -9999 -9999 -9999 -9999 -9999 -9999 -9999 -9999 -9999 -9999 -9999 -9999 -9999 -9999 -9999 -9999 -9999 -9999 -9999 -9999 -9999 -9999 -9999 -9999 -9999 -9999 -9999 -9999 -9999 -9999 -9999 -9999 -9999 -9999 -9999 -9999 -9999 -9999 -9999 -9999 -9999 -9999 -9999 -9999 -9999 -9999 -9999 -9999 -9999 -9999 -9999 -9999 -9999 -9999 -9999 -9999 -9999 -9999 -9999 -9999 -9999 -9999 -9999 -9999 -9999 -9999 -9999 -9999 -9999 -9999 -9999 -9999 -9999 -9999 -9999 -9999 -9999 -9999 -9999 -9999 -9999 -9999 -9999 -9999 -9999 -9999 -9999 -9999 -9999 -9999 -9999 -9999 -9999 -9999 -9999 -9999 -9999 -9999 -9999 -9999 -9999 -9999 -9999 -9999 -9999 -9999 -9999 -9999 -9999 -9999 -9999 -9999 -9999 -9999 -9999 -9999 -9999 -9999 -9999 -9999 -9999 -9999 -9999 -9999 -9999 -9999 -9999 -9999 -9999 -9999 -9999 -9999 -9999 -9999 90.3890160183066 90.3890160183066 90.3890160183066 90.3890160183066 90.3890160183066 90.3890160183066 90.0473933649289 90.0473933649289 90.0473933649289 90.0473933649289 93.5430463576159 93.5430463576159 87.962962962963 87.962962962963 87.2340425531915 87.2340425531915 87.2340425531915 92.7021696252465 86.073500967118 86.073500967118 84.0407470288625 84.0407470288625 67.6767676767677 79.5677799607073 79.5677799607073 85.8267716535433 85.8267716535433 85.8267716535433 68.9424364123159 68.9424364123159 68.9424364123159 68.9424364123159 68.9424364123159 68.9424364123159 68.9424364123159 82.8025477707006 83.8368580060423 83.8368580060423 83.8368580060423 87.4547647768396 90.702947845805 90.702947845805 90.702947845805 90.7012195121951 90.7012195121951 90.7012195121951 89.8778359511344 89.8778359511344 90.1875901875902 90.1253918495298 86.6141732283465 86.6141732283465 86.6141732283465 90.8385093167702 90.8385093167702 82.5991189427313 82.5991189427313 82.5991189427313 86.4583333333333 86.8686868686869 87.3015873015873 87.3015873015873 76.6550522648084 68.7074829931973 67.3076923076923 67.3076923076923 73.1707317073171 62.6666666666667 79.8319327731092 75.2923976608187 75.2923976608187 75.2923976608187 75 83.5654596100279 83.5654596100279 85.9649122807018 90.293453724605 94.2812982998454 94.2812982998454 94.2812982998454 93.8775510204082 93.8775510204082 96.0820895522388 96.0820895522388 91.6824196597353 91.9395465994962 90.1116427432217 90.9980430528376 90.9980430528376 92.891760904685 92.891760904685 95.049504950495 95.049504950495 92.2431865828092 92.2431865828092 93.3660933660934 97.2602739726027 97.2602739726027 91.5697674418605 -9999 -9999 -9999 -9999 -9999 -9999 -9999 91.4285714285714 91.4285714285714 87.4439461883408 87.4439461883408 87.4439461883408 86.8580060422961 69.6095076400679 69.6095076400679 69.6095076400679 69.0909090909091 69.0909090909091 69.0909090909091 92.3645320197044 92.3645320197044 91.8238993710692 92.5925925925926 92.5925925925926 94.5179584120983 94.5179584120983 89.4833948339483 89.4833948339483 89.4988066825776 89.4988066825776 89.4988066825776 91.3348946135831 91.3348946135831 91.3348946135831 -9999 -9999 -9999 -9999 -9999 -9999 -9999 -9999 -9999 -9999 -9999 -9999 -9999 -9999 -9999 -9999 -9999 -9999 -9999 -9999 -9999 -9999 -9999 -9999 -9999 -9999 -9999 -9999 -9999 -9999 -9999 -9999 -9999 -9999 -9999 -9999 -9999 -9999 -9999 -9999 -9999 -9999 -9999 -9999
-9999 -9999 -9999 -9999 -9999 -9999 -9999 -9999 -9999 -9999 -9999 -9999 -9999 -9999 -9999 -9999 -9999 -9999 -9999 -9999 -9999 -9999 -9999 -9999 -9999 -9999 -9999 -9999 -9999 -9999 -9999 -9999 -9999 -9999 -9999 -9999 -9999 -9999 -9999 -9999 -9999 -9999 -9999 -9999 -9999 -9999 -9999 -9999 -9999 -9999 -9999 -9999 -9999 -9999 -9999 -9999 -9999 -9999 -9999 -9999 -9999 -9999 -9999 -9999 -9999 -9999 -9999 -9999 -9999 -9999 -9999 -9999 -9999 -9999 -9999 -9999 -9999 -9999 -9999 -9999 -9999 -9999 -9999 -9999 -9999 -9999 -9999 -9999 -9999 -9999 -9999 -9999 -9999 -9999 -9999 -9999 -9999 -9999 -9999 -9999 -9999 -9999 -9999 -9999 -9999 -9999 -9999 -9999 -9999 -9999 -9999 -9999 -9999 -9999 -9999 -9999 -9999 -9999 -9999 -9999 -9999 -9999 -9999 -9999 -9999 -9999 -9999 -9999 -9999 -9999 -9999 -9999 -9999 -9999 -9999 -9999 -9999 -9999 -9999 -9999 -9999 -9999 -9999 -9999 -9999 -9999 -9999 -9999 -9999 -9999 -9999 -9999 -9999 -9999 -9999 -9999 -9999 -9999 -9999 -9999 -9999 -9999 -9999 -9999 -9999 -9999 -9999 -9999 -9999 -9999 -9999 -9999 -9999 -9999 -9999 -9999 -9999 -9999 -9999 -9999 -9999 -9999 -9999 -9999 -9999 -9999 -9999 -9999 -9999 -9999 -9999 -9999 -9999 -9999 -9999 -9999 -9999 -9999 -9999 -9999 -9999 -9999 -9999 -9999 -9999 -9999 -9999 -9999 -9999 -9999 -9999 -9999 -9999 -9999 -9999 -9999 -9999 -9999 -9999 -9999 -9999 -9999 -9999 -9999 -9999 -9999 -9999 -9999 -9999 -9999 -9999 -9999 -9999 -9999 -9999 -9999 -9999 29.7845373891001 29.7845373891001 29.7845373891001 29.7845373891001 29.7845373891001 29.7845373891001 29.7845373891001 29.7845373891001 90.0473933649289 90.0473933649289 90.0473933649289 93.5430463576159 93.5430463576159 93.5430463576159 87.2340425531915 87.2340425531915 87.2340425531915 92.7021696252465 92.7021696252465 92.7021696252465 84.0407470288625 84.0407470288625 74.1935483870968 74.1935483870968 67.6767676767677 67.6767676767677 67.6767676767677 85.8267716535433 68.9424364123159 68.9424364123159 68.9424364123159 68.9424364123159 68.9424364123159 68.9424364123159 68.9424364123159 68.9424364123159 68.9424364123159 68.9424364123159 83.8368580060423 83.8368580060423 87.4547647768396 87.4547647768396 87.4547647768396 87.5634517766497 91.6030534351145 91.6030534351145 91.6030534351145 92.2242314647378 89.8778359511344 90.1875901875902 90.1875901875902 87.5912408759124 87.5912408759124 90.8385093167702 90.8385093167702 89.2018779342723 90.8385093167702 90.8385093167702 82.5991189427313 86.2068965517241 90.6200317965024 90.6200317965024 86.8686868686869 87.3015873015873 87.3161764705882 67.3076923076923 67.3076923076923 67.3076923076923 81.043956043956 76.9230769230769 76.9230769230769 79.8319327731092 75 75 75 75 85.1648351648352 88.0597014925373 90.293453724605 90.293453724605 94.3060498220641 94.3060498220641 94.3060498220641 93.8775510204082 93.8775510204082 96.0820895522388 88.9235569422777 90.1116427432217 90.1116427432217 90.1116427432217 92.891760904685 92.891760904685 91.8635170603675 91.8635170603675 94.2492012779553 94.3181818181818 94.3181818181818 94.559585492228 90.8018867924528 90.8018867924528 90.3890160183066 -9999 -9999 -9999 -9999 -9999 -9999 -9999 85.0077279752705 85.0077279752705 85.0077279752705 85.0077279752705 87.7944325481799 86.8580060422961 86.8580060422961 89.1089108910891 89.1089108910891 89.1089108910891 92.2431865828092 92.8571428571429 92.8571428571429 92.3913043478261 92.5925925925926 92.3913043478261 94.5179584120983 96.0743801652893 96.0743801652893 89.4988066825776 89.4988066825776 89.4988066825776 89.4988066825776 89.4988066825776 89.4988066825776 89.4988066825776 -9999 -9999 -9999 -9999 -9999 -9999 -9999 -9999 -9999 -9999 -9999 -9999 -9999 -9999 -9999 -9999 -9999 -9999 -9999 -9999 -9999 -9999 -9999 -9999 -9999 -9999 -9999 -9999 -9999 -9999 -9999 -9999 -9999 -9999 -9999 -9999 -9999 -9999 -9999 -9999 -9999 -9999 -9999 -9999
-9999 -9999 -9999 -9999 -9999 -9999 -9999 -9999 -9999 -9999 -9999 -9999 -9999 -9999 -9999 -9999 -9999 -9999 -9999 -9999 -9999 -9999 -9999 -9999 -9999 -9999 -9999 -9999 -9999 -9999 -9999 -9999 -9999 -9999 -9999 -9999 -9999 -9999 -9999 -9999 -9999 -9999 -9999 -9999 -9999 -9999 -9999 -9999 -9999 -9999 -9999 -9999 -9999 -9999 -9999 -9999 -9999 -9999 -9999 -9999 -9999 -9999 -9999 -9999 -9999 -9999 -9999 -9999 -9999 -9999 -9999 -9999 -9999 -9999 -9999 -9999 -9999 -9999 -9999 -9999 -9999 -9999 -9999 -9999 -9999 -9999 -9999 -9999 -9999 -9999 -9999 -9999 -9999 -9999 -9999 -9999 -9999 -9999 -9999 -9999 -9999 -9999 -9999 -9999 -9999 -9999 -9999 -9999 -9999 -9999 -9999 -9999 -9999 -9999 -9999 -9999 -9999 -9999 -9999 -9999 -9999 -9999 -9999 -9999 -9999 -9999 -9999 -9999 -9999 -9999 -9999 -9999 -9999 -9999 -9999 -9999 -9999 -9999 -9999 -9999 -9999 -9999 -9999 -9999 -9999 -9999 -9999 -9999 -9999 -9999 -9999 -9999 -9999 -9999 -9999 -9999 -9999 -9999 -9999 -9999 -9999 -9999 -9999 -9999 -9999 -9999 -9999 -9999 -9999 -9999 -9999 -9999 -9999 -9999 -9999 -9999 -9999 -9999 -9999 -9999 -9999 -9999 -9999 -9999 -9999 -9999 -9999 -9999 -9999 -9999 -9999 -9999 -9999 -9999 -9999 -9999 -9999 -9999 -9999 -9999 -9999 -9999 -9999 -9999 -9999 -9999 -9999 -9999 -9999 -9999 -9999 -9999 -9999 -9999 -9999 -9999 -9999 -9999 -9999 -9999 -9999 -9999 -9999 -9999 -9999 -9999 -9999 -9999 -9999 -9999 -9999 79.3103448275862 79.3103448275862 71.3224368499257 71.3224368499257 68.5975609756098 68.5975609756098 29.7845373891001 29.7845373891001 29.7845373891001 29.7845373891001 29.7845373891001 29.7845373891001 29.7845373891001 29.7845373891001 29.7845373891001 29.7845373891001 29.7845373891001 29.7845373891001 93.5430463576159 93.5430463576159 93.0693069306931 93.0693069306931 83.8709677419355 92.7021696252465 92.7021696252465 83.4932821497121 83.4932821497121 84.0407470288625 74.1935483870968 74.1935483870968 67.6767676767677 67.6767676767677 67.6767676767677 67.6767676767677 43.2300163132137 43.2300163132137 43.2300163132137 68.9424364123159 68.9424364123159 68.9424364123159 68.9424364123159 68.9424364123159 68.9424364123159 68.9424364123159 68.9424364123159 68.9424364123159 87.4547647768396 87.4547647768396 68.9424364123159 90.9926470588235 87.5634517766497 87.5634517766497 88.0551301684533 92.2242314647378 92.2242314647378 90.5730129390019 90.5730129390019 87.5912408759124 88.6075949367088 88.6075949367088 88.6075949367088 91.6988416988417 89.2018779342723 89.2018779342723 87.6897133220911 87.6897133220911 86.2068965517241 86.2068965517241 90.6200317965024 90.6200317965024 90.6200317965024 87.3161764705882 87.3161764705882 84.3989769820972 88.1458966565349 88.1458966565349 81.043956043956 83.8218053927315 83.8218053927315 83.8218053927315 75 82.9903978052126 82.9903978052126 85.1648351648352 85.1648351648352 92.5925925925926 88.3838383838384 88.3838383838384 94.3060498220641 93.5550935550936 93.5550935550936 88.9235569422777 88.9235569422777 88.9235569422777 88.9235569422777 90.1116427432217 92.891760904685 86.7970660146699 86.7970660146699 89.3760539629005 88.5311871227364 78.125 78.125 88.5311871227364 88.5311871227364 90.3890160183066 -9999 -9999 -9999 -9999 -9999 -9999 -9999 85.0077279752705 85.0077279752705 85.0077279752705 85.0077279752705 81.651376146789 81.651376146789 81.651376146789 91.5697674418605 91.5697674418605 91.1602209944751 91.9842312746386 91.9842312746386 91.9842312746386 92.2431865828092 92.3913043478261 92.3913043478261 92.3913043478261 92.3913043478261 92.9549902152642 92.9549902152642 89.4988066825776 89.4988066825776 89.4988066825776 89.4988066825776 -9999 -9999 -9999 -9999 -9999 -9999 -9999 -9999 -9999 -9999 -9999 -9999 -9999 -9999 -9999 -9999 -9999 -9999 -9999 -9999 -9999 -9999 -9999 -9999 -9999 -9999 -9999 -9999 -9999 -9999 -9999 -9999 -9999 -9999 -9999 -9999 -9999 -9999 -9999 -9999 -9999 -9999 -9999 -9999 -9999 -9999 -9999
-9999 -9999 -9999 -9999 -9999 -9999 -9999 -9999 -9999 -9999 -9999 -9999 -9999 -9999 -9999 -9999 -9999 -9999 -9999 -9999 -9999 -9999 -9999 -9999 -9999 -9999 -9999 -9999 -9999 -9999 -9999 -9999 -9999 -9999 -9999 -9999 -9999 -9999 -9999 -9999 -9999 -9999 -9999 -9999 -9999 -9999 -9999 -9999 -9999 -9999 -9999 -9999 -9999 -9999 -9999 -9999 -9999 -9999 -9999 -9999 -9999 -9999 -9999 -9999 -9999 -9999 -9999 -9999 -9999 -9999 -9999 -9999 -9999 -9999 -9999 -9999 -9999 -9999 -9999 -9999 -9999 -9999 -9999 -9999 -9999 -9999 -9999 -9999 -9999 -9999 -9999 -9999 -9999 -9999 -9999 -9999 -9999 -9999 -9999 -9999 -9999 -9999 -9999 -9999 -9999 -9999 -9999 -9999 -9999 -9999 -9999 -9999 -9999 -9999 -9999 -9999 -9999 -9999 -9999 -9999 -9999 -9999 -9999 -9999 -9999 -9999 -9999 -9999 -9999 -9999 -9999 -9999 -9999 -9999 -9999 -9999 -9999 -9999 -9999 -9999 -9999 -9999 -9999 -9999 -9999 -9999 -9999 -9999 -9999 -9999 -9999 -9999 -9999 -9999 -9999 -9999 -9999 -9999 -9999 -9999 -9999 -9999 -9999 -9999 -9999 -9999 -9999 -9999 -9999 -9999 -9999 -9999 -9999 -9999 -9999 -9999 -9999 -9999 -9999 -9999 -9999 -9999 -9999 -9999 -9999 -9999 -9999 -9999 -9999 -9999 -9999 -9999 -9999 -9999 -9999 -9999 -9999 -9999 -9999 -9999 -9999 -9999 -9999 -9999 -9999 -9999 -9999 -9999 -9999 -9999 -9999 -9999 -9999 -9999 -9999 -9999 -9999 -9999 -9999 -9999 -9999 -9999 -9999 -9999 68.8920454545455 68.8920454545455 -9999 74.7474747474748 74.7474747474748 -9999 -9999 79.3103448275862 79.3103448275862 79.3103448275862 63.0952380952381 71.3224368499257 71.3224368499257 71.3224368499257 68.5975609756098 68.5975609756098 29.7845373891001 29.7845373891001 29.7845373891001 29.7845373891001 29.7845373891001 29.7845373891001 29.7845373891001 29.7845373891001 29.7845373891001 29.7845373891001 93.0693069306931 93.0693069306931 93.0693069306931 83.8709677419355 83.8709677419355 83.8709677419355 80.04158004158 83.4932821497121 83.4932821497121 83.4932821497121 83.4932821497121 67.6767676767677 67.6767676767677 67.6767676767677 43.2300163132137 43.2300163132137 43.2300163132137 43.2300163132137 43.2300163132137 57.2727272727273 57.2727272727273 68.9424364123159 68.9424364123159 68.9424364123159 68.9424364123159 68.9424364123159 68.9424364123159 68.9424364123159 68.9424364123159 89.1608391608392 90.9926470588235 90.9926470588235 87.5394321766561 87.5394321766561 88.0551301684533 87.2894333843798 87.2894333843798 87.2894333843798 92.0634920634921 92.0634920634921 92.0634920634921 91.6179337231969 91.6988416988417 91.6988416988417 87.6404494382023 83.011583011583 83.011583011583 87.6897133220911 87.6897133220911 81.2379110251451 81.2379110251451 87.3161764705882 87.3161764705882 89.4117647058824 89.4117647058824 84.3989769820972 84.3989769820972 91.1764705882353 91.1764705882353 91.1764705882353 83.8218053927315 85.427135678392 85.427135678392 85.427135678392 82.9903978052126 88.3424408014572 91.5300546448087 91.5300546448087 92.5925925925926 88.3838383838384 88.3838383838384 88.9235569422777 88.9235569422777 88.9235569422777 88.9235569422777 90.3908794788274 90.3908794788274 90.3908794788274 90.3908794788274 89.3760539629005 89.3760539629005 88.5311871227364 88.5311871227364 88.5311871227364 88.5311871227364 -9999 -9999 -9999 -9999 -9999 -9999 -9999 -9999 -9999 77.9816513761468 77.9816513761468 77.9816513761468 77.9816513761468 79.8004987531172 79.8004987531172 81.651376146789 91.5697674418605 91.5697674418605 91.5697674418605 91.6230366492147 91.6230366492147 91.9842312746386 94.3204868154158 94.3204868154158 94.1845764854614 92.3913043478261 94.0099833610649 94.0099833610649 89.4988066825776 89.4988066825776 89.4988066825776 89.4988066825776 89.4988066825776 89.4988066825776 -9999 -9999 -9999 -9999 -9999 -9999 -9999 -9999 -9999 -9999 -9999 -9999 -9999 -9999 -9999 -9999 -9999 -9999 -9999 -9999 -9999 -9999 -9999 -9999 -9999 -9999 -9999 -9999 -9999 -9999 -9999 -9999 -9999 -9999 -9999 -9999 -9999 -9999 -9999 -9999 -9999 -9999 -9999 -9999 -9999 -9999
-9999 -9999 -9999 -9999 -9999 -9999 -9999 -9999 -9999 -9999 -9999 -9999 -9999 -9999 -9999 -9999 -9999 -9999 -9999 -9999 -9999 -9999 -9999 -9999 -9999 -9999 -9999 -9999 -9999 -9999 -9999 -9999 -9999 -9999 -9999 -9999 -9999 -9999 -9999 -9999 -9999 -9999 -9999 -9999 -9999 -9999 -9999 -9999 -9999 -9999 -9999 -9999 -9999 -9999 -9999 -9999 -9999 -9999 -9999 -9999 -9999 -9999 -9999 -9999 -9999 -9999 -9999 -9999 -9999 -9999 -9999 -9999 -9999 -9999 -9999 -9999 -9999 -9999 -9999 -9999 -9999 -9999 -9999 -9999 -9999 -9999 -9999 -9999 -9999 -9999 -9999 -9999 -9999 -9999 -9999 -9999 -9999 -9999 -9999 -9999 -9999 -9999 -9999 -9999 -9999 -9999 -9999 -9999 -9999 -9999 -9999 -9999 -9999 -9999 -9999 -9999 -9999 -9999 -9999 -9999 -9999 -9999 -9999 -9999 -9999 -9999 -9999 -9999 -9999 -9999 -9999 -9999 -9999 -9999 -9999 -9999 -9999 -9999 -9999 -9999 -9999 -9999 -9999 -9999 -9999 -9999 -9999 -9999 -9999 -9999 -9999 -9999 -9999 -9999 -9999 -9999 -9999 -9999 -9999 -9999 -9999 -9999 -9999 -9999 -9999 -9999 -9999 -9999 -9999 -9999 -9999 -9999 -9999 -9999 -9999 -9999 -9999 -9999 -9999 -9999 -9999 -9999 -9999 -9999 -9999 -9999 -9999 -9999 -9999 -9999 -9999 -9999 -9999 -9999 -9999 -9999 -9999 -9999 -9999 -9999 -9999 -9999 -9999 -9999 -9999 -9999 -9999 -9999 -9999 -9999 -9999 -9999 -9999 -9999 -9999 -9999 -9999 -9999 -9999 -9999 -9999 -9999 -9999 68.8920454545455 68.8920454545455 68.8920454545455 68.8920454545455 68.8920454545455 74.7474747474748 74.7474747474748 74.7474747474748 79.3103448275862 79.3103448275862 79.3103448275862 56.9139966273187 63.0952380952381 63.0952380952381 63.0952380952381 63.0952380952381 63.0952380952381 68.5975609756098 68.5975609756098 68.5975609756098 29.7845373891001 29.7845373891001 29.7845373891001 29.7845373891001 29.7845373891001 29.7845373891001 78.1448538754765 78.1448538754765 93.0693069306931 87.8712871287129 87.8712871287129 87.8712871287129 72.8643216080402 80.04158004158 80.04158004158 80.04158004158 80.04158004158 67.6767676767677 67.6767676767677 67.6767676767677 67.6767676767677 43.2300163132137 43.2300163132137 43.2300163132137 43.2300163132137 43.2300163132137 57.2727272727273 57.2727272727273 57.2727272727273 56.4516129032258 56.4516129032258 56.4516129032258 68.9424364123159 68.9424364123159 68.9424364123159 85.4063018242123 85.4063018242123 85.4063018242123 89.1608391608392 86.5561694290976 87.5394321766561 87.5394321766561 91.2698412698413 91.2698412698413 87.2894333843798 86.8263473053892 86.8263473053892 86.8263473053892 91.1680911680912 91.6179337231969 91.6179337231969 87.6404494382023 87.6404494382023 87.6404494382023 82.5426944971537 82.5426944971537 82.5426944971537 81.2379110251451 81.2379110251451 91.1161731207289 91.1161731207289 88.6426592797784 89.4117647058824 89.3665158371041 93.2835820895522 93.2835820895522 91.1764705882353 88.4691848906561 82.8343313373254 82.8343313373254 85.427135678392 77.2980501392758 77.2980501392758 79.8525798525799 88.3424408014572 88.3424408014572 88.3424408014572 92.5925925925926 92.4657534246575 92.4657534246575 88.9235569422777 90.3908794788274 90.3908794788274 90.3908794788274 90.3908794788274 90.3908794788274 90.3908794788274 90.3908794788274 88.5311871227364 88.5311871227364 88.5311871227364 88.5311871227364 -9999 -9999 -9999 -9999 -9999 -9999 -9999 -9999 -9999 77.9816513761468 77.9816513761468 77.9816513761468 76.2867647058823 76.2867647058823 79.8004987531172 85.5704697986577 85.5704697986577 85.5704697986577 93.9153439153439 93.9153439153439 93.8864628820961 94.3204868154158 94.3204868154158 94.1845764854614 94.1845764854614 93.8818565400844 93.8818565400844 93.8818565400844 93.5960591133005 89.4988066825776 89.4988066825776 89.4988066825776 -9999 -9999 -9999 -9999 -9999 -9999 -9999 -9999 -9999 -9999 -9999 -9999 -9999 -9999 -9999 -9999 -9999 -9999 -9999 -9999 -9999 -9999 -9999 -9999 -9999 -9999 -9999 -9999 -9999 -9999 -9999 -9999 -9999 -9999 -9999 -9999 -9999 -9999 -9999 -9999 -9999 -9999 -9999 -9999 -9999 -9999 -9999 -9999
-9999 -9999 -9999 -9999 -9999 -9999 -9999 -9999 -9999 -9999 -9999 -9999 -9999 -9999 -9999 -9999 -9999 -9999 -9999 -9999 -9999 -9999 -9999 -9999 -9999 -9999 -9999 -9999 -9999 -9999 -9999 -9999 -9999 -9999 -9999 -9999 -9999 -9999 -9999 -9999 -9999 -9999 -9999 -9999 -9999 -9999 -9999 -9999 -9999 -9999 -9999 -9999 -9999 -9999 -9999 -9999 -9999 -9999 -9999 -9999 -9999 -9999 -9999 -9999 -9999 -9999 -9999 -9999 -9999 -9999 -9999 -9999 -9999 -9999 -9999 -9999 -9999 -9999 -9999 -9999 -9999 -9999 -9999 -9999 -9999 -9999 -9999 -9999 -9999 -9999 -9999 -9999 -9999 -9999 -9999 -9999 -9999 -9999 -9999 -9999 -9999 -9999 -9999 -9999 -9999 -9999 -9999 -9999 -9999 -9999 -9999 -9999 -9999 -9999 -9999 -9999 -9999 -9999 -9999 -9999 -9999 -9999 -9999 -9999 -9999 -9999 -9999 -9999 -9999 -9999 -9999 -9999 -9999 -9999 -9999 -9999 -9999 -9999 -9999 -9999 -9999 -9999 -9999 -9999 -9999 -9999 -9999 -9999 -9999 -9999 -9999 -9999 -9999 -9999 -9999 -9999 -9999 -9999 -9999 -9999 -9999 -9999 -9999 -9999 -9999 -9999 -9999 -9999 -9999 -9999 -9999 -9999 -9999 -9999 -9999 -9999 -9999 -9999 -9999 -9999 -9999 -9999 -9999 -9999 -9999 -9999 -9999 -9999 -9999 -9999 -9999 -9999 -9999 -9999 -9999 -9999 -9999 -9999 -9999 -9999 -9999 -9999 -9999 -9999 -9999 -9999 -9999 -9999 -9999 -9999 -9999 -9999 -9999 -9999 -9999 -9999 -9999 -9999 -9999 -9999 -9999 -9999 68.8920454545455 50.6329113924051 68.8920454545455 68.8920454545455 55.8712121212121 68.8920454545455 68.8920454545455 68.8920454545455 60.0624024960998 74.7474747474748 74.7474747474748 67.0588235294118 67.0588235294118 56.9139966273187 56.9139966273187 56.9139966273187 56.9139966273187 63.0952380952381 63.0952380952381 63.0952380952381 68.5975609756098 68.5975609756098 29.7845373891001 29.7845373891001 29.7845373891001 29.7845373891001 29.7845373891001 78.1448538754765 78.1448538754765 75.8620689655172 75.8620689655172 87.8712871287129 87.8712871287129 72.8643216080402 72.8643216080402 72.8643216080402 72.8643216080402 67.6767676767677 67.6767676767677 67.6767676767677 67.6767676767677 43.2300163132137 43.2300163132137 43.2300163132137 43.2300163132137 43.2300163132137 51.0489510489511 51.0489510489511 51.0489510489511 56.4516129032258 56.4516129032258 56.4516129032258 54.1082164328657 54.1082164328657 54.1082164328657 63.1424375917768 63.1424375917768 85.4063018242123 85.4063018242123 86.9047619047619 86.9047619047619 86.5561694290976 86.6141732283465 86.6141732283465 86.6141732283465 89.0302066772655 89.0302066772655 89.0302066772655 88.0758807588076 86.8544600938967 86.8544600938967 77.0171149144254 77.0171149144254 75.4475703324808 82.7740492170022 82.7740492170022 78.8954635108481 74.5412844036697 82.5426944971537 87.248322147651 87.248322147651 87.248322147651 91.1161731207289 85.2272727272727 93.2400932400932 93.2400932400932 89.3665158371041 89.2857142857143 90.5172413793103 88.4691848906561 88.4691848906561 82.8343313373254 82.8343313373254 94.9720670391062 94.9720670391062 77.2980501392758 79.8525798525799 88.3424408014572 90.3846153846154 91.7207792207792 92.0770877944325 92.0770877944325 90.3908794788274 90.3908794788274 90.3908794788274 90.3908794788274 90.3908794788274 90.9090909090909 90.9090909090909 90.9090909090909 90.9090909090909 88.5311871227364 -9999 -9999 -9999 -9999 -9999 -9999 -9999 -9999 -9999 -9999 77.9816513761468 77.9816513761468 76.2867647058823 76.2867647058823 76.2867647058823 85.5704697986577 85.5704697986577 85.5704697986577 93.2330827067669 93.2330827067669 93.0232558139535 93.0232558139535 96.8342644320298 94.3204868154158 94.3204868154158 94.3204868154158 93.75 93.75 93.5960591133005 93.5960591133005 93.5960591133005 93.5960591133005 93.5960591133005 -9999 -9999 -9999 -9999 -9999 -9999 -9999 -9999 -9999 -9999 -9999 -9999 -9999 -9999 -9999 -9999 -9999 -9999 -9999 -9999 -9999 -9999 -9999 -9999 -9999 -9999 -9999 -9999 -9999 -9999 -9999 -9999 -9999 -9999 -9999 -9999 -9999 -9999 -9999 -9999 -9999 -9999 -9999 -9999 -9999 -9999 -9999 -9999
-9999 -9999 -9999 -9999 -9999 -9999 -9999 -9999 -9999 -9999 -9999 -9999 -9999 -9999 -9999 -9999 -9999 -9999 -9999 -9999 -9999 -9999 -9999 -9999 -9999 -9999 -9999 -9999 -9999 -9999 -9999 -9999 -9999 -9999 -9999 -9999 -9999 -9999 -9999 -9999 -9999 -9999 -9999 -9999 -9999 -9999 -9999 -9999 -9999 -9999 -9999 -9999 -9999 -9999 -9999 -9999 -9999 -9999 -9999 -9999 -9999 -9999 -9999 -9999 -9999 -9999 -9999 -9999 -9999 -9999 -9999 -9999 -9999 -9999 -9999 -9999 -9999 -9999 -9999 -9999 -9999 -9999 -9999 -9999 -9999 -9999 -9999 -9999 -9999 -9999 -9999 -9999 -9999 -9999 -9999 -9999 -9999 -9999 -9999 -9999 -9999 -9999 -9999 -9999 -9999 -9999 -9999 -9999 -9999 -9999 -9999 -9999 -9999 -9999 -9999 -9999 -9999 -9999 -9999 -9999 -9999 -9999 -9999 -9999 -9999 -9999 -9999 -9999 -9999 -9999 -9999 -9999 -9999 -9999 -9999 -9999 -9999 -9999 -9999 -9999 -9999 -9999 -9999 -9999 -9999 -9999 -9999 -9999 -9999 -9999 -9999 -9999 -9999 -9999 -9999 -9999 -9999 -9999 -9999 -9999 -9999 -9999 -9999 -9999 -9999 -9999 -9999 -9999 -9999 -9999 -9999 -9999 -9999 -9999 -9999 -9999 -9999 -9999 -9999 -9999 -9999 -9999 -9999 -9999 -9999 -9999 -9999 -9999 -9999 -9999 -9999 -9999 -9999 -9999 -9999 -9999 -9999 -9999 -9999 -9999 -9999 -9999 -9999 -9999 -9999 -9999 -9999 -9999 -9999 -9999 -9999 -9999 -9999 -9999 -9999 -9999 -9999 -9999 -9999 -9999 -9999 68.8920454545455 50.6329113924051 50.6329113924051 50.6329113924051 50.6329113924051 55.8712121212121 55.8712121212121 55.8712121212121 60.0624024960998 60.0624024960998 60.0624024960998 66.2100456621005 66.2100456621005 67.0588235294118 67.0588235294118 56.9139966273187 56.9139966273187 56.9139966273187 56.9139966273187 55.4089709762533 55.4089709762533 50.3597122302158 50.3597122302158 50.3597122302158 50.3597122302158 50.3597122302158 50.3597122302158 78.1448538754765 78.1448538754765 78.1448538754765 78.1448538754765 78.1448538754765 75.8620689655172 72.8643216080402 69.6078431372549 69.6078431372549 69.6078431372549 72.8643216080402 67.6767676767677 67.6767676767677 67.6767676767677 67.6767676767677 43.2300163132137 43.2300163132137 43.2300163132137 43.2300163132137 43.2300163132137 50 51.0489510489511 51.0489510489511 46.0385438972163 46.0385438972163 46.0385438972163 66.3390663390663 54.1082164328657 54.1082164328657 63.1424375917768 63.1424375917768 63.1424375917768 63.1424375917768 63.1424375917768 86.9047619047619 86.9047619047619 83.7378640776699 83.7378640776699 86.6141732283465 80 80 80 89.5765472312704 89.5765472312704 88.0758807588076 91.2162162162162 86.1111111111111 85.383502170767 85.383502170767 69.5876288659794 69.5876288659794 74.5412844036697 74.5412844036697 84.4298245614035 87.248322147651 87.248322147651 70.8390646492435 70.8390646492435 85.2272727272727 85.2272727272727 91.9540229885057 91.9540229885057 89.2857142857143 89.2857142857143 90.5172413793103 82.5688073394495 94.9720670391062 94.9720670391062 77.2980501392758 77.2980501392758 77.2980501392758 77.2980501392758 90.3846153846154 90.3846153846154 90.9090909090909 91.7207792207792 92.0770877944325 92.0770877944325 90.9090909090909 90.9090909090909 90.9090909090909 90.9090909090909 90.9090909090909 90.9090909090909 90.9090909090909 91.7207792207792 91.7207792207792 91.7207792207792 81.8505338078292 81.8505338078292 81.8505338078292 81.8505338078292 81.8505338078292 81.8505338078292 81.8505338078292 81.8505338078292 77.9816513761468 77.9816513761468 76.2867647058823 76.2867647058823 76.2867647058823 85.5704697986577 85.5704697986577 85.5704697986577 93.2330827067669 93.2330827067669 93.2330827067669 96.8342644320298 96.8342644320298 88.8501742160279 96.8342644320298 94.5692883895131 94.5692883895131 -9999 93.5960591133005 93.5960591133005 93.5960591133005 -9999 -9999 -9999 -9999 -9999 -9999 -9999 -9999 -9999 -9999 -9999 -9999 -9999 -9999 -9999 -9999 -9999 -9999 -9999 -9999 -9999 -9999 -9999 -9999 -9999 -9999 -9999 -9999 -9999 -9999 -9999 -9999 -9999 -9999 -9999 -9999 -9999 -9999 -9999 -9999 -9999 -9999 -9999 -9999 -9999 -9999 -9999 -9999 -9999 -9999
-9999 -9999 -9999 -9999 -9999 -9999 -9999 -9999 -9999 -9999 -9999 -9999 -9999 -9999 -9999 -9999 -9999 -9999 -9999 -9999 -9999 -9999 -9999 -9999 -9999 -9999 -9999 -9999 -9999 -9999 -9999 -9999 -9999 -9999 -9999 -9999 -9999 -9999 -9999 -9999 -9999 -9999 -9999 -9999 -9999 -9999 -9999 -9999 -9999 -9999 -9999 -9999 -9999 -9999 -9999 -9999 -9999 -9999 -9999 -9999 -9999 -9999 -9999 -9999 -9999 -9999 -9999 -9999 -9999 -9999 -9999 -9999 -9999 -9999 -9999 -9999 -9999 -9999 -9999 -9999 -9999 -9999 -9999 -9999 -9999 -9999 -9999 -9999 -9999 -9999 -9999 -9999 -9999 -9999 -9999 -9999 -9999 -9999 -9999 -9999 -9999 -9999 -9999 -9999 -9999 -9999 -9999 -9999 -9999 -9999 -9999 -9999 -9999 -9999 -9999 -9999 -9999 -9999 -9999 -9999 -9999 -9999 -9999 -9999 -9999 -9999 -9999 -9999 -9999 -9999 -9999 -9999 -9999 -9999 -9999 -9999 -9999 -9999 -9999 -9999 -9999 -9999 -9999 -9999 -9999 -9999 -9999 -9999 -9999 -9999 -9999 -9999 -9999 -9999 -9999 -9999 -9999 -9999 -9999 -9999 -9999 -9999 -9999 -9999 -9999 -9999 -9999 -9999 -9999 -9999 -9999 -9999 -9999 -9999 -9999 -9999 -9999 -9999 -9999 -9999 -9999 -9999 -9999 -9999 -9999 -9999 -9999 -9999 -9999 -9999 -9999 -9999 -9999 -9999 -9999 -9999 -9999 -9999 -9999 -9999 -9999 -9999 -9999 -9999 -9999 -9999 -9999 -9999 -9999 -9999 -9999 -9999 -9999 -9999 -9999 -9999 -9999 -9999 -9999 -9999 87.0488322717622 44.5344129554656 50.6329113924051 50.6329113924051 44.5344129554656 44.5344129554656 44.5344129554656 50.6329113924051 50.9049773755656 50.9049773755656 50.9049773755656 66.2100456621005 66.2100456621005 66.2100456621005 66.2100456621005 55.1020408163265 56.9139966273187 56.9139966273187 56.9139966273187 55.4089709762533 55.4089709762533 55.4089709762533 55.4089709762533 55.4089709762533 55.4089709762533 55.4089709762533 50.3597122302158 58.5399449035813 58.5399449035813 58.5399449035813 58.5399449035813 44.5344129554656 58.5399449035813 44.6224256292906 69.6078431372549 69.6078431372549 69.6078431372549 69.6078431372549 67.6767676767677 67.6767676767677 67.6767676767677 67.6767676767677 43.2300163132137 43.2300163132137 43.2300163132137 43.2300163132137 43.2300163132137 43.2300163132137 43.2300163132137 50 46.0385438972163 46.0385438972163 46.0385438972163 53.2544378698225 66.3390663390663 66.3390663390663 63.1424375917768 63.1424375917768 63.1424375917768 63.1424375917768 70.8274894810659 70.8274894810659 70.8274894810659 70.8274894810659 70.8274894810659 70.8274894810659 83.6092715231788 83.6092715231788 83.6092715231788 73.4200743494424 87.0967741935484 87.0967741935484 80.5860805860806 80.5860805860806 87.248322147651 84.6702317290553 84.6702317290553 84.6702317290553 85.383502170767 85.383502170767 77.8008298755187 77.8008298755187 84.4298245614035 84.4298245614035 70.8390646492435 70.8390646492435 70.8390646492435 70.8390646492435 90 90 91.9540229885057 91.9540229885057 93.2835820895522 93.2835820895522 82.5688073394495 77.2980501392758 77.2980501392758 77.2980501392758 77.2980501392758 77.2980501392758 77.2980501392758 77.2980501392758 90.9090909090909 90.9090909090909 90.9090909090909 90.9090909090909 90.9090909090909 91.044776119403 89.3617021276596 89.3617021276596 90.9090909090909 90.9090909090909 91.7207792207792 91.7207792207792 91.7207792207792 91.7207792207792 91.7207792207792 91.7207792207792 81.8505338078292 81.8505338078292 81.8505338078292 81.8505338078292 81.8505338078292 81.8505338078292 81.8505338078292 88.4615384615385 88.4615384615385 88.4615384615385 87.5 87.5 87.5 74.6681415929203 74.6681415929203 74.6681415929203 93.2330827067669 88.8501742160279 88.8501742160279 88.8501742160279 -9999 94.5692883895131 -9999 -9999 -9999 -9999 -9999 -9999 -9999 -9999 -9999 -9999 -9999 -9999 -9999 -9999 -9999 -9999 -9999 -9999 -9999 -9999 -9999 -9999 -9999 -9999 -9999 -9999 -9999 -9999 -9999 -9999 -9999 -9999 -9999 -9999 -9999 -9999 -9999 -9999 -9999 -9999 -9999 -9999 -9999 -9999 -9999 -9999 -9999 -9999 -9999 -9999 -9999 -9999 -9999 -9999 -9999
-9999 -9999 -9999 -9999 -9999 -9999 -9999 -9999 -9999 -9999 -9999 -9999 -9999 -9999 -9999 -9999 -9999 -9999 -9999 -9999 -9999 -9999 -9999 -9999 -9999 -9999 -9999 -9999 -9999 -9999 -9999 -9999 -9999 -9999 -9999 -9999 -9999 -9999 -9999 -9999 -9999 -9999 -9999 -9999 -9999 -9999 -9999 -9999 -9999 -9999 -9999 -9999 -9999 -9999 -9999 -9999 -9999 -9999 -9999 -9999 -9999 -9999 -9999 -9999 -9999 -9999 -9999 -9999 -9999 -9999 -9999 -9999 -9999 -9999 -9999 -9999 -9999 -9999 -9999 -9999 -9999 -9999 -9999 -9999 -9999 -9999 -9999 -9999 -9999 -9999 -9999 -9999 -9999 -9999 -9999 -9999 -9999 -9999 -9999 -9999 -9999 -9999 -9999 -9999 -9999 -9999 -9999 -9999 -9999 -9999 -9999 -9999 -9999 -9999 -9999 -9999 -9999 -9999 -9999 -9999 -9999 -9999 -9999 -9999 -9999 -9999 -9999 -9999 -9999 -9999 -9999 -9999 -9999 -9999 -9999 -9999 -9999 -9999 -9999 -9999 -9999 -9999 -9999 -9999 -9999 -9999 -9999 -9999 -9999 -9999 -9999 -9999 -9999 -9999 -9999 -9999 -9999 -9999 -9999 -9999 -9999 -9999 -9999 -9999 -9999 -9999 -9999 -9999 -9999 -9999 -9999 -9999 -9999 -9999 -9999 -9999 -9999 -9999 -9999 -9999 -9999 -9999 -9999 -9999 -9999 -9999 -9999 -9999 -9999 -9999 -9999 -9999 -9999 -9999 -9999 -9999 -9999 -9999 -9999 -9999 -9999 -9999 -9999 -9999 -9999 -9999 -9999 -9999 -9999 -9999 -9999 -9999 -9999 -9999 -9999 -9999 -9999 -9999 87.0488322717622 87.0488322717622 66.6666666666667 66.6666666666667 66.6666666666667 44.5344129554656 44.5344129554656 44.5344129554656 44.5344129554656 44.5344129554656 44.5344129554656 32.0284697508897 32.0284697508897 51.150895140665 51.150895140665 66.2100456621005 55.1020408163265 55.1020408163265 55.1020408163265 55.1020408163265 55.4089709762533 55.4089709762533 55.4089709762533 55.4089709762533 55.4089709762533 52.7817403708987 52.7817403708987 52.7817403708987 52.7817403708987 58.5399449035813 58.5399449035813 58.5399449035813 58.5399449035813 58.5399449035813 58.5399449035813 44.5344129554656 44.5344129554656 44.5344129554656 44.6224256292906 44.6224256292906 -9999 -9999 -9999 43.2300163132137 43.2300163132137 43.2300163132137 43.2300163132137 43.2300163132137 43.2300163132137 43.2300163132137 43.2300163132137 42.0353982300885 42.0353982300885 42.0353982300885 51.6393442622951 51.6393442622951 53.2544378698225 63.1424375917768 63.1424375917768 63.1424375917768 63.1424375917768 63.1424375917768 70.8274894810659 70.8274894810659 70.8274894810659 70.8274894810659 70.8274894810659 -9999 -9999 -9999 -9999 73.4200743494424 73.4200743494424 73.4200743494424 80.4480651731161 80.5860805860806 84.7826086956522 84.7826086956522 84.7826086956522 81.9502074688797 81.9502074688797 81.9502074688797 77.0833333333333 77.8008298755187 77.8008298755187 86.3013698630137 84.4298245614035 84.4298245614035 70.8390646492435 84.9176172370089 84.9176172370089 84.9176172370089 84.9176172370089 87.3655913978495 87.3655913978495 91.4786967418546 90 90 77.2980501392758 77.2980501392758 77.2980501392758 77.2980501392758 77.2980501392758 77.2980501392758 77.2980501392758 83.1622176591376 90.9090909090909 90.9090909090909 90.7643312101911 91.044776119403 91.044776119403 91.044776119403 90.5660377358491 92.4170616113744 92.4170616113744 91.2087912087912 91.2087912087912 91.7207792207792 91.7207792207792 89.2857142857143 89.2857142857143 89.8876404494382 81.8505338078292 81.8505338078292 81.8505338078292 81.8505338078292 81.8505338078292 84.8837209302326 84.8837209302326 88.4615384615385 87.5 87.5 87.5 74.6681415929203 74.6681415929203 74.6681415929203 -9999 -9999 88.8501742160279 88.8501742160279 -9999 -9999 -9999 -9999 -9999 -9999 -9999 -9999 -9999 -9999 -9999 -9999 -9999 -9999 -9999 -9999 -9999 -9999 -9999 -9999 -9999 -9999 -9999 -9999 -9999 -9999 -9999 -9999 -9999 -9999 -9999 -9999 -9999 -9999 -9999 -9999 -9999 -9999 -9999 -9999 -9999 -9999 -9999 -9999 -9999 -9999 -9999 -9999 -9999 -9999 -9999 -9999 -9999 -9999 -9999 -9999 -9999
-9999 -9999 -9999 -9999 -9999 -9999 -9999 -9999 -9999 -9999 -9999 -9999 -9999 -9999 -9999 -9999 -9999 -9999 -9999 -9999 -9999 -9999 -9999 -9999 -9999 -9999 -9999 -9999 -9999 -9999 -9999 -9999 -9999 -9999 -9999 -9999 -9999 -9999 -9999 -9999 -9999 -9999 -9999 -9999 -9999 -9999 -9999 -9999 -9999 -9999 -9999 -9999 -9999 -9999 -9999 -9999 -9999 -9999 -9999 -9999 -9999 -9999 -9999 -9999 -9999 -9999 -9999 -9999 -9999 -9999 -9999 -9999 -9999 -9999 -9999 -9999 -9999 -9999 -9999 -9999 -9999 -9999 -9999 -9999 -9999 -9999 -9999 -9999 -9999 -9999 -9999 -9999 -9999 -9999 -9999 -9999 -9999 -9999 -9999 -9999 -9999 -9999 -9999 -9999 -9999 -9999 -9999 -9999 -9999 -9999 -9999 -9999 -9999 -9999 -9999 -9999 -9999 -9999 -9999 -9999 -9999 -9999 -9999 -9999 -9999 -9999 -9999 -9999 -9999 -9999 -9999 -9999 -9999 -9999 -9999 -9999 -9999 -9999 -9999 -9999 -9999 -9999 -9999 -9999 -9999 -9999 -9999 -9999 -9999 -9999 -9999 -9999 -9999 -9999 -9999 -9999 -9999 -9999 -9999 -9999 -9999 -9999 -9999 -9999 -9999 -9999 -9999 -9999 -9999 -9999 -9999 -9999 -9999 -9999 -9999 -9999 -9999 -9999 -9999 -9999 -9999 -9999 -9999 -9999 -9999 -9999 -9999 -9999 -9999 -9999 -9999 -9999 -9999 -9999 -9999 -9999 -9999 -9999 -9999 -9999 -9999 -9999 -9999 -9999 -9999 -9999 -9999 -9999 -9999 -9999 -9999 87.0488322717622 87.0488322717622 87.0488322717622 87.0488322717622 -9999 87.0488322717622 87.0488322717622 63.5514018691589 66.6666666666667 66.6666666666667 63.5514018691589 66.6666666666667 63.5514018691589 63.5514018691589 66.6666666666667 66.6666666666667 44.5344129554656 32.0284697508897 32.0284697508897 32.0284697508897 32.0284697508897 51.150895140665 55.1020408163265 55.1020408163265 55.1020408163265 35.2422907488987 37.5 37.5 37.5 37.5 55.4089709762533 55.4089709762533 55.4089709762533 55.4089709762533 52.7817403708987 57.9365079365079 69.1056910569106 57.2640509013786 55.640243902439 55.640243902439 55.640243902439 55.640243902439 55.640243902439 78.8561525129983 44.6224256292906 44.6224256292906 44.6224256292906 -9999 -9999 -9999 -9999 -9999 -9999 -9999 -9999 -9999 43.2300163132137 43.2300163132137 42.0353982300885 42.0353982300885 42.0353982300885 51.6393442622951 51.6393442622951 51.6393442622951 63.1424375917768 63.1424375917768 63.1424375917768 63.1424375917768 63.1424375917768 63.1424375917768 63.1424375917768 63.1424375917768 70.8274894810659 70.8274894810659 -9999 -9999 -9999 -9999 -9999 -9999 -9999 80.4480651731161 80.4480651731161 77.0659238625812 77.0659238625812 76.9230769230769 76.9230769230769 76.9230769230769 70.7865168539326 70.7865168539326 77.0833333333333 83.8852097130243 86.3309352517986 86.3309352517986 86.3013698630137 86.6551126516464 86.6551126516464 86.6551126516464 84.9176172370089 87.5160875160875 87.5160875160875 87.5160875160875 87.3655913978495 91.0064239828694 85.3413654618474 90 85.2713178294574 85.2713178294574 85.2713178294574 77.2980501392758 77.2980501392758 89.9143672692674 86.6788321167883 86.6788321167883 83.1622176591376 90.9090909090909 90.9090909090909 90.7643312101911 90.5660377358491 89.2226148409894 89.2226148409894 90.6593406593407 90.6593406593407 91.2017167381974 91.2087912087912 93.8864628820961 89.2857142857143 89.2857142857143 89.8876404494382 89.8876404494382 89.8876404494382 50.6329113924051 81.8505338078292 83.6236933797909 83.6236933797909 84.8837209302326 86.3039399624765 86.3039399624765 87.5 85.7359635811836 85.7359635811836 85.7359635811836 -9999 -9999 -9999 88.8501742160279 -9999 -9999 -9999 -9999 -9999 -9999 -9999 -9999 -9999 -9999 -9999 -9999 -9999 -9999 -9999 -9999 -9999 -9999 -9999 -9999 -9999 -9999 -9999 -9999 -9999 -9999 -9999 -9999 -9999 -9999 -9999 -9999 -9999 -9999 -9999 -9999 -9999 -9999 -9999 -9999 -9999 -9999 -9999 -9999 -9999 -9999 -9999 -9999 -9999 -9999 -9999 -9999 -9999 -9999 -9999 -9999 -9999 -9999
-9999 -9999 -9999 -9999 -9999 -9999 -9999 -9999 -9999 -9999 -9999 -9999 -9999 -9999 -9999 -9999 -9999 -9999 -9999 -9999 -9999 -9999 -9999 -9999 -9999 -9999 -9999 -9999 -9999 -9999 -9999 -9999 -9999 -9999 -9999 -9999 -9999 -9999 -9999 -9999 -9999 -9999 -9999 -9999 -9999 -9999 -9999 -9999 -9999 -9999 -9999 -9999 -9999 -9999 -9999 -9999 -9999 -9999 -9999 -9999 -9999 -9999 -9999 -9999 -9999 -9999 -9999 -9999 -9999 -9999 -9999 -9999 -9999 -9999 -9999 -9999 -9999 -9999 -9999 -9999 -9999 -9999 -9999 -9999 -9999 -9999 -9999 -9999 -9999 -9999 -9999 -9999 -9999 -9999 -9999 -9999 -9999 -9999 -9999 -9999 -9999 -9999 -9999 -9999 -9999 -9999 -9999 -9999 -9999 -9999 -9999 -9999 -9999 -9999 -9999 -9999 -9999 -9999 -9999 -9999 -9999 -9999 -9999 -9999 -9999 -9999 -9999 -9999 -9999 -9999 -9999 -9999 -9999 -9999 -9999 -9999 -9999 -9999 -9999 -9999 -9999 -9999 -9999 -9999 -9999 -9999 -9999 -9999 -9999 -9999 -9999 -9999 -9999 -9999 -9999 -9999 -9999 -9999 -9999 -9999 -9999 -9999 -9999 -9999 -9999 -9999 -9999 -9999 -9999 -9999 -9999 -9999 -9999 -9999 -9999 -9999 -9999 -9999 -9999 -9999 -9999 -9999 -9999 -9999 -9999 -9999 -9999 -9999 -9999 -9999 -9999 -9999 -9999 -9999 -9999 -9999 -9999 -9999 -9999 -9999 -9999 -9999 -9999 -9999 -9999 -9999 -9999 -9999 -9999 87.0488322717622 87.0488322717622 87.0488322717622 87.0488322717622 87.0488322717622 87.0488322717622 -9999 87.0488322717622 63.5514018691589 63.5514018691589 63.5514018691589 63.5514018691589 63.5514018691589 63.5514018691589 63.5514018691589 63.5514018691589 66.6666666666667 66.6666666666667 49.4652406417112 49.4652406417112 32.0284697508897 32.0284697508897 32.0284697508897 24.5901639344262 35.2422907488987 35.2422907488987 35.2422907488987 38.0184331797235 38.0184331797235 37.5 37.5 37.5 37.5 37.9436964504284 55.4089709762533 55.4089709762533 55.4089709762533 57.9365079365079 57.9365079365079 57.2640509013786 57.2640509013786 57.2640509013786 57.2640509013786 57.2640509013786 57.2640509013786 57.2640509013786 47.8260869565217 47.8260869565217 47.8260869565217 -9999 -9999 -9999 -9999 -9999 -9999 -9999 -9999 -9999 -9999 -9999 -9999 -9999 -9999 42.0353982300885 42.0353982300885 63.1424375917768 63.1424375917768 63.1424375917768 63.1424375917768 63.1424375917768 63.1424375917768 63.1424375917768 63.1424375917768 63.1424375917768 63.1424375917768 -9999 -9999 -9999 -9999 -9999 -9999 -9999 -9999 -9999 77.0659238625812 77.0659238625812 77.0659238625812 77.0659238625812 76.9230769230769 74.8106060606061 70.7865168539326 70.7865168539326 70.7865168539326 83.8852097130243 83.8852097130243 83.8852097130243 86.3309352517986 86.3309352517986 86.6551126516464 86.6551126516464 86.7507886435331 86.7507886435331 87.5160875160875 87.5160875160875 91.0064239828694 91.0064239828694 91.0064239828694 91.0064239828694 85.2713178294574 85.2713178294574 85.2713178294574 91.0596026490066 91.0596026490066 91.4760914760915 89.9143672692674 89.9143672692674 86.6788321167883 89.1472868217054 89.1472868217054 89.1472868217054 86.6834170854271 86.6834170854271 90.034965034965 91.5300546448087 89.2226148409894 90.6593406593407 91.3461538461538 91.3461538461538 91.3461538461538 77.1992818671454 89.2857142857143 89.8876404494382 50.6329113924051 50.6329113924051 50.6329113924051 89.3186003683241 83.6236933797909 83.0188679245283 83.0188679245283 83.0188679245283 77.9220779220779 77.9220779220779 77.9220779220779 85.7359635811836 -9999 -9999 -9999 -9999 -9999 -9999 -9999 -9999 -9999 -9999 -9999 -9999 -9999 -9999 -9999 -9999 -9999 -9999 -9999 -9999 -9999 -9999 -9999 -9999 -9999 -9999 -9999 -9999 -9999 -9999 -9999 -9999 -9999 -9999 -9999 -9999 -9999 -9999 -9999 -9999 -9999 -9999 -9999 -9999 -9999 -9999 -9999 -9999 -9999 -9999 -9999 -9999 -9999 -9999 -9999 -9999 -9999 -9999 -9999 -9999 -9999 -9999
-9999 -9999 -9999 -9999 -9999 -9999 -9999 -9999 -9999 -9999 -9999 -9999 -9999 -9999 -9999 -9999 -9999 -9999 -9999 -9999 -9999 -9999 -9999 -9999 -9999 -9999 -9999 -9999 -9999 -9999 -9999 -9999 -9999 -9999 -9999 -9999 -9999 -9999 -9999 -9999 -9999 -9999 -9999 -9999 -9999 -9999 -9999 -9999 -9999 -9999 -9999 -9999 -9999 -9999 -9999 -9999 -9999 -9999 -9999 -9999 -9999 -9999 -9999 -9999 -9999 -9999 -9999 -9999 -9999 -9999 -9999 -9999 -9999 -9999 -9999 -9999 -9999 -9999 -9999 -9999 -9999 -9999 -9999 -9999 -9999 -9999 -9999 -9999 -9999 -9999 -9999 -9999 -9999 -9999 -9999 -9999 -9999 -9999 -9999 -9999 -9999 -9999 -9999 -9999 -9999 -9999 -9999 -9999 -9999 -9999 -9999 -9999 -9999 -9999 -9999 -9999 -9999 -9999 -9999 -9999 -9999 -9999 -9999 -9999 -9999 -9999 -9999 -9999 -9999 -9999 -9999 -9999 -9999 -9999 -9999 -9999 -9999 -9999 -9999 -9999 -9999 -9999 -9999 -9999 -9999 -9999 -9999 -9999 -9999 -9999 -9999 -9999 -9999 -9999 -9999 -9999 -9999 -9999 -9999 -9999 -9999 -9999 -9999 -9999 -9999 -9999 -9999 -9999 -9999 -9999 -9999 -9999 -9999 -9999 -9999 -9999 -9999 -9999 -9999 -9999 -9999 -9999 -9999 -9999 -9999 -9999 -9999 -9999 -9999 -9999 -9999 -9999 -9999 -9999 -9999 -9999 -9999 -9999 -9999 -9999 -9999 -9999 -9999 -9999 -9999 -9999 -9999 -9999 77.319587628866 77.319587628866 77.319587628866 66.6666666666667 87.0488322717622 66.6666666666667 66.6666666666667 66.6666666666667 -9999 -9999 -9999 63.5514018691589 63.5514018691589 79.0123456790123 79.0123456790123 63.5514018691589 63.5514018691589 49.4652406417112 49.4652406417112 49.4652406417112 49.4652406417112 49.4652406417112 32.0284697508897 32.0284697508897 24.5901639344262 24.5901639344262 35.2422907488987 38.0184331797235 38.0184331797235 38.0184331797235 38.0184331797235 37.5 37.5 33.6134453781513 37.9436964504284 37.9436964504284 37.9436964504284 57.9365079365079 57.9365079365079 57.9365079365079 57.9365079365079 57.2640509013786 57.2640509013786 43.7921077959577 43.7921077959577 43.7921077959577 43.7921077959577 -9999 47.8260869565217 -9999 -9999 -9999 -9999 -9999 -9999 -9999 -9999 -9999 -9999 -9999 -9999 -9999 -9999 -9999 -9999 -9999 24.9709639953542 24.9709639953542 24.9709639953542 24.9709639953542 24.9709639953542 63.1424375917768 63.1424375917768 63.1424375917768 63.1424375917768 63.1424375917768 -9999 -9999 -9999 -9999 -9999 -9999 -9999 -9999 -9999 77.0659238625812 77.0659238625812 77.0659238625812 69.2464358452139 69.2464358452139 74.8106060606061 74.8106060606061 74.8106060606061 77.7027027027027 77.7027027027027 77.7027027027027 84.2787682333874 86.9120654396728 86.9120654396728 86.3309352517986 91.2921348314607 86.7507886435331 86.7507886435331 86.7507886435331 85.8064516129032 89.8366606170599 89.8366606170599 91.0064239828694 85.2713178294574 85.2713178294574 85.2713178294574 91.0596026490066 91.0596026490066 91.0596026490066 91.0596026490066 88.1782945736434 91.4760914760915 89.9143672692674 86.9140625 89.1472868217054 93.1263858093126 82.4175824175824 82.4175824175824 90.034965034965 90.034965034965 90.034965034965 51.1265164644714 87.5968992248062 87.5968992248062 87.5850340136055 87.5850340136055 87.5850340136055 86.5921787709497 88.4615384615385 50.6329113924051 50.6329113924051 89.3186003683241 90.2021772939347 90.2021772939347 83.0188679245283 78.9473684210526 78.9473684210526 78.9473684210526 78.9473684210526 -9999 -9999 -9999 -9999 -9999 -9999 -9999 -9999 -9999 -9999 -9999 -9999 -9999 -9999 -9999 -9999 -9999 -9999 -9999 -9999 -9999 -9999 -9999 -9999 -9999 -9999 -9999 -9999 -9999 -9999 -9999 -9999 -9999 -9999 -9999 -9999 -9999 -9999 -9999 -9999 -9999 -9999 -9999 -9999 -9999 -9999 -9999 -9999 -9999 -9999 -9999 -9999 -9999 -9999 -9999 -9999 -9999 -9999 -9999 -9999 -9999 -9999 -9999
-9999 -9999 -9999 -9999 -9999 -9999 -9999 -9999 -9999 -9999 -9999 -9999 -9999 -9999 -9999 -9999 -9999 -9999 -9999 -9999 -9999 -9999 -9999 -9999 -9999 -9999 -9999 -9999 -9999 -9999 -9999 -9999 -9999 -9999 -9999 -9999 -9999 -9999 -9999 -9999 -9999 -9999 -9999 -9999 -9999 -9999 -9999 -9999 -9999 -9999 -9999 -9999 -9999 -9999 -9999 -9999 -9999 -9999 -9999 -9999 -9999 -9999 -9999 -9999 -9999 -9999 -9999 -9999 -9999 -9999 -9999 -9999 -9999 -9999 -9999 -9999 -9999 -9999 -9999 -9999 -9999 -9999 -9999 -9999 -9999 -9999 -9999 -9999 -9999 -9999 -9999 -9999 -9999 -9999 -9999 -9999 -9999 -9999 -9999 -9999 -9999 -9999 -9999 -9999 -9999 -9999 -9999 -9999 -9999 -9999 -9999 -9999 -9999 -9999 -9999 -9999 -9999 -9999 -9999 -9999 -9999 -9999 -9999 -9999 -9999 -9999 -9999 -9999 -9999 -9999 -9999 -9999 -9999 -9999 -9999 -9999 -9999 -9999 -9999 -9999 -9999 -9999 -9999 -9999 -9999 -9999 -9999 -9999 -9999 -9999 -9999 -9999 -9999 -9999 -9999 -9999 -9999 -9999 -9999 -9999 -9999 -9999 -9999 -9999 -9999 -9999 -9999 -9999 -9999 -9999 -9999 -9999 -9999 -9999 -9999 -9999 -9999 -9999 -9999 -9999 -9999 -9999 -9999 -9999 -9999 -9999 -9999 -9999 -9999 -9999 -9999 -9999 -9999 -9999 -9999 -9999 -9999 -9999 -9999 -9999 -9999 -9999 -9999 -9999 -9999 -9999 -9999 77.319587628866 77.319587628866 77.319587628866 77.319587628866 77.319587628866 66.6666666666667 66.6666666666667 -9999 -9999 -9999 -9999 -9999 -9999 79.0123456790123 79.0123456790123 79.0123456790123 79.0123456790123 70.1298701298701 70.1298701298701 49.4652406417112 49.4652406417112 49.4652406417112 45.4545454545455 45.4545454545455 45.4545454545455 32.0284697508897 37.9436964504284 25.6410256410256 25.6410256410256 29.6934865900383 29.6934865900383 38.0184331797235 37.5 37.5 33.6134453781513 33.6134453781513 33.6134453781513 -9999 -9999 -9999 -9999 -9999 -9999 -9999 -9999 43.7921077959577 43.7921077959577 43.7921077959577 -9999 43.7921077959577 -9999 -9999 -9999 -9999 -9999 -9999 -9999 -9999 -9999 -9999 -9999 -9999 -9999 -9999 -9999 -9999 25.7731958762887 23.8095238095238 23.8095238095238 24.9709639953542 21.9941348973607 32.3383084577114 32.3383084577114 21.021021021021 21.021021021021 21.021021021021 -9999 -9999 -9999 -9999 -9999 -9999 -9999 -9999 -9999 77.0659238625812 77.0659238625812 77.0659238625812 77.0659238625812 67.6136363636364 69.2464358452139 69.2464358452139 62.7450980392157 74.7572815533981 74.7572815533981 74.7572815533981 72.6027397260274 81.4332247557003 81.4332247557003 84.2787682333874 83.8926174496644 83.8926174496644 83.8926174496644 91.2921348314607 69.3311582381729 69.3311582381729 85.8064516129032 85.8064516129032 86.2944162436548 86.2944162436548 86.2944162436548 84.4155844155844 91.0596026490066 91.0596026490066 91.0596026490066 91.0596026490066 91.0596026490066 91.0596026490066 88.1782945736434 86.9140625 93.1263858093126 93.1263858093126 93.1263858093126 88.6699507389163 82.4175824175824 82.4175824175824 51.1265164644714 51.1265164644714 51.1265164644714 51.1265164644714 87.5968992248062 87.5968992248062 85.5263157894737 85.5263157894737 85.5263157894737 86.5921787709497 85.5263157894737 85.5263157894737 90.7990314769976 90.2021772939347 89.7755610972569 89.7755610972569 89.7755610972569 78.9473684210526 -9999 -9999 -9999 -9999 -9999 -9999 -9999 -9999 85.4092526690391 -9999 -9999 -9999 -9999 -9999 -9999 -9999 -9999 -9999 -9999 -9999 -9999 -9999 -9999 -9999 -9999 -9999 -9999 -9999 -9999 -9999 -9999 -9999 -9999 -9999 -9999 -9999 -9999 -9999 -9999 -9999 -9999 -9999 -9999 -9999 -9999 -9999 -9999 -9999 -9999 -9999 -9999 -9999 -9999 -9999 -9999 -9999 -9999 -9999 -9999 -9999 -9999 -9999 -9999 -9999
-9999 -9999 -9999 -9999 -9999 -9999 -9999 -9999 -9999 -9999 -9999 -9999 -9999 -9999 -9999 -9999 -9999 -9999 -9999 -9999 -9999 -9999 -9999 -9999 -9999 -9999 -9999 -9999 -9999 -9999 -9999 -9999 -9999 -9999 -9999 -9999 -9999 -9999 -9999 -9999 -9999 -9999 -9999 -9999 -9999 -9999 -9999 -9999 -9999 -9999 -9999 -9999 -9999 -9999 -9999 -9999 -9999 -9999 -9999 -9999 -9999 -9999 -9999 -9999 -9999 -9999 -9999 -9999 -9999 -9999 -9999 -9999 -9999 -9999 -9999 -9999 -9999 -9999 -9999 -9999 -9999 -9999 -9999 -9999 -9999 -9999 -9999 -9999 -9999 -9999 -9999 -9999 -9999 -9999 -9999 -9999 -9999 -9999 -9999 -9999 -9999 -9999 -9999 -9999 -9999 -9999 -9999 -9999 -9999 -9999 -9999 -9999 -9999 -9999 -9999 -9999 -9999 -9999 -9999 -9999 -9999 -9999 -9999 -9999 -9999 -9999 -9999 -9999 -9999 -9999 -9999 -9999 -9999 -9999 -9999 -9999 -9999 -9999 -9999 -9999 -9999 -9999 -9999 -9999 -9999 -9999 -9999 -9999 -9999 -9999 -9999 -9999 -9999 -9999 -9999 -9999 -9999 -9999 -9999 -9999 -9999 -9999 -9999 -9999 -9999 -9999 -9999 -9999 -9999 -9999 -9999 -9999 -9999 -9999 -9999 -9999 -9999 -9999 -9999 -9999 -9999 -9999 -9999 -9999 -9999 -9999 -9999 -9999 -9999 -9999 -9999 -9999 -9999 -9999 -9999 -9999 -9999 -9999 -9999 -9999 -9999 -9999 -9999 -9999 -9999 -9999 63.953488372093 77.319587628866 65.1577503429355 65.1577503429355 65.1577503429355 65.1577503429355 67.1965317919075 66.6666666666667 -9999 -9999 -9999 -9999 -9999 -9999 -9999 -9999 79.0123456790123 70.1298701298701 70.1298701298701 70.1298701298701 70.1298701298701 45.4545454545455 45.4545454545455 45.4545454545455 45.4545454545455 45.4545454545455 41.1764705882353 41.1764705882353 37.9436964504284 37.9436964504284 29.6934865900383 28.5714285714286 28.5714285714286 28.5714285714286 33.6134453781513 33.6134453781513 33.6134453781513 37.9436964504284 -9999 -9999 -9999 -9999 -9999 -9999 -9999 -9999 -9999 -9999 -9999 -9999 -9999 -9999 -9999 -9999 -9999 -9999 -9999 -9999 -9999 -9999 -9999 -9999 -9999 -9999 -9999 -9999 25.2324037184595 18.6567164179104 25.2324037184595 25.2324037184595 25.7731958762887 20.6611570247934 20.6611570247934 21.9941348973607 18.9969604863222 18.9969604863222 18.9969604863222 -9999 -9999 -9999 -9999 -9999 -9999 33.4412081984898 -9999 77.0659238625812 77.0659238625812 77.0659238625812 77.0659238625812 67.6136363636364 67.6136363636364 67.6136363636364 67.6136363636364 62.7450980392157 62.7450980392157 62.7450980392157 81.6203143893591 81.6203143893591 81.6203143893591 72.6027397260274 83.596214511041 83.596214511041 83.596214511041 83.8926174496644 81.1475409836066 81.1475409836066 69.3311582381729 69.3311582381729 85.8064516129032 85.8064516129032 85.8064516129032 84.4155844155844 84.4155844155844 84.4155844155844 84.4155844155844 84.4155844155844 91.0596026490066 91.0596026490066 90.311986863711 90.311986863711 83.5140997830803 83.5140997830803 93.1263858093126 85.4885057471264 85.4885057471264 88.6699507389163 92.0398009950249 92.0398009950249 81.8965517241379 51.1265164644714 51.1265164644714 51.1265164644714 83.5051546391753 80.8823529411765 80.8823529411765 84.6325167037862 84.6325167037862 80.2556818181818 86.483390607102 86.483390607102 86.483390607102 89.7755610972569 89.7755610972569 89.7755610972569 -9999 -9999 -9999 84.3793584379358 84.3793584379358 -9999 -9999 -9999 -9999 85.4092526690391 85.4092526690391 -9999 -9999 -9999 -9999 -9999 -9999 -9999 -9999 -9999 -9999 -9999 -9999 -9999 -9999 -9999 -9999 -9999 -9999 -9999 -9999 -9999 -9999 -9999 -9999 -9999 -9999 -9999 -9999 -9999 -9999 -9999 -9999 -9999 -9999 -9999 -9999 -9999 -9999 -9999 -9999 -9999 -9999 -9999 -9999 -9999 -9999 -9999 -9999 -9999 -9999 -9999 -9999 -9999 -9999
-9999 -9999 -9999 -9999 -9999 -9999 -9999 -9999 -9999 -9999 -9999 -9999 -9999 -9999 -9999 -9999 -9999 -9999 -9999 -9999 -9999 -9999 -9999 -9999 -9999 -9999 -9999 -9999 -9999 -9999 -9999 -9999 -9999 -9999 -9999 -9999 -9999 -9999 -9999 -9999 -9999 -9999 -9999 -9999 -9999 -9999 -9999 -9999 -9999 -9999 -9999 -9999 -9999 -9999 -9999 -9999 -9999 -9999 -9999 -9999 -9999 -9999 -9999 -9999 -9999 -9999 -9999 -9999 -9999 -9999 -9999 -9999 -9999 -9999 -9999 -9999 -9999 -9999 -9999 -9999 -9999 -9999 -9999 -9999 -9999 -9999 -9999 -9999 -9999 -9999 -9999 -9999 -9999 -9999 -9999 -9999 -9999 -9999 -9999 -9999 -9999 -9999 -9999 -9999 -9999 -9999 -9999 -9999 -9999 -9999 -9999 -9999 -9999 -9999 -9999 -9999 -9999 -9999 -9999 -9999 -9999 -9999 -9999 -9999 -9999 -9999 -9999 -9999 -9999 -9999 -9999 -9999 -9999 -9999 -9999 -9999 -9999 -9999 -9999 -9999 -9999 -9999 -9999 -9999 -9999 -9999 -9999 -9999 -9999 -9999 -9999 -9999 -9999 -9999 -9999 -9999 -9999 -9999 -9999 -9999 -9999 -9999 -9999 -9999 -9999 -9999 -9999 -9999 -9999 -9999 -9999 -9999 -9999 -9999 -9999 -9999 -9999 -9999 -9999 -9999 -9999 -9999 -9999 -9999 -9999 -9999 -9999 -9999 -9999 -9999 -9999 -9999 -9999 -9999 -9999 -9999 -9999 -9999 -9999 -9999 -9999 -9999 -9999 -9999 -9999 63.953488372093 63.953488372093 63.953488372093 63.953488372093 65.1577503429355 65.1577503429355 67.3076923076923 67.1965317919075 67.1965317919075 67.3076923076923 -9999 -9999 -9999 -9999 -9999 -9999 60.3576751117735 40.0696864111498 40.0696864111498 40.0696864111498 70.1298701298701 71.4285714285714 71.4285714285714 45.4545454545455 45.4545454545455 45.4545454545455 41.1764705882353 41.1764705882353 41.1764705882353 41.1764705882353 41.1764705882353 37.9436964504284 37.9436964504284 37.9436964504284 28.5714285714286 37.9436964504284 37.9436964504284 37.9436964504284 -9999 -9999 -9999 -9999 -9999 48.168249660787 48.168249660787 48.168249660787 40.9698996655518 40.9698996655518 40.9698996655518 -9999 -9999 -9999 -9999 42.4311926605505 -9999 -9999 -9999 -9999 -9999 -9999 -9999 -9999 -9999 -9999 -9999 -9999 -9999 25.2324037184595 22.5653206650831 24.5398773006135 24.5398773006135 20.7253886010363 20.6611570247934 20.6611570247934 20.6611570247934 20.6611570247934 20.6611570247934 26.027397260274 32.6923076923077 32.6923076923077 29.925187032419 29.925187032419 25.531914893617 33.8733431516937 33.4412081984898 33.4412081984898 33.4412081984898 33.4412081984898 33.4412081984898 49.0384615384615 49.0384615384615 64.5833333333333 67.6136363636364 67.6136363636364 67.6136363636364 67.0529801324503 67.0529801324503 67.0529801324503 67.0529801324503 81.6203143893591 81.1475409836066 81.1475409836066 82.6330532212885 82.6330532212885 81.1475409836066 81.1475409836066 81.1475409836066 81.1475409836066 81.1475409836066 85.8064516129032 85.8064516129032 82.8331332533013 82.8331332533013 82.8331332533013 84.4155844155844 84.4155844155844 79.5454545454545 84.4155844155844 84.4155844155844 90.311986863711 83.5140997830803 83.5140997830803 84.2572062084257 91.1808669656203 91.1808669656203 85.4885057471264 88.5416666666667 88.5416666666667 88.5416666666667 81.8965517241379 81.8965517241379 81.8965517241379 76.4119601328904 76.4119601328904 83.5051546391753 88.2352941176471 80.8823529411765 80.8823529411765 80.2556818181818 80.2556818181818 86.483390607102 86.483390607102 86.483390607102 86.483390607102 -9999 -9999 -9999 84.3793584379358 84.3793584379358 84.3793584379358 84.3793584379358 85.4092526690391 85.4092526690391 -9999 85.4092526690391 -9999 -9999 -9999 -9999 -9999 -9999 -9999 -9999 -9999 -9999 -9999 -9999 -9999 -9999 -9999 -9999 -9999 -9999 -9999 -9999 -9999 -9999 -9999 -9999 -9999 -9999 -9999 -9999 -9999 -9999 -9999 -9999 -9999 -9999 -9999 -9999 -9999 -9999 -9999 -9999 -9999 -9999 -9999 -9999 -9999 -9999 -9999 -9999 -9999 -9999 -9999 -9999 -9999 -9999 -9999
-9999 -9999 -9999 -9999 -9999 -9999 -9999 -9999 -9999 -9999 -9999 -9999 -9999 -9999 -9999 -9999 -9999 -9999 -9999 -9999 -9999 -9999 -9999 -9999 -9999 -9999 -9999 -9999 -9999 -9999 -9999 -9999 -9999 -9999 -9999 -9999 -9999 -9999 -9999 -9999 -9999 -9999 -9999 -9999 -9999 -9999 -9999 -9999 -9999 -9999 -9999 -9999 -9999 -9999 -9999 -9999 -9999 -9999 -9999 -9999 -9999 -9999 -9999 -9999 -9999 -9999 -9999 -9999 -9999 -9999 -9999 -9999 -9999 -9999 -9999 -9999 -9999 -9999 -9999 -9999 -9999 -9999 -9999 -9999 -9999 -9999 -9999 -9999 -9999 -9999 -9999 -9999 -9999 -9999 -9999 -9999 -9999 -9999 -9999 -9999 -9999 -9999 -9999 -9999 -9999 -9999 -9999 -9999 -9999 -9999 -9999 -9999 -9999 -9999 -9999 -9999 -9999 -9999 -9999 -9999 -9999 -9999 -9999 -9999 -9999 -9999 -9999 -9999 -9999 -9999 -9999 -9999 -9999 -9999 -9999 -9999 -9999 -9999 -9999 -9999 -9999 -9999 -9999 -9999 -9999 -9999 -9999 -9999 -9999 -9999 -9999 -9999 -9999 -9999 -9999 -9999 -9999 -9999 -9999 -9999 -9999 -9999 -9999 -9999 -9999 -9999 -9999 -9999 -9999 -9999 -9999 -9999 -9999 -9999 -9999 -9999 -9999 -9999 -9999 -9999 -9999 -9999 -9999 -9999 -9999 -9999 -9999 -9999 -9999 -9999 -9999 -9999 -9999 -9999 -9999 -9999 -9999 -9999 -9999 -9999 -9999 -9999 63.953488372093 63.953488372093 63.953488372093 63.953488372093 63.953488372093 63.953488372093 63.953488372093 66.8202764976959 67.3076923076923 65.365025466893 67.3076923076923 67.3076923076923 67.3076923076923 67.3076923076923 -9999 -9999 -9999 -9999 60.3576751117735 60.3576751117735 51.3435700575816 51.3435700575816 40.0696864111498 47.9323308270677 71.4285714285714 71.4285714285714 71.4285714285714 41.1764705882353 41.1764705882353 41.1764705882353 41.1764705882353 41.1764705882353 41.1764705882353 41.1764705882353 41.1764705882353 41.1764705882353 41.1764705882353 41.1764705882353 41.1764705882353 -9999 -9999 -9999 -9999 -9999 48.168249660787 48.168249660787 55.5555555555556 55.5555555555556 43.3715220949263 43.3715220949263 40.9698996655518 40.9698996655518 49.2341356673961 -9999 -9999 42.4311926605505 42.4311926605505 42.4311926605505 42.4311926605505 42.4311926605505 -9999 -9999 -9999 -9999 -9999 -9999 -9999 -9999 -9999 57.6923076923077 57.6923076923077 57.6923076923077 57.6923076923077 57.6923076923077 36.3636363636364 36.3636363636364 13.8888888888889 30.398322851153 30.398322851153 28.5053929121726 28.5053929121726 28.5053929121726 28.5053929121726 21.0918114143921 22.3325062034739 22.3325062034739 41.9407894736842 41.9407894736842 33.8733431516937 43.6781609195402 43.6781609195402 49.0384615384615 49.0384615384615 49.0384615384615 49.0384615384615 49.0384615384615 64.5833333333333 64.5833333333333 64.5833333333333 64.5833333333333 64.5833333333333 67.0529801324503 67.0529801324503 67.0529801324503 67.0529801324503 81.1475409836066 81.1475409836066 81.1475409836066 81.1475409836066 81.1475409836066 81.1475409836066 81.1475409836066 78.6974219810041 78.6974219810041 82.8331332533013 82.8331332533013 82.8331332533013 82.8331332533013 80.8080808080808 79.5454545454545 70.2947845804989 70.2947845804989 83.3333333333333 83.3333333333333 84.2572062084257 82.07343412527 82.07343412527 84.2572062084257 88.3152173913043 88.3152173913043 88.3152173913043 85.7805255023184 85.7805255023184 85.7805255023184 -9999 -9999 -9999 78.6338363780778 78.6338363780778 84.9315068493151 84.0064620355412 84.0064620355412 84.0064620355412 86.483390607102 86.483390607102 86.483390607102 -9999 -9999 -9999 86.6209262435678 86.6209262435678 76.8156424581006 76.8156424581006 0 85.4092526690391 85.4092526690391 85.4092526690391 85.4092526690391 -9999 -9999 -9999 -9999 -9999 -9999 -9999 -9999 -9999 -9999 -9999 -9999 -9999 -9999 -9999 -9999 -9999 -9999 -9999 -9999 -9999 -9999 -9999 -9999 -9999 -9999 -9999 -9999 -9999 -9999 -9999 -9999 -9999 -9999 -9999 -9999 -9999 -9999 -9999 -9999 -9999 -9999 -9999 -9999 -9999 -9999 -9999 -9999 -9999 -9999 -9999 -9999 -9999 -9999 -9999
-9999 -9999 -9999 -9999 -9999 -9999 -9999 -9999 -9999 -9999 -9999 -9999 -9999 -9999 -9999 -9999 -9999 -9999 -9999 -9999 -9999 -9999 -9999 -9999 -9999 -9999 -9999 -9999 -9999 -9999 -9999 -9999 -9999 -9999 -9999 -9999 -9999 -9999 -9999 -9999 -9999 -9999 -9999 -9999 -9999 -9999 -9999 -9999 -9999 -9999 -9999 -9999 -9999 -9999 -9999 -9999 -9999 -9999 -9999 -9999 -9999 -9999 -9999 -9999 -9999 -9999 -9999 -9999 -9999 -9999 -9999 -9999 -9999 -9999 -9999 -9999 -9999 -9999 -9999 -9999 -9999 -9999 -9999 -9999 -9999 -9999 -9999 -9999 -9999 -9999 -9999 -9999 -9999 -9999 -9999 -9999 -9999 -9999 -9999 -9999 -9999 -9999 -9999 -9999 -9999 -9999 -9999 -9999 -9999 -9999 -9999 -9999 -9999 -9999 -9999 -9999 -9999 -9999 -9999 -9999 -9999 -9999 -9999 -9999 -9999 -9999 -9999 -9999 -9999 -9999 -9999 -9999 -9999 -9999 -9999 -9999 -9999 -9999 -9999 -9999 -9999 -9999 -9999 -9999 -9999 -9999 -9999 -9999 -9999 -9999 -9999 -9999 -9999 -9999 -9999 -9999 -9999 -9999 -9999 -9999 -9999 -9999 -9999 -9999 -9999 -9999 -9999 -9999 -9999 -9999 -9999 -9999 -9999 -9999 -9999 -9999 -9999 -9999 -9999 -9999 -9999 -9999 -9999 -9999 -9999 -9999 -9999 -9999 -9999 -9999 -9999 -9999 -9999 -9999 -9999 -9999 -9999 -9999 -9999 -9999 -9999 63.953488372093 63.953488372093 63.953488372093 63.953488372093 63.953488372093 63.953488372093 52.7831094049904 52.7831094049904 52.7831094049904 66.8202764976959 66.8202764976959 65.365025466893 65.365025466893 65.4205607476635 -9999 -9999 -9999 -9999 51.3435700575816 51.3435700575816 51.3435700575816 51.3435700575816 51.3435700575816 55.8510638297872 47.9323308270677 47.9323308270677 47.9323308270677 60.8365019011407 41.1764705882353 41.1764705882353 41.1764705882353 41.1764705882353 41.2371134020619 41.2371134020619 52.6634382566586 52.6634382566586 52.6634382566586 52.6634382566586 52.6634382566586 52.6634382566586 52.6634382566586 -9999 -9999 -9999 -9999 55.5555555555556 55.5555555555556 55.5555555555556 43.3715220949263 43.3715220949263 43.3715220949263 43.3715220949263 49.2341356673961 49.2341356673961 52.9239766081871 52.9239766081871 42.4311926605505 42.4311926605505 42.4311926605505 42.4311926605505 42.4311926605505 42.4311926605505 42.4311926605505 42.4311926605505 -9999 -9999 -9999 -9999 -9999 57.6923076923077 57.6923076923077 57.6923076923077 57.6923076923077 57.6923076923077 57.6923076923077 57.6923076923077 40.1376146788991 40.1376146788991 22.093023255814 22.093023255814 20.0320512820513 20.0320512820513 28.5053929121726 22.9779411764706 22.9779411764706 22.9779411764706 18.0265654648956 20.1535508637236 20.1535508637236 25.2747252747253 50.7936507936508 24.703557312253 24.703557312253 22.883295194508 49.0384615384615 49.0384615384615 49.0384615384615 64.5833333333333 64.5833333333333 64.5833333333333 64.5833333333333 64.5833333333333 64.5833333333333 64.5833333333333 64.5833333333333 57.9710144927536 57.9710144927536 57.9710144927536 78.6974219810041 78.6974219810041 78.6974219810041 78.6974219810041 78.6974219810041 78.6974219810041 78.6974219810041 82.7402135231317 82.7402135231317 82.8331332533013 80.8080808080808 80.8080808080808 80.8080808080808 78.2608695652174 78.2608695652174 87.0588235294118 83.3333333333333 84.6325167037862 84.2572062084257 84.2572062084257 84.1392649903288 84.1392649903288 84.1392649903288 80.8383233532934 80.8383233532934 80.8383233532934 -9999 -9999 -9999 -9999 -9999 -9999 78.6338363780778 84.5799769850403 84.5799769850403 82.3529411764706 82.3529411764706 82.3529411764706 -9999 -9999 -9999 86.6209262435678 86.6209262435678 86.6209262435678 76.8156424581006 0 0 83.8359469240048 83.8359469240048 85.4092526690391 85.4092526690391 -9999 -9999 -9999 -9999 -9999 -9999 -9999 -9999 -9999 -9999 -9999 -9999 -9999 -9999 -9999 -9999 -9999 -9999 -9999 -9999 -9999 -9999 -9999 -9999 -9999 -9999 -9999 -9999 -9999 -9999 -9999 -9999 -9999 -9999 -9999 -9999 -9999 -9999 -9999 -9999 -9999 -9999 -9999 -9999 -9999 -9999 -9999 -9999 -9999 -9999 -9999 -9999 -9999 -9999 -9999
-9999 -9999 -9999 -9999 -9999 -9999 -9999 -9999 -9999 -9999 -9999 -9999 -9999 -9999 -9999 -9999 -9999 -9999 -9999 -9999 -9999 -9999 -9999 -9999 -9999 -9999 -9999 -9999 -9999 -9999 -9999 -9999 -9999 -9999 -9999 -9999 -9999 -9999 -9999 -9999 -9999 -9999 -9999 -9999 -9999 -9999 -9999 -9999 -9999 -9999 -9999 -9999 -9999 -9999 -9999 -9999 -9999 -9999 -9999 -9999 -9999 -9999 -9999 -9999 -9999 -9999 -9999 -9999 -9999 -9999 -9999 -9999 -9999 -9999 -9999 -9999 -9999 -9999 -9999 -9999 -9999 -9999 -9999 -9999 -9999 -9999 -9999 -9999 -9999 -9999 -9999 -9999 -9999 -9999 -9999 -9999 -9999 -9999 -9999 -9999 -9999 -9999 -9999 -9999 -9999 -9999 -9999 -9999 -9999 -9999 -9999 -9999 -9999 -9999 -9999 -9999 -9999 -9999 -9999 -9999 -9999 -9999 -9999 -9999 -9999 -9999 -9999 -9999 -9999 -9999 -9999 -9999 -9999 -9999 -9999 -9999 -9999 -9999 -9999 -9999 -9999 -9999 -9999 -9999 -9999 -9999 -9999 -9999 -9999 -9999 -9999 -9999 -9999 -9999 -9999 -9999 -9999 -9999 -9999 -9999 -9999 -9999 -9999 -9999 -9999 -9999 -9999 -9999 -9999 -9999 -9999 -9999 -9999 -9999 -9999 -9999 -9999 -9999 -9999 -9999 -9999 -9999 -9999 -9999 -9999 -9999 -9999 -9999 -9999 -9999 -9999 -9999 -9999 -9999 -9999 -9999 -9999 -9999 -9999 -9999 63.953488372093 63.953488372093 63.953488372093 63.953488372093 52.7831094049904 52.7831094049904 52.7831094049904 52.7831094049904 52.7831094049904 52.7831094049904 52.7831094049904 66.8202764976959 66.8202764976959 66.8202764976959 65.4205607476635 65.4205607476635 65.4205607476635 -9999 -9999 59.9369085173502 59.9369085173502 51.3435700575816 55.8510638297872 55.8510638297872 55.8510638297872 55.8510638297872 47.9323308270677 57.9345088161209 57.9345088161209 60.8365019011407 41.2371134020619 41.2371134020619 41.2371134020619 38.3877159309021 38.3877159309021 38.3877159309021 44.973544973545 52.6634382566586 52.6634382566586 52.6634382566586 52.6634382566586 46.2662337662338 47.153024911032 46.2662337662338 52.6634382566586 32.9457364341085 60.5095541401274 60.5095541401274 60.5095541401274 60.5095541401274 58.63539445629 58.63539445629 50.5675954592363 50.5675954592363 52.9239766081871 52.9239766081871 42.4311926605505 42.4311926605505 42.4311926605505 42.4311926605505 42.4311926605505 42.4311926605505 42.4311926605505 42.4311926605505 42.4311926605505 42.4311926605505 42.4311926605505 55.1839464882943 55.1839464882943 55.1839464882943 57.6923076923077 57.6923076923077 57.6923076923077 57.6923076923077 57.6923076923077 57.6923076923077 57.6923076923077 40.1376146788991 40.1376146788991 40.1376146788991 46.3800904977376 46.3800904977376 57.6923076923077 30.5810397553517 17.3745173745174 17.3745173745174 24.2494226327945 24.2494226327945 29.1353383458647 29.1353383458647 22.9083665338645 22.9083665338645 24.5901639344262 29.4117647058824 29.4117647058824 49.0384615384615 49.0384615384615 51.6556291390728 51.6556291390728 64.5833333333333 64.5833333333333 64.5833333333333 64.5833333333333 64.5833333333333 57.9710144927536 59.2654424040067 57.9710144927536 57.9710144927536 57.9710144927536 57.9710144927536 60.1374570446735 78.6974219810041 78.6974219810041 78.6974219810041 78.6974219810041 78.6974219810041 78.6974219810041 81.3186813186813 81.8181818181818 81.8181818181818 81.8181818181818 78.2608695652174 78.2608695652174 82.6306913996627 82.4275362318841 82.4275362318841 87.0588235294118 84.6325167037862 85.8843537414966 85.8843537414966 85.8843537414966 78.2800441014333 78.2800441014333 78.2800441014333 -9999 -9999 -9999 -9999 -9999 -9999 -9999 -9999 83.9580209895052 83.9580209895052 84.5799769850403 84.5799769850403 85.0767085076708 85.0767085076708 85.0767085076708 86.6209262435678 86.6209262435678 86.6209262435678 86.6209262435678 83.8359469240048 83.8359469240048 83.8359469240048 83.8359469240048 83.8359469240048 85.4092526690391 -9999 -9999 -9999 -9999 -9999 -9999 -9999 -9999 -9999 -9999 -9999 -9999 -9999 -9999 -9999 -9999 -9999 -9999 -9999 -9999 -9999 -9999 -9999 -9999 -9999 -9999 -9999 -9999 -9999 -9999 -9999 -9999 -9999 -9999 -9999 -9999 -9999 -9999 -9999 -9999 -9999 -9999 -9999 -9999 -9999 -9999 -9999 -9999 -9999 -9999 -9999 -9999 -9999 -9999 -9999 -9999
-9999 -9999 -9999 -9999 -9999 -9999 -9999 -9999 -9999 -9999 -9999 -9999 -9999 -9999 -9999 -9999 -9999 -9999 -9999 -9999 -9999 -9999 -9999 -9999 -9999 -9999 -9999 -9999 -9999 -9999 -9999 -9999 -9999 -9999 -9999 -9999 -9999 -9999 -9999 -9999 -9999 -9999 -9999 -9999 -9999 -9999 -9999 -9999 -9999 -9999 -9999 -9999 -9999 -9999 -9999 -9999 -9999 -9999 -9999 -9999 -9999 -9999 -9999 -9999 -9999 -9999 -9999 -9999 -9999 -9999 -9999 -9999 -9999 -9999 -9999 -9999 -9999 -9999 -9999 -9999 -9999 -9999 -9999 -9999 -9999 -9999 -9999 -9999 -9999 -9999 -9999 -9999 -9999 -9999 -9999 -9999 -9999 -9999 -9999 -9999 -9999 -9999 -9999 -9999 -9999 -9999 -9999 -9999 -9999 -9999 -9999 -9999 -9999 -9999 -9999 -9999 -9999 -9999 -9999 -9999 -9999 -9999 -9999 -9999 -9999 -9999 -9999 -9999 -9999 -9999 -9999 -9999 -9999 -9999 -9999 -9999 -9999 -9999 -9999 -9999 -9999 -9999 -9999 -9999 -9999 -9999 -9999 -9999 -9999 -9999 -9999 -9999 -9999 -9999 -9999 -9999 -9999 -9999 -9999 -9999 -9999 -9999 -9999 -9999 -9999 -9999 -9999 -9999 -9999 -9999 -9999 -9999 -9999 -9999 -9999 -9999 -9999 -9999 -9999 -9999 -9999 -9999 -9999 -9999 -9999 -9999 -9999 -9999 -9999 -9999 -9999 -9999 -9999 -9999 -9999 -9999 -9999 63.953488372093 63.953488372093 43.9655172413793 63.953488372093 63.953488372093 63.953488372093 43.9655172413793 43.9655172413793 40.6091370558376 40.6091370558376 40.6091370558376 47.1264367816092 52.7831094049904 39.1414141414141 39.1414141414141 39.1414141414141 66.8202764976959 66.8202764976959 66.8202764976959 66.8202764976959 -9999 -9999 -9999 -9999 53.20813771518 53.20813771518 55.8510638297872 55.8510638297872 55.8510638297872 56.2613430127042 -9999 -9999 -9999 -9999 47.244094488189 47.244094488189 41.2371134020619 41.2371134020619 44.973544973545 44.973544973545 44.973544973545 52.6634382566586 52.6634382566586 46.2662337662338 46.2662337662338 47.153024911032 47.153024911032 47.153024911032 47.153024911032 35.4767184035477 35.4767184035477 32.9457364341085 60.5095541401274 60.5095541401274 60.5095541401274 60.5095541401274 52.9239766081871 52.9239766081871 52.9239766081871 42.4311926605505 42.4311926605505 42.4311926605505 42.4311926605505 42.4311926605505 42.4311926605505 42.4311926605505 42.4311926605505 42.4311926605505 42.4311926605505 42.4311926605505 42.4311926605505 55.1839464882943 -9999 43.3839479392625 43.3839479392625 43.3839479392625 43.3839479392625 57.6923076923077 57.6923076923077 40.1376146788991 40.1376146788991 40.1376146788991 46.3800904977376 46.3800904977376 46.3800904977376 48.3870967741936 48.3870967741936 53.3596837944664 53.3596837944664 24.1228070175439 24.1228070175439 24.1228070175439 26.0162601626016 26.0162601626016 40.2542372881356 40.2542372881356 24.7422680412371 24.7422680412371 22.8070175438596 78.5123966942149 51.6556291390728 51.6556291390728 51.6556291390728 51.6556291390728 51.6556291390728 46.9583778014941 30.9798270893372 30.9798270893372 50.6535947712418 50.6535947712418 59.2654424040067 57.9710144927536 57.4866310160428 58.7557603686636 58.7557603686636 60.1374570446735 72.0562390158172 72.0562390158172 72.0562390158172 78.6974219810041 78.6974219810041 81.3186813186813 81.3186813186813 82.1812596006144 82.1812596006144 71.2871287128713 82.6306913996627 82.6306913996627 80.0711743772242 80.0711743772242 80.0711743772242 84.9256900212314 85.8843537414966 74.6402877697842 89.8123324396783 89.8123324396783 -9999 -9999 -9999 -9999 -9999 -9999 -9999 -9999 83.9580209895052 83.9580209895052 83.9580209895052 83.9580209895052 83.9580209895052 85.0767085076708 85.0767085076708 85.0767085076708 85.0767085076708 85.0767085076708 86.6209262435678 83.8359469240048 83.8359469240048 83.8359469240048 83.8359469240048 83.8359469240048 85.4092526690391 85.4092526690391 -9999 -9999 -9999 -9999 -9999 -9999 -9999 -9999 -9999 -9999 -9999 -9999 -9999 -9999 -9999 -9999 -9999 -9999 -9999 -9999 -9999 -9999 -9999 -9999 -9999 -9999 -9999 -9999 -9999 -9999 -9999 -9999 -9999 -9999 -9999 -9999 -9999 -9999 -9999 -9999 -9999 -9999 -9999 -9999 -9999 -9999 -9999 -9999 -9999 -9999 -9999 -9999 -9999 -9999 -9999 -9999
-9999 -9999 -9999 -9999 -9999 -9999 -9999 -9999 -9999 -9999 -9999 -9999 -9999 -9999 -9999 -9999 -9999 -9999 -9999 -9999 -9999 -9999 -9999 -9999 -9999 -9999 -9999 -9999 -9999 -9999 -9999 -9999 -9999 -9999 -9999 -9999 -9999 -9999 -9999 -9999 -9999 -9999 -9999 -9999 -9999 -9999 -9999 -9999 -9999 -9999 -9999 -9999 -9999 -9999 -9999 -9999 -9999 -9999 -9999 -9999 -9999 -9999 -9999 -9999 -9999 -9999 -9999 -9999 -9999 -9999 -9999 -9999 -9999 -9999 -9999 -9999 -9999 -9999 -9999 -9999 -9999 -9999 -9999 -9999 -9999 -9999 -9999 -9999 -9999 -9999 -9999 -9999 -9999 -9999 -9999 -9999 -9999 -9999 -9999 -9999 -9999 -9999 -9999 -9999 -9999 -9999 -9999 -9999 -9999 -9999 -9999 -9999 -9999 -9999 -9999 -9999 -9999 -9999 -9999 -9999 -9999 -9999 -9999 -9999 -9999 -9999 -9999 -9999 -9999 -9999 -9999 -9999 -9999 -9999 -9999 -9999 -9999 -9999 -9999 -9999 -9999 -9999 -9999 -9999 -9999 -9999 -9999 -9999 -9999 -9999 -9999 -9999 -9999 -9999 -9999 -9999 -9999 -9999 -9999 -9999 -9999 -9999 -9999 -9999 -9999 -9999 -9999 -9999 -9999 -9999 -9999 -9999 -9999 -9999 -9999 -9999 -9999 -9999 -9999 -9999 -9999 -9999 -9999 -9999 -9999 -9999 -9999 -9999 -9999 -9999 -9999 -9999 -9999 -9999 -9999 -9999 37.1621621621622 37.1621621621622 43.9655172413793 43.9655172413793 43.9655172413793 43.9655172413793 43.9655172413793 43.9655172413793 43.9655172413793 40.6091370558376 40.6091370558376 47.1264367816092 47.1264367816092 28.4738041002278 28.4738041002278 28.4738041002278 39.1414141414141 39.1414141414141 41.002277904328 41.002277904328 66.8202764976959 66.8202764976959 41.002277904328 39.3192488262911 51.1049723756906 62.8415300546448 56.2613430127042 56.2613430127042 56.2613430127042 -9999 -9999 -9999 -9999 -9999 -9999 -9999 -9999 47.244094488189 44.973544973545 44.973544973545 44.973544973545 44.973544973545 64.0535372848948 64.0535372848948 46.2662337662338 46.2662337662338 47.153024911032 47.153024911032 47.153024911032 49.4186046511628 49.4186046511628 35.4767184035477 35.4767184035477 35.4767184035477 35.4767184035477 32.9457364341085 60.5095541401274 52.9239766081871 52.9239766081871 42.4311926605505 42.4311926605505 42.4311926605505 42.4311926605505 42.4311926605505 42.4311926605505 42.4311926605505 42.4311926605505 42.4311926605505 42.4311926605505 42.4311926605505 42.4311926605505 42.4311926605505 55.1839464882943 -9999 43.3839479392625 43.3839479392625 43.3839479392625 43.3839479392625 43.3839479392625 40.1376146788991 40.1376146788991 40.1376146788991 46.3800904977376 46.3800904977376 46.3800904977376 48.3870967741936 48.3870967741936 48.3870967741936 48.3870967741936 53.3596837944664 53.3596837944664 53.3596837944664 59.2532467532468 59.2532467532468 26.0162601626016 22.8070175438596 22.8070175438596 25.5474452554745 22.8070175438596 22.8070175438596 78.5123966942149 78.5123966942149 78.5123966942149 51.6556291390728 51.6556291390728 51.6556291390728 51.6556291390728 23.015873015873 46.9583778014941 46.9583778014941 30.9798270893372 30.9798270893372 26.530612244898 52.2727272727273 52.2727272727273 57.4866310160428 52.4956970740103 52.4956970740103 53.1914893617021 0 0 81.3186813186813 81.3186813186813 82.1812596006144 82.1812596006144 68.3229813664596 71.2871287128713 73.6677115987461 73.6677115987461 80.0711743772242 80.0711743772242 80.9968847352025 84.9256900212314 74.6402877697842 74.6402877697842 74.6402877697842 83.4621329211746 67.6056338028169 67.6056338028169 -9999 -9999 -9999 -9999 -9999 -9999 82.8220858895705 82.8220858895705 83.9580209895052 83.9580209895052 81.1567164179104 81.1567164179104 81.1567164179104 85.0767085076708 85.0767085076708 77.9220779220779 77.9220779220779 77.9220779220779 82.7489481065919 83.8359469240048 83.8359469240048 83.8359469240048 85.4092526690391 85.4092526690391 -9999 -9999 -9999 -9999 -9999 -9999 -9999 -9999 -9999 -9999 -9999 -9999 -9999 -9999 -9999 -9999 -9999 -9999 -9999 -9999 -9999 -9999 -9999 -9999 -9999 -9999 -9999 -9999 -9999 -9999 -9999 -9999 -9999 -9999 -9999 -9999 -9999 -9999 -9999 -9999 -9999 -9999 -9999 -9999 -9999 -9999 -9999 -9999 -9999 -9999 -9999 -9999 -9999 -9999 -9999 -9999
-9999 -9999 -9999 -9999 -9999 -9999 -9999 -9999 -9999 -9999 -9999 -9999 -9999 -9999 -9999 -9999 -9999 -9999 -9999 -9999 -9999 -9999 -9999 -9999 -9999 -9999 -9999 -9999 -9999 -9999 -9999 -9999 -9999 -9999 -9999 -9999 -9999 -9999 -9999 -9999 -9999 -9999 -9999 -9999 -9999 -9999 -9999 -9999 -9999 -9999 -9999 -9999 -9999 -9999 -9999 -9999 -9999 -9999 -9999 -9999 -9999 -9999 -9999 -9999 -9999 -9999 -9999 -9999 -9999 -9999 -9999 -9999 -9999 -9999 -9999 -9999 -9999 -9999 -9999 -9999 -9999 -9999 -9999 -9999 -9999 -9999 -9999 -9999 -9999 -9999 -9999 -9999 -9999 -9999 -9999 -9999 -9999 -9999 -9999 -9999 -9999 -9999 -9999 -9999 -9999 -9999 -9999 -9999 -9999 -9999 -9999 -9999 -9999 -9999 -9999 -9999 -9999 -9999 -9999 -9999 -9999 -9999 -9999 -9999 -9999 -9999 -9999 -9999 -9999 -9999 -9999 -9999 -9999 -9999 -9999 -9999 -9999 -9999 -9999 -9999 -9999 -9999 -9999 -9999 -9999 -9999 -9999 -9999 -9999 -9999 -9999 -9999 -9999 -9999 -9999 -9999 -9999 -9999 -9999 -9999 -9999 -9999 -9999 -9999 -9999 -9999 -9999 -9999 -9999 -9999 -9999 -9999 -9999 -9999 -9999 -9999 -9999 -9999 -9999 -9999 -9999 -9999 -9999 -9999 -9999 -9999 -9999 -9999 -9999 -9999 -9999 -9999 -9999 -9999 -9999 83.8779956427015 63.953488372093 37.1621621621622 37.1621621621622 37.1621621621622 43.9655172413793 43.9655172413793 58.4988962472406 43.4397163120567 43.9655172413793 43.4397163120567 43.4397163120567 43.4397163120567 31.6622691292876 28.4738041002278 24.0083507306889 39.1414141414141 39.1414141414141 39.1414141414141 39.1414141414141 41.002277904328 41.002277904328 41.002277904328 39.3192488262911 39.3192488262911 39.3192488262911 51.1049723756906 -9999 -9999 -9999 -9999 -9999 -9999 -9999 -9999 -9999 -9999 -9999 -9999 44.973544973545 44.973544973545 44.973544973545 64.0535372848948 64.0535372848948 64.0535372848948 64.0535372848948 63.7329286798179 63.7329286798179 47.153024911032 47.153024911032 47.153024911032 50 49.4186046511628 49.4186046511628 35.4767184035477 35.4767184035477 32.9457364341085 48.2456140350877 -9999 -9999 42.4311926605505 42.4311926605505 42.4311926605505 42.4311926605505 42.4311926605505 42.4311926605505 42.4311926605505 42.4311926605505 42.4311926605505 42.4311926605505 42.4311926605505 42.4311926605505 42.4311926605505 -9999 43.3839479392625 43.3839479392625 66.9291338582677 66.9291338582677 66.9291338582677 66.9291338582677 40.1376146788991 40.1376146788991 40.1376146788991 46.3800904977376 46.3800904977376 46.3800904977376 48.3870967741936 48.3870967741936 48.3870967741936 48.3870967741936 48.3870967741936 53.3596837944664 59.2532467532468 59.2532467532468 59.2532467532468 59.2532467532468 59.2532467532468 59.2532467532468 59.2532467532468 59.2532467532468 80.6201550387597 80.6201550387597 78.5123966942149 78.5123966942149 78.5123966942149 78.5123966942149 51.6556291390728 51.6556291390728 29.1005291005291 23.015873015873 28.1065088757396 46.9583778014941 23.7467018469657 21.9512195121951 21.9512195121951 26.530612244898 52.9411764705882 52.9411764705882 50.9164969450102 52.4956970740103 52.4956970740103 64.8148148148148 0 0 0 59.0163934426229 59.0163934426229 69.364161849711 73.6677115987461 73.6677115987461 73.6677115987461 74.2115027829313 80.9968847352025 78.125 78.125 78.125 72.8987993138937 83.4621329211746 83.4621329211746 76.5993265993266 76.5993265993266 79.3319415448852 -9999 -9999 -9999 -9999 78.6686838124054 82.8220858895705 82.8220858895705 83.617747440273 83.617747440273 83.617747440273 83.6120401337793 83.6120401337793 80.04158004158 71.5835140997831 71.5835140997831 82.7489481065919 82.7489481065919 82.7489481065919 82.7489481065919 83.8359469240048 85.4092526690391 -9999 -9999 -9999 -9999 -9999 -9999 -9999 -9999 -9999 -9999 -9999 -9999 -9999 -9999 -9999 -9999 -9999 -9999 -9999 -9999 -9999 -9999 -9999 -9999 -9999 -9999 -9999 -9999 -9999 -9999 -9999 -9999 -9999 -9999 -9999 -9999 -9999 -9999 -9999 -9999 -9999 -9999 -9999 -9999 -9999 -9999 -9999 -9999 -9999 -9999 -9999 -9999 -9999 -9999 -9999 -9999 -9999
-9999 -9999 -9999 -9999 -9999 -9999 -9999 -9999 -9999 -9999 -9999 -9999 -9999 -9999 -9999 -9999 -9999 -9999 -9999 -9999 -9999 -9999 -9999 -9999 -9999 -9999 -9999 -9999 -9999 -9999 -9999 -9999 -9999 -9999 -9999 -9999 -9999 -9999 -9999 -9999 -9999 -9999 -9999 -9999 -9999 -9999 -9999 -9999 -9999 -9999 -9999 -9999 -9999 -9999 -9999 -9999 -9999 -9999 -9999 -9999 -9999 -9999 -9999 -9999 -9999 -9999 -9999 -9999 -9999 -9999 -9999 -9999 -9999 -9999 -9999 -9999 -9999 -9999 -9999 -9999 -9999 -9999 -9999 -9999 -9999 -9999 -9999 -9999 -9999 -9999 -9999 -9999 -9999 -9999 -9999 -9999 -9999 -9999 -9999 -9999 -9999 -9999 -9999 -9999 -9999 -9999 -9999 -9999 -9999 -9999 -9999 -9999 -9999 -9999 -9999 -9999 -9999 -9999 -9999 -9999 -9999 -9999 -9999 -9999 -9999 -9999 -9999 -9999 -9999 -9999 -9999 -9999 -9999 -9999 -9999 -9999 -9999 -9999 -9999 -9999 -9999 -9999 -9999 -9999 -9999 -9999 -9999 -9999 -9999 -9999 -9999 -9999 -9999 -9999 -9999 -9999 -9999 -9999 -9999 -9999 -9999 -9999 -9999 -9999 -9999 -9999 -9999 -9999 -9999 -9999 -9999 -9999 -9999 -9999 -9999 -9999 -9999 -9999 -9999 -9999 -9999 -9999 -9999 -9999 -9999 -9999 -9999 -9999 -9999 -9999 -9999 -9999 -9999 -9999 83.8779956427015 83.8779956427015 83.8779956427015 37.1621621621622 37.1621621621622 37.1621621621622 37.1621621621622 58.4988962472406 58.4988962472406 58.4988962472406 43.7881873727088 43.4397163120567 43.4397163120567 33.8164251207729 31.6622691292876 31.6622691292876 24.0083507306889 39.1414141414141 39.1414141414141 24.0083507306889 39.1414141414141 41.002277904328 39.3192488262911 39.3192488262911 39.3192488262911 39.3192488262911 39.3192488262911 39.3192488262911 39.3192488262911 -9999 -9999 -9999 -9999 -9999 -9999 -9999 -9999 -9999 -9999 -9999 -9999 -9999 64.0535372848948 64.0535372848948 64.0535372848948 64.0535372848948 65.9340659340659 65.9340659340659 65.9340659340659 63.7329286798179 63.7329286798179 50 50 50 53.4105534105534 32.9457364341085 32.9457364341085 48.2456140350877 48.2456140350877 -9999 -9999 42.4311926605505 42.4311926605505 42.4311926605505 42.4311926605505 42.4311926605505 42.4311926605505 42.4311926605505 42.4311926605505 42.4311926605505 42.4311926605505 42.4311926605505 42.4311926605505 -9999 -9999 -9999 -9999 66.9291338582677 66.9291338582677 66.9291338582677 66.9291338582677 66.9291338582677 66.9291338582677 63.391442155309 46.3800904977376 46.3800904977376 48.3870967741936 48.3870967741936 48.3870967741936 48.3870967741936 48.3870967741936 53.3596837944664 53.3596837944664 59.2532467532468 59.2532467532468 59.2532467532468 59.2532467532468 59.2532467532468 59.2532467532468 59.2532467532468 80.6201550387597 80.6201550387597 80.6201550387597 80.6201550387597 76.844262295082 78.5123966942149 72.5126475548061 72.5126475548061 71.256038647343 71.256038647343 39.5348837209302 39.5348837209302 17.2064777327935 16.2689804772234 23.7467018469657 23.7467018469657 44.839255499154 44.839255499154 31.1004784688995 31.1004784688995 52.9411764705882 48 48 64.8148148148148 64.8148148148148 46.6101694915254 59.0163934426229 63.0769230769231 69.364161849711 69.364161849711 73.6677115987461 71.1354309165527 71.1354309165527 74.2115027829313 74.2115027829313 78.125 72.8987993138937 72.8987993138937 72.8987993138937 -9999 81.9672131147541 81.9672131147541 79.3319415448852 81.4814814814815 81.4814814814815 -9999 -9999 78.6686838124054 78.6686838124054 78.6686838124054 83.617747440273 83.617747440273 83.617747440273 83.6120401337793 74.8355263157895 80.04158004158 80.04158004158 77.683615819209 71.5835140997831 82.7489481065919 82.7489481065919 82.7489481065919 82.7489481065919 82.7489481065919 -9999 -9999 -9999 -9999 -9999 -9999 -9999 -9999 -9999 -9999 -9999 -9999 -9999 -9999 -9999 -9999 -9999 -9999 -9999 -9999 -9999 -9999 -9999 -9999 -9999 -9999 -9999 -9999 -9999 -9999 -9999 -9999 -9999 -9999 -9999 -9999 -9999 -9999 -9999 -9999 -9999 -9999 -9999 -9999 -9999 -9999 -9999 -9999 -9999 -9999 -9999 -9999 -9999 -9999 -9999 -9999 -9999
-9999 -9999 -9999 -9999 -9999 -9999 -9999 -9999 -9999 -9999 -9999 -9999 -9999 -9999 -9999 -9999 -9999 -9999 -9999 -9999 -9999 -9999 -9999 -9999 -9999 -9999 -9999 -9999 -9999 -9999 -9999 -9999 -9999 -9999 -9999 -9999 -9999 -9999 -9999 -9999 -9999 -9999 -9999 -9999 -9999 -9999 -9999 -9999 -9999 -9999 -9999 -9999 -9999 -9999 -9999 -9999 -9999 -9999 -9999 -9999 -9999 -9999 -9999 -9999 -9999 -9999 -9999 -9999 -9999 -9999 -9999 -9999 -9999 -9999 -9999 -9999 -9999 -9999 -9999 -9999 -9999 -9999 -9999 -9999 -9999 -9999 -9999 -9999 -9999 -9999 -9999 -9999 -9999 -9999 -9999 -9999 -9999 -9999 -9999 -9999 -9999 -9999 -9999 -9999 -9999 -9999 -9999 -9999 -9999 -9999 -9999 -9999 -9999 -9999 -9999 -9999 -9999 -9999 -9999 -9999 -9999 -9999 -9999 -9999 -9999 -9999 -9999 -9999 -9999 -9999 -9999 -9999 -9999 -9999 -9999 -9999 -9999 -9999 -9999 -9999 -9999 -9999 -9999 -9999 -9999 -9999 -9999 -9999 -9999 -9999 -9999 -9999 -9999 -9999 -9999 -9999 -9999 -9999 -9999 -9999 -9999 -9999 -9999 -9999 -9999 -9999 -9999 -9999 -9999 -9999 -9999 -9999 -9999 -9999 -9999 -9999 -9999 -9999 -9999 -9999 -9999 -9999 -9999 -9999 -9999 -9999 -9999 -9999 -9999 -9999 -9999 -9999 -9999 -9999 83.8779956427015 83.8779956427015 46 46 46 37.1621621621622 58.4988962472406 58.4988962472406 58.4988962472406 58.4988962472406 58.4988962472406 43.7881873727088 43.7881873727088 43.7881873727088 33.8164251207729 33.8164251207729 33.8164251207729 33.8164251207729 24.0083507306889 39.3192488262911 39.3192488262911 39.3192488262911 39.3192488262911 39.3192488262911 39.3192488262911 39.3192488262911 39.3192488262911 -9999 -9999 -9999 -9999 -9999 -9999 -9999 -9999 -9999 -9999 -9999 -9999 48.0251346499102 48.0251346499102 50.1474926253687 50.1474926253687 64.0535372848948 -9999 -9999 -9999 65.9340659340659 65.9340659340659 65.9340659340659 65.9340659340659 50 50 53.4105534105534 53.4105534105534 53.4105534105534 53.4105534105534 48.2456140350877 48.2456140350877 -9999 -9999 42.4311926605505 42.4311926605505 42.4311926605505 42.4311926605505 42.4311926605505 42.4311926605505 42.4311926605505 42.4311926605505 42.4311926605505 42.4311926605505 42.4311926605505 42.4311926605505 -9999 59.8455598455598 59.8455598455598 59.8455598455598 59.8455598455598 66.9291338582677 66.9291338582677 66.9291338582677 66.9291338582677 66.9291338582677 63.391442155309 63.391442155309 64.2335766423358 64.2335766423358 48.3870967741936 48.3870967741936 48.3870967741936 53.3596837944664 53.3596837944664 54.6218487394958 54.6218487394958 59.2532467532468 59.2532467532468 59.2532467532468 59.2532467532468 59.2532467532468 80.6201550387597 80.6201550387597 80.6201550387597 80.6201550387597 80.6201550387597 76.844262295082 76.844262295082 71.9921104536489 75.7261410788382 75.7261410788382 50.531914893617 50.531914893617 53.4090909090909 53.4090909090909 17.2064777327935 17.2064777327935 31.8047337278107 31.8047337278107 42.0743639921722 42.0743639921722 44.839255499154 54.3478260869565 54.3478260869565 54.3478260869565 48 46.7289719626168 46.6101694915254 55.363321799308 55.363321799308 63.0769230769231 73.6677115987461 59.8885793871866 71.1354309165527 71.1354309165527 72.3981900452489 72.3981900452489 66.1764705882353 66.1764705882353 66.1764705882353 -9999 -9999 -9999 -9999 72.0640569395018 72.0640569395018 72.0640569395018 66.1218424962853 83.1932773109244 61.4814814814815 61.4814814814815 79.9289520426288 79.9289520426288 79.9289520426288 83.617747440273 74.8355263157895 85.7908847184987 80.04158004158 77.683615819209 77.683615819209 77.683615819209 -9999 82.7489481065919 82.7489481065919 82.7489481065919 82.7489481065919 -9999 -9999 -9999 -9999 -9999 -9999 -9999 -9999 -9999 -9999 -9999 -9999 -9999 -9999 -9999 -9999 -9999 -9999 -9999 -9999 -9999 -9999 -9999 -9999 -9999 -9999 -9999 -9999 -9999 -9999 -9999 -9999 -9999 -9999 -9999 -9999 -9999 -9999 -9999 -9999 -9999 -9999 -9999 -9999 -9999 -9999 -9999 -9999 -9999 -9999 -9999 -9999 -9999 -9999 -9999 -9999 -9999
-9999 -9999 -9999 -9999 -9999 -9999 -9999 -9999 -9999 -9999 -9999 -9999 -9999 -9999 -9999 -9999 -9999 -9999 -9999 -9999 -9999 -9999 -9999 -9999 -9999 -9999 -9999 -9999 -9999 -9999 -9999 -9999 -9999 -9999 -9999 -9999 -9999 -9999 -9999 -9999 -9999 -9999 -9999 -9999 -9999 -9999 -9999 -9999 -9999 -9999 -9999 -9999 -9999 -9999 -9999 -9999 -9999 -9999 -9999 -9999 -9999 -9999 -9999 -9999 -9999 -9999 -9999 -9999 -9999 -9999 -9999 -9999 -9999 -9999 58.0645161290323 58.0645161290323 58.0645161290323 58.0645161290323 58.0645161290323 58.0645161290323 58.0645161290323 58.0645161290323 58.0645161290323 58.0645161290323 -9999 -9999 -9999 -9999 -9999 -9999 -9999 -9999 -9999 -9999 -9999 -9999 -9999 -9999 -9999 -9999 -9999 -9999 -9999 -9999 -9999 -9999 -9999 -9999 -9999 -9999 -9999 -9999 -9999 -9999 -9999 -9999 -9999 -9999 -9999 -9999 -9999 -9999 -9999 -9999 -9999 -9999 -9999 -9999 -9999 -9999 -9999 -9999 -9999 -9999 -9999 -9999 -9999 -9999 -9999 -9999 -9999 -9999 -9999 -9999 -9999 -9999 -9999 -9999 -9999 -9999 -9999 -9999 -9999 -9999 -9999 -9999 -9999 -9999 -9999 -9999 -9999 -9999 -9999 -9999 -9999 -9999 -9999 -9999 -9999 -9999 -9999 -9999 -9999 -9999 -9999 -9999 -9999 -9999 -9999 -9999 -9999 -9999 -9999 -9999 -9999 -9999 -9999 -9999 -9999 -9999 -9999 -9999 -9999 83.8779956427015 46 46 46 46 46 46 50 58.4988962472406 50 50 50 58.4988962472406 43.7881873727088 43.7881873727088 43.7881873727088 33.8164251207729 39.3192488262911 39.3192488262911 39.3192488262911 39.3192488262911 39.3192488262911 39.3192488262911 39.3192488262911 39.3192488262911 39.3192488262911 -9999 -9999 -9999 -9999 -9999 -9999 -9999 -9999 -9999 -9999 -9999 -9999 -9999 39.4431554524362 39.4431554524362 39.4431554524362 48.0251346499102 50.1474926253687 53.1645569620253 50.1474926253687 -9999 -9999 -9999 65.9340659340659 34.4827586206897 65.9340659340659 65.9340659340659 53.4105534105534 53.4105534105534 53.4105534105534 -9999 -9999 -9999 -9999 -9999 -9999 42.4311926605505 42.4311926605505 42.4311926605505 42.4311926605505 42.4311926605505 42.4311926605505 42.4311926605505 42.4311926605505 42.4311926605505 42.4311926605505 42.4311926605505 41.1663807890223 -9999 59.8455598455598 59.8455598455598 59.8455598455598 59.8455598455598 73.2177263969171 73.2177263969171 73.2177263969171 73.2177263969171 73.2177263969171 63.391442155309 63.391442155309 64.2335766423358 64.2335766423358 64.2335766423358 62.152133580705 62.152133580705 62.152133580705 53.3596837944664 54.6218487394958 54.6218487394958 55.8539205155747 55.8539205155747 55.8539205155747 59.2532467532468 80.6201550387597 80.6201550387597 80.6201550387597 80.6201550387597 80.6201550387597 78.6802030456853 78.6802030456853 71.9921104536489 71.9921104536489 71.9921104536489 75.7874015748031 75.7261410788382 50.8637236084453 50.8637236084453 50.8637236084453 53.4090909090909 53.4090909090909 53.4090909090909 39.6196513470681 31.8047337278107 31.8047337278107 42.0743639921722 42.0743639921722 54.3478260869565 54.3478260869565 46.7289719626168 46.7289719626168 48.8322717622081 48.8322717622081 55.363321799308 55.363321799308 50.6756756756757 59.8885793871866 59.8885793871866 63.7860082304527 63.7860082304527 72.3981900452489 66.4488017429194 66.1764705882353 66.8896321070234 61.6797900262467 61.6797900262467 -9999 -9999 -9999 -9999 72.0640569395018 72.0640569395018 72.2811671087533 83.1932773109244 83.1932773109244 84.8765432098765 79.6703296703297 79.646017699115 87.1559633027523 87.1559633027523 85.7908847184987 81.5018315018315 81.5018315018315 81.5018315018315 -9999 -9999 -9999 -9999 82.7489481065919 82.7489481065919 -9999 -9999 -9999 -9999 -9999 -9999 -9999 -9999 -9999 -9999 -9999 -9999 -9999 -9999 -9999 -9999 -9999 -9999 -9999 -9999 -9999 -9999 -9999 -9999 -9999 -9999 -9999 -9999 -9999 -9999 -9999 -9999 -9999 -9999 -9999 -9999 -9999 -9999 -9999 -9999 -9999 -9999 -9999 -9999 -9999 -9999 -9999 -9999 -9999 -9999 -9999 -9999 -9999 -9999 -9999 -9999 -9999
-9999 -9999 -9999 -9999 -9999 -9999 -9999 -9999 -9999 -9999 -9999 -9999 -9999 -9999 -9999 -9999 -9999 -9999 -9999 -9999 -9999 -9999 -9999 -9999 -9999 -9999 -9999 -9999 -9999 -9999 -9999 -9999 -9999 -9999 -9999 -9999 -9999 -9999 -9999 -9999 -9999 -9999 -9999 -9999 -9999 -9999 -9999 -9999 -9999 -9999 -9999 -9999 -9999 -9999 -9999 -9999 -9999 -9999 -9999 -9999 -9999 -9999 -9999 -9999 -9999 -9999 -9999 -9999 -9999 -9999 58.0645161290323 58.0645161290323 -9999 -9999 58.0645161290323 58.0645161290323 58.0645161290323 54.5243619489559 54.5243619489559 54.5243619489559 54.5243619489559 54.5243619489559 58.0645161290323 58.0645161290323 58.0645161290323 58.0645161290323 54.5243619489559 54.5243619489559 58.0645161290323 58.0645161290323 58.0645161290323 58.0645161290323 58.0645161290323 -9999 -9999 -9999 -9999 -9999 -9999 -9999 -9999 -9999 -9999 -9999 -9999 -9999 -9999 -9999 -9999 -9999 -9999 -9999 -9999 -9999 -9999 -9999 -9999 -9999 -9999 -9999 -9999 -9999 -9999 -9999 -9999 -9999 -9999 -9999 -9999 -9999 -9999 -9999 -9999 -9999 -9999 -9999 -9999 -9999 -9999 -9999 -9999 -9999 -9999 -9999 -9999 -9999 -9999 -9999 -9999 -9999 -9999 -9999 -9999 -9999 -9999 -9999 -9999 -9999 -9999 -9999 -9999 -9999 -9999 -9999 -9999 -9999 -9999 -9999 -9999 -9999 -9999 -9999 -9999 -9999 -9999 -9999 -9999 -9999 -9999 -9999 -9999 -9999 -9999 -9999 -9999 -9999 -9999 -9999 -9999 -9999 -9999 -9999 83.8779956427015 46 46 46 46 46 46 46 46 46 50 50 50 50 43.7881873727088 39.3192488262911 39.3192488262911 39.3192488262911 39.3192488262911 39.3192488262911 39.3192488262911 39.3192488262911 39.3192488262911 39.3192488262911 39.3192488262911 -9999 -9999 -9999 -9999 -9999 -9999 -9999 -9999 -9999 -9999 -9999 -9999 -9999 51.2249443207127 51.2249443207127 51.2249443207127 49.7630331753554 39.4431554524362 48.0251346499102 48.0251346499102 48.0251346499102 53.1645569620253 50.1474926253687 -9999 -9999 -9999 34.4827586206897 34.4827586206897 34.4827586206897 34.4827586206897 34.4827586206897 52.5812619502868 52.5812619502868 -9999 -9999 -9999 -9999 -9999 42.4311926605505 42.4311926605505 42.4311926605505 42.4311926605505 42.4311926605505 42.4311926605505 42.4311926605505 42.4311926605505 42.4311926605505 42.4311926605505 55.1839464882943 41.1663807890223 41.1663807890223 41.1663807890223 41.1663807890223 59.8455598455598 59.8455598455598 73.2177263969171 73.2177263969171 73.2177263969171 73.2177263969171 63.391442155309 63.391442155309 64.2335766423358 64.2335766423358 64.2335766423358 62.152133580705 62.152133580705 62.152133580705 62.152133580705 55.8539205155747 54.6218487394958 54.6218487394958 55.8539205155747 55.8539205155747 55.8539205155747 83.9160839160839 83.9160839160839 83.9160839160839 80.6201550387597 80.6201550387597 77.1604938271605 77.1604938271605 80.7504078303426 80.7504078303426 80.7504078303426 75.7874015748031 75.7874015748031 75.7874015748031 54.1871921182266 50.8637236084453 50.8637236084453 75.3968253968254 75.3968253968254 53.4090909090909 39.6196513470681 39.6196513470681 39.6196513470681 54.1176470588235 54.1176470588235 42.0743639921722 57.2815533980583 57.2815533980583 48.780487804878 48.780487804878 47.4358974358974 48.8322717622081 40.9356725146199 50.6756756756757 50.6756756756757 50.6756756756757 63.7860082304527 63.7860082304527 55.0847457627119 55.0847457627119 52.0833333333333 52.0833333333333 66.8896321070234 66.8896321070234 61.6797900262467 68.241469816273 -9999 -9999 -9999 -9999 72.2811671087533 72.2811671087533 81.1965811965812 84.8765432098765 78.7728026533997 78.7728026533997 79.6703296703297 79.646017699115 -9999 -9999 81.5018315018315 -9999 -9999 -9999 -9999 -9999 -9999 -9999 -9999 -9999 -9999 -9999 -9999 -9999 -9999 -9999 -9999 -9999 -9999 -9999 -9999 -9999 -9999 -9999 -9999 -9999 -9999 -9999 -9999 -9999 -9999 -9999 -9999 -9999 -9999 -9999 -9999 -9999 -9999 -9999 -9999 -9999 -9999 -9999 -9999 -9999 -9999 -9999 -9999 -9999 -9999 -9999 -9999 -9999 -9999 -9999 -9999 -9999 -9999 -9999 -9999 -9999 -9999 -9999 -9999
-9999 -9999 -9999 -9999 -9999 -9999 -9999 -9999 -9999 -9999 -9999 -9999 -9999 -9999 -9999 -9999 -9999 -9999 -9999 -9999 -9999 -9999 -9999 -9999 -9999 -9999 -9999 -9999 -9999 -9999 -9999 -9999 -9999 -9999 -9999 -9999 -9999 -9999 -9999 -9999 -9999 -9999 -9999 -9999 -9999 -9999 -9999 -9999 -9999 -9999 -9999 -9999 -9999 -9999 -9999 -9999 -9999 -9999 -9999 -9999 -9999 -9999 49.6150556030796 -9999 -9999 -9999 49.6150556030796 49.6150556030796 49.6150556030796 49.6150556030796 49.6150556030796 58.0645161290323 58.0645161290323 58.0645161290323 58.0645161290323 54.5243619489559 54.5243619489559 54.5243619489559 54.5243619489559 54.5243619489559 54.5243619489559 54.5243619489559 54.5243619489559 58.0645161290323 58.0645161290323 58.0645161290323 54.5243619489559 54.5243619489559 54.5243619489559 58.0645161290323 54.5243619489559 58.0645161290323 58.0645161290323 58.0645161290323 -9999 -9999 -9999 -9999 -9999 -9999 -9999 -9999 -9999 -9999 -9999 -9999 -9999 -9999 -9999 -9999 -9999 -9999 -9999 -9999 -9999 -9999 -9999 -9999 -9999 -9999 -9999 -9999 -9999 -9999 -9999 -9999 -9999 -9999 -9999 -9999 -9999 -9999 -9999 -9999 -9999 -9999 -9999 -9999 -9999 -9999 -9999 -9999 -9999 -9999 -9999 -9999 -9999 -9999 -9999 -9999 -9999 -9999 -9999 -9999 -9999 -9999 -9999 -9999 -9999 -9999 -9999 -9999 -9999 -9999 -9999 -9999 -9999 -9999 -9999 -9999 -9999 -9999 -9999 -9999 -9999 -9999 -9999 -9999 -9999 -9999 -9999 -9999 -9999 -9999 83.8779956427015 83.8779956427015 -9999 -9999 -9999 83.8779956427015 83.8779956427015 83.8779956427015 46 46 46 46 46 46 46 46 46 46 46 50 50 50 50 50 39.3192488262911 39.3192488262911 39.3192488262911 56.2130177514793 39.3192488262911 39.3192488262911 39.3192488262911 39.3192488262911 -9999 -9999 -9999 -9999 -9999 -9999 -9999 -9999 -9999 -9999 -9999 -9999 -9999 51.2249443207127 51.2249443207127 51.2249443207127 51.2249443207127 51.2249443207127 49.7630331753554 54.7504025764895 48.0251346499102 48.0251346499102 48.0251346499102 45.0204638472033 45.0204638472033 42.0560747663551 -9999 -9999 34.4827586206897 34.4827586206897 34.4827586206897 52.5812619502868 52.5812619502868 52.5812619502868 -9999 -9999 -9999 -9999 -9999 42.4311926605505 42.4311926605505 42.4311926605505 42.4311926605505 42.4311926605505 55.1839464882943 55.1839464882943 55.1839464882943 42.4311926605505 42.4311926605505 48.3383685800604 48.3383685800604 41.1663807890223 41.1663807890223 41.1663807890223 68.7382297551789 68.7382297551789 68.7382297551789 57.1428571428571 73.2177263969171 73.2177263969171 63.391442155309 63.391442155309 64.2335766423358 64.6203554119548 64.6203554119548 64.6203554119548 62.152133580705 62.152133580705 55.8539205155747 55.8539205155747 55.8539205155747 55.8539205155747 55.8539205155747 55.8539205155747 83.9160839160839 83.9160839160839 83.9160839160839 83.5411471321696 83.5411471321696 83.5411471321696 77.1604938271605 80.7504078303426 80.7504078303426 80.7504078303426 80.7504078303426 84.1995841995842 84.1995841995842 54.1871921182266 54.1871921182266 54.1871921182266 54.1871921182266 75.3968253968254 75.3968253968254 75.3968253968254 75.3968253968254 39.6196513470681 79.002079002079 79.002079002079 54.1176470588235 67.7676537585421 67.7676537585421 57.2815533980583 58.0645161290323 58.0645161290323 48.780487804878 40.9356725146199 40.9356725146199 40.9356725146199 31.0015898251192 31.0015898251192 31.0015898251192 47.7777777777778 55.0847457627119 51.9480519480519 51.9480519480519 51.9480519480519 62.2568093385214 62.2568093385214 71.4285714285714 68.241469816273 68.241469816273 71.4285714285714 -9999 72.2811671087533 72.2811671087533 72.2811671087533 72.2811671087533 78.7728026533997 81.1965811965812 78.7728026533997 78.7728026533997 84.070796460177 -9999 -9999 -9999 -9999 -9999 -9999 -9999 -9999 -9999 -9999 -9999 -9999 -9999 -9999 -9999 -9999 -9999 -9999 -9999 -9999 -9999 -9999 -9999 -9999 -9999 -9999 -9999 -9999 -9999 -9999 -9999 -9999 -9999 -9999 -9999 -9999 -9999 -9999 -9999 -9999 -9999 -9999 -9999 -9999 -9999 -9999 -9999 -9999 -9999 -9999 -9999 -9999 -9999 -9999 -9999 -9999 -9999 -9999 -9999 -9999 -9999 -9999 -9999 -9999 -9999 -9999 -9999
-9999 -9999 -9999 -9999 -9999 -9999 -9999 -9999 -9999 -9999 -9999 -9999 -9999 -9999 -9999 -9999 -9999 -9999 -9999 -9999 -9999 -9999 -9999 -9999 -9999 -9999 -9999 -9999 -9999 -9999 -9999 -9999 -9999 -9999 -9999 -9999 -9999 -9999 -9999 -9999 -9999 -9999 -9999 -9999 -9999 -9999 -9999 -9999 -9999 -9999 -9999 -9999 -9999 -9999 -9999 -9999 -9999 -9999 -9999 -9999 -9999 -9999 49.6150556030796 49.6150556030796 49.6150556030796 49.6150556030796 49.6150556030796 49.6150556030796 49.6150556030796 49.6150556030796 49.6150556030796 49.6150556030796 49.6150556030796 54.5243619489559 54.5243619489559 54.5243619489559 54.5243619489559 54.5243619489559 54.5243619489559 54.5243619489559 54.5243619489559 54.5243619489559 54.5243619489559 54.5243619489559 54.5243619489559 54.5243619489559 54.5243619489559 54.5243619489559 54.5243619489559 54.5243619489559 54.5243619489559 54.5243619489559 58.0645161290323 58.0645161290323 58.0645161290323 -9999 -9999 -9999 -9999 -9999 -9999 -9999 -9999 -9999 -9999 -9999 -9999 43.9330543933054 43.9330543933054 43.9330543933054 31.9516407599309 31.9516407599309 31.9516407599309 31.9516407599309 31.9516407599309 31.9516407599309 31.9516407599309 31.9516407599309 31.9516407599309 31.9516407599309 31.9516407599309 31.9516407599309 31.9516407599309 31.9516407599309 -9999 -9999 -9999 -9999 -9999 -9999 -9999 -9999 -9999 -9999 -9999 -9999 -9999 55.9284116331096 55.9284116331096 -9999 -9999 -9999 -9999 -9999 -9999 -9999 -9999 -9999 -9999 -9999 -9999 -9999 -9999 -9999 -9999 -9999 -9999 -9999 -9999 -9999 -9999 -9999 -9999 -9999 -9999 -9999 -9999 -9999 -9999 -9999 -9999 -9999 -9999 -9999 -9999 -9999 -9999 -9999 -9999 -9999 -9999 -9999 83.8779956427015 83.8779956427015 83.8779956427015 83.8779956427015 -9999 -9999 83.8779956427015 83.8779956427015 83.8779956427015 46 46 46 46 46 46 46 46 46 46 46 46 46 46 38.1873727087576 38.1873727087576 38.1873727087576 38.1873727087576 39.3192488262911 56.2130177514793 56.2130177514793 56.2130177514793 39.3192488262911 -9999 -9999 -9999 -9999 -9999 -9999 -9999 -9999 -9999 -9999 -9999 -9999 -9999 -9999 -9999 -9999 -9999 51.2249443207127 51.2249443207127 51.2249443207127 73.0434782608696 73.0434782608696 54.7504025764895 48.0251346499102 -9999 -9999 -9999 45.0204638472033 29.2207792207792 29.2207792207792 -9999 -9999 52.5812619502868 52.5812619502868 52.5812619502868 52.5812619502868 -9999 -9999 -9999 -9999 -9999 42.4311926605505 42.4311926605505 42.4311926605505 42.4311926605505 55.1839464882943 55.1839464882943 55.1839464882943 55.1839464882943 55.1839464882943 46.3709677419355 48.3383685800604 48.3383685800604 46.0069444444444 46.0069444444444 68.7382297551789 68.7382297551789 68.7382297551789 68.7382297551789 57.1428571428571 57.1428571428571 53.7261698440208 53.7261698440208 64.6203554119548 64.6203554119548 64.6203554119548 64.6203554119548 64.6203554119548 62.152133580705 62.152133580705 55.8539205155747 55.8539205155747 55.8539205155747 55.8539205155747 55.8539205155747 14.5631067961165 14.5631067961165 83.9160839160839 71.4285714285714 83.5411471321696 71.4285714285714 83.5411471321696 72.2610722610723 72.2610722610723 72.2610722610723 80.7504078303426 84.1995841995842 84.1995841995842 85.1318944844125 85.1318944844125 85.1318944844125 85.1318944844125 85.1318944844125 75.3968253968254 75.3968253968254 75.3968253968254 75.3968253968254 75.3968253968254 75.3968253968254 79.002079002079 77.1065182829889 84.6007604562738 84.6007604562738 67.7676537585421 67.7676537585421 50.2183406113537 -9999 -9999 40.9356725146199 40.9356725146199 40.9356725146199 40.9356725146199 40.9356725146199 40.9356725146199 39.3081761006289 39.3081761006289 39.3081761006289 51.9480519480519 51.9480519480519 -9999 -9999 -9999 -9999 71.4285714285714 71.4285714285714 65.4867256637168 72.2811671087533 72.2811671087533 72.2811671087533 72.2811671087533 72.2811671087533 78.7728026533997 78.7728026533997 84.070796460177 84.070796460177 72.3270440251572 -9999 -9999 -9999 76.4944275582573 -9999 -9999 -9999 -9999 -9999 -9999 -9999 -9999 -9999 -9999 -9999 -9999 -9999 -9999 -9999 -9999 -9999 -9999 -9999 -9999 -9999 -9999 -9999 -9999 -9999 -9999 -9999 -9999 -9999 -9999 -9999 -9999 -9999 -9999 -9999 -9999 -9999 -9999 -9999 -9999 -9999 -9999 -9999 -9999 -9999 -9999 -9999 -9999 -9999 -9999 -9999 -9999 -9999 -9999 -9999 -9999 -9999 -9999 -9999 -9999 -9999
-9999 -9999 -9999 -9999 -9999 -9999 -9999 -9999 -9999 -9999 -9999 -9999 -9999 -9999 -9999 -9999 -9999 -9999 -9999 -9999 -9999 -9999 -9999 -9999 -9999 -9999 -9999 -9999 -9999 -9999 -9999 -9999 -9999 -9999 -9999 -9999 -9999 -9999 -9999 -9999 -9999 -9999 -9999 -9999 -9999 -9999 -9999 -9999 -9999 -9999 -9999 -9999 -9999 -9999 -9999 -9999 -9999 -9999 -9999 -9999 -9999 49.6150556030796 49.6150556030796 49.6150556030796 49.6150556030796 49.6150556030796 49.6150556030796 49.6150556030796 49.6150556030796 49.6150556030796 49.6150556030796 49.6150556030796 49.6150556030796 54.5243619489559 54.5243619489559 54.5243619489559 54.5243619489559 54.5243619489559 54.5243619489559 54.5243619489559 54.5243619489559 54.5243619489559 54.5243619489559 54.5243619489559 54.5243619489559 54.5243619489559 54.5243619489559 54.5243619489559 54.5243619489559 54.5243619489559 54.5243619489559 54.5243619489559 54.5243619489559 58.0645161290323 58.0645161290323 58.0645161290323 58.0645161290323 58.0645161290323 -9999 -9999 -9999 -9999 -9999 -9999 -9999 -9999 -9999 43.9330543933054 43.9330543933054 31.9516407599309 31.9516407599309 31.9516407599309 31.9516407599309 31.9516407599309 31.9516407599309 31.9516407599309 31.9516407599309 31.9516407599309 31.9516407599309 31.9516407599309 31.9516407599309 31.9516407599309 31.9516407599309 31.9516407599309 31.9516407599309 31.9516407599309 -9999 -9999 -9999 -9999 -9999 -9999 52.1653543307087 43.4397163120567 43.4397163120567 52.1653543307087 52.1653543307087 55.9284116331096 55.9284116331096 55.9284116331096 55.9284116331096 -9999 -9999 55.9284116331096 55.9284116331096 55.9284116331096 -9999 -9999 -9999 -9999 -9999 -9999 -9999 -9999 -9999 -9999 -9999 -9999 -9999 -9999 -9999 -9999 -9999 -9999 -9999 -9999 -9999 -9999 -9999 -9999 -9999 -9999 -9999 -9999 -9999 -9999 -9999 -9999 -9999 -9999 -9999 -9999 83.8779956427015 83.8779956427015 83.8779956427015 -9999 -9999 83.8779956427015 83.8779956427015 83.8779956427015 46 46 46 46 46 46 46 46 46 46 46 46 46 38.1873727087576 38.1873727087576 38.1873727087576 38.1873727087576 38.1873727087576 41.1324786324786 41.1324786324786 41.1324786324786 56.2130177514793 56.2130177514793 -9999 -9999 -9999 -9999 -9999 -9999 -9999 -9999 -9999 -9999 -9999 -9999 -9999 -9999 -9999 -9999 -9999 -9999 -9999 -9999 51.2249443207127 51.2249443207127 73.0434782608696 39.4321766561514 54.7504025764895 54.7504025764895 -9999 29.2207792207792 29.2207792207792 29.2207792207792 29.2207792207792 62.6477541371158 52.0628683693517 52.0628683693517 52.5812619502868 52.5812619502868 -9999 -9999 -9999 -9999 -9999 -9999 42.4311926605505 42.4311926605505 42.4311926605505 42.4311926605505 44.8833034111311 44.8833034111311 55.1839464882943 55.1839464882943 55.1839464882943 46.0069444444444 46.0069444444444 46.0069444444444 46.0069444444444 46.0069444444444 68.7382297551789 68.7382297551789 68.7382297551789 57.3929961089494 57.1428571428571 57.1428571428571 53.7261698440208 53.8720538720539 53.8720538720539 53.8720538720539 53.8720538720539 53.8720538720539 64.6203554119548 62.152133580705 63.2368703108253 63.2368703108253 55.8539205155747 55.8539205155747 55.8539205155747 55.8539205155747 14.5631067961165 14.5631067961165 15.7894736842105 15.9151193633952 71.4285714285714 71.4285714285714 71.4285714285714 72.2610722610723 72.2610722610723 72.2610722610723 79 79 85.1318944844125 85.1318944844125 85.1318944844125 85.1318944844125 77.6965265082267 77.6965265082267 77.6965265082267 77.6965265082267 77.6965265082267 77.6965265082267 77.1065182829889 77.1065182829889 77.1065182829889 77.1065182829889 77.1065182829889 77.1065182829889 77.1065182829889 77.1065182829889 -9999 -9999 -9999 -9999 -9999 40.9356725146199 40.9356725146199 40.9356725146199 36.1842105263158 36.1842105263158 36.1842105263158 36.1842105263158 51.6483516483517 51.6483516483517 -9999 -9999 -9999 -9999 -9999 65.4867256637168 65.4867256637168 65.4867256637168 65.4867256637168 65.4867256637168 72.2811671087533 72.2811671087533 72.2811671087533 74.6402877697842 74.6402877697842 72.3270440251572 72.3270440251572 72.3270440251572 72.3270440251572 76.4944275582573 76.4944275582573 76.4944275582573 -9999 -9999 -9999 -9999 -9999 -9999 -9999 -9999 -9999 -9999 -9999 -9999 -9999 -9999 -9999 -9999 -9999 -9999 -9999 -9999 -9999 -9999 -9999 -9999 -9999 -9999 -9999 -9999 -9999 -9999 -9999 -9999 -9999 -9999 -9999 -9999 -9999 -9999 -9999 -9999 -9999 -9999 -9999 -9999 -9999 -9999 -9999 -9999 -9999 -9999 -9999 -9999 -9999 -9999 -9999 -9999 -9999 -9999 -9999 -9999
-9999 -9999 -9999 -9999 -9999 -9999 -9999 -9999 -9999 -9999 -9999 -9999 -9999 -9999 -9999 -9999 -9999 -9999 -9999 -9999 -9999 -9999 -9999 -9999 -9999 -9999 -9999 -9999 -9999 -9999 -9999 -9999 -9999 -9999 -9999 -9999 -9999 -9999 -9999 -9999 -9999 -9999 -9999 -9999 -9999 -9999 -9999 -9999 -9999 -9999 -9999 -9999 -9999 -9999 -9999 -9999 -9999 -9999 -9999 -9999 -9999 -9999 49.6150556030796 49.6150556030796 49.6150556030796 49.6150556030796 49.6150556030796 49.6150556030796 49.6150556030796 49.6150556030796 49.6150556030796 49.6150556030796 49.6150556030796 49.6150556030796 54.5243619489559 54.5243619489559 54.5243619489559 54.5243619489559 54.5243619489559 54.5243619489559 54.5243619489559 54.5243619489559 54.5243619489559 54.5243619489559 54.5243619489559 54.5243619489559 54.5243619489559 54.5243619489559 54.5243619489559 54.5243619489559 54.5243619489559 54.5243619489559 54.5243619489559 54.5243619489559 54.5243619489559 58.0645161290323 58.0645161290323 58.0645161290323 58.0645161290323 -9999 -9999 -9999 -9999 -9999 -9999 -9999 43.9330543933054 43.9330543933054 43.9330543933054 33.7477797513321 33.7477797513321 33.7477797513321 33.7477797513321 33.7477797513321 33.7477797513321 33.7477797513321 30.7377049180328 31.9516407599309 31.9516407599309 31.9516407599309 31.9516407599309 31.9516407599309 31.9516407599309 31.9516407599309 31.9516407599309 31.9516407599309 31.9516407599309 31.9516407599309 -9999 -9999 -9999 -9999 45.1680672268908 52.1653543307087 52.1653543307087 43.4397163120567 43.4397163120567 43.4397163120567 52.1653543307087 55.9284116331096 55.9284116331096 55.9284116331096 55.9284116331096 55.9284116331096 55.9284116331096 55.9284116331096 -9999 -9999 -9999 -9999 -9999 -9999 -9999 -9999 -9999 -9999 -9999 -9999 -9999 -9999 -9999 -9999 -9999 -9999 -9999 -9999 -9999 -9999 -9999 -9999 -9999 -9999 -9999 -9999 -9999 -9999 -9999 -9999 -9999 -9999 -9999 -9999 -9999 -9999 -9999 -9999 -9999 83.8779956427015 83.8779956427015 46 46 46 46 46 46 46 46 46 46 46 -9999 -9999 38.1873727087576 38.1873727087576 38.1873727087576 41.1324786324786 41.1324786324786 41.1324786324786 41.1324786324786 41.1324786324786 41.1324786324786 41.1324786324786 -9999 -9999 -9999 -9999 -9999 -9999 -9999 -9999 -9999 -9999 -9999 -9999 -9999 -9999 -9999 -9999 -9999 -9999 -9999 -9999 -9999 -9999 51.2249443207127 51.2249443207127 39.4321766561514 39.4321766561514 39.4321766561514 40.9683426443203 29.2207792207792 29.2207792207792 29.2207792207792 29.2207792207792 62.6477541371158 62.6477541371158 62.6477541371158 52.0628683693517 52.0628683693517 -9999 -9999 -9999 -9999 -9999 -9999 42.4311926605505 42.4311926605505 42.4311926605505 44.8833034111311 44.8833034111311 44.8833034111311 44.8833034111311 55.1839464882943 46.3709677419355 46.0069444444444 46.0069444444444 46.0069444444444 46.0069444444444 57.3929961089494 57.3929961089494 57.3929961089494 57.3929961089494 57.3929961089494 53.7261698440208 53.7261698440208 53.7261698440208 53.8720538720539 53.8720538720539 53.8720538720539 53.8720538720539 53.8720538720539 63.2368703108253 63.2368703108253 63.2368703108253 63.2368703108253 63.2368703108253 14.5631067961165 14.5631067961165 13.5542168674699 13.5542168674699 15.7894736842105 15.9151193633952 43.3734939759036 43.3734939759036 43.3734939759036 72.2610722610723 72.2610722610723 72.2610722610723 79 79 79 79 88.7404580152672 88.7404580152672 88.7404580152672 88.7404580152672 77.6965265082267 77.6965265082267 77.6965265082267 77.6965265082267 77.1065182829889 77.1065182829889 77.1065182829889 -9999 -9999 -9999 -9999 -9999 -9999 -9999 -9999 -9999 -9999 -9999 -9999 -9999 40.9356725146199 36.1842105263158 36.1842105263158 36.1842105263158 36.1842105263158 36.1842105263158 33.2840236686391 33.2840236686391 33.2840236686391 -9999 -9999 -9999 65.4911838790932 65.4911838790932 56.6037735849057 56.6037735849057 65.4867256637168 65.4867256637168 65.4867256637168 74.6402877697842 74.6402877697842 62.82722513089 62.82722513089 62.82722513089 62.82722513089 76.4944275582573 76.4944275582573 76.4944275582573 -9999 -9999 -9999 -9999 -9999 -9999 -9999 -9999 -9999 -9999 -9999 -9999 -9999 -9999 -9999 -9999 -9999 -9999 -9999 -9999 -9999 -9999 -9999 -9999 -9999 -9999 -9999 -9999 -9999 -9999 -9999 -9999 -9999 -9999 -9999 -9999 -9999 -9999 -9999 -9999 -9999 -9999 -9999 -9999 -9999 -9999 -9999 -9999 -9999 -9999 -9999 -9999 -9999 -9999 -9999 -9999 -9999 -9999 -9999 -9999 -9999
-9999 -9999 -9999 -9999 -9999 -9999 -9999 -9999 -9999 -9999 -9999 -9999 -9999 -9999 -9999 -9999 -9999 -9999 -9999 -9999 -9999 -9999 -9999 -9999 -9999 -9999 -9999 -9999 -9999 -9999 -9999 -9999 -9999 -9999 -9999 -9999 -9999 -9999 -9999 -9999 -9999 -9999 -9999 -9999 -9999 -9999 -9999 -9999 -9999 -9999 -9999 -9999 -9999 -9999 -9999 -9999 -9999 -9999 -9999 -9999 -9999 49.6150556030796 49.6150556030796 49.6150556030796 49.6150556030796 49.6150556030796 49.6150556030796 49.6150556030796 49.6150556030796 49.6150556030796 49.6150556030796 49.6150556030796 49.6150556030796 49.6150556030796 49.6150556030796 54.5243619489559 54.5243619489559 54.5243619489559 54.5243619489559 54.5243619489559 54.5243619489559 54.5243619489559 54.5243619489559 54.5243619489559 54.5243619489559 54.5243619489559 54.5243619489559 54.5243619489559 54.5243619489559 54.5243619489559 54.5243619489559 54.5243619489559 54.5243619489559 54.5243619489559 54.5243619489559 54.5243619489559 58.0645161290323 58.0645161290323 53.0586766541823 58.0645161290323 -9999 -9999 -9999 -9999 -9999 -9999 43.9330543933054 43.9330543933054 29.806259314456 29.806259314456 29.806259314456 29.806259314456 33.7477797513321 33.7477797513321 33.7477797513321 33.7477797513321 33.7690631808279 30.7377049180328 30.7377049180328 30.7377049180328 30.7377049180328 30.7377049180328 30.7377049180328 30.7377049180328 30.7377049180328 30.7377049180328 31.9516407599309 31.9516407599309 31.9516407599309 39.451114922813 39.451114922813 45.1680672268908 45.1680672268908 45.1680672268908 45.1680672268908 52.1653543307087 43.4397163120567 43.4397163120567 43.4397163120567 52.1653543307087 55.9284116331096 55.9284116331096 55.9284116331096 55.9284116331096 55.9284116331096 55.9284116331096 55.9284116331096 -9999 -9999 -9999 -9999 -9999 -9999 -9999 -9999 -9999 -9999 -9999 -9999 -9999 -9999 -9999 -9999 -9999 -9999 -9999 -9999 -9999 -9999 -9999 -9999 -9999 -9999 -9999 -9999 -9999 -9999 -9999 -9999 -9999 -9999 83.8779956427015 83.8779956427015 -9999 -9999 83.8779956427015 83.8779956427015 83.8779956427015 52.4193548387097 52.4193548387097 46 46 46 46 46 46 46 -9999 -9999 -9999 -9999 -9999 -9999 38.1873727087576 38.1873727087576 38.1873727087576 41.1324786324786 41.1324786324786 41.1324786324786 41.1324786324786 41.1324786324786 -9999 -9999 -9999 -9999 -9999 -9999 -9999 -9999 -9999 -9999 -9999 -9999 -9999 -9999 -9999 -9999 -9999 -9999 -9999 -9999 -9999 -9999 -9999 -9999 -9999 39.4321766561514 39.4321766561514 40.9683426443203 40.9683426443203 40.9683426443203 40.9683426443203 41.2946428571429 41.2946428571429 62.6477541371158 62.6477541371158 62.6477541371158 62.6477541371158 71.4285714285714 71.4285714285714 71.4285714285714 -9999 -9999 -9999 42.4311926605505 42.4311926605505 42.4311926605505 42.4311926605505 44.8833034111311 44.8833034111311 44.8833034111311 55.1839464882943 46.3709677419355 46.0069444444444 46.0069444444444 44.238683127572 44.238683127572 44.238683127572 57.3929961089494 57.3929961089494 57.3929961089494 57.3929961089494 57.3929961089494 53.7261698440208 53.7261698440208 53.8720538720539 53.8720538720539 53.8720538720539 53.8720538720539 53.8720538720539 53.8720538720539 63.2368703108253 63.2368703108253 63.2368703108253 63.2368703108253 37.4479889042996 37.4479889042996 37.4479889042996 60.4395604395604 15.7894736842105 -9999 -9999 -9999 43.3734939759036 62.4563852058618 62.4563852058618 62.4563852058618 79 79 79 88.7404580152672 88.7404580152672 88.7404580152672 88.7404580152672 88.7404580152672 88.7404580152672 88.7404580152672 85.4700854700855 85.4700854700855 85.4700854700855 85.4700854700855 77.1065182829889 85.4700854700855 85.4700854700855 85.4700854700855 -9999 -9999 -9999 -9999 -9999 -9999 -9999 -9999 -9999 -9999 -9999 -9999 -9999 36.1842105263158 36.1842105263158 36.1842105263158 56.4285714285714 36.5853658536585 36.5853658536585 49.9001996007984 49.9001996007984 49.9001996007984 65.4911838790932 65.4911838790932 65.4911838790932 56.6037735849057 56.6037735849057 55.1643192488263 65.4867256637168 74.430823117338 74.430823117338 50.5181347150259 62.82722513089 62.82722513089 62.82722513089 76.4944275582573 76.4944275582573 76.4944275582573 76.4944275582573 -9999 -9999 -9999 -9999 -9999 -9999 -9999 -9999 -9999 -9999 -9999 -9999 -9999 -9999 -9999 -9999 -9999 -9999 -9999 -9999 -9999 -9999 -9999 -9999 -9999 -9999 -9999 -9999 -9999 -9999 -9999 -9999 -9999 -9999 -9999 -9999 -9999 -9999 -9999 -9999 -9999 -9999 -9999 -9999 -9999 -9999 -9999 -9999 -9999 -9999 -9999 -9999 -9999 -9999 -9999 -9999 -9999 -9999 -9999 -9999 -9999
-9999 -9999 -9999 -9999 -9999 -9999 -9999 -9999 -9999 -9999 -9999 -9999 -9999 -9999 -9999 -9999 -9999 -9999 -9999 -9999 -9999 -9999 -9999 -9999 -9999 -9999 -9999 -9999 -9999 -9999 -9999 -9999 -9999 -9999 -9999 -9999 -9999 -9999 -9999 -9999 -9999 -9999 -9999 -9999 -9999 -9999 -9999 -9999 -9999 -9999 -9999 -9999 -9999 -9999 -9999 -9999 -9999 -9999 -9999 -9999 -9999 49.6150556030796 49.6150556030796 49.6150556030796 49.6150556030796 49.6150556030796 49.6150556030796 49.6150556030796 49.6150556030796 49.6150556030796 49.6150556030796 49.6150556030796 49.6150556030796 49.6150556030796 49.6150556030796 49.6150556030796 54.5243619489559 54.5243619489559 54.5243619489559 54.5243619489559 54.5243619489559 54.5243619489559 54.5243619489559 54.5243619489559 54.5243619489559 54.5243619489559 54.5243619489559 54.5243619489559 54.5243619489559 54.5243619489559 54.5243619489559 54.5243619489559 54.5243619489559 54.5243619489559 54.5243619489559 54.5243619489559 53.0586766541823 53.0586766541823 53.0586766541823 58.0645161290323 58.0645161290323 -9999 -9999 -9999 43.9330543933054 43.9330543933054 43.9330543933054 43.9330543933054 29.806259314456 29.806259314456 29.806259314456 29.806259314456 29.806259314456 30.3605313092979 30.3605313092979 30.3605313092979 30.3605313092979 33.7690631808279 33.7690631808279 33.7690631808279 30.7377049180328 30.7377049180328 33.7690631808279 30.1204819277108 30.1204819277108 30.1204819277108 33.8409475465313 33.8409475465313 44.7058823529412 44.7058823529412 39.451114922813 39.451114922813 39.451114922813 45.1680672268908 45.1680672268908 45.1680672268908 52.1653543307087 52.1653543307087 43.4397163120567 43.4397163120567 43.4397163120567 55.9284116331096 38.1593714927048 38.1593714927048 55.9284116331096 55.9284116331096 55.9284116331096 -9999 -9999 -9999 -9999 -9999 -9999 -9999 -9999 -9999 -9999 -9999 -9999 -9999 -9999 -9999 -9999 -9999 -9999 -9999 -9999 -9999 -9999 -9999 -9999 -9999 -9999 -9999 -9999 -9999 -9999 -9999 -9999 -9999 83.8779956427015 83.8779956427015 83.8779956427015 83.8779956427015 83.8779956427015 83.8779956427015 52.4193548387097 52.4193548387097 46 46 52.4193548387097 46 46 46 -9999 -9999 -9999 -9999 -9999 -9999 -9999 -9999 -9999 -9999 -9999 -9999 -9999 -9999 -9999 -9999 -9999 -9999 -9999 -9999 -9999 -9999 -9999 -9999 -9999 -9999 -9999 -9999 -9999 -9999 -9999 -9999 -9999 -9999 -9999 -9999 -9999 -9999 -9999 -9999 -9999 32.6241134751773 32.6241134751773 40.9683426443203 40.9683426443203 40.9683426443203 40.9683426443203 40.9683426443203 41.2946428571429 41.2946428571429 88.0829015544041 88.0829015544041 62.6477541371158 55.4607508532423 55.4607508532423 55.4607508532423 71.4285714285714 71.4285714285714 -9999 -9999 42.4311926605505 42.4311926605505 42.4311926605505 55.1839464882943 44.8833034111311 44.8833034111311 55.1839464882943 55.1839464882943 46.3709677419355 46.3709677419355 46.3709677419355 44.238683127572 44.238683127572 44.238683127572 44.238683127572 44.238683127572 57.3929961089494 57.3929961089494 56.9767441860465 56.9767441860465 56.9767441860465 56.9767441860465 53.8720538720539 53.8720538720539 53.8720538720539 53.8720538720539 54.1294642857143 63.2368703108253 63.2368703108253 63.2368703108253 37.4479889042996 37.4479889042996 37.4479889042996 60.4395604395604 55.7586837294333 -9999 50.5171042163882 50.5171042163882 50.5171042163882 62.4563852058618 62.4563852058618 62.4563852058618 79 79 79 75.7575757575758 88.7404580152672 88.7404580152672 88.7404580152672 88.7404580152672 88.7404580152672 85.4700854700855 85.4700854700855 85.4700854700855 85.4700854700855 85.4700854700855 85.4700854700855 85.4700854700855 85.4700854700855 85.4700854700855 85.4700854700855 -9999 -9999 -9999 -9999 -9999 -9999 -9999 -9999 -9999 -9999 -9999 -9999 -9999 -9999 -9999 38.2215288611544 56.4285714285714 56.4285714285714 56.4285714285714 22.5155279503106 45.5696202531646 45.5696202531646 46.1285008237232 46.1285008237232 65.4911838790932 65.4911838790932 55.1643192488263 65.4911838790932 34.6385542168675 74.430823117338 74.430823117338 50.5181347150259 50.5181347150259 50.5181347150259 62.82722513089 76.4944275582573 76.4944275582573 76.4944275582573 76.4944275582573 -9999 -9999 -9999 -9999 -9999 -9999 -9999 -9999 -9999 -9999 -9999 -9999 -9999 -9999 -9999 -9999 -9999 -9999 -9999 -9999 -9999 -9999 -9999 -9999 -9999 -9999 -9999 -9999 -9999 -9999 -9999 -9999 -9999 -9999 -9999 -9999 -9999 -9999 -9999 -9999 -9999 -9999 -9999 -9999 -9999 -9999 -9999 -9999 -9999 -9999 -9999 -9999 -9999 -9999 -9999 -9999 -9999 -9999 -9999 -9999 -9999
-9999 -9999 -9999 -9999 -9999 -9999 -9999 -9999 -9999 -9999 -9999 -9999 -9999 -9999 -9999 -9999 -9999 -9999 -9999 -9999 -9999 -9999 -9999 -9999 -9999 -9999 -9999 -9999 -9999 -9999 -9999 -9999 -9999 -9999 -9999 -9999 -9999 -9999 -9999 -9999 -9999 -9999 -9999 -9999 -9999 -9999 -9999 -9999 -9999 -9999 -9999 -9999 -9999 -9999 -9999 -9999 -9999 -9999 -9999 -9999 51.8796992481203 51.8796992481203 49.6150556030796 49.6150556030796 49.6150556030796 49.6150556030796 49.6150556030796 49.6150556030796 49.6150556030796 49.6150556030796 49.6150556030796 49.6150556030796 49.6150556030796 49.6150556030796 49.6150556030796 49.6150556030796 49.6150556030796 54.5243619489559 54.5243619489559 54.5243619489559 54.5243619489559 54.5243619489559 54.5243619489559 54.5243619489559 54.5243619489559 54.5243619489559 54.5243619489559 54.5243619489559 54.5243619489559 54.5243619489559 57.4817518248175 54.5243619489559 54.5243619489559 54.5243619489559 54.5243619489559 53.0586766541823 53.0586766541823 58.0645161290323 58.0645161290323 -9999 -9999 -9999 -9999 46.0992907801418 46.0992907801418 46.0992907801418 46.0992907801418 43.9330543933054 29.806259314456 29.806259314456 29.806259314456 29.806259314456 29.806259314456 39.3617021276596 30.3605313092979 30.3605313092979 30.3605313092979 30.3605313092979 30.3605313092979 33.7690631808279 33.7690631808279 33.7690631808279 33.7690631808279 30.1204819277108 30.1204819277108 30.1204819277108 30.1204819277108 33.8409475465313 33.8409475465313 44.7058823529412 44.7058823529412 39.451114922813 39.451114922813 48.062015503876 48.062015503876 45.1680672268908 45.1680672268908 48.062015503876 54.7445255474453 54.7445255474453 54.7445255474453 54.7445255474453 54.7445255474453 38.1593714927048 38.1593714927048 38.1593714927048 38.1593714927048 55.9284116331096 -9999 -9999 -9999 -9999 -9999 -9999 -9999 -9999 -9999 -9999 -9999 -9999 -9999 -9999 -9999 -9999 -9999 -9999 -9999 -9999 -9999 -9999 -9999 -9999 -9999 -9999 -9999 -9999 -9999 53.7190082644628 83.8779956427015 83.8779956427015 83.8779956427015 83.8779956427015 83.8779956427015 83.8779956427015 52.4193548387097 52.4193548387097 52.4193548387097 52.4193548387097 52.4193548387097 52.4193548387097 46 -9999 -9999 -9999 -9999 -9999 -9999 -9999 -9999 -9999 -9999 -9999 -9999 -9999 -9999 -9999 -9999 -9999 -9999 -9999 -9999 -9999 -9999 -9999 -9999 -9999 -9999 -9999 -9999 -9999 -9999 -9999 -9999 -9999 -9999 -9999 -9999 -9999 -9999 -9999 -9999 -9999 -9999 -9999 32.6241134751773 32.6241134751773 32.6241134751773 32.6241134751773 32.6241134751773 40.9683426443203 40.9683426443203 40.9683426443203 88.0829015544041 88.0829015544041 88.0829015544041 72.5108225108225 72.5108225108225 55.4607508532423 55.4607508532423 55.4607508532423 55.4607508532423 71.4285714285714 71.4285714285714 56.1797752808989 42.4311926605505 42.4311926605505 42.4311926605505 55.1839464882943 55.1839464882943 55.1839464882943 55.1839464882943 46.3709677419355 49.8812351543943 49.8812351543943 46.3709677419355 46.3709677419355 44.238683127572 44.238683127572 44.238683127572 44.238683127572 44.238683127572 56.9767441860465 56.9767441860465 56.9767441860465 56.9767441860465 61.6161616161616 61.6161616161616 61.6161616161616 53.8720538720539 54.1294642857143 54.1294642857143 54.1294642857143 63.2368703108253 39.7058823529412 39.7058823529412 39.7058823529412 60.4395604395604 55.7586837294333 -9999 50.4103165298945 51.8018018018018 50.2183406113537 62.4563852058618 48.0572597137014 48.0572597137014 48.0572597137014 48.0572597137014 48.0572597137014 83.4564254062038 83.4564254062038 83.4564254062038 86.5979381443299 85.4700854700855 85.4700854700855 85.4700854700855 85.4700854700855 85.4700854700855 85.4700854700855 85.4700854700855 85.4700854700855 85.4700854700855 85.4700854700855 85.4700854700855 85.4700854700855 85.4700854700855 85.4700854700855 85.4700854700855 -9999 -9999 -9999 -9999 -9999 -9999 -9999 -9999 -9999 -9999 -9999 -9999 22.2984562607204 27.2232304900181 38.2215288611544 -9999 45.7627118644068 34.7222222222222 34.7222222222222 46.1285008237232 46.1285008237232 46.1285008237232 46.1285008237232 46.1285008237232 46.1285008237232 34.6385542168675 34.6385542168675 34.6385542168675 34.6385542168675 50.5181347150259 50.5181347150259 50.5181347150259 61.4702154626109 61.4702154626109 61.4702154626109 76.4944275582573 -9999 -9999 -9999 -9999 -9999 -9999 -9999 -9999 -9999 -9999 -9999 -9999 -9999 -9999 -9999 -9999 -9999 -9999 -9999 -9999 -9999 -9999 -9999 -9999 -9999 -9999 -9999 -9999 -9999 -9999 -9999 -9999 -9999 -9999 -9999 -9999 -9999 -9999 -9999 -9999 -9999 -9999 -9999 -9999 -9999 -9999 -9999 -9999 -9999 -9999 -9999 -9999 -9999 -9999 -9999 -9999 -9999 -9999 -9999 -9999 -9999 -9999
-9999 -9999 -9999 -9999 -9999 -9999 -9999 -9999 -9999 -9999 -9999 -9999 -9999 -9999 -9999 -9999 -9999 -9999 -9999 -9999 -9999 -9999 -9999 -9999 -9999 -9999 -9999 -9999 -9999 -9999 -9999 -9999 -9999 -9999 -9999 -9999 -9999 -9999 -9999 -9999 -9999 -9999 -9999 -9999 -9999 -9999 -9999 -9999 -9999 -9999 -9999 -9999 -9999 -9999 -9999 -9999 -9999 -9999 -9999 51.8796992481203 51.8796992481203 51.8796992481203 51.8796992481203 49.6150556030796 49.6150556030796 49.6150556030796 49.6150556030796 49.6150556030796 49.6150556030796 49.6150556030796 49.6150556030796 49.6150556030796 49.6150556030796 49.6150556030796 49.6150556030796 49.6150556030796 49.6150556030796 49.6150556030796 54.5243619489559 54.5243619489559 54.5243619489559 54.5243619489559 54.5243619489559 54.5243619489559 54.5243619489559 54.5243619489559 54.5243619489559 54.5243619489559 57.4817518248175 57.4817518248175 57.4817518248175 57.4817518248175 54.5243619489559 54.5243619489559 57.4817518248175 53.0586766541823 53.0586766541823 53.0586766541823 -9999 -9999 -9999 -9999 43.9330543933054 43.9330543933054 46.0992907801418 46.0992907801418 46.0992907801418 43.9330543933054 37.037037037037 29.806259314456 29.806259314456 39.3617021276596 39.3617021276596 39.3617021276596 30.3605313092979 30.3605313092979 40.2877697841727 40.2877697841727 40.2877697841727 40.2877697841727 33.7690631808279 33.7690631808279 33.7690631808279 30.1204819277108 30.1204819277108 30.1204819277108 30.1204819277108 30.1204819277108 33.8409475465313 26.2875536480687 26.2875536480687 52.7859237536657 39.451114922813 39.451114922813 48.062015503876 48.062015503876 48.062015503876 48.062015503876 48.062015503876 48.062015503876 48.062015503876 46.8085106382979 54.7445255474453 54.7445255474453 54.7445255474453 54.7445255474453 38.1593714927048 38.1593714927048 38.1593714927048 38.1593714927048 38.1593714927048 38.1593714927048 46.1538461538462 55.9284116331096 46.1538461538462 54.5243619489559 54.5243619489559 54.5243619489559 54.5243619489559 53.7190082644628 53.7190082644628 53.7190082644628 53.7190082644628 -9999 -9999 -9999 -9999 -9999 -9999 -9999 53.7190082644628 53.7190082644628 53.7190082644628 53.7190082644628 53.7190082644628 53.7190082644628 53.7190082644628 53.7190082644628 53.7190082644628 53.7190082644628 83.8779956427015 52.4193548387097 52.4193548387097 52.4193548387097 52.4193548387097 52.4193548387097 52.4193548387097 52.4193548387097 52.4193548387097 -9999 -9999 -9999 -9999 -9999 -9999 -9999 -9999 -9999 -9999 -9999 -9999 -9999 -9999 -9999 -9999 -9999 -9999 -9999 -9999 -9999 -9999 -9999 -9999 -9999 -9999 -9999 -9999 -9999 -9999 -9999 -9999 -9999 -9999 -9999 -9999 -9999 -9999 -9999 -9999 -9999 -9999 42.3242467718795 -9999 32.6241134751773 32.6241134751773 35.5421686746988 35.5421686746988 32.6241134751773 37.0138017565872 37.0138017565872 37.0138017565872 40.9683426443203 88.0829015544041 88.0829015544041 57.1030640668524 72.5108225108225 72.5108225108225 55.4607508532423 55.4607508532423 55.9796437659033 55.9796437659033 56.1797752808989 56.1797752808989 56.1797752808989 56.1797752808989 56.1797752808989 56.1797752808989 55.1839464882943 55.1839464882943 55.1839464882943 46.3709677419355 46.3709677419355 49.8812351543943 49.8812351543943 49.8812351543943 49.8812351543943 44.5344129554656 44.238683127572 44.238683127572 44.5344129554656 44.5344129554656 56.9767441860465 56.9767441860465 56.9767441860465 56.9767441860465 61.6161616161616 61.6161616161616 61.6161616161616 54.1294642857143 54.1294642857143 54.1294642857143 63.2368703108253 39.7058823529412 39.7058823529412 39.7058823529412 50 55.3359683794466 51.0835913312694 50.4103165298945 51.8018018018018 50.2183406113537 50.2183406113537 65.3495440729483 65.3495440729483 81.1808118081181 48.0572597137014 48.0572597137014 88.2352941176471 83.4564254062038 83.4564254062038 86.5979381443299 86.5979381443299 86.5979381443299 86.5979381443299 85.4700854700855 85.4700854700855 85.4700854700855 85.4700854700855 85.4700854700855 85.4700854700855 85.4700854700855 85.4700854700855 85.4700854700855 85.4700854700855 85.4700854700855 85.4700854700855 85.4700854700855 85.4700854700855 -9999 -9999 -9999 -9999 -9999 -9999 -9999 -9999 -9999 -9999 -9999 17.6600441501104 22.2984562607204 26.1780104712042 27.2232304900181 20.1005025125628 20.1005025125628 34.7222222222222 46.1285008237232 46.1285008237232 46.1285008237232 46.1285008237232 46.1285008237232 27.2206303724928 27.2206303724928 27.2206303724928 34.6385542168675 34.6385542168675 0 0 0 61.4702154626109 61.4702154626109 61.4702154626109 -9999 -9999 -9999 -9999 -9999 -9999 -9999 -9999 -9999 -9999 -9999 -9999 -9999 -9999 -9999 -9999 -9999 -9999 -9999 -9999 -9999 -9999 -9999 -9999 -9999 -9999 -9999 -9999 -9999 -9999 -9999 -9999 -9999 -9999 -9999 -9999 -9999 -9999 -9999 -9999 -9999 -9999 -9999 -9999 -9999 -9999 -9999 -9999 -9999 -9999 -9999 -9999 -9999 -9999 -9999 -9999 -9999 -9999 -9999 -9999 -9999 -9999 -9999
-9999 -9999 -9999 -9999 -9999 -9999 -9999 -9999 -9999 -9999 -9999 -9999 -9999 -9999 -9999 -9999 -9999 -9999 -9999 -9999 -9999 -9999 -9999 -9999 -9999 -9999 -9999 -9999 -9999 -9999 -9999 -9999 -9999 -9999 -9999 -9999 -9999 -9999 -9999 -9999 -9999 -9999 -9999 -9999 -9999 -9999 -9999 -9999 -9999 -9999 -9999 -9999 -9999 -9999 -9999 51.8796992481203 51.8796992481203 51.8796992481203 51.8796992481203 51.8796992481203 51.8796992481203 49.6150556030796 49.6150556030796 49.6150556030796 49.6150556030796 49.6150556030796 49.6150556030796 49.6150556030796 49.6150556030796 49.6150556030796 49.6150556030796 49.6150556030796 49.6150556030796 49.6150556030796 49.6150556030796 49.6150556030796 49.6150556030796 49.6150556030796 49.6150556030796 54.5243619489559 54.5243619489559 54.5243619489559 54.5243619489559 54.5243619489559 54.5243619489559 54.5243619489559 57.4817518248175 57.4817518248175 57.4817518248175 57.4817518248175 57.4817518248175 57.4817518248175 57.4817518248175 57.4817518248175 57.4817518248175 57.4817518248175 53.0586766541823 -9999 -9999 43.7062937062937 43.7062937062937 43.9330543933054 45.1680672268908 45.1680672268908 46.0992907801418 46.0992907801418 46.0992907801418 46.0992907801418 37.037037037037 37.037037037037 37.037037037037 29.806259314456 39.3617021276596 39.3617021276596 39.3617021276596 39.3617021276596 40.2877697841727 40.2877697841727 40.2877697841727 40.2877697841727 40.2877697841727 30.1204819277108 30.1204819277108 30.1204819277108 30.1204819277108 30.1204819277108 26.2875536480687 26.2875536480687 26.2875536480687 26.2875536480687 26.2875536480687 25.4110612855007 25.4110612855007 39.451114922813 39.451114922813 39.451114922813 48.062015503876 48.062015503876 39.1752577319588 39.1752577319588 39.1752577319588 39.1752577319588 46.8085106382979 46.8085106382979 46.8085106382979 46.8085106382979 46.8085106382979 46.8085106382979 38.1593714927048 38.1593714927048 38.1593714927048 38.1593714927048 38.1593714927048 46.1538461538462 46.1538461538462 46.1538461538462 46.1538461538462 54.5243619489559 54.5243619489559 54.5243619489559 53.7190082644628 53.7190082644628 53.7190082644628 53.7190082644628 53.7190082644628 53.7190082644628 53.7190082644628 53.7190082644628 53.7190082644628 53.7190082644628 53.7190082644628 53.7190082644628 53.7190082644628 53.7190082644628 53.7190082644628 53.7190082644628 53.7190082644628 53.7190082644628 46.2707182320442 46.2707182320442 46.2707182320442 46.2707182320442 52.4193548387097 52.4193548387097 52.4193548387097 52.4193548387097 -9999 -9999 -9999 -9999 -9999 -9999 -9999 -9999 -9999 -9999 -9999 -9999 -9999 -9999 -9999 -9999 -9999 -9999 -9999 -9999 -9999 -9999 -9999 -9999 -9999 -9999 -9999 -9999 -9999 -9999 -9999 -9999 -9999 -9999 -9999 -9999 -9999 -9999 -9999 -9999 -9999 -9999 -9999 28.0957336108221 28.0957336108221 42.3242467718795 35.8565737051793 35.8565737051793 35.5421686746988 35.5421686746988 35.5421686746988 37.0138017565872 37.0138017565872 37.0138017565872 48.2352941176471 48.2352941176471 40.9683426443203 57.1030640668524 57.1030640668524 57.1030640668524 72.5108225108225 72.5108225108225 55.9796437659033 55.9796437659033 55.9796437659033 55.9796437659033 56.1797752808989 56.1797752808989 56.1797752808989 56.1797752808989 56.1797752808989 56.1797752808989 56.1797752808989 56.1797752808989 46.3709677419355 46.3709677419355 49.8812351543943 49.8812351543943 49.8812351543943 49.8812351543943 44.5344129554656 44.5344129554656 44.5344129554656 44.5344129554656 57.6470588235294 57.6470588235294 57.6470588235294 57.6470588235294 61.6161616161616 61.6161616161616 61.6161616161616 54.1294642857143 54.1294642857143 54.1294642857143 54.1294642857143 39.7058823529412 39.7058823529412 39.7058823529412 50 55.3359683794466 51.0835913312694 51.0835913312694 51.0835913312694 51.0835913312694 51.0835913312694 65.3495440729483 65.3495440729483 81.1808118081181 81.1808118081181 81.1808118081181 88.2352941176471 88.2352941176471 81.9935691318328 79.3478260869565 86.5979381443299 86.5979381443299 86.5979381443299 86.5979381443299 86.5979381443299 86.5979381443299 85.4700854700855 85.4700854700855 85.4700854700855 85.4700854700855 85.4700854700855 85.4700854700855 85.4700854700855 85.4700854700855 85.4700854700855 85.4700854700855 85.4700854700855 85.4700854700855 85.4700854700855 -9999 -9999 -9999 -9999 -9999 -9999 -9999 -9999 -9999 -9999 17.6600441501104 24.0963855421687 22.2984562607204 21.0674157303371 21.0674157303371 21.9573400250941 43.3382862803368 43.3382862803368 46.1285008237232 46.1285008237232 46.1285008237232 27.2206303724928 27.2206303724928 27.2206303724928 27.2206303724928 27.2206303724928 27.2206303724928 0 0 61.4702154626109 61.4702154626109 61.4702154626109 61.4702154626109 -9999 -9999 -9999 -9999 -9999 -9999 -9999 -9999 -9999 -9999 -9999 -9999 -9999 -9999 -9999 -9999 -9999 -9999 -9999 -9999 -9999 -9999 -9999 -9999 -9999 -9999 -9999 -9999 -9999 -9999 -9999 -9999 -9999 -9999 -9999 -9999 -9999 -9999 -9999 -9999 -9999 -9999 -9999 -9999 -9999 -9999 -9999 -9999 -9999 -9999 -9999 -9999 -9999 -9999 -9999 -9999 -9999 -9999 -9999 -9999 -9999 -9999 -9999
-9999 -9999 -9999 -9999 -9999 -9999 -9999 -9999 -9999 -9999 -9999 -9999 -9999 -9999 -9999 -9999 -9999 -9999 -9999 -9999 -9999 -9999 -9999 -9999 -9999 -9999 -9999 -9999 -9999 -9999 -9999 -9999 -9999 -9999 -9999 -9999 -9999 -9999 -9999 -9999 -9999 -9999 -9999 -9999 -9999 -9999 -9999 -9999 -9999 -9999 -9999 -9999 -9999 51.8796992481203 51.8796992481203 51.8796992481203 51.8796992481203 51.8796992481203 51.8796992481203 51.8796992481203 51.8796992481203 49.6150556030796 49.6150556030796 49.6150556030796 49.6150556030796 49.6150556030796 49.6150556030796 49.6150556030796 49.6150556030796 49.6150556030796 49.6150556030796 49.6150556030796 49.6150556030796 49.6150556030796 49.6150556030796 49.6150556030796 49.6150556030796 49.6150556030796 49.6150556030796 49.6150556030796 54.5243619489559 54.5243619489559 54.5243619489559 54.5243619489559 54.5243619489559 54.5243619489559 54.5243619489559 57.4817518248175 57.4817518248175 57.4817518248175 57.4817518248175 57.4817518248175 57.4817518248175 57.4817518248175 57.4817518248175 57.4817518248175 53.0586766541823 -9999 43.7062937062937 43.7062937062937 45.1680672268908 45.1680672268908 45.1680672268908 45.1680672268908 46.0992907801418 40.7303370786517 40.7303370786517 25.8064516129032 25.8064516129032 37.037037037037 37.037037037037 37.037037037037 37.037037037037 37.037037037037 37.037037037037 39.3617021276596 40.2877697841727 40.2877697841727 40.2877697841727 40.2877697841727 40.2877697841727 40.2877697841727 26.2875536480687 26.2875536480687 26.2875536480687 26.2875536480687 26.2875536480687 26.2875536480687 26.2875536480687 25.3658536585366 25.4110612855007 25.4110612855007 25.4110612855007 25.4110612855007 39.451114922813 39.451114922813 39.451114922813 39.451114922813 39.451114922813 39.1752577319588 39.1752577319588 39.1752577319588 39.1752577319588 39.1752577319588 39.1752577319588 39.1752577319588 46.8085106382979 46.8085106382979 46.8085106382979 46.8085106382979 46.8085106382979 44.4104134762634 38.1593714927048 38.1593714927048 38.1593714927048 46.1538461538462 46.1538461538462 46.1538461538462 54.5243619489559 54.5243619489559 54.5243619489559 54.5243619489559 53.7190082644628 53.7190082644628 53.7190082644628 53.7190082644628 53.7190082644628 53.7190082644628 -9999 46.2707182320442 46.2707182320442 46.2707182320442 46.2707182320442 46.2707182320442 46.2707182320442 46.2707182320442 46.2707182320442 46.2707182320442 46.2707182320442 46.2707182320442 46.2707182320442 46.2707182320442 46.2707182320442 -9999 -9999 -9999 -9999 -9999 -9999 -9999 -9999 -9999 -9999 -9999 -9999 -9999 -9999 -9999 -9999 -9999 -9999 -9999 -9999 -9999 -9999 -9999 -9999 -9999 -9999 -9999 -9999 -9999 -9999 -9999 -9999 -9999 -9999 -9999 -9999 -9999 -9999 -9999 -9999 -9999 -9999 -9999 -9999 -9999 28.0957336108221 28.0957336108221 42.3242467718795 40.04329004329 35.8565737051793 35.8565737051793 36.4500792393027 36.0531309297913 36.0531309297913 36.0531309297913 36.0531309297913 48.2352941176471 48.2352941176471 48.2352941176471 48.2352941176471 48.2352941176471 57.1030640668524 57.1030640668524 57.1030640668524 40.1284109149278 55.9796437659033 55.9796437659033 32.9283887468031 32.9283887468031 32.9283887468031 32.9283887468031 56.1797752808989 56.1797752808989 56.1797752808989 56.1797752808989 56.1797752808989 37.037037037037 37.037037037037 37.037037037037 37.037037037037 41.9207317073171 49.8812351543943 44.5344129554656 44.5344129554656 44.5344129554656 44.5344129554656 44.5344129554656 57.6470588235294 57.6470588235294 57.6470588235294 57.6470588235294 61.6161616161616 61.6161616161616 61.6161616161616 54.1294642857143 54.1294642857143 54.1294642857143 39.7058823529412 39.7058823529412 39.7058823529412 40.4280618311534 43.8184663536776 49.2813141683778 49.2813141683778 51.0835913312694 51.0835913312694 65.4307524536532 65.4307524536532 65.4307524536532 78.4132841328413 81.1808118081181 81.1808118081181 88.2352941176471 88.2352941176471 81.9935691318328 86.5979381443299 86.5979381443299 86.5979381443299 86.5979381443299 86.5979381443299 86.5979381443299 86.5979381443299 -9999 -9999 -9999 -9999 85.4700854700855 85.4700854700855 85.4700854700855 85.4700854700855 85.4700854700855 85.4700854700855 85.4700854700855 85.4700854700855 85.4700854700855 -9999 -9999 -9999 -9999 -9999 -9999 -9999 -9999 -9999 -9999 -9999 -9999 -9999 24.0963855421687 24.7148288973384 24.7148288973384 21.0674157303371 43.3382862803368 43.3382862803368 43.3382862803368 43.3382862803368 46.1285008237232 27.2206303724928 27.2206303724928 44.6601941747573 44.6601941747573 27.2206303724928 27.2206303724928 27.2206303724928 54.585152838428 61.4702154626109 61.4702154626109 61.4702154626109 -9999 -9999 -9999 -9999 -9999 -9999 -9999 -9999 -9999 -9999 -9999 -9999 -9999 -9999 -9999 -9999 -9999 -9999 -9999 -9999 -9999 -9999 -9999 -9999 -9999 -9999 -9999 -9999 -9999 -9999 -9999 -9999 -9999 -9999 -9999 -9999 -9999 -9999 -9999 -9999 -9999 -9999 -9999 -9999 -9999 -9999 -9999 -9999 -9999 -9999 -9999 -9999 -9999 -9999 -9999 -9999 -9999 -9999 -9999 -9999 -9999 -9999 -9999 -9999
-9999 -9999 -9999 -9999 -9999 -9999 -9999 -9999 -9999 -9999 -9999 -9999 -9999 -9999 -9999 -9999 -9999 -9999 -9999 -9999 -9999 -9999 -9999 -9999 -9999 -9999 -9999 -9999 -9999 -9999 -9999 -9999 -9999 -9999 -9999 -9999 -9999 -9999 -9999 -9999 -9999 -9999 -9999 -9999 -9999 -9999 -9999 -9999 -9999 -9999 -9999 -9999 -9999 51.8796992481203 51.8796992481203 51.8796992481203 51.8796992481203 51.8796992481203 51.8796992481203 51.8796992481203 51.8796992481203 51.8796992481203 49.6150556030796 49.6150556030796 49.6150556030796 49.6150556030796 49.6150556030796 49.6150556030796 49.6150556030796 49.6150556030796 49.6150556030796 49.6150556030796 49.6150556030796 49.6150556030796 49.6150556030796 49.6150556030796 49.6150556030796 49.6150556030796 49.6150556030796 49.6150556030796 54.5243619489559 54.5243619489559 54.5243619489559 54.5243619489559 54.5243619489559 54.5243619489559 54.5243619489559 54.5243619489559 54.5243619489559 63.7931034482759 63.7931034482759 63.7931034482759 57.4817518248175 57.4817518248175 57.4817518248175 53.0586766541823 53.0586766541823 -9999 -9999 43.7062937062937 33.5570469798658 45.1680672268908 45.1680672268908 45.1680672268908 45.1680672268908 40.7303370786517 40.7303370786517 25.8064516129032 25.8064516129032 37.037037037037 37.037037037037 28.7267080745342 28.7267080745342 28.7267080745342 28.7267080745342 39.3617021276596 40.2877697841727 28.7026406429391 28.7026406429391 28.7026406429391 28.7026406429391 28.7026406429391 28.7026406429391 26.2875536480687 25.3658536585366 26.2875536480687 26.2875536480687 25.3658536585366 25.3658536585366 28.3757338551859 28.3757338551859 25.4110612855007 25.4110612855007 52.7859237536657 52.7859237536657 39.451114922813 39.451114922813 36.231884057971 39.451114922813 36.231884057971 36.231884057971 46.875 46.875 46.875 39.1752577319588 39.1752577319588 39.1752577319588 39.1752577319588 39.1752577319588 46.8085106382979 46.8085106382979 46.8085106382979 44.4104134762634 44.4104134762634 44.4104134762634 44.4104134762634 46.1538461538462 46.1538461538462 46.1538461538462 54.5243619489559 54.5243619489559 54.5243619489559 54.5243619489559 53.7190082644628 53.7190082644628 -9999 39.6039603960396 39.6039603960396 39.6039603960396 -9999 -9999 46.2707182320442 46.2707182320442 46.2707182320442 46.2707182320442 46.2707182320442 46.2707182320442 46.2707182320442 46.2707182320442 46.2707182320442 46.2707182320442 46.2707182320442 46.2707182320442 46.2707182320442 -9999 -9999 -9999 -9999 -9999 -9999 -9999 -9999 -9999 -9999 -9999 -9999 -9999 -9999 -9999 -9999 -9999 -9999 -9999 -9999 -9999 -9999 -9999 -9999 -9999 -9999 -9999 -9999 -9999 -9999 -9999 -9999 -9999 -9999 -9999 -9999 -9999 -9999 -9999 -9999 -9999 -9999 -9999 32.7683615819209 28.0957336108221 36.4500792393027 36.4500792393027 40.04329004329 40.04329004329 36.4500792393027 40.8921933085502 40.8921933085502 40.8921933085502 36.0531309297913 36.0531309297913 36.0531309297913 36.0531309297913 48.2352941176471 48.2352941176471 48.2352941176471 48.2352941176471 40.1284109149278 40.1284109149278 35.181236673774 35.181236673774 32.9283887468031 32.9283887468031 32.9283887468031 32.9283887468031 32.9283887468031 32.9283887468031 32.9283887468031 56.1797752808989 56.1797752808989 56.1797752808989 37.037037037037 37.037037037037 37.037037037037 41.9207317073171 41.9207317073171 41.9207317073171 41.9207317073171 41.9207317073171 44.5344129554656 44.5344129554656 57.9119086460033 57.6470588235294 57.6470588235294 57.6470588235294 57.9119086460033 57.9119086460033 57.9119086460033 57.9119086460033 54.1294642857143 54.1294642857143 39.7058823529412 39.7058823529412 39.7058823529412 40.4280618311534 31.73828125 49.2813141683778 49.2813141683778 49.2813141683778 55.0755939524838 54.6407185628742 65.4307524536532 65.4307524536532 78.4132841328413 78.4132841328413 78.4132841328413 86.522462562396 86.522462562396 81.9935691318328 86.522462562396 86.5979381443299 86.5979381443299 86.5979381443299 86.5979381443299 86.5979381443299 86.5979381443299 -9999 -9999 -9999 -9999 -9999 -9999 -9999 -9999 -9999 85.4700854700855 85.4700854700855 85.4700854700855 85.4700854700855 -9999 -9999 -9999 -9999 -9999 -9999 -9999 -9999 -9999 -9999 -9999 -9999 -9999 -9999 -9999 -9999 24.7148288973384 43.3382862803368 43.3382862803368 43.3382862803368 43.3382862803368 43.3382862803368 43.3382862803368 43.3382862803368 27.2206303724928 27.2206303724928 44.6601941747573 27.2206303724928 27.2206303724928 54.585152838428 54.585152838428 54.585152838428 61.4702154626109 61.4702154626109 -9999 -9999 -9999 -9999 -9999 -9999 -9999 -9999 -9999 -9999 -9999 -9999 -9999 -9999 -9999 -9999 -9999 -9999 -9999 -9999 -9999 -9999 -9999 -9999 -9999 -9999 -9999 -9999 -9999 -9999 -9999 -9999 -9999 -9999 -9999 -9999 -9999 -9999 -9999 -9999 -9999 -9999 -9999 -9999 -9999 -9999 -9999 -9999 -9999 -9999 -9999 -9999 -9999 -9999 -9999 -9999 -9999 -9999 -9999 -9999 -9999 -9999 -9999 -9999
-9999 -9999 -9999 -9999 -9999 -9999 -9999 -9999 -9999 -9999 -9999 -9999 -9999 -9999 -9999 -9999 -9999 -9999 -9999 -9999 -9999 -9999 -9999 -9999 -9999 -9999 -9999 -9999 -9999 -9999 -9999 -9999 -9999 -9999 -9999 -9999 -9999 -9999 -9999 -9999 -9999 -9999 -9999 -9999 -9999 -9999 -9999 -9999 -9999 -9999 -9999 -9999 -9999 51.8796992481203 51.8796992481203 51.8796992481203 51.8796992481203 51.8796992481203 51.8796992481203 51.8796992481203 51.8796992481203 51.8796992481203 51.8796992481203 49.6150556030796 49.6150556030796 49.6150556030796 49.6150556030796 49.6150556030796 49.6150556030796 49.6150556030796 49.6150556030796 49.6150556030796 49.6150556030796 49.6150556030796 49.6150556030796 49.6150556030796 49.6150556030796 49.6150556030796 49.6150556030796 49.6150556030796 49.6150556030796 54.5243619489559 54.5243619489559 54.5243619489559 54.5243619489559 54.5243619489559 54.5243619489559 63.7931034482759 63.7931034482759 63.7931034482759 63.7931034482759 63.7931034482759 57.4817518248175 57.4817518248175 57.4817518248175 53.0586766541823 -9999 -9999 -9999 43.7062937062937 33.5570469798658 33.5570469798658 45.1680672268908 45.1680672268908 40.7303370786517 40.7303370786517 40.7303370786517 25.8064516129032 25.8064516129032 25.8064516129032 28.7267080745342 28.7267080745342 28.7267080745342 28.7267080745342 28.7267080745342 37.5335120643432 28.7026406429391 28.7026406429391 28.7026406429391 28.7026406429391 28.7026406429391 28.7026406429391 28.7026406429391 25.3658536585366 25.3658536585366 25.3658536585366 25.3658536585366 29.6934865900383 28.3757338551859 28.3757338551859 28.3757338551859 28.3757338551859 52.7859237536657 52.7859237536657 52.7859237536657 36.231884057971 36.231884057971 36.231884057971 36.231884057971 46.875 46.875 46.875 46.875 46.875 46.875 39.1752577319588 46.8085106382979 46.8085106382979 46.8085106382979 46.8085106382979 46.8085106382979 46.8085106382979 46.8085106382979 0 0 27.6243093922652 0 54.9581839904421 54.9581839904421 54.9581839904421 54.9581839904421 54.5243619489559 54.9581839904421 54.9581839904421 60.1374570446735 60.1374570446735 -9999 -9999 39.6039603960396 39.6039603960396 39.6039603960396 -9999 46.2707182320442 46.2707182320442 46.2707182320442 46.2707182320442 46.2707182320442 46.2707182320442 46.2707182320442 46.2707182320442 46.2707182320442 46.2707182320442 46.2707182320442 46.2707182320442 46.2707182320442 46.2707182320442 -9999 -9999 -9999 -9999 -9999 -9999 -9999 -9999 -9999 -9999 -9999 -9999 -9999 -9999 -9999 -9999 -9999 -9999 -9999 -9999 -9999 -9999 -9999 -9999 -9999 -9999 -9999 -9999 -9999 -9999 -9999 -9999 -9999 -9999 -9999 -9999 -9999 -9999 -9999 -9999 32.7683615819209 38.3838383838384 32.1507760532151 38.3838383838384 36.4500792393027 36.4500792393027 36.4500792393027 40.8921933085502 40.8921933085502 34.0632603406326 34.0632603406326 34.0632603406326 36.0531309297913 36.0531309297913 43.859649122807 43.859649122807 48.2352941176471 48.2352941176471 55.5555555555556 40.1284109149278 40.1284109149278 40.1284109149278 32.9283887468031 32.9283887468031 32.9283887468031 32.9283887468031 32.9283887468031 32.9283887468031 32.9283887468031 32.9283887468031 32.9283887468031 37.037037037037 37.037037037037 37.037037037037 37.037037037037 37.037037037037 38.3647798742138 38.3647798742138 41.9207317073171 41.9207317073171 41.9207317073171 38.3647798742138 38.3647798742138 -9999 41.9207317073171 57.9119086460033 57.9119086460033 57.9119086460033 57.9119086460033 57.9119086460033 30.4518664047151 30.4518664047151 30.4518664047151 39.7058823529412 39.7058823529412 40.4280618311534 31.73828125 24.8344370860927 49.2813141683778 49.2813141683778 49.2813141683778 55.0755939524838 54.6407185628742 70.0636942675159 61.7529880478088 61.7529880478088 61.7529880478088 77.9334500875657 86.522462562396 86.522462562396 86.522462562396 86.5979381443299 86.5979381443299 86.5979381443299 86.5979381443299 86.5979381443299 86.5979381443299 -9999 -9999 -9999 -9999 -9999 -9999 -9999 -9999 -9999 -9999 -9999 -9999 85.4700854700855 -9999 -9999 -9999 -9999 -9999 -9999 -9999 -9999 -9999 -9999 -9999 26.8620268620269 -9999 -9999 -9999 -9999 -9999 43.3382862803368 43.3382862803368 43.3382862803368 43.3382862803368 43.3382862803368 43.3382862803368 43.3382862803368 43.3382862803368 43.3382862803368 43.3382862803368 27.2206303724928 27.2206303724928 54.585152838428 54.585152838428 54.585152838428 54.585152838428 54.585152838428 -9999 -9999 -9999 -9999 -9999 -9999 -9999 -9999 -9999 -9999 -9999 -9999 -9999 -9999 -9999 -9999 -9999 -9999 -9999 -9999 -9999 -9999 -9999 -9999 -9999 -9999 -9999 -9999 -9999 -9999 -9999 -9999 -9999 -9999 -9999 -9999 -9999 -9999 -9999 -9999 -9999 -9999 -9999 -9999 -9999 -9999 -9999 -9999 -9999 -9999 -9999 -9999 -9999 -9999 -9999 -9999 -9999 -9999 -9999 -9999 -9999 -9999 -9999 -9999 -9999
-9999 -9999 -9999 -9999 -9999 -9999 -9999 -9999 -9999 -9999 -9999 -9999 -9999 -9999 -9999 -9999 -9999 -9999 -9999 -9999 -9999 -9999 -9999 -9999 -9999 -9999 -9999 -9999 -9999 -9999 -9999 -9999 -9999 -9999 -9999 -9999 -9999 -9999 -9999 -9999 -9999 -9999 -9999 -9999 -9999 -9999 -9999 -9999 -9999 -9999 -9999 -9999 -9999 73.1939163498099 51.8796992481203 51.8796992481203 51.8796992481203 51.8796992481203 51.8796992481203 51.8796992481203 51.8796992481203 51.8796992481203 63.5036496350365 63.5036496350365 49.6150556030796 49.6150556030796 49.6150556030796 49.6150556030796 49.6150556030796 49.6150556030796 49.6150556030796 49.6150556030796 49.6150556030796 49.6150556030796 49.6150556030796 49.6150556030796 49.6150556030796 49.6150556030796 49.6150556030796 49.6150556030796 49.6150556030796 49.6150556030796 54.5243619489559 54.5243619489559 54.5243619489559 56.2851782363977 56.2851782363977 56.2851782363977 56.2851782363977 63.7931034482759 63.7931034482759 63.7931034482759 57.4817518248175 53.0586766541823 -9999 -9999 -9999 -9999 43.7062937062937 43.7062937062937 33.5570469798658 33.5570469798658 33.5570469798658 33.5570469798658 45.1680672268908 40.7303370786517 40.7303370786517 25.8064516129032 25.8064516129032 25.8064516129032 28.7267080745342 28.7267080745342 28.7267080745342 37.5335120643432 37.5335120643432 37.5335120643432 37.5335120643432 28.7026406429391 28.7026406429391 28.7026406429391 21.7391304347826 21.7391304347826 21.7391304347826 21.7391304347826 29.6934865900383 29.6934865900383 29.6934865900383 29.6934865900383 28.3757338551859 28.3757338551859 28.3757338551859 28.3757338551859 28.3757338551859 39.451114922813 36.231884057971 36.231884057971 36.231884057971 36.231884057971 36.231884057971 33.5195530726257 46.875 46.875 46.875 46.875 38.7323943661972 38.7323943661972 46.8085106382979 46.8085106382979 46.8085106382979 46.8085106382979 46.8085106382979 0 0 0 27.6243093922652 27.6243093922652 27.6243093922652 20.9125475285171 20.9125475285171 20.9125475285171 20.9125475285171 54.9581839904421 54.9581839904421 54.9581839904421 54.9581839904421 54.9581839904421 -9999 -9999 -9999 -9999 -9999 -9999 -9999 46.2707182320442 46.2707182320442 46.2707182320442 46.2707182320442 46.2707182320442 46.2707182320442 46.2707182320442 46.2707182320442 46.2707182320442 46.2707182320442 46.2707182320442 -9999 -9999 -9999 -9999 -9999 -9999 -9999 -9999 -9999 -9999 -9999 -9999 -9999 -9999 -9999 -9999 -9999 -9999 -9999 -9999 -9999 -9999 -9999 -9999 -9999 -9999 -9999 -9999 -9999 -9999 -9999 -9999 -9999 -9999 -9999 -9999 -9999 -9999 -9999 -9999 -9999 -9999 -9999 32.1507760532151 31.9148936170213 32.1507760532151 38.3838383838384 36.4500792393027 40.8921933085502 40.8921933085502 34.0632603406326 34.0632603406326 34.0632603406326 34.0632603406326 34.0632603406326 34.0632603406326 43.859649122807 43.859649122807 43.859649122807 55.5555555555556 55.5555555555556 55.5555555555556 32.9283887468031 32.9283887468031 32.9283887468031 32.9283887468031 32.9283887468031 32.9283887468031 32.9283887468031 32.9283887468031 32.9283887468031 32.9283887468031 37.037037037037 37.037037037037 37.037037037037 37.037037037037 37.037037037037 37.037037037037 38.3647798742138 38.3647798742138 38.3647798742138 38.3647798742138 38.3647798742138 38.3647798742138 38.3647798742138 38.3647798742138 -9999 -9999 41.9207317073171 41.9207317073171 57.9119086460033 30.4518664047151 30.4518664047151 30.4518664047151 23.7068965517241 23.7068965517241 23.7068965517241 23.7068965517241 31.73828125 24.8344370860927 49.2813141683778 49.2813141683778 65.7051282051282 54.6407185628742 70.0636942675159 70.0636942675159 61.7529880478088 61.7529880478088 77.9334500875657 77.9334500875657 77.9334500875657 77.9334500875657 83.7173579109063 86.5979381443299 86.5979381443299 86.5979381443299 86.5979381443299 86.5979381443299 -9999 -9999 -9999 -9999 -9999 -9999 -9999 -9999 -9999 -9999 -9999 -9999 -9999 -9999 -9999 -9999 -9999 -9999 -9999 -9999 -9999 -9999 -9999 -9999 26.8620268620269 26.8620268620269 -9999 -9999 -9999 -9999 43.3382862803368 43.3382862803368 43.3382862803368 43.3382862803368 43.3382862803368 43.3382862803368 43.3382862803368 43.3382862803368 43.3382862803368 43.3382862803368 43.3382862803368 43.3382862803368 43.3382862803368 54.585152838428 54.585152838428 54.585152838428 54.585152838428 54.585152838428 -9999 -9999 -9999 -9999 -9999 -9999 -9999 -9999 -9999 -9999 -9999 -9999 -9999 -9999 -9999 -9999 -9999 -9999 -9999 -9999 -9999 -9999 -9999 -9999 -9999 -9999 -9999 -9999 -9999 -9999 -9999 -9999 -9999 -9999 -9999 -9999 -9999 -9999 -9999 -9999 -9999 -9999 -9999 -9999 -9999 -9999 -9999 -9999 -9999 -9999 -9999 -9999 -9999 -9999 -9999 -9999 -9999 -9999 -9999 -9999 -9999 -9999 -9999 -9999 -9999
-9999 -9999 -9999 -9999 -9999 -9999 -9999 -9999 -9999 -9999 -9999 -9999 -9999 -9999 -9999 -9999 -9999 -9999 -9999 -9999 -9999 -9999 -9999 -9999 -9999 -9999 -9999 -9999 -9999 -9999 -9999 -9999 -9999 -9999 -9999 -9999 -9999 -9999 -9999 -9999 -9999 -9999 -9999 -9999 -9999 -9999 -9999 -9999 -9999 -9999 -9999 -9999 73.1939163498099 73.1939163498099 63.5036496350365 51.8796992481203 51.8796992481203 51.8796992481203 51.8796992481203 51.8796992481203 63.5036496350365 63.5036496350365 63.5036496350365 63.5036496350365 63.5036496350365 63.5036496350365 49.6150556030796 49.6150556030796 49.6150556030796 49.6150556030796 49.6150556030796 49.6150556030796 49.6150556030796 49.6150556030796 49.6150556030796 49.6150556030796 49.6150556030796 49.6150556030796 49.6150556030796 49.6150556030796 49.6150556030796 49.6150556030796 49.6150556030796 54.5243619489559 54.5243619489559 54.5243619489559 56.2851782363977 56.2851782363977 56.2851782363977 56.2851782363977 70.5980066445183 70.5980066445183 70.5980066445183 53.0586766541823 -9999 -9999 -9999 -9999 43.7062937062937 43.7062937062937 33.5570469798658 33.5570469798658 33.5570469798658 33.5570469798658 33.5570469798658 45.1680672268908 40.7303370786517 40.7303370786517 25.8064516129032 35.1063829787234 35.1063829787234 35.1063829787234 37.5335120643432 37.5335120643432 37.5335120643432 37.5335120643432 23.9085239085239 23.9085239085239 23.9085239085239 23.9085239085239 23.9085239085239 23.9085239085239 21.7391304347826 29.6934865900383 29.6934865900383 29.6934865900383 29.6934865900383 29.6934865900383 29.6934865900383 28.3757338551859 28.3757338551859 28.3757338551859 31.0077519379845 31.0077519379845 31.0077519379845 36.231884057971 33.5195530726257 33.5195530726257 33.5195530726257 33.5195530726257 46.875 46.875 38.7323943661972 38.7323943661972 38.7323943661972 38.7323943661972 46.8085106382979 46.8085106382979 46.8085106382979 0 0 25.8964143426295 25.8964143426295 0 0 27.6243093922652 27.6243093922652 20.9125475285171 20.9125475285171 28.6686103012634 28.6686103012634 28.6686103012634 54.9581839904421 54.9581839904421 57.0570570570571 57.0570570570571 54.9581839904421 -9999 -9999 75.4189944134078 -9999 -9999 -9999 -9999 -9999 -9999 -9999 -9999 46.2707182320442 46.2707182320442 -9999 46.2707182320442 -9999 -9999 -9999 -9999 -9999 -9999 -9999 -9999 -9999 -9999 -9999 -9999 -9999 -9999 -9999 -9999 -9999 -9999 -9999 -9999 -9999 -9999 -9999 -9999 -9999 -9999 -9999 -9999 -9999 -9999 -9999 -9999 -9999 -9999 -9999 -9999 -9999 -9999 -9999 -9999 -9999 -9999 34.5238095238095 34.5238095238095 -9999 -9999 31.9148936170213 38.3104125736739 36.9127516778523 36.9127516778523 -9999 -9999 34.7222222222222 34.7222222222222 34.7222222222222 34.0632603406326 34.0632603406326 37.9876796714579 37.9876796714579 37.9876796714579 55.5555555555556 55.5555555555556 55.5555555555556 35.2112676056338 35.2112676056338 35.2112676056338 32.9283887468031 32.9283887468031 32.9283887468031 32.9283887468031 32.9283887468031 32.9283887468031 32.9283887468031 37.037037037037 37.037037037037 37.037037037037 37.037037037037 37.037037037037 38.3647798742138 38.3647798742138 38.3647798742138 38.3647798742138 38.3647798742138 38.3647798742138 38.3647798742138 38.3647798742138 38.3647798742138 38.3647798742138 -9999 -9999 -9999 -9999 30.4518664047151 30.4518664047151 30.4518664047151 21.9465648854962 23.7068965517241 23.7068965517241 23.7068965517241 23.7068965517241 29.1005291005291 26.8867924528302 49.2813141683778 65.7051282051282 51.4112903225806 46.4601769911504 59.5238095238095 61.7529880478088 61.7529880478088 61.7529880478088 77.9334500875657 77.9334500875657 77.9334500875657 83.7173579109063 87.8378378378378 86.5979381443299 86.5979381443299 86.5979381443299 86.5979381443299 -9999 -9999 -9999 -9999 -9999 -9999 -9999 -9999 -9999 -9999 -9999 -9999 -9999 -9999 -9999 -9999 -9999 -9999 -9999 -9999 -9999 -9999 -9999 -9999 26.8620268620269 26.8620268620269 -9999 -9999 -9999 -9999 22.9591836734694 43.3382862803368 43.3382862803368 43.3382862803368 43.3382862803368 43.3382862803368 43.3382862803368 43.3382862803368 43.3382862803368 43.3382862803368 43.3382862803368 43.3382862803368 43.3382862803368 54.585152838428 54.585152838428 54.585152838428 54.585152838428 69.8234349919743 69.8234349919743 -9999 -9999 -9999 -9999 -9999 -9999 -9999 -9999 -9999 -9999 -9999 -9999 -9999 -9999 -9999 -9999 -9999 -9999 -9999 -9999 -9999 -9999 -9999 -9999 -9999 -9999 -9999 -9999 -9999 -9999 -9999 -9999 -9999 -9999 -9999 -9999 -9999 -9999 -9999 -9999 -9999 -9999 -9999 -9999 -9999 -9999 -9999 -9999 -9999 -9999 -9999 -9999 -9999 -9999 -9999 -9999 -9999 -9999 -9999 -9999 -9999 -9999 -9999 -9999 -9999
-9999 -9999 -9999 -9999 -9999 -9999 -9999 -9999 -9999 -9999 -9999 -9999 -9999 -9999 -9999 -9999 -9999 -9999 -9999 -9999 -9999 -9999 -9999 -9999 -9999 -9999 -9999 -9999 -9999 -9999 -9999 -9999 -9999 -9999 -9999 -9999 -9999 -9999 -9999 -9999 -9999 -9999 -9999 -9999 -9999 -9999 73.1939163498099 73.1939163498099 73.1939163498099 73.1939163498099 73.1939163498099 73.1939163498099 73.1939163498099 63.5036496350365 51.8796992481203 51.8796992481203 51.8796992481203 51.8796992481203 63.5036496350365 63.5036496350365 63.5036496350365 63.5036496350365 63.5036496350365 63.5036496350365 63.5036496350365 63.5036496350365 63.5036496350365 49.6150556030796 49.6150556030796 49.6150556030796 49.6150556030796 49.6150556030796 49.6150556030796 49.6150556030796 49.6150556030796 49.6150556030796 49.6150556030796 49.6150556030796 49.6150556030796 49.6150556030796 49.6150556030796 49.6150556030796 54.5243619489559 54.5243619489559 54.5243619489559 54.5243619489559 54.5243619489559 56.2851782363977 56.2851782363977 70.5980066445183 70.5980066445183 70.5980066445183 70.5980066445183 53.0586766541823 -9999 -9999 -9999 43.7062937062937 43.7062937062937 43.7062937062937 43.7062937062937 33.5570469798658 37.5375375375375 33.5570469798658 33.5570469798658 37.5375375375375 45.1680672268908 35.1063829787234 35.1063829787234 35.1063829787234 35.1063829787234 35.1063829787234 35.1063829787234 35.1063829787234 23.9085239085239 23.9085239085239 23.9085239085239 21.7391304347826 23.9085239085239 21.7391304347826 22.964509394572 22.964509394572 22.964509394572 24.6800731261426 24.6800731261426 29.6934865900383 29.6934865900383 29.6934865900383 30.2144249512671 30.2144249512671 31.0077519379845 31.0077519379845 31.0077519379845 31.0077519379845 31.0077519379845 36.231884057971 33.5195530726257 33.5195530726257 33.5195530726257 33.5195530726257 38.7323943661972 38.7323943661972 38.7323943661972 38.7323943661972 46.8085106382979 46.8085106382979 46.8085106382979 0 25.8964143426295 25.8964143426295 27.5229357798165 27.5229357798165 27.5229357798165 0 21.1038961038961 21.1038961038961 26.8630849220104 22.075055187638 20.9125475285171 28.6686103012634 28.6686103012634 28.6686103012634 28.6686103012634 28.6686103012634 26.6203703703704 57.0570570570571 57.0570570570571 75.4189944134078 75.4189944134078 75.4189944134078 -9999 -9999 -9999 -9999 -9999 -9999 -9999 -9999 -9999 -9999 -9999 -9999 -9999 -9999 -9999 -9999 -9999 -9999 -9999 -9999 -9999 -9999 -9999 -9999 -9999 -9999 -9999 -9999 -9999 -9999 -9999 -9999 -9999 -9999 -9999 -9999 -9999 -9999 -9999 -9999 -9999 -9999 -9999 -9999 -9999 -9999 -9999 -9999 -9999 -9999 -9999 -9999 -9999 -9999 -9999 -9999 34.5238095238095 34.5238095238095 34.5238095238095 37.8787878787879 36.9127516778523 37.8787878787879 36.9127516778523 -9999 34.7222222222222 34.7222222222222 34.7222222222222 34.7222222222222 34.7222222222222 37.9876796714579 37.9876796714579 37.9876796714579 37.9876796714579 55.5555555555556 35.2112676056338 35.2112676056338 35.2112676056338 32.9283887468031 32.9283887468031 32.9283887468031 32.9283887468031 32.9283887468031 32.9283887468031 32.9283887468031 37.037037037037 37.037037037037 37.037037037037 37.037037037037 37.037037037037 37.037037037037 37.037037037037 38.3647798742138 38.3647798742138 38.3647798742138 38.3647798742138 38.3647798742138 38.3647798742138 38.3647798742138 38.3647798742138 33.9586028460543 33.9586028460543 -9999 -9999 30.4518664047151 30.4518664047151 30.4518664047151 21.9465648854962 21.9465648854962 21.9465648854962 21.9465648854962 23.7068965517241 29.1005291005291 26.8867924528302 26.8867924528302 61.5808823529412 61.5808823529412 46.4601769911504 46.4601769911504 58.7084148727984 58.7084148727984 56.301652892562 77.9334500875657 77.9334500875657 77.9334500875657 83.7173579109063 87.8378378378378 87.8378378378378 86.5979381443299 86.5979381443299 86.5979381443299 -9999 -9999 -9999 -9999 -9999 -9999 -9999 -9999 -9999 -9999 -9999 -9999 -9999 -9999 -9999 -9999 -9999 -9999 -9999 -9999 -9999 -9999 -9999 -9999 26.8620268620269 26.8620268620269 -9999 -9999 -9999 -9999 22.9591836734694 22.9591836734694 22.9591836734694 22.9591836734694 43.3382862803368 43.3382862803368 43.3382862803368 43.3382862803368 43.3382862803368 43.3382862803368 43.3382862803368 43.3382862803368 43.3382862803368 36.9955156950673 36.9955156950673 -9999 -9999 54.585152838428 69.8234349919743 69.8234349919743 69.8234349919743 -9999 -9999 -9999 -9999 -9999 -9999 -9999 -9999 -9999 -9999 -9999 -9999 -9999 -9999 -9999 -9999 -9999 -9999 -9999 -9999 -9999 -9999 -9999 -9999 -9999 -9999 -9999 -9999 -9999 -9999 -9999 -9999 -9999 -9999 -9999 -9999 -9999 -9999 -9999 -9999 -9999 -9999 -9999 -9999 -9999 -9999 -9999 -9999 -9999 -9999 -9999 -9999 -9999 -9999 -9999 -9999 -9999 -9999 -9999 -9999 -9999 -9999 -9999 -9999
-9999 -9999 -9999 -9999 -9999 -9999 -9999 -9999 -9999 -9999 -9999 -9999 -9999 -9999 -9999 -9999 -9999 -9999 -9999 -9999 -9999 -9999 -9999 -9999 -9999 -9999 -9999 -9999 -9999 -9999 -9999 -9999 -9999 -9999 -9999 -9999 -9999 -9999 -9999 -9999 -9999 -9999 -9999 -9999 73.1939163498099 73.1939163498099 73.1939163498099 73.1939163498099 63.5036496350365 73.1939163498099 73.1939163498099 63.5036496350365 63.5036496350365 51.8796992481203 51.8796992481203 51.8796992481203 63.5036496350365 63.5036496350365 63.5036496350365 63.5036496350365 63.5036496350365 63.5036496350365 63.5036496350365 63.5036496350365 63.5036496350365 63.5036496350365 63.5036496350365 63.5036496350365 49.6150556030796 49.6150556030796 49.6150556030796 49.6150556030796 49.6150556030796 49.6150556030796 49.6150556030796 49.6150556030796 49.6150556030796 49.6150556030796 49.6150556030796 49.6150556030796 49.6150556030796 49.6150556030796 54.5243619489559 54.5243619489559 54.5243619489559 54.5243619489559 56.2851782363977 56.2851782363977 56.2851782363977 70.5980066445183 70.5980066445183 70.5980066445183 70.5980066445183 70.5980066445183 -9999 -9999 -9999 -9999 -9999 -9999 -9999 43.7062937062937 37.5375375375375 37.5375375375375 37.5375375375375 37.5375375375375 24.822695035461 24.822695035461 35.1063829787234 35.1063829787234 35.1063829787234 35.1063829787234 23.4042553191489 23.4042553191489 23.4042553191489 23.4042553191489 21.7391304347826 21.7391304347826 19.3548387096774 22.964509394572 22.964509394572 24.6800731261426 24.6800731261426 24.6800731261426 24.6800731261426 24.6800731261426 30.2144249512671 30.2144249512671 30.2144249512671 30.2144249512671 30.2144249512671 31.0077519379845 31.0077519379845 31.0077519379845 31.0077519379845 21.8045112781955 33.5195530726257 33.5195530726257 46.8085106382979 38.7323943661972 38.7323943661972 38.7323943661972 46.8085106382979 25.8964143426295 25.8964143426295 25.8964143426295 25.8964143426295 25.8964143426295 25.8964143426295 27.5229357798165 27.5229357798165 27.5229357798165 27.5229357798165 27.5229357798165 21.1038961038961 26.8630849220104 26.8630849220104 22.075055187638 22.075055187638 20.9125475285171 20.9125475285171 26.6203703703704 26.6203703703704 26.6203703703704 26.6203703703704 26.6203703703704 65.5940594059406 65.5940594059406 75.4189944134078 65.5940594059406 -9999 -9999 -9999 -9999 -9999 -9999 -9999 -9999 -9999 -9999 -9999 -9999 -9999 -9999 -9999 -9999 -9999 -9999 -9999 -9999 -9999 -9999 -9999 -9999 -9999 -9999 -9999 -9999 -9999 -9999 -9999 -9999 -9999 -9999 -9999 -9999 -9999 -9999 -9999 -9999 -9999 -9999 -9999 -9999 -9999 -9999 -9999 -9999 -9999 -9999 -9999 -9999 -9999 -9999 -9999 -9999 -9999 -9999 37.8787878787879 37.8787878787879 37.8787878787879 37.8787878787879 37.8787878787879 36.6161616161616 36.6161616161616 36.6161616161616 36.6161616161616 34.7222222222222 34.7222222222222 37.9876796714579 45.5764075067024 45.5764075067024 37.9876796714579 -9999 -9999 35.2112676056338 -9999 -9999 32.9283887468031 32.9283887468031 32.9283887468031 32.9283887468031 32.9283887468031 37.037037037037 37.037037037037 37.037037037037 37.037037037037 37.037037037037 37.037037037037 37.037037037037 29.2153589315526 29.2153589315526 38.3647798742138 29.2153589315526 29.2153589315526 33.9586028460543 33.9586028460543 33.9586028460543 33.9586028460543 -9999 -9999 -9999 30.4518664047151 30.4518664047151 30.4518664047151 30.4518664047151 -9999 21.9465648854962 21.9465648854962 16.9398907103825 20.7667731629393 25.4237288135593 26.8867924528302 61.5808823529412 61.5808823529412 61.5808823529412 43.3884297520661 39.568345323741 56.301652892562 56.301652892562 71.7131474103586 71.7131474103586 71.7131474103586 83.7173579109063 87.8378378378378 87.8378378378378 86.5979381443299 86.5979381443299 86.5979381443299 -9999 -9999 -9999 -9999 -9999 -9999 -9999 -9999 -9999 -9999 -9999 -9999 -9999 -9999 -9999 -9999 -9999 -9999 -9999 -9999 -9999 -9999 -9999 -9999 -9999 26.8620268620269 29.0010741138561 29.0010741138561 29.0010741138561 -9999 22.9591836734694 22.9591836734694 22.9591836734694 22.9591836734694 22.9591836734694 32.7455919395466 32.7455919395466 43.3382862803368 43.3382862803368 43.3382862803368 43.3382862803368 43.3382862803368 43.3382862803368 36.9955156950673 36.9955156950673 -9999 -9999 -9999 -9999 -9999 -9999 69.8234349919743 -9999 -9999 -9999 -9999 -9999 -9999 -9999 -9999 -9999 -9999 -9999 -9999 -9999 -9999 -9999 -9999 -9999 -9999 -9999 -9999 -9999 -9999 -9999 -9999 -9999 -9999 -9999 -9999 -9999 -9999 -9999 -9999 -9999 -9999 -9999 -9999 -9999 -9999 -9999 -9999 -9999 -9999 -9999 -9999 -9999 -9999 -9999 -9999 -9999 -9999 -9999 -9999 -9999 -9999 -9999 -9999 -9999 -9999 -9999 -9999 -9999 -9999 -9999 -9999
-9999 -9999 -9999 -9999 -9999 -9999 -9999 -9999 -9999 -9999 -9999 -9999 -9999 -9999 -9999 -9999 -9999 -9999 -9999 -9999 -9999 -9999 -9999 -9999 -9999 -9999 -9999 -9999 -9999 -9999 -9999 -9999 -9999 -9999 -9999 -9999 -9999 -9999 -9999 -9999 -9999 -9999 -9999 -9999 73.1939163498099 73.1939163498099 73.1939163498099 63.5036496350365 63.5036496350365 63.5036496350365 63.5036496350365 63.5036496350365 63.5036496350365 63.5036496350365 63.5036496350365 63.5036496350365 63.5036496350365 63.5036496350365 63.5036496350365 63.5036496350365 63.5036496350365 63.5036496350365 63.5036496350365 63.5036496350365 63.5036496350365 63.5036496350365 63.5036496350365 63.5036496350365 63.5036496350365 63.5036496350365 49.6150556030796 49.6150556030796 49.6150556030796 49.6150556030796 49.6150556030796 49.6150556030796 49.6150556030796 52.3255813953488 52.3255813953488 52.3255813953488 52.3255813953488 49.6150556030796 60.5042016806723 60.5042016806723 60.5042016806723 54.5243619489559 56.2851782363977 56.2851782363977 56.2851782363977 61.8336886993603 70.5980066445183 70.5980066445183 70.5980066445183 70.5980066445183 53.0586766541823 -9999 -9999 -9999 -9999 -9999 -9999 43.7062937062937 37.5375375375375 37.5375375375375 37.5375375375375 37.5375375375375 24.822695035461 24.822695035461 24.822695035461 23.4042553191489 23.4042553191489 23.4042553191489 23.4042553191489 23.4042553191489 23.4042553191489 19.3548387096774 19.3548387096774 19.3548387096774 22.964509394572 22.964509394572 22.964509394572 24.6800731261426 24.6800731261426 24.6800731261426 24.6800731261426 19.2697768762677 30.2144249512671 30.2144249512671 30.2144249512671 30.2144249512671 31.0077519379845 31.0077519379845 31.0077519379845 21.8045112781955 21.8045112781955 21.8045112781955 21.8045112781955 46.8085106382979 46.8085106382979 46.8085106382979 46.8085106382979 25.8964143426295 25.8964143426295 25.8964143426295 25.8964143426295 25.8964143426295 25.8964143426295 22.6269315673289 22.6269315673289 27.5229357798165 31.9148936170213 27.5229357798165 31.9148936170213 31.9148936170213 21.1038961038961 26.8630849220104 21.9546742209632 21.9546742209632 22.075055187638 26.6203703703704 26.6203703703704 26.6203703703704 26.6203703703704 26.6203703703704 26.6203703703704 26.6203703703704 26.6203703703704 26.6203703703704 65.5940594059406 -9999 -9999 -9999 -9999 -9999 -9999 -9999 -9999 -9999 -9999 -9999 -9999 -9999 -9999 -9999 -9999 -9999 -9999 -9999 -9999 -9999 -9999 -9999 -9999 -9999 -9999 -9999 -9999 -9999 -9999 -9999 -9999 -9999 -9999 -9999 -9999 -9999 -9999 -9999 -9999 -9999 -9999 -9999 -9999 -9999 -9999 -9999 -9999 -9999 -9999 -9999 -9999 -9999 -9999 -9999 -9999 -9999 -9999 -9999 -9999 37.8787878787879 37.8787878787879 37.8787878787879 -9999 36.6161616161616 36.6161616161616 36.6161616161616 36.6161616161616 -9999 -9999 37.9876796714579 45.5764075067024 45.5764075067024 45.5764075067024 45.5764075067024 -9999 -9999 -9999 -9999 -9999 32.9283887468031 32.9283887468031 32.9283887468031 37.037037037037 37.037037037037 37.037037037037 37.037037037037 37.037037037037 37.037037037037 37.037037037037 37.037037037037 37.037037037037 29.2153589315526 29.2153589315526 29.2153589315526 29.2153589315526 29.2153589315526 33.9586028460543 33.9586028460543 -9999 -9999 -9999 -9999 34.5838218053927 34.5838218053927 30.4518664047151 -9999 -9999 14.8936170212766 18.8118811881188 20.7667731629393 25.4237288135593 26.8867924528302 37.9464285714286 38.9016018306636 61.5808823529412 43.3884297520661 39.568345323741 39.568345323741 39.568345323741 45.7393483709273 68.3760683760684 68.3760683760684 78.6407766990291 71.1382113821138 70.7434052757794 87.8378378378378 86.5979381443299 86.5979381443299 -9999 -9999 -9999 -9999 -9999 -9999 -9999 -9999 -9999 -9999 -9999 -9999 -9999 -9999 -9999 -9999 -9999 -9999 -9999 -9999 -9999 -9999 -9999 -9999 -9999 37.292817679558 -9999 -9999 29.0010741138561 29.0010741138561 22.9591836734694 22.9591836734694 22.9591836734694 22.9591836734694 22.9591836734694 32.7455919395466 32.7455919395466 32.7455919395466 32.7455919395466 32.7455919395466 43.3382862803368 43.3382862803368 43.3382862803368 36.9955156950673 36.9955156950673 36.9955156950673 -9999 -9999 -9999 -9999 -9999 -9999 -9999 -9999 -9999 -9999 -9999 -9999 -9999 -9999 -9999 -9999 -9999 -9999 -9999 -9999 -9999 -9999 -9999 -9999 -9999 -9999 -9999 -9999 -9999 -9999 -9999 -9999 -9999 -9999 -9999 -9999 -9999 -9999 -9999 -9999 -9999 -9999 -9999 -9999 -9999 -9999 -9999 -9999 -9999 -9999 -9999 -9999 -9999 -9999 -9999 -9999 -9999 -9999 -9999 -9999 -9999 -9999 -9999 -9999 -9999 -9999 -9999 -9999 -9999 -9999 -9999
-9999 -9999 -9999 -9999 -9999 -9999 -9999 -9999 -9999 -9999 -9999 -9999 -9999 -9999 -9999 -9999 -9999 -9999 -9999 -9999 -9999 -9999 -9999 -9999 -9999 -9999 -9999 -9999 -9999 -9999 -9999 -9999 -9999 -9999 -9999 -9999 -9999 -9999 -9999 -9999 -9999 -9999 -9999 73.1939163498099 73.1939163498099 73.1939163498099 63.5036496350365 63.5036496350365 63.5036496350365 63.5036496350365 63.5036496350365 63.5036496350365 63.5036496350365 63.5036496350365 63.5036496350365 63.5036496350365 63.5036496350365 63.5036496350365 63.5036496350365 63.5036496350365 63.5036496350365 63.5036496350365 63.5036496350365 63.5036496350365 63.5036496350365 63.5036496350365 63.5036496350365 63.5036496350365 63.5036496350365 63.5036496350365 63.5036496350365 49.6150556030796 49.6150556030796 49.6150556030796 49.6150556030796 49.6150556030796 52.3255813953488 52.3255813953488 52.3255813953488 52.3255813953488 60.5042016806723 60.5042016806723 60.5042016806723 60.5042016806723 60.5042016806723 60.5042016806723 56.2851782363977 64.3115942028985 64.3115942028985 61.8336886993603 61.8336886993603 61.8336886993603 61.8336886993603 61.8336886993603 53.0586766541823 53.0586766541823 -9999 -9999 -9999 -9999 -9999 -9999 43.7062937062937 37.5375375375375 37.5375375375375 32.0512820512821 32.0512820512821 24.822695035461 24.822695035461 27.363184079602 23.4042553191489 23.4042553191489 23.0769230769231 23.0769230769231 23.0769230769231 19.3548387096774 19.3548387096774 19.3548387096774 19.3548387096774 22.964509394572 22.964509394572 24.6800731261426 24.6800731261426 19.2697768762677 19.2697768762677 19.2697768762677 19.2697768762677 19.2697768762677 30.2144249512671 31.0077519379845 31.0077519379845 31.0077519379845 19.7486535008977 21.8045112781955 21.8045112781955 21.8045112781955 21.8045112781955 21.8045112781955 25.8964143426295 25.8964143426295 25.8964143426295 25.8964143426295 25.8964143426295 25.8964143426295 25.8964143426295 25.8964143426295 25.8964143426295 22.6269315673289 22.6269315673289 22.6269315673289 31.9148936170213 31.9148936170213 31.9148936170213 31.9148936170213 21.9546742209632 21.9546742209632 21.9546742209632 20.0783545543585 20.0783545543585 26.6203703703704 26.6203703703704 26.6203703703704 26.6203703703704 26.6203703703704 26.6203703703704 26.6203703703704 26.6203703703704 26.6203703703704 26.6203703703704 -9999 -9999 -9999 -9999 -9999 -9999 -9999 -9999 -9999 -9999 -9999 -9999 -9999 -9999 -9999 -9999 -9999 -9999 -9999 -9999 -9999 -9999 -9999 -9999 -9999 -9999 -9999 -9999 -9999 -9999 -9999 -9999 -9999 -9999 -9999 -9999 -9999 -9999 -9999 -9999 -9999 -9999 -9999 -9999 -9999 -9999 -9999 -9999 -9999 -9999 -9999 -9999 -9999 -9999 -9999 -9999 -9999 -9999 -9999 -9999 37.8787878787879 37.8787878787879 37.8787878787879 -9999 -9999 -9999 36.6161616161616 -9999 -9999 -9999 -9999 -9999 45.5764075067024 -9999 -9999 -9999 -9999 -9999 -9999 -9999 -9999 37.037037037037 37.037037037037 37.037037037037 37.037037037037 37.037037037037 37.037037037037 37.037037037037 37.037037037037 37.037037037037 37.037037037037 37.037037037037 37.037037037037 29.2153589315526 29.2153589315526 29.2153589315526 29.2153589315526 29.2153589315526 -9999 -9999 -9999 34.5838218053927 34.5838218053927 34.5838218053927 34.5838218053927 34.5838218053927 11.8343195266272 14.8936170212766 18.8118811881188 22.3097112860892 9.74025974025974 11.8613138686131 37.9464285714286 37.9464285714286 38.9016018306636 20.2952029520295 27.34375 20.3252032520325 39.568345323741 45.7393483709273 70.6806282722513 70.6806282722513 70.6806282722513 66.4335664335664 70.7434052757794 70.7434052757794 70.7434052757794 73.9957716701903 86.5979381443299 -9999 -9999 -9999 -9999 -9999 -9999 -9999 -9999 -9999 -9999 -9999 -9999 -9999 -9999 -9999 -9999 -9999 -9999 -9999 -9999 -9999 -9999 -9999 -9999 37.292817679558 -9999 -9999 33.0578512396694 33.0578512396694 22.9591836734694 22.9591836734694 22.9591836734694 22.9591836734694 22.9591836734694 32.7455919395466 32.7455919395466 32.7455919395466 32.7455919395466 32.7455919395466 32.7455919395466 32.7455919395466 36.9955156950673 36.9955156950673 36.9955156950673 36.9955156950673 -9999 -9999 -9999 -9999 -9999 -9999 -9999 -9999 -9999 -9999 -9999 -9999 -9999 -9999 -9999 -9999 -9999 -9999 -9999 -9999 -9999 -9999 -9999 -9999 -9999 -9999 -9999 -9999 -9999 -9999 -9999 -9999 -9999 -9999 -9999 -9999 -9999 -9999 -9999 -9999 -9999 -9999 -9999 -9999 -9999 -9999 -9999 -9999 -9999 -9999 -9999 -9999 -9999 -9999 -9999 -9999 -9999 -9999 -9999 -9999 -9999 -9999 -9999 -9999 -9999 -9999 -9999 -9999 -9999 -9999 -9999 -9999
-9999 -9999 -9999 -9999 -9999 -9999 -9999 -9999 -9999 -9999 -9999 -9999 -9999 -9999 -9999 -9999 -9999 -9999 -9999 -9999 -9999 -9999 -9999 -9999 -9999 -9999 -9999 -9999 -9999 -9999 -9999 -9999 -9999 -9999 -9999 -9999 -9999 -9999 -9999 -9999 -9999 -9999 73.1939163498099 73.1939163498099 63.5036496350365 63.5036496350365 63.5036496350365 63.5036496350365 63.5036496350365 63.5036496350365 63.5036496350365 63.5036496350365 63.5036496350365 63.5036496350365 63.5036496350365 63.5036496350365 63.5036496350365 63.5036496350365 63.5036496350365 63.5036496350365 63.5036496350365 63.5036496350365 63.5036496350365 63.5036496350365 63.5036496350365 63.5036496350365 63.5036496350365 63.5036496350365 63.5036496350365 63.5036496350365 63.5036496350365 63.5036496350365 49.6150556030796 49.6150556030796 49.6150556030796 72.2610722610723 52.3255813953488 52.3255813953488 57.8703703703704 57.8703703703704 60.5042016806723 60.5042016806723 60.5042016806723 60.5042016806723 60.5042016806723 68.7022900763359 68.7022900763359 64.3115942028985 64.3115942028985 64.3115942028985 61.8336886993603 61.8336886993603 61.8336886993603 53.0586766541823 53.0586766541823 -9999 -9999 -9999 -9999 -9999 -9999 -9999 43.7062937062937 43.7062937062937 32.0512820512821 32.0512820512821 32.0512820512821 32.0512820512821 27.363184079602 27.363184079602 27.363184079602 27.363184079602 23.0769230769231 23.0769230769231 23.0769230769231 23.0769230769231 19.3548387096774 19.3548387096774 19.3548387096774 16.0891089108911 19.2697768762677 19.2697768762677 19.2697768762677 19.2697768762677 19.2697768762677 19.2697768762677 19.2697768762677 19.2697768762677 11.1731843575419 30.2144249512671 19.7486535008977 19.7486535008977 19.7486535008977 16.3727959697733 16.3727959697733 16.3727959697733 16.3727959697733 21.8045112781955 21.8045112781955 25.8964143426295 25.8964143426295 25.8964143426295 25.8964143426295 25.8964143426295 25.8964143426295 25.8964143426295 22.6269315673289 22.6269315673289 22.6269315673289 22.6269315673289 22.6269315673289 31.9148936170213 31.9148936170213 31.9148936170213 20.0783545543585 20.0783545543585 20.0783545543585 20.0783545543585 23.0179028132992 23.0179028132992 23.0179028132992 26.6203703703704 26.6203703703704 26.6203703703704 26.6203703703704 26.6203703703704 26.6203703703704 26.6203703703704 26.6203703703704 26.6203703703704 26.6203703703704 -9999 -9999 -9999 -9999 -9999 -9999 -9999 -9999 -9999 -9999 -9999 -9999 -9999 -9999 -9999 -9999 -9999 -9999 -9999 -9999 -9999 -9999 -9999 -9999 -9999 -9999 -9999 -9999 -9999 -9999 -9999 -9999 -9999 -9999 -9999 -9999 -9999 -9999 -9999 -9999 -9999 -9999 -9999 -9999 -9999 -9999 -9999 -9999 -9999 -9999 -9999 -9999 -9999 -9999 -9999 -9999 -9999 -9999 -9999 -9999 -9999 -9999 -9999 -9999 -9999 -9999 -9999 -9999 -9999 -9999 -9999 -9999 -9999 -9999 -9999 -9999 -9999 -9999 37.037037037037 37.037037037037 37.037037037037 37.037037037037 37.037037037037 37.037037037037 37.037037037037 37.037037037037 37.037037037037 37.037037037037 37.037037037037 37.037037037037 37.037037037037 37.037037037037 37.037037037037 29.2153589315526 -9999 -9999 -9999 -9999 34.5838218053927 34.5838218053927 34.5838218053927 34.5838218053927 16.3551401869159 11.8343195266272 13.715710723192 13.715710723192 24.1730279898219 12.6050420168067 11.8613138686131 11.8613138686131 11.8613138686131 10.9409190371991 10.6194690265487 27.34375 20.3252032520325 20.3252032520325 52.132701421801 41.6666666666667 70.6806282722513 70.6806282722513 66.4335664335664 66.4335664335664 66.4335664335664 -9999 73.9957716701903 73.9957716701903 75.2089136490251 75.2089136490251 -9999 -9999 -9999 -9999 -9999 -9999 -9999 -9999 -9999 -9999 -9999 -9999 -9999 -9999 -9999 -9999 -9999 -9999 -9999 -9999 -9999 -9999 -9999 -9999 -9999 -9999 -9999 27.5862068965517 -9999 -9999 18.75 18.75 32.7455919395466 32.7455919395466 32.7455919395466 32.7455919395466 32.7455919395466 32.7455919395466 32.7455919395466 36.9955156950673 36.9955156950673 36.9955156950673 36.9955156950673 36.9955156950673 -9999 -9999 -9999 -9999 -9999 -9999 -9999 -9999 -9999 -9999 -9999 -9999 -9999 -9999 -9999 -9999 -9999 -9999 -9999 -9999 -9999 -9999 -9999 -9999 -9999 -9999 -9999 -9999 -9999 -9999 -9999 -9999 -9999 -9999 -9999 -9999 -9999 -9999 -9999 -9999 -9999 -9999 -9999 -9999 -9999 -9999 -9999 -9999 -9999 -9999 -9999 -9999 -9999 -9999 -9999 -9999 -9999 -9999 -9999 -9999 -9999 -9999 -9999 -9999 -9999 -9999 -9999 -9999 -9999 -9999 -9999 -9999
-9999 -9999 -9999 -9999 -9999 -9999 -9999 -9999 -9999 -9999 -9999 -9999 -9999 -9999 -9999 -9999 -9999 -9999 -9999 -9999 -9999 -9999 -9999 -9999 -9999 -9999 -9999 -9999 -9999 -9999 -9999 -9999 -9999 -9999 -9999 -9999 -9999 -9999 -9999 -9999 -9999 73.1939163498099 73.1939163498099 63.5036496350365 63.5036496350365 63.5036496350365 63.5036496350365 63.5036496350365 63.5036496350365 63.5036496350365 63.5036496350365 63.5036496350365 63.5036496350365 63.5036496350365 63.5036496350365 63.5036496350365 63.5036496350365 63.5036496350365 63.5036496350365 63.5036496350365 63.5036496350365 63.5036496350365 63.5036496350365 63.5036496350365 63.5036496350365 63.5036496350365 63.5036496350365 63.5036496350365 63.5036496350365 63.5036496350365 63.5036496350365 63.5036496350365 63.5036496350365 49.6150556030796 49.6150556030796 72.2610722610723 72.2610722610723 57.8703703703704 57.8703703703704 57.8703703703704 57.8703703703704 60.5042016806723 60.5042016806723 60.5042016806723 68.7022900763359 68.7022900763359 64.3115942028985 64.3115942028985 64.3115942028985 61.8336886993603 61.8336886993603 61.8336886993603 53.0586766541823 53.0586766541823 -9999 -9999 -9999 -9999 -9999 -9999 -9999 43.0247718383312 43.7062937062937 32.0512820512821 32.0512820512821 32.0512820512821 32.0512820512821 32.0512820512821 27.363184079602 27.363184079602 27.363184079602 23.0769230769231 23.0769230769231 23.0769230769231 23.0769230769231 23.0769230769231 23.0769230769231 17.2890733056708 17.2890733056708 17.2890733056708 16.0891089108911 19.2697768762677 19.2697768762677 19.2697768762677 16.0891089108911 16.0891089108911 16.0891089108911 11.1731843575419 11.1731843575419 19.7486535008977 19.7486535008977 19.7486535008977 19.7486535008977 16.3727959697733 16.3727959697733 16.3727959697733 16.3727959697733 20.8604954367666 20.8604954367666 20.8604954367666 25.8964143426295 25.8964143426295 23.876404494382 23.876404494382 22.6269315673289 22.6269315673289 25.8964143426295 22.6269315673289 22.6269315673289 22.6269315673289 22.6269315673289 22.4 22.4 22.4 20.0783545543585 20.0783545543585 23.0179028132992 23.0179028132992 23.0179028132992 23.0179028132992 23.0179028132992 21.4168039538715 21.4168039538715 26.6203703703704 26.6203703703704 26.6203703703704 26.6203703703704 26.6203703703704 26.6203703703704 26.6203703703704 26.6203703703704 26.6203703703704 26.6203703703704 -9999 -9999 -9999 -9999 -9999 -9999 -9999 -9999 -9999 -9999 -9999 -9999 -9999 -9999 -9999 -9999 -9999 -9999 -9999 -9999 -9999 -9999 -9999 -9999 -9999 -9999 -9999 -9999 -9999 -9999 -9999 -9999 -9999 -9999 -9999 -9999 -9999 -9999 -9999 -9999 -9999 -9999 -9999 -9999 -9999 -9999 -9999 -9999 -9999 -9999 -9999 -9999 -9999 -9999 -9999 -9999 -9999 -9999 -9999 -9999 -9999 -9999 -9999 -9999 -9999 -9999 -9999 -9999 -9999 -9999 -9999 -9999 -9999 -9999 -9999 37.037037037037 37.037037037037 37.037037037037 37.037037037037 37.037037037037 37.037037037037 37.037037037037 37.037037037037 37.037037037037 37.037037037037 37.037037037037 37.037037037037 37.037037037037 37.037037037037 37.037037037037 37.037037037037 37.037037037037 37.037037037037 -9999 -9999 34.5838218053927 34.5838218053927 34.5838218053927 34.5838218053927 34.5838218053927 16.3551401869159 13.715710723192 13.715710723192 24.1730279898219 12.6050420168067 12.6050420168067 12.6050420168067 12.6050420168067 10.9409190371991 10.6194690265487 15.4130702836005 6.46551724137931 6.46551724137931 52.132701421801 41.6666666666667 41.6666666666667 61.9967793880837 61.9967793880837 66.4335664335664 66.4335664335664 -9999 -9999 -9999 -9999 -9999 -9999 -9999 -9999 -9999 -9999 -9999 -9999 -9999 23.9043824701195 23.9043824701195 23.9043824701195 23.9043824701195 23.9043824701195 -9999 -9999 -9999 -9999 -9999 -9999 -9999 -9999 -9999 -9999 -9999 -9999 -9999 -9999 -9999 27.5862068965517 24.9457700650759 20.5047318611987 20.5047318611987 21.551724137931 21.551724137931 32.7455919395466 32.7455919395466 32.7455919395466 32.7455919395466 32.7455919395466 36.9955156950673 36.9955156950673 36.9955156950673 36.9955156950673 36.9955156950673 -9999 -9999 -9999 -9999 -9999 -9999 -9999 -9999 -9999 -9999 -9999 -9999 -9999 -9999 -9999 -9999 -9999 -9999 -9999 -9999 -9999 -9999 -9999 -9999 -9999 -9999 -9999 -9999 -9999 -9999 -9999 -9999 -9999 -9999 -9999 -9999 -9999 -9999 -9999 -9999 -9999 -9999 -9999 -9999 -9999 -9999 -9999 -9999 -9999 -9999 -9999 -9999 -9999 -9999 -9999 -9999 -9999 -9999 -9999 -9999 -9999 -9999 -9999 -9999 -9999 -9999 -9999 -9999 -9999 -9999 -9999 -9999 -9999
-9999 -9999 -9999 -9999 -9999 -9999 -9999 -9999 -9999 -9999 -9999 -9999 -9999 -9999 -9999 -9999 -9999 -9999 -9999 -9999 -9999 -9999 -9999 -9999 -9999 -9999 -9999 -9999 -9999 -9999 -9999 -9999 -9999 -9999 73.1939163498099 73.1939163498099 73.1939163498099 73.1939163498099 73.1939163498099 73.1939163498099 73.1939163498099 73.1939163498099 63.5036496350365 63.5036496350365 63.5036496350365 63.5036496350365 63.5036496350365 63.5036496350365 63.5036496350365 63.5036496350365 63.5036496350365 63.5036496350365 63.5036496350365 63.5036496350365 63.5036496350365 63.5036496350365 63.5036496350365 63.5036496350365 63.5036496350365 63.5036496350365 63.5036496350365 63.5036496350365 63.5036496350365 63.5036496350365 63.5036496350365 63.5036496350365 63.5036496350365 63.5036496350365 63.5036496350365 63.5036496350365 63.5036496350365 63.5036496350365 63.5036496350365 63.5036496350365 72.2610722610723 72.2610722610723 72.2610722610723 72.2610722610723 57.8703703703704 57.8703703703704 60.5042016806723 60.5042016806723 68.7022900763359 68.7022900763359 68.7022900763359 68.7022900763359 64.3115942028985 64.3115942028985 64.3115942028985 64.3115942028985 53.0586766541823 53.0586766541823 53.0586766541823 -9999 -9999 -9999 -9999 -9999 -9999 -9999 -9999 43.0247718383312 43.0247718383312 32.0512820512821 32.0512820512821 32.0512820512821 32.0512820512821 32.0512820512821 32.0512820512821 27.363184079602 27.363184079602 27.363184079602 23.0769230769231 27.363184079602 23.0769230769231 17.2890733056708 17.2890733056708 17.2890733056708 17.2890733056708 17.2890733056708 17.2890733056708 16.0891089108911 16.0891089108911 16.0891089108911 16.0891089108911 11.1731843575419 16.0891089108911 11.1731843575419 11.1731843575419 11.1731843575419 19.7486535008977 19.7486535008977 19.7486535008977 12.6582278481013 12.6582278481013 20.8604954367666 20.8604954367666 20.8604954367666 20.8604954367666 21.8921032056294 21.8921032056294 23.876404494382 23.876404494382 23.876404494382 23.876404494382 22.6269315673289 22.6269315673289 22.6269315673289 22.6269315673289 22.6269315673289 21.356783919598 21.356783919598 22.4 22.4 21.4168039538715 21.4168039538715 21.4168039538715 21.4168039538715 21.4168039538715 23.0179028132992 21.4168039538715 21.4168039538715 21.4168039538715 21.4168039538715 26.6203703703704 26.6203703703704 26.6203703703704 26.6203703703704 26.6203703703704 26.6203703703704 28.6458333333333 28.6458333333333 28.6458333333333 28.6458333333333 -9999 -9999 -9999 -9999 -9999 -9999 -9999 -9999 -9999 -9999 -9999 -9999 -9999 -9999 -9999 -9999 -9999 -9999 -9999 -9999 -9999 -9999 -9999 -9999 -9999 -9999 -9999 -9999 -9999 -9999 -9999 -9999 -9999 -9999 -9999 -9999 -9999 -9999 -9999 -9999 -9999 -9999 -9999 -9999 -9999 -9999 -9999 -9999 -9999 -9999 -9999 -9999 -9999 -9999 -9999 -9999 -9999 -9999 -9999 -9999 -9999 -9999 -9999 -9999 -9999 -9999 -9999 -9999 -9999 -9999 -9999 -9999 37.037037037037 37.037037037037 37.037037037037 37.037037037037 37.037037037037 37.037037037037 37.037037037037 37.037037037037 37.037037037037 37.037037037037 37.037037037037 37.037037037037 37.037037037037 37.037037037037 37.037037037037 37.037037037037 37.037037037037 37.037037037037 -9999 -9999 -9999 -9999 -9999 -9999 34.5838218053927 34.5838218053927 34.5838218053927 6.62251655629139 6.62251655629139 13.715710723192 13.715710723192 19.9306759098787 19.9306759098787 12.6050420168067 8.33333333333333 8.33333333333333 8.21167883211679 6.46551724137931 6.46551724137931 41.1522633744856 41.1522633744856 42.0792079207921 61.9967793880837 61.9967793880837 66.4335664335664 66.4335664335664 -9999 -9999 -9999 -9999 -9999 -9999 -9999 -9999 -9999 -9999 -9999 -9999 23.9043824701195 23.9043824701195 23.9043824701195 23.9043824701195 23.9043824701195 23.9043824701195 23.9043824701195 20.2808112324493 -9999 -9999 -9999 -9999 -9999 -9999 -9999 -9999 -9999 -9999 -9999 -9999 -9999 27.5862068965517 21.9607843137255 31.4569536423841 20.5047318611987 21.551724137931 21.551724137931 21.551724137931 -9999 -9999 32.7455919395466 32.7455919395466 36.9955156950673 36.9955156950673 46.7571644042232 -9999 -9999 -9999 -9999 -9999 -9999 -9999 -9999 -9999 -9999 -9999 -9999 -9999 -9999 -9999 -9999 -9999 -9999 -9999 -9999 -9999 -9999 -9999 -9999 -9999 -9999 -9999 -9999 -9999 -9999 -9999 -9999 -9999 -9999 -9999 -9999 -9999 -9999 -9999 -9999 -9999 -9999 -9999 -9999 -9999 -9999 -9999 -9999 -9999 -9999 -9999 -9999 -9999 -9999 -9999 -9999 -9999 -9999 -9999 -9999 -9999 -9999 -9999 -9999 -9999 -9999 -9999 -9999 -9999 -9999 -9999 -9999 -9999 -9999 -9999 -9999
-9999 -9999 -9999 -9999 -9999 -9999 -9999 -9999 -9999 -9999 -9999 -9999 -9999 -9999 -9999 -9999 -9999 -9999 -9999 -9999 -9999 -9999 -9999 -9999 -9999 -9999 -9999 -9999 -9999 -9999 -9999 -9999 -9999 -9999 73.1939163498099 73.1939163498099 73.1939163498099 73.1939163498099 73.1939163498099 73.1939163498099 63.5036496350365 63.5036496350365 63.5036496350365 63.5036496350365 63.5036496350365 63.5036496350365 63.5036496350365 63.5036496350365 63.5036496350365 63.5036496350365 63.5036496350365 63.5036496350365 63.5036496350365 63.5036496350365 63.5036496350365 63.5036496350365 63.5036496350365 63.5036496350365 63.5036496350365 63.5036496350365 63.5036496350365 63.5036496350365 63.5036496350365 63.5036496350365 63.5036496350365 63.5036496350365 63.5036496350365 63.5036496350365 63.5036496350365 63.5036496350365 63.5036496350365 63.5036496350365 63.5036496350365 63.5036496350365 63.5036496350365 72.2610722610723 72.2610722610723 72.2610722610723 57.8703703703704 57.8703703703704 58.3700440528634 58.3700440528634 58.3700440528634 68.7022900763359 68.7022900763359 68.7022900763359 68.7022900763359 68.7022900763359 68.7022900763359 53.0586766541823 53.0586766541823 53.0586766541823 53.0586766541823 -9999 -9999 -9999 -9999 -9999 -9999 -9999 43.0247718383312 43.0247718383312 43.0247718383312 32.0512820512821 32.0512820512821 32.0512820512821 32.0512820512821 32.0512820512821 32.0512820512821 32.0512820512821 27.363184079602 27.363184079602 27.363184079602 17.2890733056708 17.2890733056708 17.2890733056708 17.2890733056708 17.2890733056708 17.2890733056708 17.2890733056708 17.2890733056708 16.0891089108911 16.0891089108911 16.0891089108911 16.0891089108911 11.1731843575419 11.1731843575419 11.1731843575419 11.1731843575419 11.1731843575419 12.6582278481013 12.6582278481013 12.6582278481013 20.8604954367666 20.8604954367666 20.8604954367666 19.4394213381555 21.8921032056294 21.8921032056294 21.8921032056294 21.8921032056294 21.8921032056294 23.876404494382 23.876404494382 23.876404494382 22.6269315673289 22.6269315673289 22.6269315673289 29.2682926829268 29.2682926829268 22.4 22.4 19.8776758409786 19.8776758409786 21.4168039538715 21.4168039538715 21.4168039538715 21.4168039538715 21.4168039538715 21.4168039538715 23.1958762886598 21.4168039538715 21.4168039538715 23.1958762886598 23.1958762886598 26.6203703703704 26.6203703703704 26.6203703703704 28.6458333333333 28.6458333333333 28.6458333333333 28.6458333333333 28.6458333333333 28.6458333333333 28.6458333333333 -9999 -9999 -9999 -9999 -9999 -9999 -9999 -9999 -9999 -9999 -9999 -9999 -9999 -9999 -9999 -9999 -9999 -9999 -9999 -9999 -9999 -9999 -9999 -9999 -9999 -9999 -9999 -9999 -9999 -9999 -9999 -9999 -9999 -9999 -9999 -9999 -9999 -9999 -9999 -9999 -9999 -9999 -9999 -9999 -9999 -9999 -9999 -9999 -9999 -9999 -9999 -9999 -9999 -9999 -9999 -9999 -9999 -9999 -9999 -9999 -9999 -9999 -9999 -9999 -9999 -9999 -9999 -9999 -9999 -9999 37.037037037037 37.037037037037 37.037037037037 37.037037037037 37.037037037037 37.037037037037 37.037037037037 37.037037037037 37.037037037037 37.037037037037 37.037037037037 37.037037037037 37.037037037037 37.037037037037 37.037037037037 37.037037037037 37.037037037037 37.037037037037 -9999 -9999 -9999 -9999 -9999 -9999 -9999 -9999 -9999 6.62251655629139 6.62251655629139 6.62251655629139 13.9318885448916 13.9318885448916 19.9306759098787 19.9306759098787 8.33333333333333 8.33333333333333 8.21167883211679 20.9888059701493 20.9888059701493 22.9357798165138 41.1522633744856 42.0792079207921 46.0526315789474 46.0526315789474 -9999 -9999 -9999 -9999 -9999 -9999 -9999 -9999 -9999 -9999 23.9043824701195 23.9043824701195 23.9043824701195 -9999 23.9043824701195 23.9043824701195 23.9043824701195 23.9043824701195 23.9043824701195 23.9043824701195 23.9043824701195 20.2808112324493 20.2808112324493 20.2808112324493 20.2808112324493 -9999 27.4621212121212 27.4621212121212 -9999 -9999 -9999 -9999 -9999 -9999 -9999 -9999 -9999 -9999 20.9424083769633 20.9424083769633 29.8165137614679 26.9299820466786 -9999 -9999 -9999 36.7867867867868 36.7867867867868 36.9955156950673 46.7571644042232 46.7571644042232 46.7571644042232 -9999 -9999 -9999 -9999 -9999 -9999 -9999 -9999 -9999 -9999 -9999 -9999 -9999 -9999 -9999 -9999 -9999 -9999 -9999 -9999 -9999 -9999 -9999 -9999 -9999 -9999 -9999 -9999 -9999 -9999 -9999 -9999 -9999 -9999 -9999 -9999 -9999 -9999 -9999 -9999 -9999 -9999 -9999 -9999 -9999 -9999 -9999 -9999 -9999 -9999 -9999 -9999 -9999 -9999 -9999 -9999 -9999 -9999 -9999 -9999 -9999 -9999 -9999 -9999 -9999 -9999 -9999 -9999 -9999 -9999 -9999 -9999 -9999 -9999 -9999
-9999 -9999 -9999 -9999 -9999 -9999 -9999 -9999 -9999 -9999 -9999 -9999 -9999 -9999 -9999 -9999 -9999 -9999 -9999 -9999 -9999 -9999 -9999 -9999 -9999 -9999 -9999 -9999 -9999 -9999 -9999 -9999 73.1939163498099 73.1939163498099 73.1939163498099 73.1939163498099 63.5036496350365 63.5036496350365 63.5036496350365 63.5036496350365 63.5036496350365 63.5036496350365 63.5036496350365 63.5036496350365 63.5036496350365 63.5036496350365 63.5036496350365 63.5036496350365 63.5036496350365 63.5036496350365 63.5036496350365 63.5036496350365 63.5036496350365 63.5036496350365 63.5036496350365 63.5036496350365 63.5036496350365 63.5036496350365 63.5036496350365 63.5036496350365 63.5036496350365 63.5036496350365 63.5036496350365 63.5036496350365 63.5036496350365 63.5036496350365 63.5036496350365 63.5036496350365 63.5036496350365 63.5036496350365 63.5036496350365 63.5036496350365 63.5036496350365 63.5036496350365 63.5036496350365 63.5036496350365 72.2610722610723 72.2610722610723 71.1610486891386 71.1610486891386 71.1610486891386 58.3700440528634 58.3700440528634 58.3700440528634 58.3700440528634 58.3700440528634 58.3700440528634 53.0586766541823 53.0586766541823 53.0586766541823 53.0586766541823 53.0586766541823 -9999 -9999 -9999 -9999 -9999 -9999 -9999 43.0247718383312 43.0247718383312 43.0247718383312 30.5240410588871 30.5240410588871 32.0512820512821 32.0512820512821 32.0512820512821 32.0512820512821 32.0512820512821 32.0512820512821 32.0512820512821 14.3072289156627 14.3072289156627 17.2890733056708 17.2890733056708 17.2890733056708 17.2890733056708 17.2890733056708 17.2890733056708 17.2890733056708 17.2890733056708 17.2890733056708 16.0891089108911 11.1731843575419 11.1731843575419 11.1731843575419 11.1731843575419 12.6582278481013 12.6582278481013 12.6582278481013 12.6582278481013 20.8604954367666 20.8604954367666 20.8604954367666 19.4394213381555 19.4394213381555 19.4394213381555 19.4394213381555 21.8921032056294 21.8921032056294 21.8921032056294 21.8921032056294 21.8921032056294 23.876404494382 23.876404494382 29.2682926829268 29.2682926829268 29.2682926829268 29.2682926829268 29.2682926829268 24.4498777506112 24.4498777506112 19.8776758409786 19.8776758409786 19.8776758409786 19.8776758409786 21.4168039538715 21.4168039538715 23.1958762886598 23.1958762886598 23.1958762886598 23.1958762886598 23.1958762886598 23.1958762886598 23.1958762886598 23.1958762886598 28.6458333333333 28.6458333333333 28.6458333333333 28.6458333333333 28.6458333333333 28.6458333333333 28.6458333333333 28.6458333333333 28.6458333333333 -9999 -9999 -9999 -9999 -9999 -9999 -9999 -9999 -9999 -9999 -9999 -9999 -9999 -9999 -9999 -9999 -9999 -9999 -9999 -9999 -9999 -9999 -9999 -9999 -9999 -9999 -9999 -9999 -9999 -9999 -9999 -9999 -9999 -9999 -9999 -9999 -9999 -9999 -9999 -9999 -9999 -9999 -9999 -9999 -9999 -9999 -9999 -9999 -9999 -9999 -9999 -9999 -9999 -9999 -9999 -9999 -9999 -9999 -9999 -9999 -9999 -9999 -9999 -9999 -9999 -9999 -9999 -9999 -9999 37.037037037037 37.037037037037 37.037037037037 37.037037037037 37.037037037037 37.037037037037 -9999 37.037037037037 37.037037037037 37.037037037037 37.037037037037 37.037037037037 37.037037037037 37.037037037037 37.037037037037 37.037037037037 37.037037037037 37.037037037037 -9999 -9999 -9999 -9999 -9999 -9999 -9999 -9999 -9999 24.2085661080074 29.4627383015598 29.4627383015598 29.4627383015598 13.9318885448916 13.9318885448916 13.9318885448916 8.33333333333333 8.33333333333333 17.2872340425532 28.1899109792285 28.1899109792285 32.9531051964512 32.9531051964512 22.9357798165138 32.9531051964512 50.314465408805 -9999 -9999 -9999 -9999 -9999 64.365671641791 -9999 -9999 -9999 -9999 34.1685649202733 34.1685649202733 23.9043824701195 23.9043824701195 23.9043824701195 23.9043824701195 23.9043824701195 23.9043824701195 23.9043824701195 23.9043824701195 23.9043824701195 20.2808112324493 20.2808112324493 20.2808112324493 20.2808112324493 27.4621212121212 27.4621212121212 27.4621212121212 27.4621212121212 27.4621212121212 27.4621212121212 27.4621212121212 -9999 -9999 -9999 -9999 -9999 -9999 36.6766467065868 36.6766467065868 28.5087719298246 29.8165137614679 -9999 -9999 -9999 44.6428571428571 36.7867867867868 44.6428571428571 52.2813688212928 52.2813688212928 46.7571644042232 46.7571644042232 -9999 -9999 -9999 -9999 -9999 -9999 -9999 -9999 -9999 -9999 -9999 -9999 -9999 -9999 -9999 -9999 -9999 -9999 -9999 -9999 -9999 -9999 -9999 -9999 -9999 -9999 -9999 -9999 -9999 -9999 -9999 -9999 -9999 -9999 -9999 -9999 -9999 -9999 -9999 -9999 -9999 -9999 -9999 -9999 -9999 -9999 -9999 -9999 -9999 -9999 -9999 -9999 -9999 -9999 -9999 -9999 -9999 -9999 -9999 -9999 -9999 -9999 -9999 -9999 -9999 -9999 -9999 -9999 -9999 -9999 -9999 -9999 -9999 -9999 -9999
-9999 -9999 -9999 -9999 -9999 -9999 -9999 -9999 -9999 -9999 -9999 -9999 -9999 -9999 -9999 -9999 -9999 -9999 -9999 -9999 -9999 -9999 -9999 -9999 -9999 -9999 -9999 -9999 -9999 -9999 -9999 73.1939163498099 73.1939163498099 73.1939163498099 63.5036496350365 63.5036496350365 63.5036496350365 63.5036496350365 63.5036496350365 63.5036496350365 63.5036496350365 63.5036496350365 63.5036496350365 63.5036496350365 63.5036496350365 63.5036496350365 63.5036496350365 63.5036496350365 63.5036496350365 63.5036496350365 63.5036496350365 63.5036496350365 63.5036496350365 63.5036496350365 63.5036496350365 63.5036496350365 63.5036496350365 63.5036496350365 63.5036496350365 63.5036496350365 63.5036496350365 63.5036496350365 63.5036496350365 63.5036496350365 63.5036496350365 63.5036496350365 63.5036496350365 63.5036496350365 63.5036496350365 63.5036496350365 63.5036496350365 63.5036496350365 63.5036496350365 63.5036496350365 63.5036496350365 63.5036496350365 63.5036496350365 63.5036496350365 71.1610486891386 71.1610486891386 71.1610486891386 71.1610486891386 58.3700440528634 58.3700440528634 58.3700440528634 69.8529411764706 69.8529411764706 69.8529411764706 53.0586766541823 53.0586766541823 -9999 -9999 -9999 -9999 -9999 -9999 -9999 -9999 43.0247718383312 43.0247718383312 30.5240410588871 30.5240410588871 30.5240410588871 30.5240410588871 32.0512820512821 32.0512820512821 32.0512820512821 32.0512820512821 32.0512820512821 14.3072289156627 14.3072289156627 14.3072289156627 14.3072289156627 14.3072289156627 17.2890733056708 17.2890733056708 15.7718120805369 15.7718120805369 17.2890733056708 17.2890733056708 17.2890733056708 17.2890733056708 17.2890733056708 11.1731843575419 11.1731843575419 12.8424657534247 12.8424657534247 12.8424657534247 19.4394213381555 12.6582278481013 12.6582278481013 19.4394213381555 19.4394213381555 19.4394213381555 19.4394213381555 19.4394213381555 19.4394213381555 19.4394213381555 19.4394213381555 21.8921032056294 21.8921032056294 21.8921032056294 21.8921032056294 21.8921032056294 29.2682926829268 29.2682926829268 29.2682926829268 29.2682926829268 24.4498777506112 24.4498777506112 24.4498777506112 24.4498777506112 19.8776758409786 19.8776758409786 -9999 19.8776758409786 21.4168039538715 23.1958762886598 -9999 23.1958762886598 23.1958762886598 23.1958762886598 23.1958762886598 23.1958762886598 28.6458333333333 28.6458333333333 28.6458333333333 28.6458333333333 28.6458333333333 28.6458333333333 28.6458333333333 28.6458333333333 28.6458333333333 28.6458333333333 28.6458333333333 -9999 -9999 -9999 -9999 -9999 -9999 -9999 -9999 -9999 -9999 -9999 -9999 -9999 -9999 -9999 -9999 -9999 -9999 -9999 -9999 -9999 -9999 -9999 -9999 -9999 -9999 -9999 -9999 -9999 -9999 -9999 -9999 -9999 -9999 -9999 -9999 -9999 -9999 -9999 -9999 -9999 -9999 -9999 -9999 -9999 -9999 -9999 -9999 -9999 -9999 -9999 -9999 -9999 -9999 -9999 -9999 -9999 -9999 -9999 -9999 -9999 -9999 -9999 -9999 -9999 -9999 37.037037037037 37.037037037037 37.037037037037 37.037037037037 37.037037037037 37.037037037037 37.037037037037 37.037037037037 37.037037037037 -9999 -9999 37.037037037037 37.037037037037 37.037037037037 37.037037037037 37.037037037037 37.037037037037 37.037037037037 37.037037037037 -9999 -9999 -9999 -9999 -9999 -9999 -9999 -9999 -9999 -9999 24.2085661080074 24.2085661080074 24.2085661080074 16.9491525423729 29.4627383015598 29.4627383015598 29.4627383015598 17.0863309352518 17.0863309352518 17.0863309352518 8.33333333333333 18.640350877193 18.640350877193 32.9531051964512 32.9531051964512 32.9531051964512 50.314465408805 50.314465408805 50.314465408805 56.5438373570521 -9999 -9999 51.7241379310345 64.365671641791 51.7241379310345 51.7241379310345 -9999 34.1685649202733 34.1685649202733 34.1685649202733 23.9043824701195 23.9043824701195 23.9043824701195 23.9043824701195 23.9043824701195 23.9043824701195 20.2808112324493 20.2808112324493 20.2808112324493 20.2808112324493 20.2808112324493 20.2808112324493 27.4621212121212 27.4621212121212 27.4621212121212 27.4621212121212 27.4621212121212 22.6244343891403 22.6244343891403 22.6244343891403 28.9256198347107 28.9256198347107 28.9256198347107 -9999 -9999 -9999 -9999 -9999 -9999 -9999 -9999 -9999 -9999 -9999 44.6428571428571 28.7253141831239 28.7253141831239 53.3751962323391 52.2813688212928 53.3751962323391 -9999 -9999 -9999 -9999 -9999 -9999 -9999 64.7058823529412 -9999 -9999 -9999 -9999 -9999 -9999 -9999 -9999 -9999 -9999 -9999 -9999 -9999 -9999 -9999 -9999 -9999 -9999 -9999 -9999 -9999 -9999 -9999 -9999 -9999 -9999 -9999 -9999 -9999 -9999 -9999 -9999 -9999 -9999 -9999 -9999 -9999 -9999 -9999 -9999 -9999 -9999 -9999 -9999 -9999 -9999 -9999 -9999 -9999 -9999 -9999 -9999 -9999 -9999 -9999 -9999 -9999 -9999 -9999 -9999 -9999 -9999 -9999 -9999 -9999 -9999 -9999
-9999 -9999 -9999 -9999 -9999 -9999 -9999 -9999 -9999 -9999 -9999 -9999 -9999 -9999 -9999 -9999 -9999 -9999 -9999 -9999 -9999 -9999 -9999 -9999 -9999 -9999 -9999 -9999 -9999 -9999 73.1939163498099 73.1939163498099 73.1939163498099 73.1939163498099 63.5036496350365 63.5036496350365 63.5036496350365 63.5036496350365 63.5036496350365 63.5036496350365 63.5036496350365 63.5036496350365 63.5036496350365 63.5036496350365 63.5036496350365 63.5036496350365 63.5036496350365 63.5036496350365 63.5036496350365 63.5036496350365 63.5036496350365 63.5036496350365 63.5036496350365 63.5036496350365 63.5036496350365 63.5036496350365 63.5036496350365 63.5036496350365 63.5036496350365 63.5036496350365 63.5036496350365 63.5036496350365 63.5036496350365 63.5036496350365 63.5036496350365 63.5036496350365 63.5036496350365 63.5036496350365 63.5036496350365 63.5036496350365 63.5036496350365 63.5036496350365 63.5036496350365 63.5036496350365 63.5036496350365 63.5036496350365 63.5036496350365 63.5036496350365 63.5036496350365 71.1610486891386 71.1610486891386 71.1610486891386 71.1610486891386 72.6872246696035 72.6872246696035 72.6872246696035 69.8529411764706 69.8529411764706 69.8529411764706 -9999 -9999 -9999 -9999 -9999 -9999 51.6778523489933 51.6778523489933 43.0247718383312 43.0247718383312 43.0247718383312 30.5240410588871 30.5240410588871 30.5240410588871 30.5240410588871 30.5240410588871 32.0512820512821 32.0512820512821 26.9636576787808 14.3072289156627 14.3072289156627 14.3072289156627 14.3072289156627 14.3072289156627 14.3072289156627 17.2890733056708 17.2890733056708 15.7718120805369 15.7718120805369 15.0684931506849 15.0684931506849 15.0684931506849 15.0684931506849 15.0684931506849 12.8424657534247 12.8424657534247 12.8424657534247 12.8424657534247 12.8424657534247 19.4394213381555 19.4394213381555 19.4394213381555 19.4394213381555 19.4394213381555 19.4394213381555 19.4394213381555 19.4394213381555 19.4394213381555 19.4394213381555 19.4394213381555 19.4394213381555 21.8921032056294 21.8921032056294 21.8921032056294 21.8921032056294 21.8921032056294 29.2682926829268 29.2682926829268 28.6195286195286 24.4498777506112 24.4498777506112 19.8776758409786 19.8776758409786 19.8776758409786 -9999 -9999 -9999 -9999 23.1958762886598 23.1958762886598 -9999 -9999 23.1958762886598 28.6458333333333 28.6458333333333 28.6458333333333 28.6458333333333 28.6458333333333 28.6458333333333 28.6458333333333 28.6458333333333 28.6458333333333 28.6458333333333 28.6458333333333 28.6458333333333 -9999 -9999 -9999 -9999 -9999 -9999 -9999 -9999 -9999 -9999 -9999 -9999 -9999 -9999 -9999 -9999 -9999 -9999 -9999 -9999 -9999 -9999 -9999 -9999 -9999 -9999 -9999 -9999 -9999 -9999 -9999 -9999 -9999 -9999 -9999 -9999 -9999 -9999 -9999 -9999 -9999 -9999 -9999 -9999 -9999 -9999 -9999 -9999 -9999 -9999 -9999 -9999 -9999 -9999 -9999 -9999 -9999 -9999 -9999 -9999 -9999 -9999 -9999 -9999 -9999 -9999 -9999 -9999 37.037037037037 37.037037037037 37.037037037037 37.037037037037 37.037037037037 37.037037037037 37.037037037037 -9999 -9999 -9999 -9999 -9999 37.037037037037 37.037037037037 37.037037037037 37.037037037037 37.037037037037 -9999 -9999 -9999 -9999 -9999 -9999 -9999 -9999 -9999 -9999 18.0360721442886 18.0360721442886 24.2085661080074 24.2085661080074 24.390243902439 16.9491525423729 16.9491525423729 27.9146141215107 27.9146141215107 27.9146141215107 17.0863309352518 23.1660231660232 23.1660231660232 44.3722943722944 44.3722943722944 32.9531051964512 32.9341317365269 56.0538116591928 50.314465408805 56.5438373570521 56.5438373570521 56.5438373570521 50.8021390374332 50.9745127436282 50.9745127436282 51.7241379310345 51.7241379310345 51.7241379310345 34.1685649202733 34.1685649202733 34.1685649202733 34.1685649202733 23.9043824701195 23.9043824701195 20.2808112324493 20.2808112324493 20.2808112324493 20.2808112324493 20.1612903225806 20.1612903225806 20.1612903225806 20.1612903225806 20.1612903225806 20.1612903225806 22.6876090750436 22.7817745803357 22.7817745803357 22.7817745803357 22.7817745803357 22.6244343891403 28.9256198347107 28.9256198347107 28.9256198347107 28.7859824780976 28.7859824780976 28.8 28.8 28.8 -9999 -9999 -9999 -9999 -9999 -9999 -9999 -9999 28.7253141831239 53.3751962323391 53.3751962323391 53.3751962323391 53.3751962323391 53.3751962323391 53.3751962323391 53.3751962323391 -9999 -9999 64.7058823529412 64.7058823529412 64.7058823529412 -9999 -9999 -9999 -9999 -9999 -9999 -9999 -9999 -9999 -9999 -9999 -9999 -9999 -9999 -9999 -9999 -9999 -9999 -9999 -9999 -9999 -9999 -9999 -9999 -9999 -9999 -9999 -9999 -9999 -9999 -9999 -9999 -9999 -9999 -9999 -9999 -9999 -9999 -9999 -9999 -9999 -9999 -9999 -9999 -9999 -9999 -9999 -9999 -9999 -9999 -9999 -9999 -9999 -9999 -9999 -9999 -9999 -9999 -9999 -9999 -9999 -9999 -9999 -9999 -9999 -9999 -9999
-9999 -9999 -9999 -9999 -9999 -9999 -9999 -9999 -9999 -9999 -9999 -9999 -9999 -9999 -9999 -9999 -9999 -9999 -9999 -9999 -9999 -9999 -9999 -9999 -9999 -9999 -9999 -9999 -9999 -9999 73.1939163498099 73.1939163498099 73.1939163498099 73.1939163498099 73.1939163498099 63.5036496350365 63.5036496350365 63.5036496350365 63.5036496350365 63.5036496350365 63.5036496350365 63.5036496350365 63.5036496350365 63.5036496350365 63.5036496350365 63.5036496350365 63.5036496350365 63.5036496350365 63.5036496350365 63.5036496350365 63.5036496350365 63.5036496350365 63.5036496350365 63.5036496350365 63.5036496350365 63.5036496350365 63.5036496350365 63.5036496350365 63.5036496350365 63.5036496350365 63.5036496350365 63.5036496350365 63.5036496350365 63.5036496350365 63.5036496350365 63.5036496350365 63.5036496350365 63.5036496350365 63.5036496350365 63.5036496350365 63.5036496350365 63.5036496350365 63.5036496350365 63.5036496350365 63.5036496350365 63.5036496350365 63.5036496350365 63.5036496350365 63.5036496350365 63.5036496350365 71.1610486891386 71.1610486891386 69.8529411764706 69.8529411764706 72.6872246696035 72.6872246696035 72.6872246696035 -9999 -9999 -9999 -9999 51.6778523489933 51.6778523489933 51.6778523489933 51.6778523489933 51.6778523489933 51.6778523489933 51.6778523489933 43.0247718383312 30.5240410588871 30.5240410588871 30.5240410588871 30.5240410588871 30.5240410588871 30.5240410588871 23.4260614934114 26.9636576787808 26.9636576787808 26.9636576787808 14.3072289156627 26.9636576787808 15.7718120805369 15.7718120805369 15.7718120805369 15.7718120805369 15.7718120805369 15.7718120805369 15.7718120805369 15.0684931506849 15.0684931506849 15.7718120805369 14.344262295082 12.8424657534247 12.8424657534247 14.344262295082 14.344262295082 12.8424657534247 19.4394213381555 19.4394213381555 19.4394213381555 19.4394213381555 19.4394213381555 19.4394213381555 19.4394213381555 19.4394213381555 19.4394213381555 19.4394213381555 19.4394213381555 19.4394213381555 19.4394213381555 19.4394213381555 21.8921032056294 21.8921032056294 21.8921032056294 21.8921032056294 21.8921032056294 28.6195286195286 28.6195286195286 28.6195286195286 28.6195286195286 28.6195286195286 19.8776758409786 -9999 -9999 19.8776758409786 19.8776758409786 -9999 -9999 -9999 -9999 28.6458333333333 28.6458333333333 28.6458333333333 28.6458333333333 28.6458333333333 28.6458333333333 28.6458333333333 28.6458333333333 28.6458333333333 28.6458333333333 28.6458333333333 28.6458333333333 28.6458333333333 28.6458333333333 28.6458333333333 -9999 -9999 -9999 -9999 -9999 -9999 -9999 -9999 -9999 -9999 -9999 -9999 -9999 -9999 -9999 -9999 -9999 -9999 -9999 -9999 -9999 -9999 -9999 -9999 -9999 -9999 -9999 -9999 -9999 -9999 -9999 -9999 -9999 -9999 -9999 -9999 -9999 -9999 -9999 -9999 -9999 -9999 -9999 -9999 -9999 -9999 -9999 -9999 -9999 -9999 -9999 -9999 -9999 -9999 -9999 -9999 -9999 -9999 -9999 -9999 -9999 -9999 -9999 -9999 -9999 -9999 -9999 -9999 -9999 37.037037037037 37.037037037037 37.037037037037 37.037037037037 37.037037037037 -9999 -9999 -9999 -9999 -9999 -9999 37.037037037037 37.037037037037 37.037037037037 -9999 -9999 -9999 -9999 -9999 -9999 -9999 -9999 -9999 -9999 -9999 18.0360721442886 18.0360721442886 18.0360721442886 19.723865877712 24.390243902439 24.390243902439 41.747572815534 41.747572815534 27.9146141215107 27.9146141215107 29.5698924731183 29.5698924731183 26.3819095477387 26.3819095477387 44.3722943722944 44.3722943722944 44.3722943722944 56.0538116591928 56.0538116591928 47.713717693837 47.713717693837 50.8021390374332 50.8021390374332 50.8021390374332 50.8021390374332 50.9745127436282 50.9745127436282 51.7241379310345 51.7241379310345 51.7241379310345 34.1685649202733 25.3623188405797 25.3623188405797 20.2808112324493 20.2808112324493 12.52408477842 12.52408477842 12.52408477842 12.52408477842 20.1612903225806 20.1612903225806 20.1612903225806 20.1612903225806 22.6876090750436 22.6876090750436 22.6876090750436 22.6876090750436 22.7817745803357 24.0963855421687 28.9256198347107 28.9256198347107 28.9256198347107 17.9717586649551 17.9717586649551 28.8 28.8 28.8 28.8 -9999 -9999 -9999 -9999 48.2041587901701 48.2041587901701 -9999 28.7253141831239 53.3751962323391 53.3751962323391 53.3751962323391 53.3751962323391 53.3751962323391 53.3751962323391 53.3751962323391 -9999 64.7058823529412 64.7058823529412 64.7058823529412 64.7058823529412 53.4653465346535 53.4653465346535 -9999 -9999 -9999 -9999 -9999 -9999 -9999 -9999 -9999 53.4653465346535 53.4653465346535 53.4653465346535 53.4653465346535 53.4653465346535 -9999 -9999 -9999 -9999 -9999 -9999 -9999 -9999 -9999 -9999 -9999 -9999 -9999 -9999 -9999 -9999 -9999 -9999 -9999 -9999 -9999 -9999 -9999 -9999 -9999 -9999 -9999 -9999 -9999 -9999 -9999 -9999 -9999 -9999 -9999 -9999 -9999 -9999 -9999 -9999 -9999 -9999 -9999 -9999 -9999 -9999 -9999 -9999 -9999 -9999 -9999 -9999
-9999 -9999 -9999 -9999 -9999 -9999 -9999 -9999 -9999 -9999 -9999 -9999 -9999 -9999 -9999 -9999 -9999 -9999 -9999 -9999 -9999 -9999 -9999 -9999 -9999 -9999 -9999 -9999 -9999 73.1939163498099 73.1939163498099 73.1939163498099 73.1939163498099 73.1939163498099 73.1939163498099 73.1939163498099 63.5036496350365 63.5036496350365 63.5036496350365 63.5036496350365 63.5036496350365 63.5036496350365 63.5036496350365 63.5036496350365 63.5036496350365 63.5036496350365 63.5036496350365 63.5036496350365 63.5036496350365 63.5036496350365 63.5036496350365 63.5036496350365 63.5036496350365 63.5036496350365 63.5036496350365 63.5036496350365 63.5036496350365 63.5036496350365 63.5036496350365 63.5036496350365 63.5036496350365 63.5036496350365 63.5036496350365 63.5036496350365 63.5036496350365 63.5036496350365 63.5036496350365 63.5036496350365 63.5036496350365 63.5036496350365 63.5036496350365 63.5036496350365 63.5036496350365 63.5036496350365 63.5036496350365 63.5036496350365 63.5036496350365 63.5036496350365 63.5036496350365 63.5036496350365 73.1939163498099 73.1939163498099 -9999 -9999 -9999 69.8529411764706 69.8529411764706 -9999 -9999 52.3012552301255 52.3012552301255 51.6778523489933 51.6778523489933 51.6778523489933 51.6778523489933 51.6778523489933 59.0673575129534 59.0673575129534 43.0247718383312 30.5240410588871 30.5240410588871 30.5240410588871 30.5240410588871 30.5240410588871 30.5240410588871 23.4260614934114 23.4260614934114 26.9636576787808 26.9636576787808 26.9636576787808 15.7718120805369 15.7718120805369 15.7718120805369 15.7718120805369 15.7718120805369 15.7718120805369 15.7718120805369 15.7718120805369 15.7718120805369 16.548463356974 14.344262295082 14.344262295082 14.344262295082 14.344262295082 14.344262295082 14.344262295082 19.4394213381555 19.4394213381555 19.4394213381555 19.4394213381555 19.4394213381555 19.4394213381555 19.4394213381555 19.4394213381555 19.4394213381555 19.4394213381555 19.4394213381555 19.4394213381555 19.4394213381555 19.4394213381555 19.4394213381555 21.8921032056294 21.8921032056294 21.8921032056294 15.5786350148368 15.5786350148368 15.5786350148368 28.6195286195286 28.6195286195286 28.6195286195286 28.6195286195286 28.6195286195286 19.8776758409786 19.8776758409786 -9999 -9999 -9999 -9999 28.6458333333333 28.6458333333333 28.6458333333333 28.6458333333333 28.6458333333333 28.6458333333333 28.6458333333333 28.6458333333333 28.6458333333333 28.6458333333333 28.6458333333333 28.6458333333333 28.6458333333333 28.6458333333333 28.6458333333333 -9999 -9999 -9999 -9999 -9999 -9999 -9999 -9999 -9999 -9999 -9999 -9999 -9999 -9999 -9999 -9999 -9999 -9999 -9999 -9999 -9999 -9999 -9999 -9999 -9999 -9999 -9999 -9999 -9999 -9999 -9999 -9999 -9999 -9999 -9999 -9999 -9999 -9999 -9999 -9999 -9999 -9999 -9999 -9999 -9999 -9999 -9999 -9999 -9999 -9999 -9999 -9999 -9999 -9999 -9999 -9999 -9999 -9999 -9999 -9999 -9999 -9999 -9999 -9999 -9999 -9999 -9999 -9999 -9999 -9999 -9999 -9999 37.037037037037 37.037037037037 37.037037037037 37.037037037037 -9999 -9999 -9999 -9999 -9999 -9999 -9999 -9999 -9999 -9999 -9999 -9999 -9999 -9999 -9999 -9999 -9999 -9999 -9999 18.0360721442886 18.0360721442886 18.0360721442886 19.723865877712 19.723865877712 19.723865877712 19.4029850746269 41.747572815534 41.747572815534 41.747572815534 43.8247011952191 31.3765182186235 31.3765182186235 31.3765182186235 41.3907284768212 46.1538461538462 46.1538461538462 44.3722943722944 46.1538461538462 47.713717693837 47.713717693837 41.3306451612903 41.3306451612903 41.3306451612903 44.1558441558442 44.1558441558442 44.1558441558442 32.258064516129 50.9745127436282 50.9745127436282 51.7241379310345 25.3623188405797 25.3623188405797 25.3623188405797 27.8184480234261 12.52408477842 12.52408477842 12.52408477842 12.52408477842 15.6903765690377 15.6903765690377 15.6903765690377 15.6903765690377 22.6876090750436 22.6876090750436 22.6876090750436 22.6876090750436 20.2808112324493 24.0963855421687 24.0963855421687 24.0963855421687 24.0963855421687 17.9717586649551 17.9717586649551 28.8 28.8 28.8 28.8 28.8 28.8 -9999 -9999 48.2041587901701 48.2041587901701 46.6165413533835 46.6165413533835 42.7018633540373 42.7018633540373 42.7018633540373 53.3751962323391 53.3751962323391 53.3751962323391 53.3751962323391 64.7058823529412 64.7058823529412 64.7058823529412 64.7058823529412 64.7058823529412 64.7058823529412 53.4653465346535 53.4653465346535 53.4653465346535 53.4653465346535 53.4653465346535 53.4653465346535 53.4653465346535 53.4653465346535 53.4653465346535 53.4653465346535 53.4653465346535 53.4653465346535 53.4653465346535 53.4653465346535 53.4653465346535 53.4653465346535 53.4653465346535 -9999 -9999 -9999 -9999 -9999 -9999 -9999 -9999 -9999 -9999 -9999 -9999 -9999 -9999 -9999 -9999 -9999 -9999 -9999 -9999 -9999 -9999 -9999 -9999 -9999 -9999 -9999 -9999 -9999 -9999 -9999 -9999 -9999 -9999 -9999 -9999 -9999 -9999 -9999 -9999 -9999 -9999 -9999 -9999 -9999 -9999 -9999 -9999 -9999 -9999 -9999
-9999 -9999 -9999 -9999 -9999 -9999 -9999 -9999 -9999 -9999 -9999 -9999 -9999 -9999 -9999 -9999 -9999 -9999 -9999 -9999 -9999 -9999 -9999 -9999 -9999 -9999 -9999 -9999 -9999 73.1939163498099 73.1939163498099 73.1939163498099 73.1939163498099 73.1939163498099 73.1939163498099 73.1939163498099 73.1939163498099 63.5036496350365 63.5036496350365 63.5036496350365 63.5036496350365 63.5036496350365 63.5036496350365 63.5036496350365 63.5036496350365 63.5036496350365 63.5036496350365 63.5036496350365 63.5036496350365 63.5036496350365 63.5036496350365 63.5036496350365 63.5036496350365 63.5036496350365 63.5036496350365 63.5036496350365 63.5036496350365 63.5036496350365 63.5036496350365 63.5036496350365 63.5036496350365 63.5036496350365 63.5036496350365 63.5036496350365 63.5036496350365 63.5036496350365 63.5036496350365 63.5036496350365 63.5036496350365 63.5036496350365 63.5036496350365 63.5036496350365 63.5036496350365 63.5036496350365 63.5036496350365 63.5036496350365 63.5036496350365 63.5036496350365 63.5036496350365 71.4285714285714 73.1939163498099 73.1939163498099 -9999 -9999 -9999 -9999 -9999 -9999 52.3012552301255 52.3012552301255 52.3012552301255 52.3012552301255 50.9499136442142 51.6778523489933 51.6778523489933 59.0673575129534 59.0673575129534 59.0673575129534 30.5240410588871 30.5240410588871 30.5240410588871 30.5240410588871 30.5240410588871 30.5240410588871 30.5240410588871 23.4260614934114 23.4260614934114 23.4260614934114 26.9636576787808 26.9636576787808 15.7718120805369 15.7718120805369 15.7718120805369 15.7718120805369 15.7718120805369 15.7718120805369 15.7718120805369 16.8067226890756 16.8067226890756 16.548463356974 16.548463356974 16.548463356974 16.548463356974 14.344262295082 24.0384615384615 19.4394213381555 19.4394213381555 19.4394213381555 19.4394213381555 19.4394213381555 19.4394213381555 19.4394213381555 19.4394213381555 19.4394213381555 19.4394213381555 19.4394213381555 19.4394213381555 19.4394213381555 19.4394213381555 19.4394213381555 19.4394213381555 21.8921032056294 15.5786350148368 15.5786350148368 15.5786350148368 15.5786350148368 15.5786350148368 15.5786350148368 28.6195286195286 28.6195286195286 28.6195286195286 19.8776758409786 19.8776758409786 19.8776758409786 -9999 -9999 28.6458333333333 28.6458333333333 28.6458333333333 28.6458333333333 28.6458333333333 28.6458333333333 28.6458333333333 28.6458333333333 28.6458333333333 28.6458333333333 28.6458333333333 28.6458333333333 28.6458333333333 28.6458333333333 28.6458333333333 28.6458333333333 28.6458333333333 -9999 -9999 -9999 -9999 -9999 -9999 -9999 -9999 -9999 -9999 -9999 -9999 -9999 -9999 -9999 -9999 -9999 -9999 -9999 -9999 -9999 -9999 -9999 -9999 -9999 -9999 -9999 -9999 -9999 -9999 -9999 -9999 -9999 -9999 -9999 -9999 -9999 -9999 -9999 -9999 -9999 -9999 -9999 -9999 -9999 -9999 -9999 -9999 -9999 -9999 -9999 -9999 -9999 -9999 -9999 -9999 -9999 -9999 -9999 -9999 -9999 -9999 -9999 -9999 -9999 -9999 -9999 -9999 -9999 -9999 -9999 -9999 -9999 -9999 37.037037037037 -9999 -9999 -9999 -9999 -9999 -9999 -9999 -9999 -9999 -9999 -9999 -9999 -9999 -9999 -9999 -9999 -9999 20.7986688851913 20.7986688851913 20.7986688851913 18.0360721442886 19.723865877712 19.723865877712 19.723865877712 19.723865877712 19.4029850746269 19.4029850746269 19.4029850746269 19.4029850746269 43.8247011952191 43.8247011952191 43.8247011952191 43.8247011952191 41.3907284768212 41.3907284768212 41.3907284768212 41.3907284768212 47.4452554744526 46.1538461538462 46.1538461538462 46.1538461538462 49.0909090909091 41.3306451612903 41.3306451612903 44.1558441558442 44.1558441558442 44.1558441558442 44.1558441558442 -9999 32.258064516129 25.3623188405797 25.3623188405797 25.3623188405797 27.8184480234261 27.8184480234261 27.8184480234261 27.8184480234261 27.8184480234261 15.6903765690377 15.6903765690377 15.6903765690377 15.6903765690377 15.6903765690377 15.6903765690377 20.2808112324493 20.2808112324493 20.2808112324493 20.9251101321586 20.9251101321586 20.9251101321586 20.9251101321586 -9999 -9999 -9999 -9999 -9999 28.8 28.8 28.8 36.2116991643454 48.9130434782609 48.9130434782609 38.3944153577661 38.3944153577661 46.6165413533835 50.2742230347349 50.2742230347349 50.2742230347349 53.3751962323391 53.3751962323391 53.3751962323391 -9999 64.7058823529412 64.7058823529412 64.7058823529412 64.7058823529412 64.7058823529412 64.7058823529412 65.2951699463327 53.4653465346535 53.4653465346535 53.4653465346535 53.4653465346535 53.4653465346535 53.4653465346535 53.4653465346535 53.4653465346535 53.4653465346535 53.4653465346535 53.4653465346535 53.4653465346535 53.4653465346535 53.4653465346535 53.4653465346535 53.4653465346535 53.4653465346535 -9999 -9999 -9999 -9999 -9999 -9999 -9999 -9999 -9999 -9999 -9999 -9999 -9999 -9999 -9999 -9999 -9999 -9999 -9999 -9999 -9999 -9999 -9999 -9999 -9999 -9999 -9999 -9999 -9999 -9999 -9999 -9999 -9999 -9999 -9999 -9999 -9999 -9999 -9999 -9999 -9999 -9999 -9999 -9999 -9999 -9999 -9999 -9999 -9999 -9999 -9999
-9999 -9999 -9999 -9999 -9999 -9999 -9999 -9999 -9999 -9999 -9999 -9999 -9999 -9999 -9999 -9999 -9999 -9999 -9999 -9999 -9999 -9999 -9999 -9999 -9999 -9999 -9999 73.1939163498099 73.1939163498099 73.1939163498099 73.1939163498099 73.1939163498099 73.1939163498099 73.1939163498099 73.1939163498099 73.1939163498099 73.1939163498099 73.1939163498099 73.1939163498099 63.5036496350365 63.5036496350365 63.5036496350365 63.5036496350365 63.5036496350365 63.5036496350365 63.5036496350365 63.5036496350365 63.5036496350365 63.5036496350365 63.5036496350365 63.5036496350365 63.5036496350365 63.5036496350365 63.5036496350365 63.5036496350365 63.5036496350365 63.5036496350365 63.5036496350365 63.5036496350365 63.5036496350365 63.5036496350365 63.5036496350365 63.5036496350365 63.5036496350365 63.5036496350365 63.5036496350365 63.5036496350365 63.5036496350365 63.5036496350365 63.5036496350365 63.5036496350365 63.5036496350365 63.5036496350365 63.5036496350365 63.5036496350365 63.5036496350365 63.5036496350365 63.5036496350365 71.4285714285714 71.4285714285714 71.4285714285714 -9999 73.1939163498099 73.1939163498099 -9999 -9999 -9999 -9999 52.3012552301255 52.3012552301255 50.9499136442142 50.9499136442142 50.9499136442142 50.9499136442142 59.0673575129534 59.0673575129534 59.0673575129534 30.5240410588871 27.7280858676207 24.6478873239437 24.6478873239437 30.5240410588871 30.5240410588871 30.5240410588871 30.5240410588871 30.5240410588871 23.4260614934114 23.4260614934114 23.4260614934114 26.9636576787808 26.9636576787808 15.7718120805369 15.7718120805369 15.7718120805369 18.8888888888889 18.8888888888889 16.8067226890756 16.8067226890756 16.8067226890756 16.548463356974 16.548463356974 16.548463356974 16.548463356974 16.548463356974 24.0384615384615 24.0384615384615 24.0384615384615 24.0384615384615 17.7165354330709 19.4394213381555 19.4394213381555 19.4394213381555 15.5786350148368 15.5786350148368 19.4394213381555 19.4394213381555 19.4394213381555 19.4394213381555 19.4394213381555 19.4394213381555 15.5786350148368 15.5786350148368 15.5786350148368 15.5786350148368 15.5786350148368 15.5786350148368 15.5786350148368 15.5786350148368 15.5786350148368 28.6195286195286 19.8776758409786 19.8776758409786 19.8776758409786 19.8776758409786 28.6458333333333 28.6458333333333 28.6458333333333 28.6458333333333 28.6458333333333 28.6458333333333 28.6458333333333 28.6458333333333 28.6458333333333 28.6458333333333 28.6458333333333 28.6458333333333 28.6458333333333 28.6458333333333 28.6458333333333 28.6458333333333 28.6458333333333 -9999 -9999 -9999 -9999 -9999 -9999 -9999 -9999 -9999 -9999 -9999 -9999 -9999 -9999 -9999 -9999 -9999 -9999 -9999 -9999 -9999 -9999 -9999 -9999 -9999 -9999 -9999 -9999 -9999 -9999 -9999 -9999 -9999 -9999 -9999 -9999 -9999 -9999 -9999 -9999 -9999 -9999 -9999 -9999 -9999 -9999 -9999 -9999 -9999 -9999 -9999 -9999 -9999 -9999 -9999 -9999 -9999 -9999 -9999 -9999 -9999 -9999 -9999 -9999 -9999 -9999 -9999 -9999 -9999 -9999 -9999 -9999 -9999 -9999 -9999 -9999 -9999 -9999 -9999 -9999 -9999 -9999 -9999 -9999 -9999 -9999 -9999 -9999 -9999 -9999 -9999 -9999 -9999 -9999 20.7986688851913 20.7986688851913 20.7986688851913 20.7986688851913 19.723865877712 19.723865877712 19.723865877712 19.723865877712 19.4029850746269 19.4029850746269 19.4029850746269 19.4029850746269 19.4029850746269 19.4029850746269 19.4029850746269 41.3907284768212 41.3907284768212 41.3907284768212 41.3907284768212 47.4452554744526 47.4452554744526 47.4452554744526 47.4452554744526 49.0909090909091 49.0909090909091 49.0909090909091 49.4186046511628 41.3306451612903 44.1558441558442 44.1558441558442 -9999 -9999 -9999 -9999 40.3225806451613 28.1173594132029 27.8184480234261 27.8184480234261 27.8184480234261 27.8184480234261 15.6903765690377 15.6903765690377 15.6903765690377 15.6903765690377 20.7581227436823 20.2808112324493 20.2808112324493 20.2808112324493 21.978021978022 21.978021978022 21.978021978022 21.978021978022 -9999 -9999 -9999 -9999 -9999 -9999 -9999 -9999 -9999 46.137339055794 36.2116991643454 36.2116991643454 38.3944153577661 38.3944153577661 41.9103313840156 41.9103313840156 50.2742230347349 50.2742230347349 56.0859188544153 56.0859188544153 53.3751962323391 56.2770562770563 56.2770562770563 70.4113924050633 70.4113924050633 70.4113924050633 64.7058823529412 64.7058823529412 65.2951699463327 65.2951699463327 53.4653465346535 53.4653465346535 53.4653465346535 53.4653465346535 53.4653465346535 53.4653465346535 53.4653465346535 53.4653465346535 53.4653465346535 53.4653465346535 53.4653465346535 53.4653465346535 53.4653465346535 53.4653465346535 53.4653465346535 53.4653465346535 53.4653465346535 -9999 -9999 -9999 -9999 -9999 -9999 -9999 -9999 -9999 -9999 -9999 -9999 -9999 -9999 -9999 -9999 -9999 -9999 -9999 -9999 -9999 -9999 -9999 -9999 -9999 -9999 -9999 -9999 -9999 -9999 -9999 -9999 -9999 -9999 -9999 -9999 -9999 -9999 -9999 -9999 -9999 -9999 -9999 -9999 -9999 -9999 -9999 -9999 -9999 -9999 -9999
-9999 -9999 -9999 -9999 -9999 -9999 -9999 -9999 -9999 -9999 -9999 -9999 -9999 -9999 -9999 -9999 -9999 -9999 -9999 -9999 -9999 -9999 -9999 -9999 -9999 -9999 -9999 -9999 -9999 -9999 73.1939163498099 73.1939163498099 73.1939163498099 73.1939163498099 73.1939163498099 73.1939163498099 73.1939163498099 73.1939163498099 73.1939163498099 73.1939163498099 63.5036496350365 63.5036496350365 63.5036496350365 63.5036496350365 63.5036496350365 63.5036496350365 63.5036496350365 63.5036496350365 63.5036496350365 63.5036496350365 63.5036496350365 63.5036496350365 63.5036496350365 63.5036496350365 63.5036496350365 63.5036496350365 63.5036496350365 63.5036496350365 63.5036496350365 63.5036496350365 63.5036496350365 63.5036496350365 63.5036496350365 63.5036496350365 63.5036496350365 63.5036496350365 63.5036496350365 63.5036496350365 63.5036496350365 63.5036496350365 63.5036496350365 63.5036496350365 63.5036496350365 63.5036496350365 63.5036496350365 63.5036496350365 71.4285714285714 71.4285714285714 63.5036496350365 71.4285714285714 71.4285714285714 -9999 73.1939163498099 73.1939163498099 -9999 -9999 -9999 52.3012552301255 52.3012552301255 50.9499136442142 50.9499136442142 50.9499136442142 50.9499136442142 59.0673575129534 59.0673575129534 59.0673575129534 59.0673575129534 59.0673575129534 27.7280858676207 27.7280858676207 27.7280858676207 24.6478873239437 24.6478873239437 24.6478873239437 27.3279352226721 27.3279352226721 23.4260614934114 23.4260614934114 23.4260614934114 23.4260614934114 26.9636576787808 26.9636576787808 26.9636576787808 18.8888888888889 18.8888888888889 18.8888888888889 18.8888888888889 -9999 -9999 -9999 16.548463356974 16.548463356974 16.548463356974 24.0384615384615 24.0384615384615 24.0384615384615 24.0384615384615 17.7165354330709 17.7165354330709 17.7165354330709 15.5786350148368 15.5786350148368 15.5786350148368 15.5786350148368 15.5786350148368 15.5786350148368 15.5786350148368 15.5786350148368 15.5786350148368 15.5786350148368 15.5786350148368 15.5786350148368 15.5786350148368 15.5786350148368 15.5786350148368 15.5786350148368 15.5786350148368 15.5786350148368 15.5786350148368 20.6440957886045 19.8776758409786 19.8776758409786 28.6458333333333 28.6458333333333 28.6458333333333 28.6458333333333 28.6458333333333 28.6458333333333 28.6458333333333 28.6458333333333 28.6458333333333 28.6458333333333 28.6458333333333 28.6458333333333 28.6458333333333 28.6458333333333 28.6458333333333 28.6458333333333 28.6458333333333 -9999 -9999 -9999 -9999 -9999 -9999 -9999 -9999 -9999 -9999 -9999 -9999 -9999 -9999 -9999 -9999 -9999 -9999 -9999 -9999 -9999 -9999 -9999 -9999 -9999 -9999 -9999 -9999 -9999 -9999 -9999 -9999 -9999 -9999 -9999 -9999 -9999 -9999 -9999 -9999 -9999 -9999 -9999 -9999 -9999 -9999 -9999 -9999 -9999 -9999 -9999 -9999 -9999 -9999 -9999 -9999 -9999 -9999 -9999 -9999 -9999 -9999 -9999 -9999 -9999 -9999 -9999 -9999 -9999 -9999 -9999 -9999 -9999 -9999 -9999 -9999 -9999 -9999 -9999 22.0082530949106 22.0082530949106 -9999 22.0082530949106 22.0082530949106 19.9034981905911 19.9034981905911 22.0082530949106 -9999 -9999 -9999 -9999 -9999 -9999 -9999 -9999 -9999 20.7986688851913 20.7986688851913 26.1780104712042 26.1780104712042 26.1780104712042 26.1780104712042 26.1780104712042 19.4029850746269 19.4029850746269 19.4029850746269 19.4029850746269 19.4029850746269 19.4029850746269 19.4029850746269 17.1673819742489 17.1673819742489 16.5184243964422 41.3907284768212 46.5616045845272 46.5616045845272 46.5616045845272 47.4452554744526 48.6202365308804 48.6202365308804 48.6202365308804 49.4186046511628 49.4186046511628 -9999 -9999 -9999 40.3225806451613 40.3225806451613 40.3225806451613 40.3225806451613 40.3225806451613 40.3225806451613 28.1173594132029 28.1173594132029 27.8184480234261 28.1173594132029 15.6903765690377 15.6903765690377 22.3463687150838 20.7581227436823 20.7581227436823 20.7581227436823 20.7581227436823 18.4757505773672 18.4757505773672 18.4757505773672 21.978021978022 21.978021978022 17.3357664233577 17.3357664233577 18.75 -9999 -9999 -9999 69.4029850746269 46.137339055794 46.137339055794 46.137339055794 65.173116089613 65.173116089613 65.173116089613 41.9103313840156 41.9103313840156 56.0859188544153 56.0859188544153 56.0859188544153 56.0859188544153 -9999 56.2770562770563 56.2770562770563 56.2770562770563 70.4113924050633 70.4113924050633 70.4113924050633 58.9080459770115 65.2951699463327 65.2951699463327 65.2951699463327 53.4653465346535 53.4653465346535 53.4653465346535 53.4653465346535 53.4653465346535 53.4653465346535 53.4653465346535 53.4653465346535 53.4653465346535 53.4653465346535 53.4653465346535 53.4653465346535 53.4653465346535 53.4653465346535 53.4653465346535 53.4653465346535 -9999 -9999 -9999 -9999 -9999 -9999 -9999 -9999 -9999 -9999 -9999 -9999 -9999 -9999 -9999 -9999 -9999 -9999 -9999 -9999 -9999 -9999 -9999 -9999 -9999 -9999 -9999 -9999 -9999 -9999 -9999 -9999 -9999 -9999 -9999 -9999 -9999 -9999 -9999 -9999 -9999 -9999 -9999 -9999 -9999 -9999 -9999 -9999 -9999 -9999 -9999 -9999
-9999 -9999 -9999 -9999 -9999 -9999 -9999 -9999 -9999 -9999 -9999 -9999 -9999 -9999 -9999 -9999 -9999 -9999 -9999 -9999 -9999 -9999 -9999 -9999 -9999 -9999 -9999 -9999 -9999 -9999 -9999 73.1939163498099 73.1939163498099 73.1939163498099 73.1939163498099 73.1939163498099 73.1939163498099 73.1939163498099 73.1939163498099 73.1939163498099 73.1939163498099 63.5036496350365 63.5036496350365 63.5036496350365 63.5036496350365 63.5036496350365 63.5036496350365 63.5036496350365 63.5036496350365 63.5036496350365 63.5036496350365 63.5036496350365 63.5036496350365 63.5036496350365 63.5036496350365 63.5036496350365 63.5036496350365 63.5036496350365 63.5036496350365 63.5036496350365 63.5036496350365 63.5036496350365 63.5036496350365 63.5036496350365 63.5036496350365 63.5036496350365 63.5036496350365 63.5036496350365 63.5036496350365 63.5036496350365 63.5036496350365 63.5036496350365 63.5036496350365 63.5036496350365 63.5036496350365 71.4285714285714 71.4285714285714 71.4285714285714 71.4285714285714 63.5036496350365 71.4285714285714 -9999 -9999 -9999 -9999 -9999 52.3012552301255 52.3012552301255 50.9499136442142 50.9499136442142 50.9499136442142 33.7349397590361 59.0673575129534 40.3050108932462 40.3050108932462 59.0673575129534 27.7280858676207 27.7280858676207 27.7280858676207 27.7280858676207 27.7280858676207 24.6478873239437 24.6478873239437 24.6478873239437 24.6478873239437 27.3279352226721 27.3279352226721 23.4260614934114 23.4260614934114 23.4260614934114 23.4260614934114 26.9636576787808 26.9636576787808 18.8888888888889 18.7768240343348 18.7768240343348 -9999 -9999 -9999 -9999 -9999 14.2543859649123 24.0384615384615 24.0384615384615 24.0384615384615 24.0384615384615 17.7165354330709 17.7165354330709 17.7165354330709 17.7165354330709 24.2248062015504 15.5786350148368 15.5786350148368 15.5786350148368 15.5786350148368 15.5786350148368 15.5786350148368 15.5786350148368 15.5786350148368 15.5786350148368 15.5786350148368 15.5786350148368 15.5786350148368 15.5786350148368 15.5786350148368 15.5786350148368 20.6440957886045 20.6440957886045 20.6440957886045 20.6440957886045 20.6440957886045 28.6458333333333 28.6458333333333 28.6458333333333 28.6458333333333 28.6458333333333 28.6458333333333 28.6458333333333 28.6458333333333 28.6458333333333 28.6458333333333 28.6458333333333 28.6458333333333 28.6458333333333 28.6458333333333 28.6458333333333 28.6458333333333 28.6458333333333 28.6458333333333 -9999 -9999 -9999 -9999 -9999 -9999 -9999 -9999 -9999 -9999 -9999 -9999 -9999 -9999 -9999 -9999 -9999 -9999 -9999 -9999 -9999 -9999 -9999 -9999 -9999 -9999 -9999 -9999 -9999 -9999 -9999 -9999 -9999 -9999 -9999 -9999 -9999 -9999 -9999 -9999 28.3203125 28.3203125 -9999 -9999 -9999 -9999 -9999 -9999 -9999 -9999 -9999 -9999 -9999 -9999 -9999 -9999 -9999 -9999 -9999 -9999 -9999 -9999 -9999 -9999 -9999 -9999 -9999 -9999 -9999 -9999 -9999 -9999 -9999 -9999 -9999 -9999 -9999 -9999 22.0082530949106 22.0082530949106 22.0082530949106 22.0082530949106 22.0082530949106 19.9034981905911 19.9034981905911 19.9034981905911 17.7664974619289 22.0082530949106 22.0082530949106 -9999 -9999 -9999 -9999 -9999 -9999 -9999 20.7986688851913 17.2413793103448 17.2413793103448 17.2413793103448 26.1780104712042 26.1780104712042 26.1780104712042 19.4029850746269 19.4029850746269 16.0984848484848 16.0984848484848 16.0984848484848 17.1673819742489 17.1673819742489 17.1673819742489 17.1673819742489 17.1673819742489 28.5326086956522 25.0737463126844 46.5616045845272 46.5616045845272 48.6202365308804 48.6202365308804 48.6202365308804 63.7982195845697 33.2594235033259 33.2594235033259 49.4186046511628 40.3225806451613 40.3225806451613 40.3225806451613 40.3225806451613 40.3225806451613 40.3225806451613 40.3225806451613 40.3225806451613 28.1173594132029 28.1173594132029 28.1173594132029 28.1173594132029 28.1173594132029 30.7086614173228 22.3463687150838 22.3463687150838 22.3463687150838 20.7581227436823 18.4757505773672 18.4757505773672 18.4757505773672 18.4757505773672 18.4757505773672 18.4757505773672 21.978021978022 18.75 -9999 -9999 69.4029850746269 69.4029850746269 63.1028938906752 63.1028938906752 63.1028938906752 65.173116089613 65.173116089613 65.173116089613 69.9815837937385 55.635838150289 55.635838150289 55.635838150289 55.635838150289 56.0859188544153 -9999 56.2770562770563 56.2770562770563 56.2770562770563 56.2770562770563 56.2770562770563 73.0769230769231 58.9080459770115 58.9080459770115 58.9080459770115 57.1227080394922 60.377358490566 60.377358490566 65.53911205074 65.53911205074 65.53911205074 53.4653465346535 53.4653465346535 53.4653465346535 53.4653465346535 53.4653465346535 53.4653465346535 53.4653465346535 53.4653465346535 53.4653465346535 53.4653465346535 53.4653465346535 53.4653465346535 -9999 -9999 -9999 -9999 -9999 -9999 -9999 -9999 -9999 -9999 -9999 -9999 -9999 -9999 -9999 -9999 -9999 -9999 -9999 -9999 -9999 -9999 -9999 -9999 -9999 -9999 -9999 -9999 -9999 -9999 -9999 -9999 -9999 -9999 -9999 -9999 -9999 -9999 -9999 -9999 -9999 -9999 -9999 -9999 -9999 -9999 -9999 -9999 -9999 -9999 -9999 -9999
-9999 -9999 -9999 -9999 -9999 -9999 -9999 -9999 -9999 -9999 -9999 -9999 -9999 -9999 -9999 -9999 -9999 -9999 -9999 -9999 -9999 -9999 -9999 -9999 -9999 -9999 -9999 -9999 -9999 -9999 -9999 73.1939163498099 73.1939163498099 73.1939163498099 73.1939163498099 73.1939163498099 73.1939163498099 73.1939163498099 73.1939163498099 73.1939163498099 73.1939163498099 73.1939163498099 63.5036496350365 63.5036496350365 63.5036496350365 63.5036496350365 63.5036496350365 63.5036496350365 63.5036496350365 63.5036496350365 63.5036496350365 63.5036496350365 63.5036496350365 63.5036496350365 63.5036496350365 63.5036496350365 63.5036496350365 63.5036496350365 63.5036496350365 63.5036496350365 63.5036496350365 63.5036496350365 63.5036496350365 63.5036496350365 63.5036496350365 63.5036496350365 63.5036496350365 63.5036496350365 63.5036496350365 63.5036496350365 63.5036496350365 63.5036496350365 71.4285714285714 63.5036496350365 71.4285714285714 63.5036496350365 71.4285714285714 71.4285714285714 71.4285714285714 -9999 -9999 -9999 -9999 -9999 -9999 52.3012552301255 52.3012552301255 50.9499136442142 50.9499136442142 50.9499136442142 33.7349397590361 33.7349397590361 33.7349397590361 40.3050108932462 40.3050108932462 40.3050108932462 40.3050108932462 27.7280858676207 24.0083507306889 24.0083507306889 24.0083507306889 24.0083507306889 24.6478873239437 24.6478873239437 24.6478873239437 27.3279352226721 27.3279352226721 27.3279352226721 23.4260614934114 23.4260614934114 23.4260614934114 27.2657450076805 18.8888888888889 18.7768240343348 18.7768240343348 18.7768240343348 18.7768240343348 18.7768240343348 -9999 -9999 14.2543859649123 14.2543859649123 16.0771704180064 16.0771704180064 16.0771704180064 17.7165354330709 17.7165354330709 17.7165354330709 24.2248062015504 24.2248062015504 24.2248062015504 24.2248062015504 15.5786350148368 15.5786350148368 15.5786350148368 15.5786350148368 15.5786350148368 15.5786350148368 15.5786350148368 15.5786350148368 15.5786350148368 15.5786350148368 15.5786350148368 15.5786350148368 20.6440957886045 20.6440957886045 20.6440957886045 20.6440957886045 20.6440957886045 20.6440957886045 20.6440957886045 20.6440957886045 28.6458333333333 28.6458333333333 28.6458333333333 28.6458333333333 28.6458333333333 28.6458333333333 28.6458333333333 28.6458333333333 28.6458333333333 28.6458333333333 28.6458333333333 28.6458333333333 28.6458333333333 28.6458333333333 28.6458333333333 28.6458333333333 28.6458333333333 28.6458333333333 -9999 -9999 -9999 -9999 -9999 -9999 -9999 -9999 -9999 -9999 -9999 -9999 -9999 -9999 -9999 -9999 -9999 -9999 -9999 -9999 -9999 -9999 -9999 -9999 -9999 -9999 -9999 -9999 -9999 -9999 -9999 -9999 -9999 -9999 -9999 -9999 -9999 28.3203125 28.3203125 28.3203125 28.3203125 28.3203125 28.3203125 -9999 -9999 -9999 -9999 -9999 -9999 -9999 -9999 -9999 -9999 -9999 -9999 -9999 -9999 -9999 -9999 -9999 -9999 -9999 -9999 -9999 -9999 -9999 -9999 -9999 -9999 -9999 -9999 -9999 -9999 -9999 -9999 -9999 -9999 22.0082530949106 22.0082530949106 22.0082530949106 22.0082530949106 22.0082530949106 19.9034981905911 19.9034981905911 17.7664974619289 17.7664974619289 -9999 -9999 -9999 -9999 -9999 -9999 -9999 -9999 -9999 20.7986688851913 17.2413793103448 17.2413793103448 17.2413793103448 17.2413793103448 26.1780104712042 25.7731958762887 25.7731958762887 25.7731958762887 16.0984848484848 16.0984848484848 16.0984848484848 16.0984848484848 16.0984848484848 16.0984848484848 17.1673819742489 28.5326086956522 28.5326086956522 28.5326086956522 28.5326086956522 25.0737463126844 42.1686746987952 42.1686746987952 42.7682737169518 42.7682737169518 63.7982195845697 63.7982195845697 33.2594235033259 46.2857142857143 41.6666666666667 40.3225806451613 40.3225806451613 40.3225806451613 40.3225806451613 49.7481108312343 40.3225806451613 28.1173594132029 28.1173594132029 28.1173594132029 28.1173594132029 30.7086614173228 30.7086614173228 30.7086614173228 30.7086614173228 22.3463687150838 25.2293577981651 25.2293577981651 25.2293577981651 18.4757505773672 18.4757505773672 18.4757505773672 18.75 18.75 -9999 -9999 69.4029850746269 69.4029850746269 63.1028938906752 63.1028938906752 63.1028938906752 66.8662674650699 66.8662674650699 66.8662674650699 69.9815837937385 69.9815837937385 69.9815837937385 55.635838150289 55.635838150289 55.635838150289 -9999 56.2770562770563 56.2770562770563 63.8686131386861 63.8686131386861 73.0769230769231 73.0769230769231 73.0769230769231 58.9080459770115 58.9080459770115 57.1227080394922 57.1227080394922 60.377358490566 60.377358490566 65.53911205074 65.53911205074 65.53911205074 53.4653465346535 53.4653465346535 53.4653465346535 53.4653465346535 53.4653465346535 53.4653465346535 53.4653465346535 53.4653465346535 53.4653465346535 53.4653465346535 53.4653465346535 53.4653465346535 -9999 -9999 -9999 -9999 -9999 -9999 -9999 -9999 -9999 -9999 -9999 -9999 -9999 -9999 -9999 -9999 -9999 -9999 -9999 -9999 -9999 -9999 -9999 -9999 -9999 -9999 -9999 -9999 -9999 -9999 -9999 -9999 -9999 -9999 -9999 -9999 -9999 -9999 -9999 -9999 -9999 -9999 -9999 -9999 -9999 -9999 -9999 -9999 -9999 -9999 -9999 -9999
-9999 -9999 -9999 -9999 -9999 -9999 -9999 -9999 -9999 -9999 -9999 -9999 -9999 -9999 -9999 -9999 -9999 -9999 -9999 -9999 -9999 -9999 -9999 -9999 -9999 -9999 -9999 -9999 73.1939163498099 73.1939163498099 73.1939163498099 73.1939163498099 73.1939163498099 73.1939163498099 73.1939163498099 73.1939163498099 73.1939163498099 73.1939163498099 73.1939163498099 73.1939163498099 73.1939163498099 73.1939163498099 73.1939163498099 63.5036496350365 63.5036496350365 63.5036496350365 63.5036496350365 63.5036496350365 63.5036496350365 63.5036496350365 63.5036496350365 63.5036496350365 63.5036496350365 63.5036496350365 63.5036496350365 63.5036496350365 63.5036496350365 63.5036496350365 63.5036496350365 63.5036496350365 63.5036496350365 63.5036496350365 63.5036496350365 63.5036496350365 63.5036496350365 63.5036496350365 63.5036496350365 63.5036496350365 63.5036496350365 71.4285714285714 71.4285714285714 71.4285714285714 71.4285714285714 71.4285714285714 63.5036496350365 71.4285714285714 71.4285714285714 -9999 -9999 -9999 -9999 -9999 -9999 -9999 55.6537102473498 52.3012552301255 50.9499136442142 50.9499136442142 50.9499136442142 33.7349397590361 33.7349397590361 33.7349397590361 40.3050108932462 40.3050108932462 40.3050108932462 33.4224598930481 40.3050108932462 40.3050108932462 27.4122807017544 27.4122807017544 24.0083507306889 24.0083507306889 24.0083507306889 27.3279352226721 27.3279352226721 27.3279352226721 27.3279352226721 23.4260614934114 27.2657450076805 27.2657450076805 27.2657450076805 27.2657450076805 27.2657450076805 18.8888888888889 18.8888888888889 18.7768240343348 18.7768240343348 21.0815765352887 21.0815765352887 21.0815765352887 14.2543859649123 14.2543859649123 14.2543859649123 16.0771704180064 16.0771704180064 16.0771704180064 27.8422273781903 24.2248062015504 24.2248062015504 24.2248062015504 24.2248062015504 24.2248062015504 24.2248062015504 15.5786350148368 15.5786350148368 15.5786350148368 15.5786350148368 15.5786350148368 15.5786350148368 15.5786350148368 15.5786350148368 15.5786350148368 20.6440957886045 20.6440957886045 20.6440957886045 20.6440957886045 20.6440957886045 20.6440957886045 20.6440957886045 20.6440957886045 20.6440957886045 20.6440957886045 20.6440957886045 28.6458333333333 28.6458333333333 28.6458333333333 28.6458333333333 28.6458333333333 28.6458333333333 28.6458333333333 28.6458333333333 28.6458333333333 28.6458333333333 28.6458333333333 28.6458333333333 28.6458333333333 28.6458333333333 28.6458333333333 28.6458333333333 28.6458333333333 28.6458333333333 28.6458333333333 -9999 -9999 -9999 -9999 -9999 -9999 -9999 -9999 -9999 -9999 -9999 -9999 -9999 -9999 -9999 -9999 -9999 -9999 -9999 -9999 -9999 -9999 -9999 -9999 -9999 -9999 -9999 -9999 -9999 -9999 -9999 -9999 -9999 -9999 28.3203125 28.3203125 28.3203125 28.3203125 28.3203125 28.3203125 28.3203125 28.3203125 28.3203125 -9999 -9999 -9999 -9999 -9999 -9999 -9999 -9999 -9999 -9999 -9999 -9999 -9999 -9999 -9999 -9999 -9999 -9999 -9999 -9999 -9999 -9999 -9999 -9999 -9999 -9999 -9999 -9999 -9999 -9999 -9999 -9999 22.0082530949106 22.0082530949106 22.0082530949106 22.0082530949106 22.0082530949106 22.0082530949106 19.9034981905911 -9999 -9999 17.7664974619289 -9999 -9999 -9999 -9999 17.6544766708701 -9999 23.5148514851485 23.5148514851485 26.9953051643192 20.7986688851913 17.2413793103448 17.2413793103448 26.1780104712042 26.1780104712042 25.7731958762887 25.7731958762887 25.7731958762887 25.7731958762887 16.0984848484848 16.0984848484848 16.0984848484848 16.0984848484848 22.2929936305732 22.2929936305732 22.2929936305732 22.2929936305732 28.5326086956522 31.7220543806647 31.7220543806647 31.7220543806647 40.3624382207578 40.3624382207578 47.2560975609756 47.2560975609756 46.2857142857143 46.2857142857143 46.2857142857143 46.2857142857143 41.6666666666667 -9999 -9999 -9999 40.3225806451613 49.7481108312343 49.7481108312343 49.7481108312343 38.8349514563107 28.6195286195286 28.6195286195286 28.6195286195286 28.6195286195286 30.7086614173228 23.4948604992658 25.2293577981651 25.2293577981651 25.2293577981651 19.1304347826087 18.4757505773672 -9999 -9999 -9999 -9999 59.6026490066225 59.6026490066225 59.5238095238095 59.5238095238095 59.5238095238095 63.1028938906752 66.8662674650699 71.1206896551724 71.1206896551724 71.1206896551724 63.1399317406143 69.9815837937385 69.9815837937385 66.8 -9999 62.1761658031088 62.1761658031088 62.1761658031088 63.8686131386861 63.3561643835616 63.3561643835616 73.0769230769231 63.3561643835616 55.2083333333333 57.1227080394922 53.9823008849557 53.9823008849557 55.5555555555556 55.5555555555556 50.9259259259259 50.9259259259259 50.9259259259259 59.2105263157895 59.2105263157895 53.4653465346535 53.4653465346535 53.4653465346535 53.4653465346535 53.4653465346535 53.4653465346535 53.4653465346535 53.4653465346535 53.4653465346535 -9999 -9999 -9999 -9999 -9999 -9999 -9999 -9999 -9999 -9999 -9999 -9999 -9999 -9999 -9999 -9999 -9999 -9999 -9999 -9999 -9999 -9999 -9999 -9999 -9999 -9999 -9999 -9999 -9999 -9999 -9999 -9999 -9999 -9999 -9999 -9999 -9999 -9999 -9999 -9999 -9999 -9999 -9999 -9999 -9999 -9999 -9999 -9999 -9999 -9999 -9999 -9999 -9999
-9999 -9999 -9999 -9999 -9999 -9999 -9999 -9999 -9999 -9999 -9999 -9999 -9999 -9999 -9999 -9999 -9999 -9999 -9999 -9999 -9999 -9999 -9999 -9999 -9999 -9999 -9999 73.1939163498099 73.1939163498099 73.1939163498099 73.1939163498099 73.1939163498099 73.1939163498099 73.1939163498099 73.1939163498099 73.1939163498099 73.1939163498099 -9999 73.1939163498099 73.1939163498099 73.1939163498099 73.1939163498099 71.4285714285714 71.4285714285714 71.4285714285714 63.5036496350365 63.5036496350365 63.5036496350365 63.5036496350365 63.5036496350365 63.5036496350365 63.5036496350365 63.5036496350365 63.5036496350365 63.5036496350365 63.5036496350365 63.5036496350365 63.5036496350365 63.5036496350365 63.5036496350365 63.5036496350365 63.5036496350365 63.5036496350365 63.5036496350365 63.5036496350365 71.4285714285714 71.4285714285714 71.4285714285714 71.4285714285714 71.4285714285714 71.4285714285714 71.4285714285714 71.4285714285714 71.4285714285714 71.4285714285714 71.4285714285714 -9999 -9999 -9999 -9999 -9999 -9999 -9999 -9999 55.6537102473498 44.7368421052632 50.9499136442142 33.7349397590361 33.7349397590361 33.7349397590361 36.4025695931477 36.4025695931477 33.7349397590361 33.4224598930481 33.4224598930481 33.4224598930481 30.03003003003 27.4122807017544 27.4122807017544 27.4122807017544 27.4122807017544 24.0083507306889 24.0083507306889 27.3279352226721 24.0083507306889 27.2657450076805 27.2657450076805 27.2657450076805 27.2657450076805 27.2657450076805 27.2657450076805 27.2657450076805 27.2657450076805 27.2657450076805 18.8888888888889 18.8888888888889 21.0815765352887 21.0815765352887 21.0815765352887 21.0815765352887 21.7142857142857 16.0771704180064 16.0771704180064 16.0771704180064 27.8422273781903 27.8422273781903 28.9017341040462 24.2248062015504 24.2248062015504 24.2248062015504 24.2248062015504 28.9017341040462 20.6440957886045 20.6440957886045 15.5786350148368 15.5786350148368 15.5786350148368 15.5786350148368 15.5786350148368 20.6440957886045 20.6440957886045 20.6440957886045 20.6440957886045 20.6440957886045 20.6440957886045 20.6440957886045 20.6440957886045 20.6440957886045 20.6440957886045 20.6440957886045 20.6440957886045 20.6440957886045 20.6440957886045 20.6440957886045 28.6458333333333 28.6458333333333 28.6458333333333 28.6458333333333 28.6458333333333 28.6458333333333 28.6458333333333 28.6458333333333 28.6458333333333 28.6458333333333 28.6458333333333 28.6458333333333 28.6458333333333 28.6458333333333 28.6458333333333 28.6458333333333 28.6458333333333 28.6458333333333 28.6458333333333 -9999 -9999 -9999 -9999 -9999 -9999 -9999 -9999 -9999 -9999 -9999 -9999 -9999 -9999 -9999 -9999 -9999 -9999 -9999 -9999 -9999 -9999 -9999 -9999 -9999 -9999 -9999 -9999 -9999 -9999 -9999 -9999 28.3203125 28.3203125 28.3203125 28.3203125 28.3203125 28.3203125 28.3203125 28.3203125 28.3203125 28.3203125 28.3203125 -9999 -9999 -9999 -9999 -9999 -9999 -9999 -9999 -9999 -9999 -9999 -9999 -9999 -9999 -9999 -9999 -9999 -9999 -9999 -9999 -9999 -9999 -9999 -9999 -9999 -9999 -9999 -9999 -9999 -9999 22.0082530949106 22.0082530949106 22.0082530949106 22.0082530949106 22.0082530949106 22.0082530949106 22.0082530949106 21.3815789473684 -9999 -9999 22.3367697594502 22.3367697594502 -9999 -9999 -9999 -9999 17.6544766708701 17.6544766708701 23.5148514851485 26.9953051643192 26.9953051643192 26.9953051643192 20.7986688851913 20.7986688851913 16.0075329566855 16.0075329566855 25.7731958762887 25.7731958762887 25.7731958762887 25.7731958762887 16.0984848484848 22.2929936305732 22.2929936305732 22.2929936305732 22.2929936305732 22.2929936305732 28.5326086956522 28.5326086956522 38.6178861788618 38.6178861788618 38.6178861788618 48.3304042179262 47.2560975609756 47.2560975609756 47.2560975609756 44.0705128205128 44.0705128205128 50.6430868167203 50.6430868167203 50.6430868167203 41.6666666666667 41.6666666666667 41.6666666666667 49.7481108312343 49.7481108312343 49.7481108312343 -9999 38.8349514563107 38.8349514563107 38.8349514563107 28.6195286195286 28.6195286195286 23.4948604992658 23.4948604992658 23.4948604992658 23.4948604992658 19.1304347826087 19.1304347826087 -9999 -9999 -9999 -9999 71.6911764705882 59.8755832037325 59.5238095238095 59.5238095238095 59.5238095238095 59.5238095238095 66.8 66.8 66.8 71.1206896551724 63.1399317406143 63.1399317406143 66.8 66.8 69.6969696969697 62.1761658031088 62.1761658031088 62.1761658031088 69.8529411764706 69.8529411764706 69.8529411764706 63.3561643835616 63.3561643835616 55.2083333333333 55.2083333333333 57.1227080394922 53.9823008849557 53.9823008849557 54.4412607449857 54.4412607449857 53.4653465346535 53.4653465346535 53.4653465346535 53.4653465346535 53.4653465346535 53.4653465346535 53.4653465346535 53.4653465346535 53.4653465346535 53.4653465346535 53.4653465346535 53.4653465346535 53.4653465346535 53.4653465346535 -9999 -9999 -9999 -9999 -9999 -9999 -9999 -9999 -9999 -9999 -9999 -9999 -9999 -9999 -9999 -9999 -9999 -9999 -9999 -9999 -9999 -9999 -9999 -9999 -9999 -9999 -9999 -9999 -9999 -9999 -9999 -9999 -9999 -9999 -9999 -9999 -9999 -9999 -9999 -9999 -9999 -9999 -9999 -9999 -9999 -9999 -9999 -9999 -9999 -9999 -9999 -9999 -9999
-9999 -9999 -9999 -9999 -9999 -9999 -9999 -9999 -9999 -9999 -9999 -9999 -9999 -9999 -9999 -9999 -9999 -9999 -9999 -9999 -9999 -9999 -9999 -9999 -9999 -9999 -9999 73.1939163498099 73.1939163498099 73.1939163498099 73.1939163498099 73.1939163498099 73.1939163498099 -9999 -9999 73.1939163498099 -9999 -9999 -9999 -9999 -9999 -9999 -9999 -9999 71.4285714285714 71.4285714285714 63.5036496350365 63.5036496350365 63.5036496350365 63.5036496350365 63.5036496350365 63.5036496350365 63.5036496350365 63.5036496350365 63.5036496350365 63.5036496350365 63.5036496350365 63.5036496350365 63.5036496350365 63.5036496350365 63.5036496350365 63.5036496350365 71.4285714285714 71.4285714285714 71.4285714285714 71.4285714285714 71.4285714285714 71.4285714285714 71.4285714285714 71.4285714285714 71.4285714285714 71.4285714285714 71.4285714285714 71.4285714285714 -9999 -9999 -9999 -9999 -9999 -9999 -9999 -9999 -9999 -9999 55.6537102473498 44.7368421052632 33.7349397590361 33.7349397590361 36.4025695931477 36.4025695931477 36.4025695931477 36.4025695931477 33.7349397590361 33.7349397590361 33.4224598930481 33.4224598930481 33.4224598930481 30.03003003003 27.4122807017544 27.4122807017544 27.4122807017544 27.4122807017544 24.0083507306889 23.0352303523035 27.8688524590164 27.8688524590164 27.8688524590164 27.2657450076805 27.2657450076805 27.2657450076805 27.2657450076805 27.2657450076805 27.2657450076805 27.2657450076805 20.5831903945111 21.7142857142857 21.0815765352887 21.0815765352887 21.0815765352887 21.7142857142857 21.7142857142857 21.7142857142857 27.8422273781903 27.8422273781903 27.8422273781903 28.9017341040462 28.9017341040462 28.9017341040462 24.2248062015504 28.9017341040462 20.6440957886045 20.6440957886045 20.6440957886045 20.6440957886045 20.6440957886045 15.5786350148368 15.5786350148368 20.6440957886045 20.6440957886045 20.6440957886045 20.6440957886045 20.6440957886045 20.6440957886045 20.6440957886045 20.6440957886045 20.6440957886045 20.6440957886045 20.6440957886045 20.6440957886045 20.6440957886045 20.6440957886045 20.6440957886045 20.6440957886045 20.6440957886045 20.6440957886045 28.6458333333333 28.6458333333333 28.6458333333333 28.6458333333333 28.6458333333333 28.6458333333333 28.6458333333333 28.6458333333333 28.6458333333333 28.6458333333333 28.6458333333333 28.6458333333333 28.6458333333333 28.6458333333333 28.6458333333333 28.6458333333333 28.6458333333333 28.6458333333333 28.6458333333333 -9999 -9999 -9999 -9999 -9999 -9999 -9999 -9999 -9999 -9999 -9999 -9999 -9999 -9999 -9999 -9999 -9999 -9999 -9999 -9999 -9999 -9999 -9999 -9999 -9999 -9999 -9999 -9999 -9999 -9999 28.3203125 28.3203125 28.3203125 28.3203125 28.3203125 28.3203125 28.3203125 28.3203125 28.3203125 28.3203125 28.3203125 28.3203125 28.3203125 28.3203125 -9999 -9999 -9999 -9999 -9999 -9999 -9999 -9999 -9999 -9999 -9999 -9999 -9999 -9999 -9999 -9999 -9999 -9999 -9999 -9999 -9999 -9999 -9999 -9999 -9999 -9999 -9999 -9999 22.0082530949106 22.0082530949106 22.0082530949106 22.0082530949106 22.0082530949106 22.0082530949106 22.0082530949106 21.3815789473684 21.3815789473684 21.3815789473684 22.3367697594502 22.3367697594502 22.3367697594502 22.3367697594502 -9999 23.5148514851485 23.5148514851485 17.6544766708701 23.5148514851485 23.5148514851485 26.9953051643192 26.9953051643192 26.9953051643192 20.3488372093023 20.3488372093023 16.0075329566855 16.0075329566855 16.0075329566855 16.0075329566855 25.7731958762887 25.7731958762887 25.7731958762887 25.7731958762887 40.7239819004525 31.4625850340136 31.4625850340136 31.4625850340136 31.4625850340136 31.4625850340136 31.4625850340136 38.6178861788618 48.3304042179262 48.3304042179262 48.3304042179262 48.4913793103448 48.4913793103448 44.0705128205128 44.0705128205128 47.1246006389776 50.6430868167203 50.6430868167203 39.8148148148148 41.6666666666667 41.6666666666667 41.6666666666667 33.0882352941176 -9999 -9999 -9999 38.8349514563107 38.8349514563107 31.3111545988258 31.3111545988258 23.4948604992658 23.4948604992658 17.8041543026706 17.8041543026706 17.8041543026706 17.8041543026706 -9999 -9999 71.6911764705882 71.6911764705882 59.8755832037325 59.8755832037325 -9999 -9999 -9999 66.8 66.8 66.8 66.8 66.8 66.8 66.8 69.6969696969697 69.6969696969697 69.6969696969697 69.8529411764706 69.8529411764706 69.8529411764706 69.8529411764706 69.8529411764706 59.1715976331361 55.2083333333333 55.2083333333333 60.5769230769231 59.1715976331361 53.9823008849557 54.4412607449857 54.4412607449857 53.4653465346535 53.4653465346535 53.4653465346535 53.4653465346535 53.4653465346535 53.4653465346535 53.4653465346535 53.4653465346535 53.4653465346535 53.4653465346535 53.4653465346535 53.4653465346535 53.4653465346535 -9999 -9999 -9999 -9999 -9999 -9999 -9999 -9999 -9999 -9999 -9999 -9999 -9999 -9999 -9999 -9999 -9999 -9999 -9999 -9999 -9999 -9999 -9999 -9999 -9999 -9999 -9999 -9999 -9999 -9999 -9999 -9999 -9999 -9999 -9999 -9999 -9999 -9999 -9999 -9999 -9999 -9999 -9999 -9999 -9999 -9999 -9999 -9999 -9999 -9999 -9999 -9999 -9999 -9999 -9999
-9999 -9999 -9999 -9999 -9999 -9999 -9999 -9999 -9999 -9999 -9999 -9999 -9999 -9999 -9999 -9999 -9999 -9999 -9999 -9999 -9999 -9999 -9999 -9999 -9999 -9999 -9999 -9999 -9999 -9999 -9999 -9999 -9999 -9999 -9999 -9999 -9999 -9999 -9999 -9999 -9999 -9999 -9999 -9999 -9999 71.4285714285714 71.4285714285714 63.5036496350365 63.5036496350365 63.5036496350365 63.5036496350365 63.5036496350365 63.5036496350365 63.5036496350365 63.5036496350365 63.5036496350365 63.5036496350365 71.4285714285714 71.4285714285714 71.4285714285714 71.4285714285714 71.4285714285714 71.4285714285714 71.4285714285714 71.4285714285714 71.4285714285714 71.4285714285714 71.4285714285714 71.4285714285714 71.4285714285714 71.4285714285714 71.4285714285714 71.4285714285714 -9999 -9999 -9999 -9999 -9999 -9999 -9999 -9999 -9999 -9999 55.6537102473498 55.6537102473498 44.7368421052632 33.7349397590361 30.2835051546392 30.2835051546392 30.2835051546392 36.4025695931477 36.4025695931477 36.4025695931477 33.7349397590361 33.7349397590361 33.4224598930481 33.4224598930481 30.03003003003 27.4122807017544 27.4122807017544 24.0083507306889 23.0352303523035 26.5486725663717 26.5486725663717 26.5486725663717 27.8688524590164 27.8688524590164 27.8688524590164 27.8688524590164 27.2657450076805 27.2657450076805 27.2657450076805 29.6495956873315 29.6495956873315 20.5831903945111 20.5831903945111 21.7142857142857 21.7142857142857 21.7142857142857 21.7142857142857 21.7142857142857 21.7142857142857 27.8422273781903 27.8422273781903 27.8422273781903 27.8422273781903 28.9017341040462 28.9017341040462 20.6440957886045 20.6440957886045 20.6440957886045 20.6440957886045 20.6440957886045 20.6440957886045 20.6440957886045 20.6440957886045 20.6440957886045 20.6440957886045 20.6440957886045 20.6440957886045 20.6440957886045 20.6440957886045 20.6440957886045 20.6440957886045 20.6440957886045 20.6440957886045 20.6440957886045 20.6440957886045 20.6440957886045 20.6440957886045 20.6440957886045 20.6440957886045 20.6440957886045 20.6440957886045 20.6440957886045 20.6440957886045 28.6458333333333 28.6458333333333 28.6458333333333 28.6458333333333 28.6458333333333 28.6458333333333 28.6458333333333 28.6458333333333 28.6458333333333 28.6458333333333 28.6458333333333 28.6458333333333 28.6458333333333 28.6458333333333 28.6458333333333 28.6458333333333 28.6458333333333 -9999 -9999 -9999 -9999 -9999 -9999 -9999 -9999 -9999 -9999 -9999 -9999 -9999 -9999 -9999 -9999 -9999 -9999 -9999 -9999 -9999 -9999 -9999 -9999 -9999 -9999 -9999 -9999 -9999 28.3203125 28.3203125 28.3203125 28.3203125 28.3203125 28.3203125 28.3203125 28.3203125 28.3203125 28.3203125 28.3203125 28.3203125 28.3203125 28.3203125 28.3203125 28.3203125 28.3203125 -9999 -9999 -9999 -9999 -9999 -9999 -9999 -9999 -9999 -9999 -9999 -9999 -9999 -9999 -9999 -9999 -9999 -9999 -9999 -9999 -9999 -9999 -9999 -9999 -9999 -9999 -9999 31.5126050420168 31.5126050420168 22.0082530949106 22.0082530949106 22.0082530949106 22.0082530949106 22.0082530949106 22.0082530949106 21.3815789473684 21.3815789473684 22.3367697594502 22.3367697594502 22.3367697594502 22.3367697594502 22.3367697594502 -9999 -9999 23.5148514851485 23.5148514851485 23.5148514851485 26.9953051643192 26.9953051643192 20.3488372093023 20.3488372093023 20.3488372093023 20.3488372093023 18.8848920863309 16.0075329566855 16.0075329566855 16.0075329566855 16.0075329566855 40.7239819004525 40.7239819004525 40.7239819004525 40.7239819004525 40.7239819004525 31.4625850340136 31.4625850340136 31.4625850340136 31.4625850340136 49.3697478991597 49.3697478991597 48.3304042179262 48.6641221374046 48.6641221374046 48.4913793103448 48.4913793103448 56.547619047619 47.1246006389776 47.1246006389776 47.1246006389776 39.8148148148148 39.8148148148148 39.8148148148148 28.75 35.6415478615071 35.6415478615071 33.0882352941176 -9999 24.8112189859763 24.8112189859763 24.8112189859763 24.8112189859763 24.8112189859763 24.8112189859763 17.8041543026706 17.8041543026706 17.8041543026706 17.8041543026706 17.8041543026706 59.3220338983051 71.6911764705882 71.6911764705882 71.6911764705882 71.6911764705882 62.5 62.5 -9999 -9999 -9999 66.8 66.8 66.8 66.8 69.6969696969697 69.6969696969697 69.6969696969697 69.6969696969697 69.6969696969697 69.6969696969697 69.6969696969697 59.1715976331361 59.1715976331361 59.1715976331361 59.1715976331361 59.1715976331361 59.1715976331361 59.1715976331361 53.4653465346535 53.4653465346535 53.4653465346535 53.4653465346535 53.4653465346535 53.4653465346535 53.4653465346535 53.4653465346535 53.4653465346535 53.4653465346535 53.4653465346535 53.4653465346535 53.4653465346535 53.4653465346535 -9999 -9999 -9999 -9999 -9999 -9999 -9999 -9999 -9999 -9999 -9999 -9999 -9999 -9999 -9999 -9999 -9999 -9999 -9999 -9999 -9999 -9999 -9999 -9999 -9999 -9999 -9999 -9999 -9999 -9999 -9999 -9999 -9999 -9999 -9999 -9999 -9999 -9999 -9999 -9999 -9999 -9999 -9999 -9999 -9999 -9999 -9999 -9999 -9999 -9999 -9999 -9999 -9999 -9999 -9999 -9999 -9999
-9999 -9999 -9999 -9999 -9999 -9999 -9999 -9999 -9999 -9999 -9999 -9999 -9999 -9999 -9999 -9999 -9999 -9999 -9999 -9999 -9999 -9999 -9999 -9999 -9999 -9999 -9999 -9999 -9999 -9999 -9999 -9999 -9999 -9999 -9999 -9999 -9999 -9999 -9999 -9999 -9999 45.7746478873239 -9999 -9999 -9999 71.4285714285714 71.4285714285714 71.4285714285714 63.5036496350365 63.5036496350365 63.5036496350365 63.5036496350365 63.5036496350365 71.4285714285714 71.4285714285714 71.4285714285714 71.4285714285714 71.4285714285714 71.4285714285714 71.4285714285714 71.4285714285714 71.4285714285714 71.4285714285714 71.4285714285714 71.4285714285714 71.4285714285714 71.4285714285714 71.4285714285714 71.4285714285714 71.4285714285714 71.4285714285714 71.4285714285714 71.4285714285714 -9999 -9999 -9999 -9999 -9999 -9999 -9999 -9999 -9999 55.6537102473498 55.6537102473498 55.6537102473498 44.8717948717949 44.8717948717949 30.9187279151943 30.2835051546392 30.2835051546392 21.889400921659 21.889400921659 21.889400921659 21.889400921659 21.889400921659 25.9117082533589 30.03003003003 30.03003003003 30.03003003003 23.0352303523035 23.0352303523035 23.0352303523035 23.0352303523035 26.5486725663717 26.5486725663717 27.8688524590164 27.8688524590164 27.8688524590164 27.8688524590164 27.8688524590164 29.6495956873315 29.6495956873315 29.6495956873315 29.6495956873315 20.5831903945111 20.5831903945111 20.5831903945111 21.7142857142857 21.7142857142857 21.7142857142857 21.7142857142857 21.7142857142857 27.8422273781903 27.8422273781903 27.8422273781903 28.9017341040462 20.6440957886045 20.6440957886045 20.6440957886045 20.6440957886045 20.6440957886045 20.6440957886045 20.6440957886045 20.6440957886045 20.6440957886045 20.6440957886045 20.6440957886045 20.6440957886045 20.6440957886045 20.6440957886045 20.6440957886045 20.6440957886045 20.6440957886045 20.6440957886045 20.6440957886045 20.6440957886045 20.6440957886045 20.6440957886045 20.6440957886045 20.6440957886045 20.6440957886045 20.6440957886045 20.6440957886045 20.6440957886045 20.6440957886045 20.6440957886045 20.6440957886045 28.6458333333333 28.6458333333333 28.6458333333333 28.6458333333333 28.6458333333333 28.6458333333333 28.6458333333333 28.6458333333333 28.6458333333333 28.6458333333333 28.6458333333333 28.6458333333333 28.6458333333333 28.6458333333333 28.6458333333333 28.6458333333333 -9999 -9999 -9999 -9999 -9999 -9999 -9999 -9999 -9999 -9999 -9999 -9999 -9999 -9999 -9999 -9999 -9999 -9999 -9999 -9999 -9999 -9999 -9999 -9999 -9999 -9999 -9999 -9999 28.3203125 28.3203125 28.3203125 28.3203125 28.3203125 28.3203125 28.3203125 28.3203125 28.3203125 28.3203125 28.3203125 28.3203125 28.3203125 28.3203125 28.3203125 28.3203125 28.3203125 28.3203125 28.3203125 28.3203125 -9999 -9999 -9999 -9999 -9999 -9999 -9999 -9999 -9999 -9999 -9999 -9999 -9999 -9999 -9999 -9999 -9999 -9999 -9999 -9999 -9999 -9999 -9999 -9999 -9999 31.5126050420168 31.5126050420168 31.5126050420168 31.5126050420168 31.5126050420168 22.0082530949106 22.0082530949106 22.0082530949106 22.0082530949106 22.0082530949106 22.3367697594502 22.3367697594502 22.3367697594502 22.3367697594502 -9999 -9999 -9999 31.7164179104478 31.7164179104478 23.2974910394265 23.2974910394265 28.0898876404494 28.0898876404494 28.0898876404494 20.3488372093023 20.3488372093023 18.8848920863309 18.8848920863309 18.8848920863309 28.290282902829 28.290282902829 28.290282902829 28.290282902829 40.7239819004525 40.7239819004525 40.7239819004525 40.7239819004525 40.7239819004525 31.4625850340136 45.1541850220264 45.1541850220264 49.3697478991597 41.5676959619952 41.5676959619952 48.6641221374046 48.6641221374046 59.8669623059867 56.547619047619 56.547619047619 56.547619047619 47.1246006389776 60.9929078014184 60.9929078014184 39.8148148148148 39.8148148148148 39.8148148148148 28.75 28.75 29.3103448275862 24.8112189859763 24.8112189859763 24.8112189859763 24.8112189859763 24.8112189859763 30.9568480300188 30.9568480300188 30.9568480300188 30.9568480300188 30.9568480300188 59.3220338983051 59.3220338983051 59.3220338983051 59.3220338983051 71.6911764705882 62.5 62.5 76.3500931098696 76.5027322404372 76.5027322404372 74.0740740740741 66.8 66.8 66.8 69.6969696969697 69.6969696969697 69.6969696969697 69.6969696969697 69.6969696969697 69.6969696969697 67.7506775067751 67.7506775067751 69.7522816166884 69.7522816166884 59.1715976331361 59.1715976331361 52.5 52.5 59.1715976331361 53.4653465346535 53.4653465346535 53.4653465346535 53.4653465346535 53.4653465346535 53.4653465346535 53.4653465346535 53.4653465346535 53.4653465346535 53.4653465346535 53.4653465346535 53.4653465346535 -9999 -9999 -9999 68.4981684981685 61.8908382066277 61.8908382066277 61.8908382066277 61.8908382066277 -9999 -9999 -9999 -9999 -9999 -9999 -9999 -9999 -9999 -9999 -9999 -9999 -9999 -9999 -9999 -9999 -9999 -9999 -9999 -9999 -9999 -9999 -9999 -9999 -9999 -9999 -9999 -9999 -9999 -9999 -9999 -9999 -9999 -9999 -9999 -9999 -9999 -9999 -9999 -9999 -9999 -9999 -9999 -9999 -9999 -9999 -9999 -9999 -9999 -9999 -9999
-9999 -9999 -9999 -9999 -9999 -9999 -9999 -9999 -9999 -9999 -9999 -9999 -9999 -9999 -9999 -9999 -9999 -9999 -9999 -9999 -9999 -9999 -9999 -9999 -9999 -9999 -9999 -9999 -9999 -9999 -9999 -9999 -9999 -9999 45.7746478873239 45.7746478873239 45.7746478873239 45.7746478873239 45.7746478873239 45.7746478873239 45.7746478873239 45.7746478873239 -9999 -9999 -9999 -9999 -9999 -9999 71.4285714285714 71.4285714285714 71.4285714285714 71.4285714285714 71.4285714285714 71.4285714285714 71.4285714285714 71.4285714285714 71.4285714285714 71.4285714285714 71.4285714285714 71.4285714285714 71.4285714285714 71.4285714285714 71.4285714285714 71.4285714285714 71.4285714285714 71.4285714285714 71.4285714285714 71.4285714285714 71.4285714285714 71.4285714285714 71.4285714285714 71.4285714285714 -9999 -9999 -9999 -9999 -9999 -9999 -9999 -9999 -9999 55.6537102473498 55.6537102473498 55.6537102473498 44.8717948717949 44.8717948717949 30.9187279151943 30.2835051546392 30.2835051546392 30.2835051546392 21.889400921659 21.889400921659 21.889400921659 21.889400921659 25.9117082533589 25.9117082533589 35.5603448275862 35.5603448275862 35.5603448275862 16.7597765363128 23.0352303523035 23.0352303523035 16.7597765363128 16.7597765363128 27.8688524590164 27.8688524590164 27.8688524590164 27.8688524590164 27.8688524590164 25.6673511293634 29.6495956873315 29.6495956873315 25.6673511293634 20.5831903945111 20.5831903945111 20.5831903945111 26.3653483992467 26.3653483992467 21.7142857142857 21.7142857142857 21.7142857142857 27.8422273781903 27.8422273781903 28.9017341040462 20.6440957886045 20.6440957886045 20.6440957886045 20.6440957886045 20.6440957886045 20.6440957886045 20.6440957886045 20.6440957886045 20.6440957886045 20.6440957886045 20.6440957886045 20.6440957886045 20.6440957886045 20.6440957886045 20.6440957886045 20.6440957886045 20.6440957886045 20.6440957886045 20.6440957886045 20.6440957886045 20.6440957886045 20.6440957886045 20.6440957886045 20.6440957886045 20.6440957886045 20.6440957886045 20.6440957886045 20.6440957886045 20.6440957886045 20.6440957886045 20.6440957886045 20.6440957886045 20.6440957886045 20.6440957886045 28.6458333333333 28.6458333333333 28.6458333333333 28.6458333333333 28.6458333333333 28.6458333333333 28.6458333333333 28.6458333333333 28.6458333333333 28.6458333333333 28.6458333333333 28.6458333333333 28.6458333333333 28.6458333333333 28.6458333333333 28.6458333333333 -9999 -9999 -9999 -9999 -9999 -9999 -9999 -9999 -9999 -9999 -9999 -9999 -9999 -9999 -9999 -9999 -9999 -9999 -9999 -9999 -9999 -9999 -9999 -9999 -9999 -9999 28.3203125 28.3203125 28.3203125 28.3203125 28.3203125 28.3203125 28.3203125 28.3203125 28.3203125 28.3203125 28.3203125 28.3203125 28.3203125 28.3203125 28.3203125 28.3203125 28.3203125 28.3203125 28.3203125 28.3203125 28.3203125 28.3203125 -9999 -9999 -9999 -9999 -9999 -9999 -9999 -9999 -9999 -9999 -9999 -9999 -9999 -9999 -9999 -9999 -9999 -9999 -9999 -9999 -9999 -9999 -9999 31.5126050420168 31.5126050420168 31.5126050420168 31.5126050420168 31.5126050420168 31.5126050420168 31.5126050420168 31.5126050420168 31.5126050420168 31.5126050420168 -9999 -9999 22.3367697594502 22.3367697594502 -9999 -9999 -9999 31.7164179104478 31.7164179104478 31.7164179104478 23.2974910394265 28.0898876404494 28.0898876404494 28.0898876404494 28.0898876404494 27.3069679849341 27.3069679849341 20.3488372093023 11.9549929676512 11.9549929676512 28.290282902829 28.290282902829 28.290282902829 28.290282902829 26.4452644526445 26.4452644526445 26.4452644526445 40.7239819004525 40.7239819004525 31.1355311355311 45.1541850220264 45.1541850220264 40.1929260450161 40.1929260450161 41.5676959619952 41.5676959619952 45.0391644908616 59.8669623059867 59.8669623059867 59.8669623059867 56.547619047619 60.9929078014184 60.9929078014184 45.0643776824034 45.0643776824034 45.0643776824034 45.0643776824034 33.7677725118483 33.7677725118483 29.3103448275862 29.3103448275862 29.3103448275862 29.3103448275862 30.9568480300188 30.9568480300188 30.9568480300188 30.9568480300188 30.9568480300188 30.9568480300188 -9999 59.3220338983051 59.3220338983051 59.3220338983051 62.5 75.3676470588235 75.3676470588235 76.3500931098696 76.3500931098696 76.3500931098696 76.3500931098696 74.0740740740741 74.0740740740741 74.0740740740741 69.6969696969697 69.6969696969697 69.6969696969697 69.6969696969697 69.6969696969697 69.6969696969697 69.6969696969697 67.7506775067751 67.7506775067751 69.7522816166884 69.7522816166884 69.7522816166884 69.7522816166884 69.7522816166884 59.1715976331361 53.4653465346535 53.4653465346535 53.4653465346535 53.4653465346535 53.4653465346535 53.4653465346535 53.4653465346535 53.4653465346535 53.4653465346535 53.4653465346535 53.4653465346535 -9999 -9999 -9999 -9999 68.4981684981685 61.8908382066277 61.8908382066277 61.8908382066277 61.8908382066277 61.8908382066277 61.8908382066277 -9999 -9999 -9999 -9999 -9999 -9999 -9999 -9999 -9999 -9999 -9999 -9999 -9999 -9999 -9999 -9999 -9999 -9999 -9999 -9999 -9999 -9999 -9999 -9999 -9999 -9999 -9999 -9999 -9999 -9999 -9999 -9999 -9999 -9999 -9999 -9999 -9999 -9999 -9999 -9999 -9999 -9999 -9999 -9999 -9999 -9999 -9999 -9999 -9999 -9999
-9999 -9999 -9999 -9999 -9999 -9999 -9999 -9999 -9999 -9999 -9999 -9999 -9999 -9999 -9999 -9999 -9999 -9999 -9999 -9999 -9999 -9999 -9999 -9999 -9999 -9999 -9999 -9999 -9999 -9999 -9999 -9999 45.7746478873239 45.7746478873239 45.7746478873239 45.7746478873239 45.7746478873239 45.7746478873239 45.7746478873239 45.7746478873239 45.7746478873239 45.7746478873239 45.7746478873239 -9999 -9999 -9999 -9999 -9999 71.4285714285714 71.4285714285714 71.4285714285714 71.4285714285714 71.4285714285714 71.4285714285714 71.4285714285714 71.4285714285714 71.4285714285714 71.4285714285714 71.4285714285714 71.4285714285714 71.4285714285714 71.4285714285714 71.4285714285714 -9999 -9999 -9999 -9999 -9999 -9999 -9999 -9999 -9999 -9999 -9999 -9999 -9999 -9999 45.7746478873239 45.7746478873239 45.7746478873239 45.7746478873239 55.6537102473498 44.8717948717949 30.9187279151943 30.9187279151943 30.9187279151943 30.9187279151943 30.2835051546392 30.2835051546392 30.2835051546392 30.2835051546392 21.889400921659 25.9117082533589 25.9117082533589 25.9117082533589 25.9117082533589 25.9117082533589 35.9281437125749 35.9281437125749 35.9281437125749 16.7597765363128 16.7597765363128 16.7597765363128 16.7597765363128 16.7597765363128 16.7597765363128 19.0380761523046 27.8688524590164 25.6673511293634 25.6673511293634 25.6673511293634 25.6673511293634 25.6673511293634 25.6673511293634 26.3653483992467 26.3653483992467 21.6216216216216 26.3653483992467 26.3653483992467 28.9017341040462 28.9017341040462 28.9017341040462 20.6440957886045 20.6440957886045 20.6440957886045 20.6440957886045 20.6440957886045 20.6440957886045 20.6440957886045 20.6440957886045 20.6440957886045 20.6440957886045 20.6440957886045 20.6440957886045 20.6440957886045 20.6440957886045 20.6440957886045 20.6440957886045 20.6440957886045 20.6440957886045 20.6440957886045 20.6440957886045 20.6440957886045 20.6440957886045 20.6440957886045 20.6440957886045 20.6440957886045 20.6440957886045 20.6440957886045 20.6440957886045 20.6440957886045 20.6440957886045 20.6440957886045 20.6440957886045 20.6440957886045 20.6440957886045 20.6440957886045 20.6440957886045 20.6440957886045 28.6458333333333 28.6458333333333 28.6458333333333 28.6458333333333 28.6458333333333 28.6458333333333 28.6458333333333 28.6458333333333 28.6458333333333 28.6458333333333 28.6458333333333 28.6458333333333 28.6458333333333 28.6458333333333 28.6458333333333 28.6458333333333 -9999 -9999 -9999 -9999 -9999 -9999 -9999 -9999 -9999 -9999 -9999 -9999 -9999 -9999 -9999 -9999 -9999 -9999 -9999 -9999 -9999 -9999 -9999 28.3203125 28.3203125 28.3203125 28.3203125 28.3203125 28.3203125 28.3203125 28.3203125 28.3203125 28.3203125 28.3203125 28.3203125 28.3203125 28.3203125 28.3203125 28.3203125 28.3203125 28.3203125 28.3203125 28.3203125 28.3203125 28.3203125 71.0823909531502 71.0823909531502 71.0823909531502 71.0823909531502 -9999 -9999 -9999 -9999 -9999 -9999 -9999 -9999 -9999 -9999 -9999 -9999 -9999 -9999 -9999 -9999 -9999 -9999 -9999 -9999 -9999 31.5126050420168 31.5126050420168 31.5126050420168 31.5126050420168 31.5126050420168 31.5126050420168 31.5126050420168 31.5126050420168 31.5126050420168 -9999 -9999 -9999 -9999 -9999 -9999 -9999 29.6523517382413 29.6523517382413 29.6523517382413 31.7164179104478 23.2974910394265 28.0898876404494 28.0898876404494 28.0898876404494 15.7342657342657 15.7342657342657 15.7342657342657 11.9549929676512 11.9549929676512 11.9549929676512 27.3069679849341 27.3069679849341 27.3069679849341 28.290282902829 26.4452644526445 26.4452644526445 35.5871886120996 26.4452644526445 35.5871886120996 31.1355311355311 31.1355311355311 41.2698412698413 40.1929260450161 40.1929260450161 40.1929260450161 45.0391644908616 45.0391644908616 45.0391644908616 45.0391644908616 45.0391644908616 60.9929078014184 60.9929078014184 45.0643776824034 45.0643776824034 45.0643776824034 37.8151260504202 33.7677725118483 33.7677725118483 33.7677725118483 33.7677725118483 33.7677725118483 30.9568480300188 30.9568480300188 30.9568480300188 30.9568480300188 30.9568480300188 30.9568480300188 -9999 -9999 59.3220338983051 59.3220338983051 41.5860735009671 73.8831615120275 75.3676470588235 75.3676470588235 75.3676470588235 80.7860262008734 80.7860262008734 74.0740740740741 74.0740740740741 74.0740740740741 74.0740740740741 69.6969696969697 69.6969696969697 69.6969696969697 69.6969696969697 69.6969696969697 69.6969696969697 69.6969696969697 69.6969696969697 67.7506775067751 66.9811320754717 66.9811320754717 61.9546247818499 61.9546247818499 61.9546247818499 58.7371512481645 58.2788671023965 58.2788671023965 53.4653465346535 53.4653465346535 53.4653465346535 53.4653465346535 53.4653465346535 53.4653465346535 53.4653465346535 53.4653465346535 -9999 -9999 -9999 -9999 68.4981684981685 68.4981684981685 61.8908382066277 61.8908382066277 61.8908382066277 61.8908382066277 61.8908382066277 61.8908382066277 61.8908382066277 61.8908382066277 -9999 -9999 -9999 -9999 -9999 -9999 -9999 -9999 -9999 -9999 -9999 -9999 -9999 -9999 -9999 -9999 -9999 -9999 -9999 -9999 -9999 -9999 -9999 -9999 -9999 -9999 -9999 -9999 -9999 -9999 -9999 -9999 -9999 -9999 -9999 -9999 -9999 -9999 -9999 -9999 -9999 -9999 -9999 -9999 -9999 -9999 -9999 -9999 -9999
-9999 -9999 -9999 -9999 -9999 -9999 -9999 -9999 -9999 -9999 -9999 -9999 -9999 -9999 -9999 -9999 -9999 -9999 -9999 -9999 -9999 -9999 -9999 -9999 -9999 -9999 -9999 -9999 -9999 -9999 -9999 45.7746478873239 45.7746478873239 45.7746478873239 45.7746478873239 45.7746478873239 45.7746478873239 45.7746478873239 45.7746478873239 45.7746478873239 45.7746478873239 45.7746478873239 45.7746478873239 45.7746478873239 45.7746478873239 -9999 -9999 -9999 -9999 -9999 71.4285714285714 71.4285714285714 71.4285714285714 71.4285714285714 71.4285714285714 71.4285714285714 71.4285714285714 71.4285714285714 71.4285714285714 71.4285714285714 71.4285714285714 71.4285714285714 71.4285714285714 -9999 -9999 -9999 -9999 -9999 -9999 -9999 -9999 -9999 -9999 -9999 -9999 -9999 45.7746478873239 45.7746478873239 32.2003577817531 45.7746478873239 32.2003577817531 32.2003577817531 30.6930693069307 30.9187279151943 30.9187279151943 30.9187279151943 28.2199710564399 28.2199710564399 30.2835051546392 28.2199710564399 28.2199710564399 28.2199710564399 35.5603448275862 25.9117082533589 35.5603448275862 25.9117082533589 35.5603448275862 35.9281437125749 35.9281437125749 35.9281437125749 35.9281437125749 16.7597765363128 16.7597765363128 16.7597765363128 16.7597765363128 19.0380761523046 19.0380761523046 19.0380761523046 16.548463356974 16.548463356974 16.548463356974 25.6673511293634 26.3653483992467 26.3653483992467 21.6216216216216 21.6216216216216 21.6216216216216 21.6216216216216 26.3653483992467 26.3653483992467 20.6440957886045 20.6440957886045 20.6440957886045 20.6440957886045 20.6440957886045 20.6440957886045 20.6440957886045 20.6440957886045 20.6440957886045 20.6440957886045 20.6440957886045 20.6440957886045 20.6440957886045 20.6440957886045 20.6440957886045 20.6440957886045 20.6440957886045 20.6440957886045 20.6440957886045 20.6440957886045 20.6440957886045 20.6440957886045 20.6440957886045 20.6440957886045 20.6440957886045 20.6440957886045 20.6440957886045 20.6440957886045 20.6440957886045 20.6440957886045 20.6440957886045 20.6440957886045 20.6440957886045 20.6440957886045 20.6440957886045 20.6440957886045 20.6440957886045 20.6440957886045 20.6440957886045 20.6440957886045 28.6458333333333 28.6458333333333 28.6458333333333 28.6458333333333 28.6458333333333 28.6458333333333 28.6458333333333 28.6458333333333 28.6458333333333 28.6458333333333 28.6458333333333 28.6458333333333 28.6458333333333 28.6458333333333 28.6458333333333 28.6458333333333 -9999 -9999 -9999 -9999 -9999 -9999 -9999 -9999 -9999 -9999 -9999 -9999 -9999 -9999 -9999 -9999 -9999 -9999 -9999 -9999 -9999 28.3203125 28.3203125 28.3203125 28.3203125 28.3203125 28.3203125 28.3203125 28.3203125 28.3203125 28.3203125 28.3203125 28.3203125 28.3203125 28.3203125 28.3203125 28.3203125 28.3203125 28.3203125 28.3203125 28.3203125 28.3203125 28.3203125 71.0823909531502 71.0823909531502 71.0823909531502 71.0823909531502 71.0823909531502 71.0823909531502 71.0823909531502 -9999 -9999 -9999 -9999 -9999 -9999 -9999 -9999 -9999 71.0823909531502 -9999 -9999 -9999 -9999 -9999 -9999 -9999 -9999 -9999 31.5126050420168 31.5126050420168 31.5126050420168 31.5126050420168 31.5126050420168 31.5126050420168 31.5126050420168 31.5126050420168 -9999 -9999 -9999 -9999 -9999 -9999 -9999 -9999 29.6523517382413 29.6523517382413 29.6523517382413 29.6523517382413 23.2974910394265 28.0898876404494 28.0898876404494 28.0898876404494 15.7342657342657 15.7342657342657 24.3531202435312 24.3531202435312 24.3531202435312 20.5371248025276 20.5371248025276 20.5371248025276 27.3069679849341 24.4479495268139 24.4479495268139 26.4452644526445 26.4452644526445 27.9642058165548 35.5871886120996 35.5871886120996 35.1629502572899 41.2698412698413 41.2698412698413 41.2698412698413 45.0391644908616 45.0391644908616 45.0391644908616 45.0391644908616 45.0391644908616 40.0340715502555 40.0340715502555 40.0340715502555 45.0643776824034 31.8518518518519 31.8518518518519 37.8151260504202 37.8151260504202 37.8151260504202 33.7677725118483 32.5278810408922 32.5278810408922 30.9568480300188 30.9568480300188 30.9568480300188 30.9568480300188 30.9568480300188 -9999 -9999 -9999 41.5860735009671 41.5860735009671 73.8831615120275 73.8831615120275 73.8831615120275 71.0108604845447 80.7860262008734 74.0740740740741 74.0740740740741 74.0740740740741 74.0740740740741 -9999 69.6969696969697 69.6969696969697 69.6969696969697 69.6969696969697 -9999 69.6969696969697 69.6969696969697 69.6969696969697 69.6969696969697 74.7747747747748 74.7747747747748 66.9811320754717 64.7727272727273 64.7727272727273 58.7371512481645 58.2788671023965 58.2788671023965 58.2788671023965 58.2788671023965 58.2788671023965 53.4653465346535 53.4653465346535 53.4653465346535 53.4653465346535 -9999 -9999 -9999 -9999 -9999 68.4981684981685 68.4981684981685 61.8908382066277 61.8908382066277 61.8908382066277 61.8908382066277 61.8908382066277 61.8908382066277 61.8908382066277 61.8908382066277 61.8908382066277 -9999 -9999 -9999 -9999 -9999 -9999 -9999 -9999 -9999 -9999 -9999 -9999 -9999 -9999 -9999 -9999 -9999 -9999 -9999 -9999 -9999 -9999 -9999 -9999 -9999 -9999 -9999 -9999 -9999 -9999 -9999 -9999 -9999 -9999 -9999 -9999 -9999 -9999 -9999 -9999 -9999 -9999 -9999 -9999 -9999 -9999 -9999 -9999 -9999
-9999 -9999 -9999 -9999 -9999 -9999 -9999 -9999 -9999 -9999 -9999 -9999 -9999 -9999 -9999 -9999 -9999 -9999 -9999 -9999 -9999 -9999 -9999 -9999 -9999 -9999 -9999 -9999 -9999 -9999 45.7746478873239 45.7746478873239 45.7746478873239 45.7746478873239 45.7746478873239 45.7746478873239 45.7746478873239 45.7746478873239 45.7746478873239 45.7746478873239 45.7746478873239 45.7746478873239 45.7746478873239 45.7746478873239 45.7746478873239 -9999 -9999 -9999 -9999 -9999 -9999 -9999 -9999 71.4285714285714 71.4285714285714 71.4285714285714 -9999 -9999 -9999 -9999 71.4285714285714 71.4285714285714 71.4285714285714 71.4285714285714 -9999 -9999 -9999 -9999 -9999 -9999 -9999 -9999 -9999 -9999 49.2957746478873 49.2957746478873 49.2957746478873 45.7746478873239 49.2957746478873 32.2003577817531 32.2003577817531 32.2003577817531 30.6930693069307 30.9187279151943 30.9187279151943 28.2199710564399 28.2199710564399 28.2199710564399 28.2199710564399 28.2199710564399 28.2199710564399 28.2199710564399 28.2199710564399 35.5603448275862 35.5603448275862 35.5603448275862 35.9281437125749 35.9281437125749 35.9281437125749 35.9281437125749 30.8285163776493 30.8285163776493 19.0380761523046 19.0380761523046 19.0380761523046 19.0380761523046 19.0380761523046 19.0380761523046 16.548463356974 16.548463356974 26.3653483992467 26.3653483992467 26.7665952890792 21.6216216216216 21.6216216216216 21.6216216216216 21.6216216216216 26.3653483992467 -9999 23.7730061349693 23.7730061349693 20.6440957886045 20.6440957886045 20.6440957886045 20.6440957886045 20.6440957886045 20.6440957886045 20.6440957886045 20.6440957886045 20.6440957886045 20.6440957886045 20.6440957886045 20.6440957886045 20.6440957886045 20.6440957886045 20.6440957886045 20.6440957886045 20.6440957886045 20.6440957886045 20.6440957886045 20.6440957886045 20.6440957886045 20.6440957886045 20.6440957886045 20.6440957886045 20.6440957886045 20.6440957886045 20.6440957886045 20.6440957886045 20.6440957886045 20.6440957886045 20.6440957886045 20.6440957886045 20.6440957886045 20.6440957886045 20.6440957886045 20.6440957886045 20.6440957886045 20.6440957886045 20.6440957886045 20.6440957886045 28.6458333333333 28.6458333333333 28.6458333333333 28.6458333333333 28.6458333333333 28.6458333333333 28.6458333333333 28.6458333333333 28.6458333333333 28.6458333333333 28.6458333333333 28.6458333333333 28.6458333333333 28.6458333333333 28.6458333333333 28.6458333333333 -9999 -9999 -9999 -9999 -9999 -9999 -9999 -9999 -9999 -9999 -9999 -9999 -9999 -9999 -9999 -9999 -9999 -9999 -9999 28.3203125 28.3203125 28.3203125 28.3203125 28.3203125 28.3203125 28.3203125 28.3203125 28.3203125 28.3203125 28.3203125 28.3203125 28.3203125 28.3203125 28.3203125 28.3203125 28.3203125 28.3203125 28.3203125 28.3203125 28.3203125 28.3203125 71.0823909531502 71.0823909531502 71.0823909531502 71.0823909531502 71.0823909531502 71.0823909531502 71.0823909531502 71.0823909531502 71.0823909531502 71.0823909531502 -9999 -9999 -9999 -9999 -9999 -9999 -9999 71.0823909531502 71.0823909531502 -9999 -9999 -9999 -9999 -9999 -9999 -9999 -9999 31.5126050420168 31.5126050420168 31.5126050420168 31.5126050420168 31.5126050420168 31.5126050420168 31.5126050420168 31.5126050420168 -9999 -9999 -9999 -9999 -9999 -9999 -9999 31.7164179104478 31.7164179104478 31.7164179104478 29.6523517382413 29.6523517382413 23.2974910394265 23.2974910394265 23.2974910394265 11.2219451371571 11.2219451371571 24.4274809160305 36.6666666666667 36.6666666666667 38.8086642599278 38.8086642599278 20.5371248025276 20.5371248025276 22.2405271828666 22.2405271828666 24.4479495268139 24.4479495268139 27.9642058165548 27.9642058165548 27.9642058165548 27.9642058165548 35.1629502572899 35.1629502572899 35.1629502572899 52.7777777777778 52.7777777777778 52.7777777777778 52.7777777777778 45.0391644908616 40.0340715502555 40.0340715502555 40.0340715502555 40.0340715502555 31.7604355716878 30.4487179487179 31.8518518518519 31.8518518518519 31.8518518518519 32.5278810408922 32.5278810408922 19.559902200489 19.559902200489 19.559902200489 32.5278810408922 30.8219178082192 30.8219178082192 -9999 -9999 -9999 41.5860735009671 41.5860735009671 41.5860735009671 41.5860735009671 71.0108604845447 71.0108604845447 71.0108604845447 71.0108604845447 71.0108604845447 74.0740740740741 74.0740740740741 -9999 69.6969696969697 69.6969696969697 69.6969696969697 69.6969696969697 69.6969696969697 69.6969696969697 69.6969696969697 69.6969696969697 69.6969696969697 69.6969696969697 74.7747747747748 74.7747747747748 66.9811320754717 64.7727272727273 64.7727272727273 58.7371512481645 58.2788671023965 58.2788671023965 58.2788671023965 58.2788671023965 58.2788671023965 58.2788671023965 -9999 -9999 -9999 -9999 -9999 -9999 -9999 68.4981684981685 68.4981684981685 68.4981684981685 61.8908382066277 61.8908382066277 61.8908382066277 61.8908382066277 61.8908382066277 61.8908382066277 61.8908382066277 61.8908382066277 61.8908382066277 -9999 -9999 -9999 -9999 -9999 -9999 -9999 -9999 -9999 -9999 -9999 -9999 -9999 -9999 -9999 -9999 -9999 -9999 -9999 -9999 -9999 -9999 -9999 -9999 -9999 -9999 -9999 -9999 -9999 -9999 -9999 -9999 -9999 -9999 -9999 -9999 -9999 -9999 -9999 -9999 -9999 -9999 -9999 -9999 -9999 -9999 -9999 -9999 -9999
-9999 -9999 -9999 -9999 -9999 -9999 -9999 -9999 -9999 -9999 -9999 -9999 -9999 -9999 -9999 -9999 -9999 -9999 -9999 -9999 -9999 -9999 -9999 -9999 -9999 -9999 -9999 -9999 -9999 -9999 45.7746478873239 45.7746478873239 45.7746478873239 45.7746478873239 45.7746478873239 45.7746478873239 45.7746478873239 45.7746478873239 45.7746478873239 45.7746478873239 45.7746478873239 45.7746478873239 45.7746478873239 45.7746478873239 45.7746478873239 45.7746478873239 -9999 -9999 -9999 -9999 -9999 -9999 -9999 -9999 -9999 -9999 -9999 -9999 -9999 -9999 -9999 71.4285714285714 -9999 -9999 -9999 -9999 -9999 -9999 -9999 -9999 45.7746478873239 45.7746478873239 45.7746478873239 45.7746478873239 49.2957746478873 49.2957746478873 49.2957746478873 49.2957746478873 49.2957746478873 32.2003577817531 32.2003577817531 32.2003577817531 30.6930693069307 30.6930693069307 30.9187279151943 30.9187279151943 28.2199710564399 28.2199710564399 28.2199710564399 28.2199710564399 28.2199710564399 28.2199710564399 28.2199710564399 28.2199710564399 35.5603448275862 35.9281437125749 35.9281437125749 35.9281437125749 19.047619047619 19.047619047619 19.047619047619 30.8285163776493 30.8285163776493 19.0380761523046 19.0380761523046 19.0380761523046 16.548463356974 16.548463356974 16.548463356974 26.3653483992467 26.3653483992467 26.7665952890792 26.7665952890792 26.7665952890792 26.3653483992467 26.3653483992467 -9999 -9999 23.7730061349693 23.7730061349693 23.7730061349693 23.7730061349693 20.6440957886045 20.6440957886045 20.6440957886045 20.6440957886045 20.6440957886045 20.6440957886045 20.6440957886045 20.6440957886045 20.6440957886045 20.6440957886045 20.6440957886045 20.6440957886045 20.6440957886045 20.6440957886045 20.6440957886045 20.6440957886045 20.6440957886045 20.6440957886045 20.6440957886045 28.4552845528455 28.4552845528455 20.6440957886045 20.6440957886045 20.6440957886045 20.6440957886045 20.6440957886045 20.6440957886045 20.6440957886045 20.6440957886045 20.6440957886045 20.6440957886045 20.6440957886045 20.6440957886045 20.6440957886045 20.6440957886045 20.6440957886045 20.6440957886045 20.6440957886045 20.6440957886045 20.6440957886045 28.6458333333333 28.6458333333333 28.6458333333333 28.6458333333333 28.6458333333333 28.6458333333333 28.6458333333333 28.6458333333333 28.6458333333333 28.6458333333333 28.6458333333333 28.6458333333333 28.6458333333333 28.6458333333333 28.6458333333333 28.6458333333333 28.6458333333333 -9999 -9999 -9999 -9999 -9999 -9999 -9999 -9999 -9999 -9999 -9999 -9999 -9999 -9999 -9999 -9999 28.3203125 28.3203125 28.3203125 28.3203125 28.3203125 28.3203125 28.3203125 28.3203125 28.3203125 28.3203125 28.3203125 28.3203125 28.3203125 28.3203125 28.3203125 28.3203125 28.3203125 28.3203125 28.3203125 28.3203125 28.3203125 71.0823909531502 71.0823909531502 71.0823909531502 71.0823909531502 71.0823909531502 71.0823909531502 71.0823909531502 71.0823909531502 71.0823909531502 71.0823909531502 71.0823909531502 71.0823909531502 71.0823909531502 -9999 -9999 -9999 -9999 -9999 -9999 71.0823909531502 71.0823909531502 71.0823909531502 71.0823909531502 -9999 -9999 -9999 -9999 -9999 31.5126050420168 31.5126050420168 31.5126050420168 31.5126050420168 31.5126050420168 31.5126050420168 31.5126050420168 31.5126050420168 31.5126050420168 33.9506172839506 33.9506172839506 33.9506172839506 33.6787564766839 33.6787564766839 33.6787564766839 -9999 31.7164179104478 31.7164179104478 31.7164179104478 31.7164179104478 31.7164179104478 23.2974910394265 23.2974910394265 23.2974910394265 23.2974910394265 24.4274809160305 24.4274809160305 24.4274809160305 24.9110320284698 26.3591433278418 26.3591433278418 38.8086642599278 24.203821656051 22.2405271828666 22.2405271828666 22.2405271828666 27.9642058165548 27.9642058165548 27.9642058165548 27.9642058165548 34.816247582205 34.816247582205 34.816247582205 35.1629502572899 35.1629502572899 35.1629502572899 52.7777777777778 52.7777777777778 31.6698656429942 31.6698656429942 31.6698656429942 37.9939209726444 32.033426183844 31.7604355716878 31.7604355716878 31.7604355716878 20.6489675516224 32.5278810408922 32.5278810408922 22.9759299781182 19.559902200489 19.559902200489 19.559902200489 30.8219178082192 -9999 -9999 -9999 -9999 -9999 41.5860735009671 41.5860735009671 41.5860735009671 41.5860735009671 71.0108604845447 71.0108604845447 71.0108604845447 71.0108604845447 -9999 -9999 69.6969696969697 69.6969696969697 69.6969696969697 69.6969696969697 69.6969696969697 69.6969696969697 69.6969696969697 69.6969696969697 69.6969696969697 69.6969696969697 69.6969696969697 69.6969696969697 69.3916349809886 69.3916349809886 64.176245210728 64.176245210728 64.176245210728 58.2788671023965 58.2788671023965 58.2788671023965 58.2788671023965 58.2788671023965 58.2788671023965 -9999 -9999 -9999 -9999 -9999 -9999 68.4981684981685 68.4981684981685 68.4981684981685 68.4981684981685 78.2828282828283 61.8908382066277 61.8908382066277 61.8908382066277 61.8908382066277 61.8908382066277 61.8908382066277 61.8908382066277 61.8908382066277 -9999 -9999 -9999 -9999 -9999 -9999 -9999 -9999 -9999 -9999 -9999 -9999 -9999 -9999 -9999 -9999 -9999 -9999 -9999 -9999 -9999 -9999 -9999 -9999 -9999 -9999 -9999 -9999 -9999 -9999 -9999 -9999 -9999 -9999 -9999 -9999 -9999 -9999 -9999 -9999 -9999 -9999 -9999 -9999 -9999 -9999 -9999 -9999 -9999 -9999
-9999 -9999 -9999 -9999 -9999 -9999 -9999 -9999 -9999 -9999 -9999 -9999 -9999 -9999 -9999 -9999 -9999 -9999 -9999 -9999 -9999 -9999 -9999 -9999 -9999 -9999 -9999 -9999 -9999 -9999 -9999 45.7746478873239 45.7746478873239 45.7746478873239 45.7746478873239 45.7746478873239 45.7746478873239 45.7746478873239 45.7746478873239 45.7746478873239 45.7746478873239 45.7746478873239 45.7746478873239 45.7746478873239 45.7746478873239 45.7746478873239 -9999 -9999 -9999 -9999 -9999 -9999 -9999 -9999 -9999 -9999 -9999 -9999 -9999 -9999 -9999 -9999 -9999 -9999 -9999 -9999 -9999 -9999 45.7746478873239 -9999 45.7746478873239 45.7746478873239 45.7746478873239 45.7746478873239 42.0168067226891 42.0168067226891 42.0168067226891 42.0168067226891 49.2957746478873 49.2957746478873 49.2957746478873 34.9264705882353 34.1151385927505 30.6930693069307 30.6930693069307 30.9187279151943 35.3881278538813 35.3881278538813 28.2199710564399 28.2199710564399 28.2199710564399 28.2199710564399 28.2199710564399 28.2199710564399 29.8353909465021 35.9281437125749 29.8353909465021 19.047619047619 19.047619047619 19.047619047619 30.8285163776493 30.8285163776493 30.8285163776493 28.4210526315789 16.548463356974 16.548463356974 16.548463356974 26.3653483992467 26.3653483992467 26.3653483992467 26.7665952890792 26.7665952890792 26.7665952890792 26.3653483992467 -9999 -9999 23.7730061349693 23.7730061349693 23.7730061349693 23.7730061349693 -9999 -9999 -9999 20.6440957886045 20.6440957886045 20.6440957886045 20.6440957886045 20.6440957886045 20.6440957886045 20.6440957886045 20.6440957886045 20.6440957886045 20.6440957886045 20.6440957886045 20.6440957886045 20.6440957886045 20.6440957886045 20.6440957886045 20.6440957886045 20.6440957886045 28.4552845528455 28.4552845528455 27.9220779220779 28.4552845528455 27.8514588859416 27.8514588859416 27.8514588859416 20.6440957886045 20.6440957886045 20.6440957886045 20.6440957886045 20.6440957886045 20.6440957886045 20.6440957886045 20.6440957886045 20.6440957886045 20.6440957886045 20.6440957886045 20.6440957886045 20.6440957886045 20.6440957886045 20.6440957886045 28.6458333333333 28.6458333333333 28.6458333333333 28.6458333333333 28.6458333333333 28.6458333333333 28.6458333333333 28.6458333333333 28.6458333333333 28.6458333333333 28.6458333333333 28.6458333333333 28.6458333333333 28.6458333333333 28.6458333333333 28.6458333333333 28.6458333333333 28.6458333333333 -9999 -9999 -9999 -9999 -9999 -9999 -9999 -9999 -9999 -9999 -9999 -9999 -9999 28.3203125 28.3203125 28.3203125 28.3203125 28.3203125 28.3203125 28.3203125 28.3203125 28.3203125 28.3203125 28.3203125 28.3203125 28.3203125 28.3203125 28.3203125 28.3203125 28.3203125 28.3203125 28.3203125 28.3203125 28.3203125 28.3203125 71.0823909531502 71.0823909531502 71.0823909531502 71.0823909531502 71.0823909531502 71.0823909531502 71.0823909531502 71.0823909531502 71.0823909531502 71.0823909531502 71.0823909531502 71.0823909531502 71.0823909531502 71.0823909531502 71.0823909531502 71.0823909531502 -9999 -9999 -9999 -9999 71.0823909531502 71.0823909531502 71.0823909531502 71.0823909531502 71.0823909531502 71.0823909531502 -9999 -9999 -9999 31.5126050420168 31.5126050420168 31.5126050420168 31.5126050420168 31.5126050420168 31.5126050420168 31.5126050420168 31.5126050420168 31.5126050420168 34.9264705882353 33.9506172839506 33.9506172839506 33.6787564766839 33.6787564766839 33.6787564766839 27.1317829457364 27.1317829457364 27.1317829457364 31.7164179104478 31.7164179104478 25.2416756176155 23.2974910394265 23.2974910394265 23.2974910394265 15.2777777777778 15.2777777777778 15.2777777777778 15.2777777777778 24.1935483870968 24.1935483870968 24.9110320284698 24.9110320284698 25.7548845470693 24.203821656051 24.203821656051 24.203821656051 25.1908396946565 25.1908396946565 25.1908396946565 34.816247582205 34.816247582205 34.816247582205 32.2429906542056 32.2429906542056 35.1629502572899 33.1541218637993 33.1541218637993 33.1541218637993 31.6698656429942 31.9148936170213 31.9148936170213 31.9148936170213 37.9939209726444 37.9939209726444 20.6489675516224 20.6489675516224 20.6489675516224 22.6086956521739 22.9759299781182 22.9759299781182 30.8219178082192 30.8219178082192 -9999 -9999 -9999 -9999 -9999 -9999 -9999 -9999 41.5860735009671 41.5860735009671 41.5860735009671 71.0108604845447 71.0108604845447 -9999 69.6969696969697 69.6969696969697 69.6969696969697 69.6969696969697 69.6969696969697 69.6969696969697 69.6969696969697 69.6969696969697 69.6969696969697 69.6969696969697 73.5551663747811 73.5551663747811 69.6969696969697 69.6969696969697 69.6969696969697 69.8924731182796 74.8081841432225 74.8081841432225 72.463768115942 76.6192733017377 63.4218289085546 63.4218289085546 58.2788671023965 58.2788671023965 58.2788671023965 -9999 -9999 -9999 -9999 68.4981684981685 68.4981684981685 68.4981684981685 68.4981684981685 68.4981684981685 78.2828282828283 78.2828282828283 78.2828282828283 61.8908382066277 61.8908382066277 61.8908382066277 61.8908382066277 61.8908382066277 61.8908382066277 75 75 75 -9999 -9999 -9999 -9999 -9999 -9999 -9999 -9999 -9999 -9999 -9999 -9999 -9999 -9999 -9999 -9999 -9999 -9999 -9999 -9999 -9999 -9999 -9999 -9999 -9999 -9999 -9999 -9999 -9999 -9999 -9999 -9999 -9999 -9999 -9999 -9999 -9999 -9999 -9999 -9999 -9999 -9999 -9999 -9999 -9999 -9999 -9999 -9999 -9999
-9999 -9999 -9999 -9999 -9999 -9999 -9999 -9999 -9999 -9999 -9999 -9999 -9999 -9999 -9999 -9999 -9999 -9999 -9999 -9999 -9999 -9999 -9999 -9999 -9999 -9999 -9999 -9999 45.7746478873239 45.7746478873239 45.7746478873239 45.7746478873239 45.7746478873239 45.7746478873239 45.7746478873239 45.7746478873239 45.7746478873239 45.7746478873239 45.7746478873239 45.7746478873239 45.7746478873239 45.7746478873239 45.7746478873239 45.7746478873239 45.7746478873239 45.7746478873239 -9999 -9999 -9999 -9999 -9999 -9999 -9999 -9999 -9999 -9999 -9999 -9999 -9999 -9999 -9999 -9999 -9999 -9999 -9999 45.7746478873239 45.7746478873239 45.7746478873239 45.7746478873239 45.7746478873239 45.7746478873239 -9999 -9999 -9999 -9999 42.0168067226891 42.0168067226891 42.0168067226891 49.2957746478873 34.9264705882353 34.9264705882353 34.9264705882353 34.9264705882353 34.1151385927505 30.6930693069307 34.1151385927505 35.3881278538813 35.3881278538813 35.3881278538813 28.2199710564399 28.2199710564399 28.2199710564399 28.2199710564399 29.8353909465021 29.8353909465021 29.8353909465021 19.047619047619 19.047619047619 30.8285163776493 30.8285163776493 30.8285163776493 28.4210526315789 28.4210526315789 28.4210526315789 28.4210526315789 26.3653483992467 26.3653483992467 26.3653483992467 26.7665952890792 26.7665952890792 26.7665952890792 26.3653483992467 -9999 23.7730061349693 -9999 23.7730061349693 23.7730061349693 23.7730061349693 23.7730061349693 -9999 -9999 -9999 -9999 -9999 20.6440957886045 20.6440957886045 20.6440957886045 20.6440957886045 20.6440957886045 20.6440957886045 20.6440957886045 20.6440957886045 20.6440957886045 20.6440957886045 20.6440957886045 20.6440957886045 20.6440957886045 20.6440957886045 28.4552845528455 28.4552845528455 28.4552845528455 27.9220779220779 27.9220779220779 27.9220779220779 27.8514588859416 27.8514588859416 27.8514588859416 24.9609984399376 24.9609984399376 20.6440957886045 20.6440957886045 20.6440957886045 20.6440957886045 20.6440957886045 20.6440957886045 20.6440957886045 20.6440957886045 20.6440957886045 20.6440957886045 20.6440957886045 28.6458333333333 28.6458333333333 28.6458333333333 28.6458333333333 28.6458333333333 28.6458333333333 28.6458333333333 28.6458333333333 28.6458333333333 28.6458333333333 28.6458333333333 28.6458333333333 28.6458333333333 28.6458333333333 28.6458333333333 28.6458333333333 28.6458333333333 28.6458333333333 28.6458333333333 28.6458333333333 28.3203125 28.3203125 -9999 -9999 -9999 -9999 -9999 -9999 -9999 -9999 -9999 -9999 28.3203125 28.3203125 28.3203125 28.3203125 28.3203125 28.3203125 28.3203125 28.3203125 28.3203125 28.3203125 28.3203125 28.3203125 28.3203125 28.3203125 28.3203125 28.3203125 28.3203125 28.3203125 28.3203125 28.3203125 28.3203125 28.3203125 71.0823909531502 71.0823909531502 71.0823909531502 71.0823909531502 71.0823909531502 71.0823909531502 71.0823909531502 71.0823909531502 71.0823909531502 71.0823909531502 71.0823909531502 71.0823909531502 71.0823909531502 71.0823909531502 71.0823909531502 71.0823909531502 71.0823909531502 71.0823909531502 -9999 -9999 -9999 71.0823909531502 71.0823909531502 71.0823909531502 71.0823909531502 71.0823909531502 71.0823909531502 71.0823909531502 -9999 -9999 31.5126050420168 31.5126050420168 31.5126050420168 31.5126050420168 31.5126050420168 31.5126050420168 31.5126050420168 31.5126050420168 34.9264705882353 34.9264705882353 34.9264705882353 34.6020761245675 34.6020761245675 33.6787564766839 27.1317829457364 27.1317829457364 27.1317829457364 27.1317829457364 27.1317829457364 25.2416756176155 25.2416756176155 23.2974910394265 23.2974910394265 15.2777777777778 15.2777777777778 15.2777777777778 15.2777777777778 27.3775216138329 27.3775216138329 24.1935483870968 24.1935483870968 25.7548845470693 25.7548845470693 25.7548845470693 25.7548845470693 -9999 -9999 25.1908396946565 28.2534246575343 28.2534246575343 28.2534246575343 32.2429906542056 32.2429906542056 32.2429906542056 32.2429906542056 32.2429906542056 33.1541218637993 30.9859154929577 27.8422273781903 27.8422273781903 27.8422273781903 31.9148936170213 20.6489675516224 22.6086956521739 22.6086956521739 22.6086956521739 22.6086956521739 22.6086956521739 30.8219178082192 30.8219178082192 -9999 -9999 -9999 -9999 -9999 -9999 -9999 -9999 -9999 -9999 -9999 -9999 -9999 69.6969696969697 69.6969696969697 69.6969696969697 69.6969696969697 69.6969696969697 69.6969696969697 69.6969696969697 69.6969696969697 69.6969696969697 69.6969696969697 69.6969696969697 73.5551663747811 73.5551663747811 73.5551663747811 73.5551663747811 73.5551663747811 73.5551663747811 73.5551663747811 69.8924731182796 74.8081841432225 74.8081841432225 72.463768115942 63.4218289085546 63.4218289085546 57.0866141732283 58.2788671023965 58.2788671023965 58.2788671023965 -9999 -9999 -9999 68.4981684981685 68.4981684981685 69.5488721804511 69.5488721804511 79.1717417783191 79.1717417783191 78.2828282828283 78.2828282828283 78.2828282828283 78.2828282828283 61.8908382066277 61.8908382066277 61.8908382066277 -9999 61.8908382066277 -9999 75 -9999 -9999 -9999 -9999 -9999 -9999 -9999 -9999 -9999 -9999 -9999 -9999 -9999 -9999 -9999 -9999 -9999 -9999 -9999 -9999 -9999 -9999 -9999 -9999 -9999 -9999 -9999 -9999 -9999 -9999 -9999 -9999 -9999 -9999 -9999 -9999 -9999 -9999 -9999 -9999 -9999 -9999 -9999 -9999 -9999 -9999 -9999 -9999 -9999 -9999
-9999 -9999 -9999 -9999 -9999 -9999 -9999 -9999 -9999 -9999 -9999 -9999 -9999 -9999 -9999 -9999 -9999 -9999 -9999 -9999 -9999 -9999 -9999 -9999 -9999 45.7746478873239 45.7746478873239 45.7746478873239 45.7746478873239 45.7746478873239 45.7746478873239 45.7746478873239 45.7746478873239 45.7746478873239 45.7746478873239 45.7746478873239 45.7746478873239 45.7746478873239 45.7746478873239 45.7746478873239 45.7746478873239 45.7746478873239 45.7746478873239 45.7746478873239 45.7746478873239 45.7746478873239 45.7746478873239 -9999 -9999 -9999 -9999 -9999 -9999 -9999 -9999 -9999 -9999 -9999 -9999 -9999 -9999 -9999 -9999 -9999 45.7746478873239 45.7746478873239 45.7746478873239 45.7746478873239 45.7746478873239 -9999 -9999 -9999 -9999 -9999 -9999 -9999 -9999 42.0168067226891 32.258064516129 32.258064516129 34.9264705882353 34.9264705882353 34.9264705882353 34.1151385927505 34.1151385927505 34.1151385927505 35.3881278538813 35.3881278538813 35.3881278538813 35.3881278538813 28.2199710564399 28.2199710564399 29.8353909465021 29.8353909465021 19.047619047619 19.047619047619 19.047619047619 20.3094777562863 28.4210526315789 28.4210526315789 28.4210526315789 28.4210526315789 28.4210526315789 20.5128205128205 28.4210526315789 22.5 26.3653483992467 26.3653483992467 26.3653483992467 26.3653483992467 -9999 23.7730061349693 -9999 23.7730061349693 23.7730061349693 23.7730061349693 23.7730061349693 -9999 -9999 -9999 -9999 -9999 -9999 -9999 -9999 20.6440957886045 20.6440957886045 20.6440957886045 20.6440957886045 20.6440957886045 20.6440957886045 20.6440957886045 20.6440957886045 20.6440957886045 20.6440957886045 20.6440957886045 15.7790927021696 15.7790927021696 28.4552845528455 28.4552845528455 28.4552845528455 28.4552845528455 27.9220779220779 27.9220779220779 27.9220779220779 27.9220779220779 24.9609984399376 24.9609984399376 24.9609984399376 24.9609984399376 20.6440957886045 20.6440957886045 20.6440957886045 20.6440957886045 20.6440957886045 20.6440957886045 20.6440957886045 22.4184782608696 22.4184782608696 22.4184782608696 28.6458333333333 28.6458333333333 28.6458333333333 28.6458333333333 28.6458333333333 28.6458333333333 28.6458333333333 28.6458333333333 28.6458333333333 28.6458333333333 28.6458333333333 28.6458333333333 28.6458333333333 28.6458333333333 28.6458333333333 28.6458333333333 28.6458333333333 28.6458333333333 28.6458333333333 28.3203125 28.3203125 28.3203125 28.3203125 -9999 -9999 -9999 -9999 -9999 -9999 -9999 -9999 28.3203125 28.3203125 28.3203125 28.3203125 28.3203125 28.3203125 28.3203125 28.3203125 28.3203125 28.3203125 28.3203125 28.3203125 28.3203125 28.3203125 28.3203125 28.3203125 28.3203125 28.3203125 28.3203125 28.3203125 28.3203125 71.0823909531502 71.0823909531502 71.0823909531502 71.0823909531502 71.0823909531502 71.0823909531502 71.0823909531502 71.0823909531502 71.0823909531502 71.0823909531502 71.0823909531502 71.0823909531502 71.0823909531502 71.0823909531502 71.0823909531502 71.0823909531502 71.0823909531502 71.0823909531502 71.0823909531502 71.0823909531502 71.0823909531502 71.0823909531502 71.0823909531502 71.0823909531502 71.0823909531502 71.0823909531502 71.0823909531502 71.0823909531502 71.0823909531502 71.0823909531502 71.0823909531502 31.5126050420168 31.5126050420168 31.5126050420168 31.5126050420168 31.5126050420168 31.5126050420168 31.5126050420168 31.5126050420168 29.535864978903 29.535864978903 34.9264705882353 34.6020761245675 34.6020761245675 34.6020761245675 32.064128256513 32.064128256513 32.064128256513 27.1317829457364 27.1317829457364 25.2416756176155 20.8023774145617 25.2416756176155 23.2974910394265 23.2974910394265 27.7777777777778 27.7777777777778 27.7777777777778 27.3775216138329 27.3775216138329 27.3775216138329 27.3775216138329 28.2485875706215 25.7548845470693 25.7548845470693 25.7548845470693 -9999 -9999 -9999 28.2534246575343 28.2534246575343 28.2534246575343 28.2534246575343 26.7649340574088 26.7649340574088 32.2429906542056 32.2429906542056 -9999 -9999 18.5567010309278 30.9859154929577 30.9859154929577 30.8219178082192 30.8219178082192 30.8219178082192 30.8219178082192 30.8219178082192 30.8219178082192 30.8219178082192 30.8219178082192 -9999 -9999 -9999 -9999 -9999 -9999 -9999 -9999 -9999 -9999 -9999 -9999 -9999 65.7582938388626 65.7582938388626 69.6969696969697 69.6969696969697 69.6969696969697 69.6969696969697 69.6969696969697 69.6969696969697 69.6969696969697 69.6969696969697 69.6969696969697 69.6969696969697 69.6969696969697 73.5551663747811 73.5551663747811 74.8613678373383 71.09375 71.09375 69.41431670282 69.41431670282 69.8924731182796 69.7115384615385 69.7115384615385 76.6192733017377 68.1063122923588 68.1063122923588 57.0866141732283 57.0866141732283 58.2788671023965 58.2788671023965 -9999 -9999 -9999 68.4981684981685 68.4981684981685 69.5488721804511 79.1717417783191 79.1717417783191 78.2828282828283 78.2828282828283 78.2828282828283 78.2828282828283 61.8908382066277 61.8908382066277 61.8908382066277 61.8908382066277 -9999 -9999 -9999 -9999 -9999 -9999 -9999 -9999 -9999 -9999 -9999 -9999 -9999 -9999 -9999 -9999 -9999 -9999 -9999 -9999 -9999 -9999 -9999 -9999 -9999 -9999 -9999 -9999 -9999 -9999 -9999 -9999 -9999 -9999 -9999 -9999 -9999 -9999 -9999 -9999 -9999 -9999 -9999 -9999 -9999 -9999 -9999 -9999 -9999 -9999 -9999 -9999 -9999 -9999
-9999 -9999 -9999 -9999 -9999 -9999 -9999 -9999 -9999 -9999 -9999 -9999 -9999 -9999 -9999 -9999 -9999 -9999 -9999 -9999 -9999 -9999 -9999 -9999 -9999 -9999 45.7746478873239 45.7746478873239 45.7746478873239 45.7746478873239 45.7746478873239 45.7746478873239 45.7746478873239 45.7746478873239 45.7746478873239 45.7746478873239 45.7746478873239 45.7746478873239 45.7746478873239 45.7746478873239 45.7746478873239 45.7746478873239 45.7746478873239 45.7746478873239 45.7746478873239 45.7746478873239 45.7746478873239 -9999 -9999 -9999 -9999 -9999 -9999 -9999 -9999 -9999 -9999 -9999 -9999 -9999 -9999 -9999 -9999 -9999 45.7746478873239 -9999 -9999 -9999 -9999 -9999 -9999 -9999 -9999 -9999 -9999 -9999 34.9514563106796 34.9514563106796 32.258064516129 32.258064516129 32.258064516129 34.9264705882353 34.9264705882353 34.1151385927505 25.6797583081571 34.1151385927505 34.1151385927505 34.1151385927505 35.3881278538813 35.3881278538813 29.8353909465021 29.8353909465021 19.047619047619 19.047619047619 19.047619047619 20.3094777562863 20.3094777562863 28.4210526315789 28.4210526315789 28.4210526315789 28.4210526315789 20.5128205128205 20.5128205128205 22.5 22.5 22.5 22.5 26.3653483992467 -9999 -9999 23.7730061349693 23.7730061349693 23.7730061349693 23.7730061349693 23.7730061349693 -9999 -9999 -9999 -9999 -9999 -9999 -9999 -9999 21.6572504708098 21.6572504708098 21.6572504708098 20.6440957886045 20.6440957886045 20.6440957886045 20.6440957886045 20.6440957886045 20.6440957886045 20.6440957886045 20.6440957886045 21.1946050096339 15.7790927021696 15.7790927021696 15.7790927021696 15.7790927021696 15.7790927021696 28.4552845528455 27.9220779220779 27.9220779220779 27.9220779220779 27.9220779220779 27.9220779220779 27.9220779220779 24.9609984399376 24.9609984399376 24.9609984399376 24.9609984399376 24.9609984399376 20.6440957886045 20.6440957886045 20.6440957886045 22.4184782608696 22.4184782608696 22.4184782608696 22.4184782608696 22.4184782608696 28.6458333333333 28.6458333333333 28.6458333333333 28.6458333333333 28.6458333333333 28.6458333333333 28.6458333333333 28.6458333333333 28.6458333333333 28.6458333333333 28.6458333333333 28.6458333333333 28.6458333333333 28.6458333333333 28.6458333333333 28.6458333333333 28.6458333333333 28.6458333333333 28.3203125 28.3203125 28.3203125 28.3203125 28.3203125 28.3203125 28.3203125 -9999 -9999 -9999 -9999 28.3203125 28.3203125 28.3203125 28.3203125 28.3203125 28.3203125 28.3203125 28.3203125 28.3203125 28.3203125 28.3203125 28.3203125 28.3203125 28.3203125 28.3203125 28.3203125 28.3203125 28.3203125 28.3203125 28.3203125 28.3203125 28.3203125 71.0823909531502 71.0823909531502 71.0823909531502 71.0823909531502 71.0823909531502 71.0823909531502 71.0823909531502 71.0823909531502 71.0823909531502 71.0823909531502 71.0823909531502 71.0823909531502 71.0823909531502 71.0823909531502 71.0823909531502 71.0823909531502 71.0823909531502 71.0823909531502 71.0823909531502 71.0823909531502 71.0823909531502 71.0823909531502 71.0823909531502 71.0823909531502 71.0823909531502 71.0823909531502 71.0823909531502 71.0823909531502 71.0823909531502 71.0823909531502 71.0823909531502 71.0823909531502 31.5126050420168 31.5126050420168 31.5126050420168 31.5126050420168 31.5126050420168 31.5126050420168 31.5126050420168 29.535864978903 29.535864978903 29.535864978903 24.6598639455782 24.6598639455782 24.6598639455782 32.064128256513 32.064128256513 32.064128256513 32.064128256513 32.064128256513 25.2416756176155 20.8023774145617 20.8023774145617 25.2416756176155 23.2974910394265 18.4381778741866 18.4381778741866 27.7777777777778 27.7777777777778 27.7777777777778 27.7777777777778 27.7777777777778 28.2485875706215 28.2485875706215 28.2485875706215 28.2485875706215 -9999 -9999 -9999 30.5927342256214 30.5927342256214 28.2534246575343 28.2534246575343 26.7649340574088 26.7649340574088 26.7649340574088 24.4988864142539 24.4988864142539 -9999 -9999 -9999 30.8219178082192 30.8219178082192 30.8219178082192 30.8219178082192 30.8219178082192 30.8219178082192 30.8219178082192 30.8219178082192 -9999 -9999 -9999 -9999 -9999 -9999 -9999 -9999 -9999 -9999 -9999 -9999 -9999 68.3760683760684 65.7582938388626 65.7582938388626 65.7582938388626 65.7582938388626 53.6105032822757 53.6105032822757 53.6105032822757 53.6105032822757 84.7750865051903 84.7750865051903 84.7750865051903 77.5347912524851 77.5347912524851 77.5347912524851 -9999 -9999 -9999 -9999 62.3655913978495 62.3655913978495 69.41431670282 69.8924731182796 69.7115384615385 69.7115384615385 76.6192733017377 68.1063122923588 68.1063122923588 68.1063122923588 57.0866141732283 58.2788671023965 58.2788671023965 -9999 -9999 -9999 68.4981684981685 68.4981684981685 79.1717417783191 79.1717417783191 78.2828282828283 78.2828282828283 78.2828282828283 78.2828282828283 74.8502994011976 55.5555555555556 55.5555555555556 61.8908382066277 -9999 -9999 -9999 -9999 -9999 -9999 -9999 -9999 -9999 -9999 -9999 -9999 -9999 -9999 -9999 -9999 -9999 -9999 -9999 -9999 -9999 -9999 -9999 -9999 -9999 -9999 -9999 -9999 -9999 -9999 -9999 -9999 -9999 -9999 -9999 -9999 -9999 -9999 -9999 -9999 -9999 -9999 -9999 -9999 -9999 -9999 -9999 -9999 -9999 -9999 -9999 -9999 -9999 -9999 -9999
-9999 -9999 -9999 -9999 -9999 -9999 -9999 -9999 -9999 -9999 -9999 -9999 -9999 -9999 -9999 -9999 -9999 -9999 -9999 -9999 -9999 -9999 -9999 -9999 -9999 -9999 -9999 -9999 -9999 45.7746478873239 45.7746478873239 45.7746478873239 45.7746478873239 45.7746478873239 45.7746478873239 45.7746478873239 45.7746478873239 45.7746478873239 45.7746478873239 45.7746478873239 45.7746478873239 45.7746478873239 45.7746478873239 45.7746478873239 45.7746478873239 45.7746478873239 45.7746478873239 45.7746478873239 -9999 45.7746478873239 45.7746478873239 -9999 -9999 -9999 -9999 -9999 45.7746478873239 -9999 -9999 -9999 -9999 45.7746478873239 45.7746478873239 -9999 -9999 -9999 -9999 -9999 -9999 -9999 -9999 -9999 -9999 -9999 34.9514563106796 34.9514563106796 34.9514563106796 34.9514563106796 34.9514563106796 32.258064516129 32.258064516129 32.258064516129 25.6797583081571 25.6797583081571 25.6797583081571 25.6797583081571 25.6797583081571 34.1151385927505 31.6780821917808 31.6780821917808 29.8353909465021 19.047619047619 19.047619047619 19.047619047619 20.3094777562863 20.3094777562863 20.3094777562863 20.3094777562863 28.4210526315789 20.5128205128205 20.5128205128205 20.5128205128205 20.5128205128205 22.5 22.5 22.5 22.5 22.5 -9999 -9999 -9999 23.7730061349693 23.7730061349693 -9999 -9999 -9999 -9999 -9999 -9999 -9999 -9999 21.6572504708098 21.6572504708098 21.6572504708098 21.6572504708098 21.6572504708098 21.6572504708098 20.6440957886045 20.6440957886045 20.6440957886045 20.6440957886045 20.6440957886045 21.1946050096339 21.1946050096339 21.1946050096339 15.7790927021696 15.7790927021696 15.7790927021696 15.7790927021696 22.6415094339623 22.6415094339623 27.9220779220779 27.9220779220779 27.9220779220779 27.9220779220779 18.976897689769 18.976897689769 18.976897689769 24.9609984399376 24.9609984399376 24.9609984399376 24.9609984399376 22.4184782608696 22.4184782608696 20.2247191011236 20.2247191011236 22.4184782608696 22.4184782608696 22.4184782608696 22.4184782608696 22.4184782608696 28.6458333333333 28.6458333333333 28.6458333333333 28.6458333333333 28.6458333333333 28.6458333333333 28.6458333333333 28.6458333333333 28.6458333333333 28.6458333333333 28.6458333333333 28.6458333333333 28.6458333333333 28.6458333333333 28.6458333333333 28.3203125 28.3203125 28.3203125 28.3203125 28.3203125 28.3203125 28.3203125 28.3203125 28.3203125 28.3203125 28.3203125 -9999 28.3203125 28.3203125 28.3203125 28.3203125 28.3203125 28.3203125 28.3203125 28.3203125 28.3203125 28.3203125 28.3203125 28.3203125 28.3203125 28.3203125 28.3203125 28.3203125 28.3203125 28.3203125 28.3203125 28.3203125 28.3203125 28.3203125 71.0823909531502 71.0823909531502 71.0823909531502 71.0823909531502 71.0823909531502 71.0823909531502 71.0823909531502 71.0823909531502 71.0823909531502 71.0823909531502 71.0823909531502 71.0823909531502 71.0823909531502 71.0823909531502 71.0823909531502 71.0823909531502 71.0823909531502 71.0823909531502 71.0823909531502 71.0823909531502 71.0823909531502 71.0823909531502 71.0823909531502 71.0823909531502 71.0823909531502 71.0823909531502 71.0823909531502 71.0823909531502 71.0823909531502 71.0823909531502 71.0823909531502 71.0823909531502 71.0823909531502 31.5126050420168 31.5126050420168 31.5126050420168 31.5126050420168 31.5126050420168 31.5126050420168 17.2811059907834 29.535864978903 29.535864978903 29.535864978903 24.6598639455782 24.6598639455782 24.6598639455782 24.8161764705882 32.064128256513 32.064128256513 32.064128256513 25.2416756176155 18.75 18.75 26.9396551724138 21.039603960396 21.039603960396 18.4381778741866 18.4381778741866 29.6191819464034 29.6191819464034 29.6191819464034 29.6191819464034 26.6768292682927 26.6768292682927 26.6768292682927 28.2485875706215 -9999 -9999 -9999 -9999 30.5927342256214 30.5927342256214 30.5927342256214 30.5927342256214 30.5927342256214 20.6185567010309 20.6185567010309 24.3553008595989 24.4988864142539 24.4988864142539 30.8219178082192 30.8219178082192 30.8219178082192 30.8219178082192 30.8219178082192 30.8219178082192 30.8219178082192 -9999 -9999 -9999 -9999 -9999 -9999 -9999 -9999 -9999 -9999 -9999 -9999 -9999 -9999 68.3760683760684 68.3760683760684 71.7488789237668 65.7582938388626 83.5543766578249 83.5543766578249 83.5543766578249 68.8487584650113 68.8487584650113 80.6451612903226 80.6451612903226 82.2695035460993 84.7750865051903 84.7750865051903 77.5347912524851 77.5347912524851 77.5347912524851 -9999 -9999 -9999 -9999 59.8052851182198 59.8052851182198 59.8052851182198 59.8052851182198 70.2479338842975 70.2479338842975 70.2479338842975 73.1083844580777 66.4335664335664 66.4335664335664 66.4335664335664 73.1083844580777 73.1083844580777 -9999 -9999 -9999 68.4981684981685 79.1717417783191 79.1717417783191 79.1717417783191 79.1717417783191 78.2828282828283 78.2828282828283 74.8502994011976 55.5555555555556 55.5555555555556 55.5555555555556 63.953488372093 -9999 -9999 -9999 -9999 -9999 -9999 -9999 -9999 -9999 -9999 -9999 -9999 -9999 -9999 -9999 -9999 -9999 -9999 -9999 -9999 -9999 -9999 -9999 -9999 -9999 -9999 -9999 -9999 -9999 -9999 -9999 -9999 -9999 -9999 -9999 -9999 -9999 -9999 -9999 -9999 -9999 -9999 -9999 -9999 -9999 -9999 -9999 -9999 -9999 -9999 -9999 -9999 -9999 -9999 -9999
-9999 -9999 -9999 -9999 -9999 -9999 -9999 -9999 -9999 -9999 -9999 -9999 -9999 -9999 -9999 -9999 -9999 -9999 -9999 -9999 -9999 -9999 -9999 -9999 -9999 -9999 -9999 -9999 45.7746478873239 45.7746478873239 45.7746478873239 45.7746478873239 45.7746478873239 45.7746478873239 45.7746478873239 45.7746478873239 45.7746478873239 45.7746478873239 45.7746478873239 45.7746478873239 45.7746478873239 45.7746478873239 45.7746478873239 45.7746478873239 45.7746478873239 45.7746478873239 -9999 -9999 -9999 -9999 -9999 -9999 45.7746478873239 -9999 45.7746478873239 -9999 45.7746478873239 45.7746478873239 45.7746478873239 -9999 45.7746478873239 -9999 -9999 -9999 -9999 -9999 -9999 -9999 -9999 -9999 -9999 36.4077669902913 36.4077669902913 40.3225806451613 28 28 28 28 34.9514563106796 32.258064516129 32.258064516129 25.6797583081571 25.6797583081571 25.6797583081571 25.6797583081571 31.6780821917808 31.6780821917808 31.6780821917808 31.6780821917808 31.6780821917808 31.6780821917808 19.047619047619 20.3094777562863 20.3094777562863 20.3094777562863 20.3094777562863 20.3094777562863 20.3094777562863 21.4943705220061 21.4943705220061 20.5128205128205 20.5128205128205 20.5128205128205 22.5 22.5 22.5 22.5 22.5 22.5 -9999 -9999 -9999 -9999 -9999 -9999 -9999 -9999 -9999 -9999 21.6572504708098 21.6572504708098 21.6572504708098 21.6572504708098 21.6572504708098 21.6572504708098 21.6572504708098 21.6572504708098 20.6440957886045 20.6440957886045 20.6440957886045 21.1946050096339 21.1946050096339 21.1946050096339 21.1946050096339 21.1946050096339 21.1946050096339 15.7790927021696 22.6415094339623 22.6415094339623 22.6415094339623 22.6415094339623 22.6415094339623 27.9220779220779 18.976897689769 18.976897689769 18.976897689769 18.976897689769 18.976897689769 18.976897689769 22.4184782608696 22.4184782608696 22.4184782608696 26.578073089701 20.2247191011236 20.2247191011236 20.2247191011236 20.2247191011236 20.2247191011236 22.4184782608696 22.4184782608696 22.4184782608696 28.6458333333333 28.6458333333333 28.6458333333333 28.6458333333333 28.6458333333333 28.6458333333333 28.6458333333333 28.6458333333333 28.6458333333333 28.6458333333333 28.6458333333333 28.6458333333333 28.6458333333333 28.6458333333333 28.3203125 28.3203125 28.3203125 28.3203125 28.3203125 28.3203125 28.3203125 28.3203125 28.3203125 28.3203125 28.3203125 28.3203125 28.3203125 28.3203125 28.3203125 28.3203125 28.3203125 28.3203125 28.3203125 28.3203125 28.3203125 28.3203125 28.3203125 28.3203125 28.3203125 28.3203125 28.3203125 28.3203125 28.3203125 28.3203125 28.3203125 28.3203125 28.3203125 28.3203125 71.0823909531502 71.0823909531502 71.0823909531502 71.0823909531502 71.0823909531502 71.0823909531502 71.0823909531502 71.0823909531502 71.0823909531502 71.0823909531502 71.0823909531502 71.0823909531502 71.0823909531502 71.0823909531502 71.0823909531502 71.0823909531502 71.0823909531502 71.0823909531502 71.0823909531502 71.0823909531502 71.0823909531502 71.0823909531502 71.0823909531502 71.0823909531502 71.0823909531502 71.0823909531502 71.0823909531502 71.0823909531502 71.0823909531502 71.0823909531502 71.0823909531502 71.0823909531502 71.0823909531502 71.0823909531502 31.5126050420168 31.5126050420168 31.5126050420168 31.5126050420168 17.2811059907834 31.5126050420168 17.2811059907834 17.2811059907834 17.2811059907834 24.6598639455782 24.6598639455782 24.6598639455782 24.8161764705882 24.8161764705882 24.8161764705882 32.064128256513 25.2416756176155 28.4552845528455 21.3963963963964 26.9396551724138 26.9396551724138 21.039603960396 21.039603960396 18.4381778741866 18.4381778741866 29.6191819464034 29.6191819464034 29.6191819464034 29.6191819464034 26.6768292682927 26.6768292682927 26.6768292682927 26.6768292682927 22.3880597014925 22.3880597014925 -9999 35.8333333333333 35.8333333333333 35.8333333333333 35.8333333333333 26.3157894736842 20.6185567010309 20.6185567010309 20.6185567010309 20.6185567010309 24.4988864142539 30.8219178082192 30.8219178082192 30.8219178082192 30.8219178082192 30.8219178082192 30.8219178082192 -9999 -9999 -9999 -9999 -9999 -9999 -9999 -9999 -9999 -9999 -9999 -9999 -9999 -9999 68.3760683760684 68.3760683760684 68.3760683760684 68.3760683760684 71.7488789237668 71.7488789237668 84 84 84 75.8377425044092 75.8377425044092 78.4883720930232 80.6451612903226 82.2695035460993 82.2695035460993 82.2695035460993 83.955223880597 83.955223880597 77.8008298755187 -9999 -9999 -9999 -9999 73.8007380073801 73.8007380073801 73.8007380073801 73.8007380073801 64.5161290322581 64.5161290322581 64.5161290322581 71.4285714285714 71.4285714285714 71.4285714285714 71.4285714285714 73.1083844580777 73.1083844580777 -9999 -9999 -9999 68.4981684981685 68.4981684981685 72.5806451612903 72.5806451612903 72.5806451612903 74.8502994011976 74.8502994011976 68.7134502923977 68.7134502923977 55.5555555555556 55.5555555555556 -9999 -9999 -9999 -9999 -9999 -9999 -9999 -9999 -9999 -9999 -9999 -9999 -9999 -9999 -9999 -9999 -9999 -9999 -9999 -9999 -9999 -9999 -9999 -9999 -9999 -9999 -9999 -9999 -9999 -9999 -9999 -9999 -9999 -9999 -9999 -9999 -9999 -9999 -9999 -9999 -9999 -9999 -9999 -9999 -9999 -9999 -9999 -9999 -9999 -9999 -9999 -9999 -9999 -9999 -9999 -9999
-9999 -9999 -9999 -9999 -9999 -9999 -9999 -9999 -9999 -9999 -9999 -9999 -9999 -9999 -9999 -9999 -9999 -9999 -9999 -9999 -9999 -9999 -9999 -9999 -9999 -9999 45.7746478873239 45.7746478873239 45.7746478873239 45.7746478873239 45.7746478873239 45.7746478873239 45.7746478873239 45.7746478873239 45.7746478873239 45.7746478873239 45.7746478873239 45.7746478873239 45.7746478873239 45.7746478873239 45.7746478873239 45.7746478873239 45.7746478873239 -9999 -9999 -9999 -9999 -9999 -9999 -9999 -9999 -9999 -9999 -9999 -9999 -9999 -9999 -9999 -9999 -9999 -9999 -9999 -9999 -9999 -9999 -9999 -9999 -9999 -9999 36.4077669902913 36.4077669902913 36.4077669902913 40.3225806451613 40.3225806451613 40.3225806451613 28 28 28 35.15625 35.15625 35.15625 35.15625 25.6797583081571 25.6797583081571 25.6797583081571 25.6797583081571 31.6780821917808 31.6780821917808 31.6780821917808 31.6780821917808 35.4330708661417 35.4330708661417 20.3094777562863 20.3094777562863 20.3094777562863 21.4943705220061 21.4943705220061 21.4943705220061 21.4943705220061 21.4943705220061 21.4943705220061 20.5128205128205 20.5128205128205 20.5128205128205 22.5 22.5 22.5 22.5 22.5 22.5 -9999 -9999 -9999 -9999 -9999 -9999 -9999 21.6572504708098 21.6572504708098 21.6572504708098 21.6572504708098 21.6572504708098 21.6572504708098 21.6572504708098 21.6572504708098 21.6572504708098 21.6572504708098 21.6572504708098 21.1946050096339 21.1946050096339 21.1946050096339 21.1946050096339 21.1946050096339 21.1946050096339 22.9540918163673 22.9540918163673 22.6415094339623 22.6415094339623 22.6415094339623 22.6415094339623 22.6415094339623 18.976897689769 18.976897689769 18.976897689769 18.976897689769 18.976897689769 18.976897689769 22.4184782608696 22.4184782608696 22.4184782608696 26.578073089701 26.578073089701 26.578073089701 20.2247191011236 20.2247191011236 20.2247191011236 20.2247191011236 20.2247191011236 22.4184782608696 22.4184782608696 22.4184782608696 28.6458333333333 28.6458333333333 28.6458333333333 28.6458333333333 28.6458333333333 28.6458333333333 28.6458333333333 28.6458333333333 28.6458333333333 28.6458333333333 28.6458333333333 28.6458333333333 28.6458333333333 28.6458333333333 28.3203125 28.3203125 28.3203125 28.3203125 28.3203125 28.3203125 28.3203125 28.3203125 28.3203125 28.3203125 28.3203125 28.3203125 28.3203125 28.3203125 28.3203125 28.3203125 28.3203125 28.3203125 28.3203125 28.3203125 28.3203125 28.3203125 28.3203125 28.3203125 28.3203125 28.3203125 28.3203125 28.3203125 28.3203125 28.3203125 28.3203125 28.3203125 28.3203125 28.3203125 71.0823909531502 71.0823909531502 71.0823909531502 71.0823909531502 71.0823909531502 71.0823909531502 71.0823909531502 71.0823909531502 71.0823909531502 71.0823909531502 71.0823909531502 71.0823909531502 71.0823909531502 71.0823909531502 71.0823909531502 71.0823909531502 71.0823909531502 71.0823909531502 71.0823909531502 71.0823909531502 71.0823909531502 71.0823909531502 71.0823909531502 71.0823909531502 71.0823909531502 71.0823909531502 71.0823909531502 71.0823909531502 71.0823909531502 71.0823909531502 71.0823909531502 71.0823909531502 71.0823909531502 21.875 21.875 21.875 21.875 31.5126050420168 31.5126050420168 21.875 17.2811059907834 17.2811059907834 21.875 24.6598639455782 24.6598639455782 24.8161764705882 24.8161764705882 24.8161764705882 24.8161764705882 15.7421289355322 15.7421289355322 21.3963963963964 21.3371266002845 26.9396551724138 26.9396551724138 21.039603960396 21.039603960396 21.039603960396 24.9569707401033 24.9569707401033 24.9569707401033 24.9569707401033 26.6768292682927 26.6768292682927 26.6768292682927 26.6768292682927 22.3880597014925 22.3880597014925 22.3880597014925 22.3880597014925 22.3880597014925 22.3880597014925 15.4867256637168 15.4867256637168 15.4867256637168 15.4867256637168 26.3157894736842 15.4867256637168 30.8219178082192 30.8219178082192 30.8219178082192 30.8219178082192 30.8219178082192 30.8219178082192 -9999 -9999 -9999 -9999 -9999 -9999 -9999 -9999 -9999 -9999 -9999 -9999 -9999 68.3760683760684 68.3760683760684 68.3760683760684 68.3760683760684 68.3760683760684 68.3760683760684 68.3760683760684 75.8483033932136 75.8483033932136 82.8092243186583 82.8092243186583 82.8092243186583 75.8377425044092 75.8377425044092 78.4883720930232 78.4883720930232 82.2695035460993 82.2695035460993 83.955223880597 83.955223880597 83.955223880597 77.8008298755187 -9999 69.3481276005548 69.3481276005548 69.3481276005548 80.0561797752809 80.0561797752809 80.0561797752809 65.668202764977 55.6660039761431 55.6660039761431 55.6660039761431 66.2162162162162 66.2162162162162 66.2162162162162 73.1083844580777 73.1083844580777 73.1083844580777 -9999 -9999 68.4981684981685 68.4981684981685 68.4981684981685 72.5806451612903 72.5806451612903 72.5806451612903 68.7134502923977 68.7134502923977 68.7134502923977 68.7134502923977 68.7134502923977 70.1970443349754 70.1970443349754 70.1970443349754 -9999 -9999 -9999 -9999 -9999 -9999 -9999 -9999 -9999 -9999 -9999 -9999 -9999 -9999 -9999 -9999 -9999 -9999 -9999 -9999 -9999 -9999 -9999 -9999 -9999 -9999 -9999 -9999 -9999 -9999 -9999 -9999 -9999 -9999 -9999 -9999 -9999 -9999 -9999 -9999 -9999 -9999 -9999 -9999 -9999 -9999 -9999 -9999 -9999 -9999 -9999 -9999 -9999 -9999
-9999 -9999 -9999 -9999 -9999 -9999 -9999 -9999 -9999 -9999 -9999 -9999 -9999 -9999 -9999 -9999 -9999 -9999 -9999 -9999 -9999 -9999 -9999 -9999 45.7746478873239 45.7746478873239 45.7746478873239 45.7746478873239 45.7746478873239 45.7746478873239 45.7746478873239 45.7746478873239 45.7746478873239 45.7746478873239 45.7746478873239 45.7746478873239 45.7746478873239 45.7746478873239 45.7746478873239 45.7746478873239 -9999 -9999 -9999 -9999 -9999 -9999 -9999 -9999 -9999 -9999 -9999 -9999 -9999 -9999 -9999 -9999 -9999 -9999 -9999 -9999 -9999 -9999 -9999 -9999 -9999 -9999 -9999 -9999 -9999 -9999 -9999 40.3225806451613 40.3225806451613 40.3225806451613 40.3225806451613 35.5756791720569 35.5756791720569 35.5756791720569 35.5756791720569 35.15625 35.15625 35.15625 35.15625 25.6797583081571 25.6797583081571 25.6797583081571 31.6780821917808 31.6780821917808 35.4330708661417 35.4330708661417 35.4330708661417 35.4330708661417 35.4330708661417 20.3094777562863 21.4943705220061 21.4943705220061 21.4943705220061 21.4943705220061 21.4943705220061 21.4943705220061 21.4943705220061 20.5128205128205 20.5128205128205 20.5128205128205 22.5 22.5 22.5 22.5 22.5 22.5 22.5 -9999 -9999 -9999 -9999 21.6572504708098 21.6572504708098 21.6572504708098 21.6572504708098 21.6572504708098 21.6572504708098 21.6572504708098 21.6572504708098 21.6572504708098 21.6572504708098 21.6572504708098 21.6572504708098 21.6572504708098 21.1946050096339 21.1946050096339 22.9540918163673 22.9540918163673 22.9540918163673 22.9540918163673 22.9540918163673 24.0740740740741 24.0740740740741 22.6415094339623 22.6415094339623 18.976897689769 18.976897689769 18.976897689769 18.976897689769 18.976897689769 18.976897689769 23.7113402061856 23.7113402061856 22.4184782608696 22.4184782608696 23.7113402061856 23.7113402061856 26.578073089701 26.578073089701 20.2247191011236 20.2247191011236 20.2247191011236 20.2247191011236 18.2481751824818 18.2481751824818 18.2481751824818 22.4184782608696 22.4184782608696 28.6458333333333 28.6458333333333 28.6458333333333 28.6458333333333 28.6458333333333 28.6458333333333 28.6458333333333 28.6458333333333 28.6458333333333 28.6458333333333 28.6458333333333 28.6458333333333 28.6458333333333 28.3203125 28.3203125 28.3203125 28.3203125 28.3203125 28.3203125 28.3203125 28.3203125 28.3203125 28.3203125 28.3203125 28.3203125 28.3203125 28.3203125 28.3203125 28.3203125 28.3203125 28.3203125 28.3203125 28.3203125 28.3203125 28.3203125 28.3203125 28.3203125 28.3203125 28.3203125 28.3203125 28.3203125 28.3203125 28.3203125 28.3203125 28.3203125 28.3203125 28.3203125 71.0823909531502 71.0823909531502 71.0823909531502 71.0823909531502 71.0823909531502 71.0823909531502 71.0823909531502 71.0823909531502 71.0823909531502 71.0823909531502 71.0823909531502 71.0823909531502 71.0823909531502 71.0823909531502 71.0823909531502 71.0823909531502 71.0823909531502 71.0823909531502 71.0823909531502 71.0823909531502 71.0823909531502 71.0823909531502 71.0823909531502 71.0823909531502 71.0823909531502 71.0823909531502 71.0823909531502 71.0823909531502 71.0823909531502 71.0823909531502 71.0823909531502 71.0823909531502 21.875 21.875 21.875 21.875 21.875 21.875 21.875 21.875 21.875 21.875 21.875 21.875 24.8161764705882 24.8161764705882 24.8161764705882 15.7421289355322 15.7421289355322 12.0845921450151 12.0845921450151 15.7421289355322 15.7421289355322 15.0602409638554 15.0602409638554 15.0602409638554 15.0602409638554 21.0772833723653 24.9569707401033 24.9569707401033 24.9569707401033 23.1023102310231 26.6768292682927 26.6768292682927 26.6768292682927 25.8964143426295 22.3880597014925 22.3880597014925 22.3880597014925 22.3880597014925 22.3880597014925 15.4867256637168 15.4867256637168 15.4867256637168 15.4867256637168 15.4867256637168 30.8219178082192 30.8219178082192 30.8219178082192 30.8219178082192 30.8219178082192 30.8219178082192 30.8219178082192 -9999 -9999 -9999 -9999 -9999 -9999 -9999 -9999 -9999 -9999 -9999 68.3760683760684 68.3760683760684 68.3760683760684 68.3760683760684 68.3760683760684 68.3760683760684 75.3295668549906 76.3293310463122 76.3293310463122 72.0961281708945 72.0961281708945 75.8483033932136 80.9399477806788 80.9399477806788 80.9399477806788 81.4393939393939 81.4393939393939 78.4883720930232 78.4883720930232 69.4789081885856 69.4789081885856 77.8008298755187 77.8008298755187 77.8008298755187 77.8008298755187 -9999 69.3481276005548 69.3481276005548 69.3481276005548 80.0561797752809 80.0561797752809 80.0561797752809 62.618595825427 62.618595825427 62.618595825427 62.618595825427 66.1434977578475 66.1434977578475 66.1434977578475 70.4809286898839 70.4809286898839 -9999 -9999 -9999 62.2641509433962 68.4981684981685 72.5806451612903 68.7134502923977 68.7134502923977 68.7134502923977 68.7134502923977 68.7134502923977 68.7134502923977 68.7134502923977 58.7818696883853 58.7818696883853 -9999 -9999 -9999 -9999 -9999 -9999 -9999 -9999 -9999 -9999 -9999 -9999 -9999 -9999 -9999 -9999 -9999 -9999 -9999 -9999 -9999 -9999 -9999 -9999 -9999 -9999 -9999 -9999 -9999 -9999 -9999 -9999 -9999 -9999 -9999 -9999 -9999 -9999 -9999 -9999 -9999 -9999 -9999 -9999 -9999 -9999 -9999 -9999 -9999 -9999 -9999 -9999 -9999 -9999 -9999 -9999
-9999 -9999 -9999 -9999 -9999 -9999 -9999 -9999 -9999 -9999 -9999 -9999 -9999 -9999 -9999 -9999 -9999 -9999 -9999 -9999 -9999 -9999 -9999 -9999 -9999 -9999 -9999 45.7746478873239 45.7746478873239 45.7746478873239 45.7746478873239 45.7746478873239 45.7746478873239 45.7746478873239 45.7746478873239 45.7746478873239 45.7746478873239 45.7746478873239 -9999 -9999 -9999 -9999 -9999 -9999 -9999 -9999 -9999 -9999 -9999 -9999 -9999 -9999 -9999 -9999 -9999 -9999 -9999 -9999 -9999 -9999 -9999 -9999 -9999 -9999 -9999 -9999 -9999 -9999 -9999 -9999 -9999 -9999 35.5756791720569 35.5756791720569 35.5756791720569 35.5756791720569 35.5756791720569 35.5756791720569 35.5756791720569 32.6594090202177 32.6594090202177 35.15625 35.15625 35.15625 25.6797583081571 31.1973018549747 35.4330708661417 35.4330708661417 35.4330708661417 35.4330708661417 35.4330708661417 35.4330708661417 35.4330708661417 35.4330708661417 21.4943705220061 21.4943705220061 21.4943705220061 21.4943705220061 21.4943705220061 21.4943705220061 21.4943705220061 21.4943705220061 22.5 22.5 22.5 22.5 22.5 22.5 22.5 22.5 22.5 22.5 -9999 21.6572504708098 21.6572504708098 21.6572504708098 21.6572504708098 21.6572504708098 21.6572504708098 21.6572504708098 21.6572504708098 21.6572504708098 21.6572504708098 21.6572504708098 21.6572504708098 21.6572504708098 21.6572504708098 21.6572504708098 21.6572504708098 18.4331797235023 18.4331797235023 22.9540918163673 22.9540918163673 22.9540918163673 24.0740740740741 24.0740740740741 24.0740740740741 24.0740740740741 18.976897689769 18.976897689769 18.976897689769 18.976897689769 18.976897689769 23.7113402061856 23.7113402061856 23.7113402061856 23.7113402061856 23.7113402061856 23.7113402061856 23.7113402061856 23.7113402061856 26.578073089701 26.578073089701 18.2481751824818 18.2481751824818 18.2481751824818 18.2481751824818 18.2481751824818 18.2481751824818 22.8136882129278 20.8681135225376 22.4184782608696 28.6458333333333 28.6458333333333 39.7727272727273 28.6458333333333 28.6458333333333 28.6458333333333 28.6458333333333 28.6458333333333 28.6458333333333 28.6458333333333 28.6458333333333 28.6458333333333 28.6458333333333 28.6458333333333 28.3203125 28.3203125 28.3203125 28.3203125 28.3203125 28.3203125 28.3203125 28.3203125 28.3203125 28.3203125 28.3203125 28.3203125 28.3203125 28.3203125 28.3203125 28.3203125 28.3203125 28.3203125 28.3203125 28.3203125 28.3203125 28.3203125 28.3203125 28.3203125 28.3203125 28.3203125 28.3203125 28.3203125 28.3203125 28.3203125 28.3203125 28.3203125 28.3203125 28.3203125 71.0823909531502 71.0823909531502 71.0823909531502 71.0823909531502 71.0823909531502 71.0823909531502 71.0823909531502 71.0823909531502 71.0823909531502 71.0823909531502 71.0823909531502 71.0823909531502 71.0823909531502 71.0823909531502 71.0823909531502 71.0823909531502 71.0823909531502 71.0823909531502 71.0823909531502 71.0823909531502 71.0823909531502 71.0823909531502 71.0823909531502 71.0823909531502 71.0823909531502 71.0823909531502 71.0823909531502 71.0823909531502 71.0823909531502 71.0823909531502 71.0823909531502 21.875 21.875 21.875 21.875 21.875 21.875 21.875 21.875 21.875 21.875 21.875 21.875 14.5719489981785 14.5719489981785 15.7421289355322 6.23700623700624 15.7421289355322 12.0845921450151 12.0845921450151 12.0845921450151 12.0845921450151 15.0602409638554 15.0602409638554 -9999 -9999 21.0772833723653 21.0772833723653 21.0772833723653 21.4521452145215 23.1023102310231 23.1023102310231 23.1023102310231 25.8964143426295 25.8964143426295 25.8964143426295 22.3880597014925 22.3880597014925 22.3880597014925 15.4867256637168 15.4867256637168 15.4867256637168 15.4867256637168 30.8219178082192 30.8219178082192 30.8219178082192 30.8219178082192 30.8219178082192 30.8219178082192 30.8219178082192 30.8219178082192 -9999 -9999 -9999 -9999 -9999 -9999 -9999 -9999 -9999 30.3867403314917 30.3867403314917 68.3760683760684 68.3760683760684 68.3760683760684 68.3760683760684 68.3760683760684 68.3760683760684 68.3760683760684 75.3295668549906 75.3295668549906 76.3293310463122 72.0961281708945 72.0961281708945 75.8483033932136 75.8483033932136 68.0803571428571 68.0803571428571 68.0803571428571 68.0803571428571 81.4393939393939 81.4393939393939 69.4789081885856 69.4789081885856 53.7974683544304 53.7974683544304 53.7974683544304 77.8008298755187 69.3481276005548 69.3481276005548 69.3481276005548 69.3481276005548 74.5257452574526 62.0915032679739 62.0915032679739 61.9565217391304 61.9565217391304 61.9565217391304 61.9565217391304 79.7720797720798 79.7720797720798 79.7720797720798 70.4809286898839 70.4809286898839 -9999 -9999 62.2641509433962 62.2641509433962 62.2641509433962 62.2641509433962 62.2641509433962 62.2641509433962 62.2641509433962 50.9296685529507 50.9296685529507 50.9296685529507 50.9296685529507 58.7818696883853 58.7818696883853 -9999 -9999 -9999 -9999 -9999 -9999 -9999 -9999 -9999 -9999 -9999 -9999 -9999 -9999 -9999 -9999 -9999 -9999 -9999 -9999 -9999 -9999 -9999 -9999 -9999 -9999 -9999 -9999 -9999 -9999 -9999 -9999 -9999 -9999 -9999 -9999 -9999 -9999 -9999 -9999 -9999 -9999 -9999 -9999 -9999 -9999 -9999 -9999 -9999 -9999 -9999 -9999 -9999 -9999 -9999 -9999
-9999 -9999 -9999 -9999 -9999 -9999 -9999 -9999 -9999 -9999 -9999 -9999 -9999 -9999 -9999 -9999 -9999 -9999 -9999 -9999 -9999 -9999 -9999 -9999 -9999 -9999 -9999 -9999 -9999 -9999 45.7746478873239 45.7746478873239 45.7746478873239 45.7746478873239 45.7746478873239 -9999 -9999 -9999 -9999 -9999 -9999 -9999 -9999 -9999 -9999 -9999 -9999 -9999 -9999 -9999 -9999 -9999 -9999 -9999 -9999 -9999 -9999 -9999 -9999 -9999 -9999 -9999 -9999 -9999 -9999 -9999 -9999 -9999 -9999 33.3333333333333 33.3333333333333 35.5756791720569 35.5756791720569 35.5756791720569 35.5756791720569 35.5756791720569 32.6594090202177 32.6594090202177 32.6594090202177 32.6594090202177 32.6594090202177 35.15625 35.15625 31.1973018549747 29.7766749379653 29.7766749379653 29.7766749379653 35.4330708661417 35.4330708661417 35.4330708661417 21.9907407407407 21.9907407407407 21.9907407407407 21.9907407407407 24.4498777506112 21.4943705220061 21.4943705220061 21.4943705220061 21.4943705220061 21.4943705220061 21.4943705220061 21.4943705220061 21.4943705220061 22.5 22.5 22.5 22.5 22.5 19.3621867881549 19.3621867881549 19.3621867881549 19.3621867881549 19.3621867881549 19.3621867881549 21.6572504708098 21.6572504708098 21.6572504708098 21.6572504708098 21.6572504708098 21.6572504708098 21.6572504708098 21.6572504708098 21.6572504708098 21.6572504708098 21.6572504708098 21.6572504708098 21.6572504708098 21.6572504708098 21.6572504708098 18.4331797235023 18.4331797235023 18.4331797235023 22.9540918163673 22.9540918163673 22.9540918163673 24.0740740740741 24.0740740740741 18.976897689769 18.976897689769 18.976897689769 18.976897689769 27.6041666666667 25.3054101221641 25.3054101221641 25.3054101221641 25.3054101221641 25.3054101221641 23.7113402061856 23.7113402061856 23.7113402061856 23.7113402061856 23.7113402061856 18.2481751824818 18.2481751824818 18.2481751824818 18.2481751824818 22.8136882129278 22.8136882129278 22.8136882129278 22.8136882129278 20.8681135225376 20.8681135225376 39.7727272727273 39.7727272727273 39.7727272727273 39.7727272727273 39.7727272727273 28.6458333333333 28.6458333333333 28.6458333333333 28.6458333333333 28.6458333333333 28.6458333333333 28.6458333333333 28.6458333333333 28.6458333333333 28.3203125 28.3203125 28.3203125 28.3203125 28.3203125 28.3203125 28.3203125 28.3203125 28.3203125 28.3203125 28.3203125 28.3203125 28.3203125 28.3203125 28.3203125 28.3203125 28.3203125 28.3203125 28.3203125 28.3203125 28.3203125 28.3203125 28.3203125 28.3203125 28.3203125 28.3203125 28.3203125 28.3203125 28.3203125 28.3203125 28.3203125 28.3203125 28.3203125 28.3203125 71.0823909531502 71.0823909531502 71.0823909531502 71.0823909531502 71.0823909531502 71.0823909531502 71.0823909531502 71.0823909531502 71.0823909531502 71.0823909531502 71.0823909531502 71.0823909531502 71.0823909531502 71.0823909531502 71.0823909531502 71.0823909531502 71.0823909531502 71.0823909531502 71.0823909531502 71.0823909531502 71.0823909531502 71.0823909531502 71.0823909531502 71.0823909531502 71.0823909531502 71.0823909531502 71.0823909531502 71.0823909531502 71.0823909531502 71.0823909531502 21.875 21.875 21.875 21.875 21.875 21.875 21.875 21.875 21.875 21.875 21.875 21.875 21.875 14.5719489981785 15.7421289355322 27.1453590192644 -9999 -9999 6.23700623700624 6.23700623700624 15.7421289355322 12.0845921450151 15.7421289355322 15.7421289355322 -9999 -9999 21.0772833723653 21.0772833723653 21.4521452145215 21.4521452145215 21.4521452145215 21.4521452145215 23.1023102310231 23.1023102310231 23.1023102310231 25.8964143426295 25.8964143426295 25.8964143426295 24.7584541062802 15.4867256637168 15.4867256637168 30.8219178082192 30.8219178082192 30.8219178082192 30.8219178082192 30.8219178082192 30.8219178082192 30.8219178082192 30.8219178082192 -9999 -9999 -9999 -9999 -9999 -9999 -9999 -9999 -9999 30.3867403314917 30.3867403314917 30.3867403314917 30.3867403314917 30.3867403314917 30.3867403314917 68.3760683760684 68.3760683760684 68.3760683760684 68.3760683760684 68.3760683760684 75.3295668549906 75.3295668549906 69.8466780238501 69.9013157894737 65.2173913043478 64.8148148148148 64.8148148148148 74.8251748251748 68.0803571428571 68.0803571428571 68.0803571428571 68.0803571428571 72.8346456692913 72.8346456692913 72.8346456692913 53.7974683544304 53.7974683544304 53.7974683544304 -9999 75.3424657534247 75.3424657534247 75.3424657534247 75.3424657534247 76.3500931098696 76.3500931098696 76.3500931098696 72.5388601036269 72.5388601036269 72.5388601036269 72.5388601036269 64.1399416909621 64.1399416909621 64.1399416909621 70.4809286898839 -9999 -9999 -9999 62.2641509433962 62.2641509433962 62.2641509433962 62.2641509433962 62.2641509433962 62.2641509433962 62.2641509433962 62.2641509433962 50.9296685529507 50.9296685529507 50.9296685529507 50.9296685529507 -9999 -9999 -9999 -9999 -9999 -9999 -9999 -9999 -9999 -9999 -9999 -9999 -9999 -9999 -9999 -9999 -9999 -9999 -9999 -9999 -9999 -9999 -9999 -9999 -9999 -9999 -9999 -9999 -9999 -9999 -9999 -9999 -9999 -9999 -9999 -9999 -9999 -9999 -9999 -9999 -9999 -9999 -9999 -9999 -9999 -9999 -9999 -9999 -9999 -9999 -9999 -9999 -9999 -9999 -9999 -9999 -9999
-9999 -9999 -9999 -9999 -9999 -9999 -9999 -9999 -9999 -9999 -9999 -9999 -9999 -9999 -9999 -9999 -9999 -9999 -9999 -9999 -9999 -9999 -9999 -9999 -9999 -9999 -9999 -9999 -9999 -9999 -9999 45.7746478873239 45.7746478873239 -9999 -9999 -9999 -9999 -9999 -9999 -9999 -9999 -9999 -9999 -9999 -9999 -9999 -9999 -9999 -9999 -9999 -9999 -9999 -9999 -9999 -9999 -9999 -9999 -9999 -9999 -9999 -9999 -9999 -9999 -9999 -9999 -9999 -9999 33.3333333333333 33.3333333333333 33.3333333333333 33.3333333333333 33.3333333333333 35.5756791720569 35.5756791720569 31.1973018549747 31.1973018549747 31.1973018549747 32.6594090202177 32.6594090202177 35.15625 35.15625 31.1973018549747 29.7766749379653 29.7766749379653 29.7766749379653 29.7766749379653 29.7766749379653 35.4330708661417 21.9907407407407 21.9907407407407 21.9907407407407 21.9907407407407 24.4498777506112 24.4498777506112 24.4498777506112 24.4498777506112 21.4943705220061 21.4943705220061 21.4943705220061 21.4943705220061 21.4943705220061 21.4943705220061 21.4943705220061 19.3621867881549 19.3621867881549 19.3621867881549 19.3621867881549 19.3621867881549 19.3621867881549 19.3621867881549 19.3621867881549 19.3621867881549 19.3621867881549 19.3621867881549 19.3621867881549 21.6572504708098 21.6572504708098 21.6572504708098 21.6572504708098 21.6572504708098 21.6572504708098 21.6572504708098 20.5278592375367 20.5278592375367 21.6572504708098 21.6572504708098 21.6572504708098 21.6572504708098 21.497919556172 18.4331797235023 18.4331797235023 18.4331797235023 18.4331797235023 24.0740740740741 24.0740740740741 24.0740740740741 24.0740740740741 24.0740740740741 18.976897689769 27.6041666666667 27.6041666666667 27.6041666666667 25.3054101221641 25.3054101221641 25.3054101221641 25.3054101221641 25.3054101221641 23.7113402061856 23.7113402061856 23.7113402061856 23.7113402061856 23.7113402061856 23.7113402061856 18.2481751824818 22.8136882129278 22.8136882129278 22.8136882129278 22.8136882129278 22.8136882129278 22.8136882129278 20.8681135225376 31.9548872180451 31.9548872180451 31.9548872180451 39.7727272727273 39.7727272727273 39.7727272727273 28.6458333333333 28.6458333333333 28.6458333333333 28.6458333333333 24.5398773006135 24.5398773006135 24.5398773006135 24.5398773006135 28.3203125 28.3203125 28.3203125 28.3203125 28.3203125 28.3203125 28.3203125 28.3203125 28.3203125 28.3203125 28.3203125 28.3203125 28.3203125 28.3203125 28.3203125 28.3203125 28.3203125 28.3203125 28.3203125 28.3203125 28.3203125 28.3203125 28.3203125 28.3203125 28.3203125 28.3203125 28.3203125 28.3203125 28.3203125 28.3203125 28.3203125 28.3203125 28.3203125 28.3203125 28.3203125 71.0823909531502 71.0823909531502 71.0823909531502 71.0823909531502 71.0823909531502 71.0823909531502 71.0823909531502 71.0823909531502 71.0823909531502 71.0823909531502 71.0823909531502 71.0823909531502 71.0823909531502 71.0823909531502 71.0823909531502 71.0823909531502 71.0823909531502 71.0823909531502 71.0823909531502 71.0823909531502 71.0823909531502 71.0823909531502 71.0823909531502 71.0823909531502 71.0823909531502 71.0823909531502 71.0823909531502 71.0823909531502 71.0823909531502 71.0823909531502 71.0823909531502 21.875 21.875 21.875 21.875 21.875 21.875 21.875 21.875 21.875 21.875 21.875 21.875 15.7421289355322 27.1453590192644 27.1453590192644 27.1453590192644 27.1453590192644 27.1453590192644 -9999 -9999 6.23700623700624 6.23700623700624 6.23700623700624 -9999 -9999 -9999 -9999 -9999 21.4521452145215 20.0698080279232 20.0698080279232 21.4521452145215 13.0023640661939 21.4521452145215 23.1023102310231 23.1023102310231 24.7584541062802 24.7584541062802 30.8219178082192 23.7762237762238 23.7762237762238 23.7762237762238 30.8219178082192 30.8219178082192 30.8219178082192 30.8219178082192 30.8219178082192 -9999 -9999 -9999 -9999 -9999 -9999 -9999 30.3867403314917 30.3867403314917 30.3867403314917 30.3867403314917 30.3867403314917 30.3867403314917 30.3867403314917 30.3867403314917 30.3867403314917 30.3867403314917 30.3867403314917 68.3760683760684 68.3760683760684 68.3760683760684 39.1791044776119 69.8466780238501 69.8466780238501 69.9013157894737 69.9013157894737 65.2173913043478 64.8148148148148 64.8148148148148 74.8251748251748 71.2996389891697 71.2996389891697 71.2996389891697 72.6299694189602 72.6299694189602 72.6299694189602 68.609022556391 68.609022556391 68.609022556391 68.7984496124031 68.7984496124031 68.7984496124031 68.7984496124031 73.5524256651017 73.5524256651017 73.5524256651017 73.5524256651017 65.989847715736 65.989847715736 65.989847715736 72.0620842572062 70.4809286898839 70.4809286898839 70.4809286898839 -9999 -9999 -9999 62.2641509433962 62.2641509433962 62.2641509433962 62.2641509433962 62.2641509433962 62.2641509433962 62.2641509433962 62.2641509433962 62.2641509433962 62.2641509433962 50.9296685529507 50.9296685529507 -9999 -9999 -9999 -9999 -9999 -9999 -9999 -9999 -9999 -9999 -9999 -9999 -9999 -9999 -9999 -9999 -9999 -9999 -9999 -9999 -9999 -9999 -9999 -9999 -9999 -9999 -9999 -9999 -9999 -9999 -9999 -9999 -9999 -9999 -9999 -9999 -9999 -9999 -9999 -9999 -9999 -9999 -9999 -9999 -9999 -9999 -9999 -9999 -9999 -9999 -9999 -9999 -9999 -9999 -9999 -9999 -9999 -9999
-9999 -9999 -9999 -9999 -9999 -9999 -9999 -9999 -9999 -9999 -9999 -9999 -9999 -9999 -9999 -9999 -9999 -9999 -9999 -9999 -9999 -9999 -9999 -9999 -9999 -9999 -9999 -9999 -9999 -9999 -9999 -9999 -9999 45.7746478873239 -9999 -9999 -9999 -9999 -9999 -9999 -9999 -9999 -9999 -9999 -9999 -9999 -9999 -9999 -9999 -9999 -9999 -9999 -9999 -9999 -9999 -9999 -9999 -9999 -9999 -9999 -9999 -9999 -9999 -9999 -9999 -9999 -9999 33.3333333333333 33.3333333333333 33.3333333333333 33.3333333333333 33.3333333333333 33.3333333333333 35.5756791720569 31.1973018549747 31.1973018549747 31.1973018549747 31.1973018549747 32.6594090202177 31.1973018549747 29.7766749379653 29.7766749379653 29.7766749379653 29.7766749379653 29.7766749379653 29.7766749379653 29.7766749379653 29.3594306049822 21.9907407407407 21.9907407407407 26.4976958525346 24.4498777506112 24.4498777506112 24.4498777506112 24.4498777506112 24.4498777506112 24.4498777506112 21.4943705220061 21.4943705220061 19.3621867881549 19.3621867881549 19.3621867881549 19.3621867881549 19.3621867881549 19.3621867881549 19.3621867881549 19.3621867881549 19.3621867881549 19.3621867881549 19.3621867881549 19.3621867881549 19.3621867881549 19.3621867881549 19.3621867881549 19.3621867881549 19.3621867881549 21.6572504708098 21.6572504708098 21.6572504708098 21.6572504708098 21.6572504708098 21.6572504708098 20.5278592375367 20.5278592375367 20.5278592375367 21.6572504708098 21.497919556172 21.497919556172 21.497919556172 21.497919556172 18.4331797235023 18.4331797235023 18.4331797235023 18.4331797235023 24.0740740740741 24.0740740740741 24.0740740740741 27.6041666666667 27.6041666666667 27.6041666666667 27.6041666666667 27.6041666666667 27.6041666666667 25.3054101221641 25.3054101221641 25.3054101221641 25.3054101221641 23.7113402061856 23.7113402061856 23.7113402061856 23.7113402061856 25.7826887661142 25.7826887661142 25.7826887661142 22.8136882129278 22.8136882129278 22.8136882129278 22.8136882129278 20.8681135225376 20.8681135225376 20.8681135225376 31.9548872180451 31.9548872180451 31.9548872180451 27.8422273781903 39.7727272727273 27.8422273781903 27.8422273781903 28.6458333333333 28.6458333333333 24.5398773006135 24.5398773006135 24.5398773006135 24.5398773006135 24.5398773006135 28.3203125 28.3203125 28.3203125 28.3203125 28.3203125 28.3203125 28.3203125 28.3203125 28.3203125 28.3203125 28.3203125 28.3203125 28.3203125 28.3203125 28.3203125 28.3203125 28.3203125 28.3203125 28.3203125 28.3203125 28.3203125 28.3203125 28.3203125 28.3203125 28.3203125 28.3203125 28.3203125 28.3203125 28.3203125 28.3203125 28.3203125 28.3203125 28.3203125 28.3203125 28.3203125 28.3203125 71.0823909531502 71.0823909531502 71.0823909531502 71.0823909531502 71.0823909531502 71.0823909531502 71.0823909531502 71.0823909531502 71.0823909531502 71.0823909531502 71.0823909531502 71.0823909531502 71.0823909531502 71.0823909531502 71.0823909531502 71.0823909531502 71.0823909531502 71.0823909531502 71.0823909531502 71.0823909531502 71.0823909531502 71.0823909531502 71.0823909531502 71.0823909531502 71.0823909531502 71.0823909531502 71.0823909531502 71.0823909531502 71.0823909531502 71.0823909531502 71.0823909531502 71.0823909531502 71.0823909531502 71.0823909531502 21.875 21.875 21.875 21.875 21.875 21.875 21.875 15.7421289355322 27.1453590192644 27.1453590192644 27.1453590192644 27.1453590192644 27.1453590192644 27.1453590192644 27.1453590192644 27.1453590192644 27.1453590192644 -9999 6.23700623700624 -9999 -9999 -9999 -9999 -9999 20.0698080279232 20.0698080279232 20.0698080279232 20.0698080279232 13.0023640661939 13.0023640661939 13.0023640661939 -9999 20.7956600361664 20.7956600361664 20.7956600361664 20.7956600361664 22.8426395939086 22.8426395939086 22.8426395939086 30.8219178082192 30.8219178082192 30.8219178082192 -9999 -9999 -9999 -9999 -9999 -9999 30.3867403314917 30.3867403314917 30.3867403314917 30.3867403314917 30.3867403314917 30.3867403314917 30.3867403314917 30.3867403314917 30.3867403314917 30.3867403314917 30.3867403314917 30.3867403314917 30.3867403314917 30.3867403314917 68.3760683760684 39.1791044776119 39.1791044776119 39.1791044776119 69.8466780238501 69.9013157894737 69.9013157894737 80.4794520547945 61.4583333333333 61.4583333333333 74.8251748251748 69.7084917617237 69.7084917617237 69.7084917617237 62.984496124031 62.984496124031 72.6299694189602 68.609022556391 68.609022556391 68.7984496124031 66.8238993710692 66.8238993710692 66.8238993710692 66.8238993710692 73.5524256651017 73.5524256651017 73.5524256651017 73.5524256651017 62.0967741935484 62.0967741935484 62.0967741935484 62.0967741935484 43.1034482758621 43.1034482758621 43.1034482758621 -9999 -9999 -9999 62.2641509433962 62.2641509433962 62.2641509433962 62.2641509433962 62.2641509433962 62.2641509433962 62.2641509433962 62.2641509433962 62.2641509433962 62.2641509433962 62.2641509433962 -9999 -9999 -9999 -9999 -9999 -9999 -9999 -9999 -9999 -9999 -9999 -9999 -9999 -9999 -9999 -9999 -9999 -9999 -9999 -9999 -9999 -9999 -9999 -9999 -9999 -9999 -9999 -9999 -9999 -9999 -9999 -9999 -9999 -9999 -9999 -9999 -9999 -9999 -9999 -9999 -9999 -9999 -9999 -9999 -9999 -9999 -9999 -9999 -9999 -9999 -9999 -9999 -9999 -9999 -9999 -9999 -9999 -9999 -9999
-9999 -9999 -9999 -9999 -9999 -9999 -9999 -9999 -9999 -9999 -9999 -9999 -9999 -9999 -9999 -9999 -9999 -9999 -9999 -9999 -9999 -9999 -9999 -9999 -9999 -9999 -9999 -9999 -9999 -9999 -9999 -9999 -9999 -9999 -9999 -9999 -9999 -9999 -9999 -9999 -9999 -9999 -9999 -9999 -9999 -9999 -9999 -9999 -9999 -9999 -9999 -9999 -9999 -9999 -9999 -9999 -9999 -9999 -9999 -9999 -9999 -9999 -9999 -9999 -9999 -9999 -9999 -9999 -9999 -9999 -9999 33.3333333333333 33.3333333333333 -9999 -9999 31.1973018549747 25.811209439528 29.7766749379653 29.7766749379653 29.7766749379653 29.7766749379653 29.7766749379653 29.7766749379653 29.3594306049822 29.3594306049822 29.3594306049822 29.3594306049822 29.3594306049822 26.4976958525346 26.4976958525346 26.4976958525346 24.4498777506112 24.4498777506112 24.4498777506112 24.4498777506112 24.4498777506112 24.4498777506112 26.6955266955267 19.3621867881549 19.3621867881549 19.3621867881549 19.3621867881549 19.3621867881549 19.3621867881549 19.3621867881549 19.3621867881549 19.3621867881549 19.3621867881549 19.3621867881549 19.3621867881549 19.3621867881549 19.3621867881549 19.3621867881549 19.3621867881549 19.3621867881549 19.3621867881549 19.3621867881549 21.0843373493976 21.0843373493976 21.0843373493976 21.0843373493976 21.0843373493976 20.5278592375367 20.5278592375367 25.6959314775161 25.6959314775161 25.6959314775161 21.497919556172 21.497919556172 21.497919556172 18.4331797235023 18.4331797235023 18.4331797235023 18.4331797235023 18.4331797235023 27.6041666666667 27.6041666666667 27.6041666666667 27.6041666666667 27.6041666666667 27.6041666666667 27.6041666666667 27.6041666666667 25.3054101221641 25.3054101221641 25.3054101221641 25.3054101221641 25.3054101221641 19.1938579654511 25.7826887661142 25.7826887661142 25.7826887661142 25.7826887661142 25.7826887661142 25.7826887661142 25.7826887661142 25.7826887661142 25.7826887661142 20.8681135225376 20.8681135225376 20.8681135225376 31.9548872180451 31.9548872180451 31.9548872180451 31.9548872180451 27.8422273781903 27.8422273781903 27.8422273781903 27.8422273781903 27.3722627737226 27.3722627737226 24.5398773006135 24.5398773006135 24.5398773006135 28.3203125 28.3203125 28.3203125 28.3203125 28.3203125 28.3203125 28.3203125 28.3203125 28.3203125 28.3203125 28.3203125 28.3203125 28.3203125 28.3203125 28.3203125 28.3203125 28.3203125 28.3203125 28.3203125 28.3203125 28.3203125 28.3203125 28.3203125 28.3203125 28.3203125 28.3203125 28.3203125 28.3203125 28.3203125 28.3203125 28.3203125 28.3203125 28.3203125 28.3203125 28.3203125 28.3203125 28.3203125 71.0823909531502 71.0823909531502 71.0823909531502 71.0823909531502 71.0823909531502 71.0823909531502 71.0823909531502 71.0823909531502 71.0823909531502 71.0823909531502 71.0823909531502 71.0823909531502 71.0823909531502 71.0823909531502 71.0823909531502 71.0823909531502 71.0823909531502 71.0823909531502 71.0823909531502 71.0823909531502 71.0823909531502 71.0823909531502 71.0823909531502 71.0823909531502 71.0823909531502 71.0823909531502 71.0823909531502 71.0823909531502 71.0823909531502 71.0823909531502 71.0823909531502 71.0823909531502 71.0823909531502 71.0823909531502 71.0823909531502 71.0823909531502 71.0823909531502 71.0823909531502 71.0823909531502 71.0823909531502 71.0823909531502 71.0823909531502 -9999 27.1453590192644 27.1453590192644 27.1453590192644 27.1453590192644 27.1453590192644 27.1453590192644 27.1453590192644 27.1453590192644 27.1453590192644 27.1453590192644 27.1453590192644 -9999 -9999 -9999 -9999 20.0698080279232 20.0698080279232 20.0698080279232 13.0023640661939 13.0023640661939 -9999 -9999 26.9230769230769 26.9230769230769 26.9230769230769 18.9393939393939 22.8426395939086 22.8426395939086 22.8426395939086 22.8426395939086 30.8219178082192 -9999 -9999 -9999 -9999 -9999 -9999 -9999 30.3867403314917 30.3867403314917 30.3867403314917 30.3867403314917 30.3867403314917 30.3867403314917 30.3867403314917 30.3867403314917 30.3867403314917 30.3867403314917 30.3867403314917 30.3867403314917 30.3867403314917 30.3867403314917 30.3867403314917 46.4601769911504 46.4601769911504 53.1400966183575 75.5711775043937 75.5711775043937 66.2650602409639 75.3564154786151 80.4794520547945 61.4583333333333 61.4583333333333 74.8251748251748 74.8251748251748 62.7906976744186 62.7906976744186 62.984496124031 62.984496124031 62.984496124031 68.7984496124031 68.7984496124031 68.7984496124031 76.1024182076814 76.1024182076814 76.1024182076814 76.1024182076814 68.6813186813187 60.8228980322004 60.8228980322004 60.8228980322004 72.9461756373938 72.9461756373938 72.9461756373938 43.1034482758621 43.1034482758621 43.1034482758621 -9999 -9999 -9999 -9999 62.2641509433962 62.2641509433962 62.2641509433962 62.2641509433962 62.2641509433962 62.2641509433962 62.2641509433962 62.2641509433962 62.2641509433962 62.2641509433962 62.2641509433962 62.2641509433962 -9999 -9999 -9999 -9999 -9999 -9999 -9999 -9999 -9999 -9999 -9999 -9999 -9999 -9999 -9999 -9999 -9999 -9999 -9999 -9999 -9999 -9999 -9999 -9999 -9999 -9999 -9999 -9999 -9999 -9999 -9999 -9999 -9999 -9999 -9999 -9999 -9999 -9999 -9999 -9999 -9999 -9999 -9999 -9999 -9999 -9999 -9999 -9999 -9999 -9999 -9999 -9999 -9999 -9999 -9999 -9999 -9999 -9999
-9999 -9999 -9999 -9999 -9999 -9999 -9999 -9999 -9999 -9999 -9999 -9999 -9999 -9999 -9999 -9999 -9999 -9999 -9999 -9999 -9999 -9999 -9999 -9999 -9999 -9999 -9999 -9999 -9999 -9999 -9999 -9999 -9999 -9999 -9999 -9999 -9999 -9999 -9999 -9999 -9999 -9999 -9999 -9999 -9999 -9999 -9999 -9999 -9999 -9999 -9999 -9999 -9999 -9999 -9999 -9999 -9999 -9999 -9999 -9999 -9999 -9999 -9999 -9999 -9999 -9999 -9999 -9999 22.8310502283105 33.3333333333333 22.8310502283105 22.8310502283105 -9999 -9999 -9999 25.811209439528 25.811209439528 25.811209439528 25.811209439528 29.7766749379653 29.7766749379653 29.7766749379653 29.3594306049822 29.3594306049822 29.3594306049822 29.3594306049822 26.4976958525346 26.4976958525346 26.4976958525346 26.4976958525346 24.4498777506112 24.4498777506112 24.4498777506112 24.4498777506112 24.4498777506112 26.6955266955267 26.6955266955267 26.6955266955267 26.6955266955267 19.3621867881549 19.3621867881549 19.3621867881549 19.3621867881549 19.3621867881549 19.3621867881549 19.3621867881549 19.3621867881549 19.3621867881549 19.3621867881549 19.3621867881549 19.3621867881549 19.3621867881549 19.3621867881549 19.3621867881549 24.2290748898678 24.2290748898678 19.3621867881549 19.3621867881549 18.3585313174946 18.3585313174946 18.3585313174946 21.0843373493976 21.0843373493976 25.6959314775161 25.6959314775161 25.6959314775161 25.6959314775161 25.6959314775161 21.497919556172 24.1758241758242 24.1758241758242 18.4331797235023 18.4331797235023 18.4331797235023 18.4331797235023 27.6041666666667 27.6041666666667 27.6041666666667 27.6041666666667 27.6041666666667 27.6041666666667 27.6041666666667 27.6041666666667 27.6041666666667 25.3054101221641 25.3054101221641 19.1938579654511 19.1938579654511 19.1938579654511 19.1938579654511 25.7826887661142 25.7826887661142 25.7826887661142 25.7826887661142 25.7826887661142 25.7826887661142 25.7826887661142 20.8681135225376 20.8681135225376 20.8681135225376 20.8681135225376 20.8681135225376 31.9548872180451 31.9548872180451 31.9548872180451 31.9548872180451 27.8422273781903 27.8422273781903 27.8422273781903 27.3722627737226 27.3722627737226 27.3722627737226 27.3722627737226 27.3722627737226 27.3722627737226 28.3203125 28.3203125 28.3203125 28.3203125 28.3203125 28.3203125 28.3203125 28.3203125 28.3203125 28.3203125 28.3203125 28.3203125 28.3203125 28.3203125 28.3203125 28.3203125 28.3203125 28.3203125 28.3203125 28.3203125 28.3203125 28.3203125 28.3203125 28.3203125 28.3203125 28.3203125 28.3203125 28.3203125 28.3203125 28.3203125 28.3203125 28.3203125 28.3203125 28.3203125 28.3203125 28.3203125 71.0823909531502 71.0823909531502 71.0823909531502 71.0823909531502 71.0823909531502 71.0823909531502 71.0823909531502 71.0823909531502 71.0823909531502 71.0823909531502 71.0823909531502 71.0823909531502 71.0823909531502 71.0823909531502 71.0823909531502 71.0823909531502 71.0823909531502 71.0823909531502 71.0823909531502 71.0823909531502 71.0823909531502 71.0823909531502 71.0823909531502 71.0823909531502 71.0823909531502 71.0823909531502 71.0823909531502 71.0823909531502 71.0823909531502 71.0823909531502 71.0823909531502 71.0823909531502 71.0823909531502 71.0823909531502 71.0823909531502 71.0823909531502 71.0823909531502 71.0823909531502 71.0823909531502 71.0823909531502 71.0823909531502 71.0823909531502 -9999 -9999 -9999 -9999 27.1453590192644 27.1453590192644 27.1453590192644 27.1453590192644 27.1453590192644 27.1453590192644 27.1453590192644 27.1453590192644 27.1453590192644 27.1453590192644 27.1453590192644 -9999 -9999 -9999 -9999 -9999 26.9230769230769 26.9230769230769 26.9230769230769 26.9230769230769 18.9393939393939 18.9393939393939 18.9393939393939 18.9393939393939 18.9393939393939 22.8426395939086 -9999 -9999 -9999 -9999 -9999 -9999 -9999 -9999 30.3867403314917 30.3867403314917 30.3867403314917 30.3867403314917 30.3867403314917 30.3867403314917 30.3867403314917 30.3867403314917 30.3867403314917 30.3867403314917 30.3867403314917 30.3867403314917 30.3867403314917 30.3867403314917 30.3867403314917 -9999 46.4601769911504 46.4601769911504 53.1400966183575 53.1400966183575 75.5711775043937 66.2650602409639 75.3564154786151 75.3564154786151 80.4794520547945 61.4583333333333 63.5208711433757 62.7906976744186 62.7906976744186 62.7906976744186 62.7906976744186 62.7906976744186 -9999 68.7984496124031 68.7984496124031 73.1481481481482 73.1481481481482 73.1481481481482 73.1481481481482 76.1024182076814 75.4985754985755 75.4985754985755 75.4985754985755 75.4985754985755 71.285140562249 71.285140562249 71.285140562249 71.285140562249 81.953642384106 -9999 -9999 -9999 -9999 62.2641509433962 62.2641509433962 62.2641509433962 62.2641509433962 62.2641509433962 62.2641509433962 62.2641509433962 62.2641509433962 62.2641509433962 62.2641509433962 62.2641509433962 62.2641509433962 -9999 -9999 -9999 -9999 -9999 -9999 -9999 -9999 -9999 -9999 -9999 -9999 -9999 -9999 -9999 -9999 -9999 -9999 -9999 -9999 -9999 -9999 -9999 -9999 -9999 -9999 -9999 -9999 -9999 -9999 -9999 -9999 -9999 -9999 -9999 -9999 -9999 -9999 -9999 -9999 -9999 -9999 -9999 -9999 -9999 -9999 -9999 -9999 -9999 -9999 -9999 -9999 -9999 -9999 -9999 -9999 -9999 -9999 -9999
-9999 -9999 -9999 -9999 -9999 -9999 -9999 -9999 -9999 -9999 -9999 -9999 -9999 -9999 -9999 -9999 -9999 -9999 -9999 -9999 -9999 -9999 35.2697095435685 35.2697095435685 35.2697095435685 -9999 35.2697095435685 -9999 -9999 -9999 -9999 35.2697095435685 35.2697095435685 35.2697095435685 -9999 -9999 -9999 -9999 -9999 -9999 -9999 -9999 -9999 -9999 -9999 -9999 -9999 -9999 -9999 -9999 -9999 -9999 -9999 -9999 -9999 -9999 -9999 -9999 -9999 -9999 -9999 -9999 -9999 -9999 -9999 -9999 -9999 -9999 22.8310502283105 22.8310502283105 -9999 -9999 -9999 25.811209439528 -9999 25.811209439528 25.811209439528 25.811209439528 25.811209439528 25.811209439528 29.7766749379653 29.3594306049822 29.3594306049822 29.3594306049822 22.5618631732169 22.5618631732169 22.5618631732169 26.4976958525346 24.4498777506112 24.4498777506112 24.4498777506112 24.4498777506112 24.4498777506112 22.5303292894281 26.6955266955267 26.6955266955267 26.6955266955267 26.6955266955267 26.6955266955267 26.6955266955267 24.0715268225585 24.0715268225585 24.0715268225585 24.0715268225585 24.0715268225585 19.3621867881549 19.3621867881549 19.3621867881549 27.6595744680851 27.6595744680851 27.6595744680851 24.2290748898678 28.2051282051282 24.2290748898678 24.2290748898678 24.2290748898678 16 16 16 21.0843373493976 25.6959314775161 25.6959314775161 25.6959314775161 25.6959314775161 25.6959314775161 25.6959314775161 25.6959314775161 26.1044176706827 26.1044176706827 26.1044176706827 24.1758241758242 18.4331797235023 18.4331797235023 27.6041666666667 27.6041666666667 27.6041666666667 27.6041666666667 27.6041666666667 27.6041666666667 27.6041666666667 27.6041666666667 27.6041666666667 27.6041666666667 21.6606498194946 19.1938579654511 19.1938579654511 19.1938579654511 19.1938579654511 19.1938579654511 19.1938579654511 25.7826887661142 25.7826887661142 27.6041666666667 20.8681135225376 28.5204991087344 28.5204991087344 28.5204991087344 28.5204991087344 28.5204991087344 28.5204991087344 28.5204991087344 28.5204991087344 28.5204991087344 28.1065088757396 28.1065088757396 28.1065088757396 28.1065088757396 28.1065088757396 28.1065088757396 28.1065088757396 28.1065088757396 27.3722627737226 27.3722627737226 27.3722627737226 28.3203125 28.3203125 28.3203125 28.3203125 28.3203125 28.3203125 28.3203125 28.3203125 28.3203125 28.3203125 28.3203125 28.3203125 28.3203125 28.3203125 28.3203125 28.3203125 28.3203125 28.3203125 28.3203125 28.3203125 28.3203125 28.3203125 28.3203125 28.3203125 28.3203125 28.3203125 28.3203125 28.3203125 28.3203125 28.3203125 28.3203125 28.3203125 28.3203125 28.3203125 28.3203125 28.3203125 28.3203125 28.3203125 71.0823909531502 71.0823909531502 71.0823909531502 71.0823909531502 71.0823909531502 71.0823909531502 71.0823909531502 71.0823909531502 71.0823909531502 71.0823909531502 71.0823909531502 71.0823909531502 71.0823909531502 71.0823909531502 71.0823909531502 71.0823909531502 71.0823909531502 71.0823909531502 71.0823909531502 71.0823909531502 71.0823909531502 71.0823909531502 71.0823909531502 71.0823909531502 71.0823909531502 71.0823909531502 71.0823909531502 71.0823909531502 71.0823909531502 71.0823909531502 71.0823909531502 71.0823909531502 71.0823909531502 71.0823909531502 71.0823909531502 71.0823909531502 71.0823909531502 71.0823909531502 71.0823909531502 71.0823909531502 71.0823909531502 -9999 -9999 -9999 -9999 27.1453590192644 27.1453590192644 27.1453590192644 27.1453590192644 27.1453590192644 27.1453590192644 27.1453590192644 27.1453590192644 27.1453590192644 27.1453590192644 27.1453590192644 27.1453590192644 27.1453590192644 27.1453590192644 -9999 26.9230769230769 26.9230769230769 26.9230769230769 26.9230769230769 26.9230769230769 18.9393939393939 18.9393939393939 18.9393939393939 18.9393939393939 18.9393939393939 18.9393939393939 18.9393939393939 18.9393939393939 -9999 -9999 -9999 -9999 -9999 30.3867403314917 30.3867403314917 30.3867403314917 30.3867403314917 30.3867403314917 30.3867403314917 30.3867403314917 30.3867403314917 30.3867403314917 30.3867403314917 30.3867403314917 30.3867403314917 30.3867403314917 30.3867403314917 30.3867403314917 30.3867403314917 -9999 -9999 46.4601769911504 53.1400966183575 53.1400966183575 64.1592920353982 68.0933852140078 78.8336933045356 78.8336933045356 78.8336933045356 63.5208711433757 63.5208711433757 65.7894736842105 62.7906976744186 62.7906976744186 62.7906976744186 -9999 72.5689404934688 72.5689404934688 72.5689404934688 72.5689404934688 73.1481481481482 73.1481481481482 73.1481481481482 73.1481481481482 67.9156908665105 67.9156908665105 67.9156908665105 67.9156908665105 73.502722323049 73.502722323049 73.502722323049 81.953642384106 81.953642384106 -9999 -9999 -9999 -9999 62.2641509433962 62.2641509433962 62.2641509433962 62.2641509433962 62.2641509433962 62.2641509433962 62.2641509433962 62.2641509433962 62.2641509433962 62.2641509433962 62.2641509433962 62.2641509433962 -9999 -9999 -9999 -9999 -9999 -9999 -9999 -9999 -9999 -9999 -9999 -9999 -9999 -9999 -9999 -9999 -9999 -9999 -9999 -9999 -9999 -9999 -9999 -9999 -9999 -9999 -9999 -9999 -9999 -9999 -9999 -9999 -9999 -9999 -9999 -9999 -9999 -9999 -9999 -9999 -9999 -9999 -9999 -9999 -9999 -9999 -9999 -9999 -9999 -9999 -9999 -9999 -9999 -9999 -9999 -9999 -9999 -9999 -9999
-9999 -9999 -9999 -9999 -9999 -9999 -9999 -9999 -9999 -9999 -9999 -9999 -9999 -9999 -9999 -9999 -9999 -9999 -9999 -9999 35.2697095435685 35.2697095435685 35.2697095435685 35.2697095435685 35.2697095435685 35.2697095435685 35.2697095435685 35.2697095435685 35.2697095435685 35.2697095435685 35.2697095435685 35.2697095435685 35.2697095435685 35.2697095435685 35.2697095435685 -9999 -9999 -9999 -9999 -9999 -9999 -9999 -9999 -9999 -9999 -9999 -9999 -9999 -9999 -9999 -9999 -9999 -9999 -9999 -9999 -9999 -9999 -9999 -9999 -9999 -9999 -9999 -9999 -9999 -9999 -9999 -9999 -9999 -9999 -9999 -9999 -9999 -9999 25.811209439528 25.811209439528 25.811209439528 25.811209439528 25.811209439528 25.811209439528 25.811209439528 25.811209439528 22.5618631732169 22.5618631732169 22.5618631732169 22.5618631732169 22.5618631732169 22.5618631732169 22.5618631732169 24.4498777506112 24.4498777506112 22.5303292894281 22.5303292894281 22.5303292894281 22.5303292894281 22.5303292894281 26.6955266955267 26.6955266955267 26.6955266955267 26.6955266955267 26.6955266955267 26.6955266955267 24.0715268225585 24.0715268225585 19.3621867881549 19.3621867881549 19.3621867881549 19.3621867881549 19.3621867881549 27.6595744680851 27.6595744680851 27.6595744680851 28.2051282051282 24.2290748898678 28.2051282051282 24.2290748898678 24.2290748898678 16 16 22.5155279503106 22.5155279503106 25.6959314775161 22.5155279503106 22.5155279503106 22.5155279503106 25.6959314775161 26.1044176706827 26.1044176706827 26.1044176706827 26.1044176706827 26.1044176706827 30.5498981670061 30.5498981670061 27.6041666666667 27.6041666666667 27.6041666666667 27.6041666666667 27.6041666666667 27.6041666666667 27.6041666666667 27.6041666666667 21.6606498194946 21.6606498194946 21.6606498194946 21.6606498194946 19.1938579654511 19.1938579654511 19.1938579654511 27.6041666666667 28.5204991087344 28.5204991087344 28.5204991087344 28.5204991087344 28.5204991087344 28.5204991087344 28.5204991087344 23.0769230769231 23.0769230769231 23.0769230769231 23.0769230769231 23.0769230769231 23.0769230769231 23.0769230769231 23.0769230769231 26.3620386643234 26.3620386643234 26.3620386643234 28.1065088757396 28.1065088757396 28.1065088757396 28.1065088757396 28.1065088757396 28.1065088757396 28.1065088757396 24.7933884297521 24.7933884297521 24.7933884297521 29.7482837528604 29.7482837528604 23.1607629427793 23.1607629427793 23.1607629427793 23.1607629427793 25.4901960784314 25.4901960784314 19.672131147541 19.672131147541 19.672131147541 19.672131147541 19.672131147541 19.672131147541 19.672131147541 19.672131147541 19.672131147541 19.672131147541 36.019536019536 36.019536019536 36.019536019536 36.019536019536 36.019536019536 36.019536019536 36.019536019536 36.019536019536 36.019536019536 36.019536019536 36.019536019536 36.019536019536 36.019536019536 36.019536019536 36.019536019536 36.019536019536 36.019536019536 31 58.4415584415584 58.4415584415584 58.4415584415584 58.4415584415584 58.4415584415584 58.4415584415584 58.4415584415584 58.4415584415584 58.4415584415584 58.4415584415584 58.4415584415584 58.4415584415584 58.4415584415584 58.4415584415584 58.4415584415584 58.4415584415584 58.4415584415584 71.0823909531502 71.0823909531502 71.0823909531502 71.0823909531502 71.0823909531502 71.0823909531502 71.0823909531502 71.0823909531502 71.0823909531502 71.0823909531502 71.0823909531502 71.0823909531502 71.0823909531502 71.0823909531502 71.0823909531502 71.0823909531502 71.0823909531502 71.0823909531502 71.0823909531502 71.0823909531502 71.0823909531502 71.0823909531502 71.0823909531502 71.0823909531502 -9999 -9999 -9999 -9999 -9999 27.1453590192644 27.1453590192644 27.1453590192644 27.1453590192644 27.1453590192644 27.1453590192644 27.1453590192644 27.1453590192644 27.1453590192644 27.1453590192644 27.1453590192644 27.1453590192644 27.1453590192644 27.1453590192644 27.1453590192644 27.1453590192644 26.9230769230769 26.9230769230769 18.9393939393939 18.9393939393939 18.9393939393939 18.9393939393939 18.9393939393939 18.9393939393939 18.9393939393939 56.3480741797432 56.3480741797432 56.3480741797432 56.3480741797432 -9999 30.3867403314917 30.3867403314917 30.3867403314917 30.3867403314917 30.3867403314917 30.3867403314917 30.3867403314917 30.3867403314917 30.3867403314917 30.3867403314917 30.3867403314917 30.3867403314917 30.3867403314917 30.3867403314917 30.3867403314917 30.3867403314917 30.3867403314917 -9999 -9999 -9999 58.3244962884411 58.3244962884411 58.3244962884411 64.1592920353982 68.0933852140078 68.0933852140078 78.8336933045356 78.8336933045356 78.8336933045356 63.5208711433757 65.7894736842105 62.7906976744186 65.7894736842105 -9999 56.4516129032258 56.4516129032258 56.4516129032258 56.4516129032258 64.2857142857143 64.2857142857143 72.5689404934688 72.5689404934688 72.5689404934688 81.953642384106 81.953642384106 81.953642384106 81.953642384106 81.953642384106 81.953642384106 81.953642384106 -9999 -9999 -9999 -9999 -9999 -9999 62.2641509433962 62.2641509433962 62.2641509433962 62.2641509433962 62.2641509433962 62.2641509433962 62.2641509433962 62.2641509433962 62.2641509433962 -9999 -9999 -9999 -9999 -9999 -9999 -9999 -9999 -9999 -9999 -9999 -9999 -9999 -9999 -9999 -9999 -9999 -9999 -9999 -9999 -9999 -9999 -9999 -9999 -9999 -9999 -9999 -9999 -9999 -9999 -9999 -9999 -9999 -9999 -9999 -9999 -9999 -9999 -9999 -9999 -9999 -9999 -9999 -9999 -9999 -9999 -9999 -9999 -9999 -9999 -9999 -9999 -9999 -9999 -9999 -9999 -9999 -9999 -9999 -9999 -9999 -9999
-9999 -9999 -9999 -9999 -9999 -9999 -9999 -9999 -9999 -9999 -9999 -9999 -9999 -9999 -9999 -9999 -9999 -9999 -9999 -9999 -9999 -9999 35.2697095435685 35.2697095435685 35.2697095435685 35.2697095435685 35.2697095435685 35.2697095435685 35.2697095435685 35.2697095435685 35.2697095435685 35.2697095435685 35.2697095435685 35.2697095435685 35.2697095435685 35.2697095435685 -9999 -9999 -9999 -9999 -9999 -9999 -9999 -9999 -9999 -9999 -9999 -9999 -9999 -9999 -9999 -9999 -9999 -9999 -9999 -9999 37.4771480804388 37.4771480804388 37.4771480804388 -9999 -9999 -9999 -9999 -9999 29.4117647058824 -9999 -9999 -9999 -9999 -9999 -9999 -9999 -9999 23.8938053097345 23.8938053097345 23.8938053097345 25.811209439528 25.811209439528 25.811209439528 25.811209439528 25.811209439528 25.811209439528 22.5618631732169 22.5618631732169 22.5618631732169 22.5618631732169 22.5618631732169 22.5618631732169 19 22.5303292894281 22.5303292894281 22.5303292894281 22.5303292894281 22.5303292894281 22.5303292894281 22.5303292894281 26.6955266955267 26.6955266955267 17.0357751277683 26.6955266955267 26.6955266955267 26.6955266955267 24.0715268225585 24.0715268225585 19.3621867881549 19.3621867881549 19.3621867881549 19.3621867881549 27.6595744680851 27.6595744680851 27.6595744680851 27.6595744680851 28.2051282051282 28.2051282051282 28.2051282051282 28.2051282051282 16 16 22.5155279503106 22.5155279503106 22.5155279503106 22.5155279503106 22.5155279503106 26.1044176706827 26.1044176706827 26.1044176706827 26.1044176706827 26.1044176706827 30.5498981670061 30.5498981670061 30.5498981670061 30.5498981670061 27.6041666666667 27.6041666666667 27.6041666666667 27.6041666666667 27.6041666666667 27.6041666666667 27.6041666666667 27.6041666666667 21.6606498194946 27.6041666666667 21.6606498194946 27.6041666666667 28.5204991087344 28.5204991087344 28.5204991087344 28.5204991087344 28.5204991087344 28.8808664259928 -9999 -9999 -9999 -9999 -9999 -9999 -9999 -9999 -9999 28.8808664259928 23.0769230769231 23.0769230769231 23.0769230769231 26.3620386643234 26.3620386643234 26.3620386643234 26.3620386643234 28.1065088757396 28.1065088757396 28.1065088757396 28.1065088757396 28.1065088757396 28.1065088757396 24.7933884297521 24.7933884297521 24.7933884297521 24.7933884297521 29.7482837528604 29.7482837528604 32.033426183844 32.033426183844 32.033426183844 32.033426183844 25.4901960784314 25.4901960784314 25.4901960784314 25.4901960784314 19.672131147541 19.672131147541 19.672131147541 19.672131147541 19.672131147541 19.672131147541 19.672131147541 36.019536019536 36.019536019536 36.019536019536 45.0762829403606 45.0762829403606 45.0762829403606 45.0762829403606 36.019536019536 36.019536019536 36.019536019536 36.019536019536 36.019536019536 36.019536019536 36.019536019536 36.019536019536 35.7917570498915 35.7917570498915 31 58.4415584415584 54.0983606557377 54.0983606557377 54.0983606557377 54.0983606557377 54.0983606557377 54.0983606557377 54.0983606557377 64 64 64 64 64 58.4415584415584 58.4415584415584 58.4415584415584 58.4415584415584 61.0687022900763 -9999 -9999 -9999 -9999 -9999 52.6315789473684 52.6315789473684 52.6315789473684 52.6315789473684 52.6315789473684 52.6315789473684 71.0823909531502 71.0823909531502 71.0823909531502 71.0823909531502 71.0823909531502 71.0823909531502 71.0823909531502 69.7674418604651 69.7674418604651 69.7674418604651 69.7674418604651 69.7674418604651 -9999 -9999 -9999 -9999 -9999 -9999 -9999 27.1453590192644 27.1453590192644 27.1453590192644 27.1453590192644 27.1453590192644 27.1453590192644 59.6546310832025 59.6546310832025 59.6546310832025 27.1453590192644 59.6546310832025 62.2710622710623 62.2710622710623 62.2710622710623 62.2710622710623 62.2710622710623 56.3480741797432 56.3480741797432 18.9393939393939 18.9393939393939 56.3480741797432 56.3480741797432 56.3480741797432 56.3480741797432 56.3480741797432 56.3480741797432 -9999 30.3867403314917 30.3867403314917 30.3867403314917 30.3867403314917 30.3867403314917 30.3867403314917 30.3867403314917 30.3867403314917 30.3867403314917 30.3867403314917 30.3867403314917 30.3867403314917 30.3867403314917 30.3867403314917 30.3867403314917 30.3867403314917 30.3867403314917 -9999 -9999 -9999 58.3244962884411 58.3244962884411 58.3244962884411 58.3244962884411 64.1592920353982 64.1592920353982 68.0933852140078 64.1952983725136 64.1952983725136 64.1183723797781 64.1183723797781 64.1183723797781 65.7894736842105 -9999 61.8990384615385 56.4516129032258 56.4516129032258 56.4516129032258 58.1632653061224 58.1632653061224 58.1632653061224 60.6884057971015 64.2857142857143 64.2857142857143 58.7431693989071 82.8804347826087 82.8804347826087 82.8804347826087 64.4475920679887 64.4475920679887 81.953642384106 -9999 -9999 -9999 -9999 -9999 -9999 62.2641509433962 62.2641509433962 62.2641509433962 62.2641509433962 62.2641509433962 62.2641509433962 -9999 -9999 -9999 -9999 -9999 -9999 -9999 -9999 -9999 -9999 -9999 -9999 -9999 -9999 -9999 -9999 -9999 -9999 -9999 -9999 -9999 -9999 -9999 -9999 -9999 -9999 -9999 -9999 -9999 -9999 -9999 -9999 -9999 -9999 -9999 -9999 -9999 -9999 -9999 -9999 -9999 -9999 -9999 -9999 -9999 -9999 -9999 -9999 -9999 -9999 -9999 -9999 -9999 -9999 -9999 -9999 -9999 -9999 -9999 -9999 -9999 -9999 -9999 -9999 -9999
-9999 -9999 -9999 -9999 -9999 -9999 -9999 -9999 -9999 -9999 -9999 -9999 -9999 35.2697095435685 -9999 35.2697095435685 35.2697095435685 -9999 -9999 -9999 35.2697095435685 35.2697095435685 35.2697095435685 35.2697095435685 35.2697095435685 35.2697095435685 35.2697095435685 35.2697095435685 35.2697095435685 35.2697095435685 35.2697095435685 35.2697095435685 35.2697095435685 35.2697095435685 35.2697095435685 35.2697095435685 35.2697095435685 -9999 -9999 -9999 -9999 -9999 -9999 -9999 -9999 -9999 -9999 -9999 -9999 -9999 -9999 -9999 -9999 37.4771480804388 37.4771480804388 37.4771480804388 37.4771480804388 37.4771480804388 37.4771480804388 37.4771480804388 29.4117647058824 29.4117647058824 29.4117647058824 25.1623376623377 25.1623376623377 -9999 -9999 -9999 -9999 -9999 -9999 -9999 -9999 -9999 23.8938053097345 23.8938053097345 25.811209439528 25.811209439528 25.811209439528 25.811209439528 25.811209439528 -9999 -9999 22.5618631732169 22.5618631732169 22.5618631732169 19 19 19 19 22.5303292894281 22.5303292894281 22.5303292894281 22.5303292894281 22.5303292894281 22.5303292894281 22.5303292894281 17.0357751277683 17.0357751277683 17.0357751277683 26.6955266955267 26.6955266955267 26.6955266955267 24.0715268225585 24.0715268225585 24.0715268225585 24.0715268225585 24.0715268225585 24.0715268225585 27.6595744680851 24.0715268225585 27.6595744680851 28.2051282051282 28.2051282051282 28.2051282051282 28.2051282051282 28.2051282051282 16 16 22.5155279503106 22.5155279503106 22.5155279503106 22.5155279503106 22.5155279503106 26.1044176706827 26.1044176706827 30.5498981670061 30.5498981670061 30.5498981670061 30.5498981670061 30.5498981670061 30.5498981670061 27.6041666666667 27.6041666666667 27.6041666666667 27.6041666666667 27.6041666666667 27.6041666666667 27.6041666666667 27.6041666666667 28.5204991087344 28.5204991087344 28.5204991087344 28.5204991087344 28.5204991087344 28.5204991087344 28.5204991087344 28.8808664259928 -9999 -9999 -9999 -9999 -9999 -9999 -9999 -9999 -9999 -9999 -9999 -9999 -9999 -9999 28.8808664259928 23.0769230769231 26.3620386643234 26.3620386643234 26.3620386643234 32.967032967033 32.967032967033 28.1065088757396 28.1065088757396 28.1065088757396 28.1065088757396 28.1065088757396 24.7933884297521 24.7933884297521 24.7933884297521 29.7482837528604 29.7482837528604 32.033426183844 32.033426183844 32.033426183844 32.033426183844 32.033426183844 25.4901960784314 25.4901960784314 25.4901960784314 25.4901960784314 19.672131147541 32.8798185941043 19.672131147541 19.672131147541 19.672131147541 19.672131147541 19.672131147541 45.0762829403606 45.0762829403606 45.0762829403606 45.0762829403606 45.0762829403606 45.0762829403606 45.0762829403606 45.0762829403606 48.411497730711 48.411497730711 36.019536019536 36.019536019536 36.019536019536 36.019536019536 35.7917570498915 38.3522727272727 31 31 58.4415584415584 54.0983606557377 54.0983606557377 54.0983606557377 54.0983606557377 54.0983606557377 54.0983606557377 64 64 64 64 64 58.4415584415584 58.4415584415584 58.4415584415584 58.4415584415584 61.0687022900763 -9999 -9999 -9999 -9999 -9999 52.6315789473684 67.4157303370787 67.4157303370787 67.4157303370787 52.6315789473684 52.6315789473684 54.2797494780793 71.0823909531502 71.0823909531502 57.9078455790785 57.9078455790785 57.9078455790785 71.0823909531502 69.7674418604651 69.7674418604651 69.7674418604651 68.8259109311741 68.8259109311741 -9999 -9999 -9999 -9999 -9999 -9999 -9999 -9999 -9999 -9999 -9999 27.1453590192644 27.1453590192644 55.8912386706949 59.6546310832025 59.6546310832025 59.6546310832025 59.6546310832025 59.6546310832025 62.2710622710623 62.2710622710623 62.2710622710623 56.3480741797432 56.3480741797432 56.3480741797432 56.3480741797432 56.3480741797432 56.3480741797432 56.3480741797432 56.3480741797432 56.3480741797432 -9999 30.3867403314917 30.3867403314917 30.3867403314917 30.3867403314917 30.3867403314917 30.3867403314917 30.3867403314917 30.3867403314917 30.3867403314917 30.3867403314917 30.3867403314917 30.3867403314917 30.3867403314917 30.3867403314917 30.3867403314917 30.3867403314917 30.3867403314917 -9999 -9999 -9999 -9999 -9999 -9999 -9999 -9999 -9999 -9999 -9999 64.1952983725136 64.1952983725136 64.1952983725136 64.1183723797781 64.1183723797781 64.1183723797781 -9999 61.8990384615385 61.8990384615385 61.8990384615385 61.8990384615385 61.8990384615385 61.2691466083151 61.2691466083151 61.2691466083151 60.6884057971015 60.6884057971015 60.6884057971015 64.4475920679887 64.4475920679887 64.4475920679887 64.4475920679887 64.4475920679887 -9999 -9999 -9999 -9999 -9999 -9999 -9999 -9999 -9999 62.2641509433962 62.2641509433962 62.2641509433962 62.2641509433962 62.2641509433962 -9999 -9999 -9999 -9999 -9999 -9999 -9999 -9999 -9999 -9999 -9999 -9999 -9999 -9999 -9999 -9999 -9999 -9999 -9999 -9999 -9999 -9999 -9999 -9999 -9999 -9999 -9999 -9999 -9999 -9999 -9999 -9999 -9999 -9999 -9999 -9999 -9999 -9999 -9999 -9999 -9999 -9999 -9999 -9999 -9999 -9999 -9999 -9999 -9999 -9999 -9999 -9999 -9999 -9999 -9999 -9999 -9999 -9999 -9999 -9999 -9999 -9999 -9999 -9999 -9999
-9999 -9999 -9999 -9999 -9999 -9999 -9999 -9999 -9999 -9999 -9999 -9999 -9999 -9999 35.2697095435685 35.2697095435685 35.2697095435685 35.2697095435685 35.2697095435685 35.2697095435685 35.2697095435685 35.2697095435685 35.2697095435685 35.2697095435685 35.2697095435685 35.2697095435685 35.2697095435685 35.2697095435685 35.2697095435685 35.2697095435685 35.2697095435685 35.2697095435685 35.2697095435685 35.2697095435685 35.2697095435685 35.2697095435685 35.2697095435685 35.2697095435685 -9999 -9999 -9999 -9999 -9999 -9999 -9999 -9999 -9999 -9999 -9999 -9999 37.4771480804388 37.4771480804388 37.4771480804388 37.4771480804388 37.4771480804388 37.4771480804388 37.4771480804388 37.4771480804388 37.4771480804388 29.4117647058824 29.4117647058824 29.4117647058824 25.1623376623377 25.1623376623377 25.1623376623377 25.1623376623377 -9999 -9999 -9999 -9999 -9999 -9999 23.8938053097345 23.8938053097345 23.8938053097345 23.8938053097345 23.8938053097345 25.811209439528 25.811209439528 -9999 -9999 -9999 -9999 -9999 19 19 19 19 19 19 22.5303292894281 22.5303292894281 22.5303292894281 22.5303292894281 22.5303292894281 24.3664717348928 17.0357751277683 17.0357751277683 17.0357751277683 17.0357751277683 17.0357751277683 26.6955266955267 24.3055555555556 23.9669421487603 23.9669421487603 23.9669421487603 23.9669421487603 23.9669421487603 23.9669421487603 26.9151138716356 26.9151138716356 26.9151138716356 23.9669421487603 23.9669421487603 23.9669421487603 22.5155279503106 22.5155279503106 22.5155279503106 22.5155279503106 22.5155279503106 22.5155279503106 22.5155279503106 22.5155279503106 22.5155279503106 25.4237288135593 30.5498981670061 30.5498981670061 30.5498981670061 30.5498981670061 30.5498981670061 21.9665271966527 21.9665271966527 21.9665271966527 27.6041666666667 27.6041666666667 27.6041666666667 27.6041666666667 28.5204991087344 28.5204991087344 28.5204991087344 28.5204991087344 27.2108843537415 27.2108843537415 27.2108843537415 27.2108843537415 28.5204991087344 28.5204991087344 28.8808664259928 -9999 -9999 -9999 -9999 -9999 -9999 -9999 -9999 -9999 -9999 -9999 -9999 -9999 -9999 -9999 -9999 32.967032967033 26.3620386643234 26.3620386643234 32.967032967033 32.967032967033 28.1065088757396 28.1065088757396 28.1065088757396 28.1065088757396 35.0877192982456 35.0877192982456 35.0877192982456 35.0877192982456 29.7482837528604 29.7482837528604 38.8349514563107 38.8349514563107 38.8349514563107 32.033426183844 25.4901960784314 25.4901960784314 25.4901960784314 25.4901960784314 25.4901960784314 19.672131147541 32.8798185941043 32.8798185941043 19.672131147541 19.672131147541 19.672131147541 19.672131147541 45.0762829403606 45.0762829403606 45.0762829403606 45.0762829403606 45.0762829403606 50.1824817518248 45.0762829403606 45.0762829403606 48.411497730711 48.411497730711 48.411497730711 48.411497730711 48.411497730711 48.411497730711 48.411497730711 38.3522727272727 36.019536019536 31 58.4415584415584 61.5384615384615 61.5384615384615 61.5384615384615 61.5384615384615 61.5384615384615 61.5384615384615 61.5384615384615 61.5808823529412 61.5808823529412 61.5808823529412 68.3690280065898 68.3690280065898 68.3690280065898 58.4415584415584 58.4415584415584 61.0687022900763 -9999 -9999 -9999 -9999 -9999 52.6315789473684 52.6315789473684 52.6315789473684 52.6315789473684 52.6315789473684 52.6315789473684 54.2797494780793 54.2797494780793 54.2797494780793 54.2797494780793 48.0349344978166 48.0349344978166 48.0349344978166 74.9506903353057 74.9506903353057 74.9506903353057 75.9109311740891 75.9109311740891 -9999 -9999 -9999 -9999 -9999 -9999 -9999 -9999 -9999 -9999 -9999 -9999 -9999 56.420233463035 55.8912386706949 55.8912386706949 76.4023210831721 76.4023210831721 76.4023210831721 76.4023210831721 62.2710622710623 56.3480741797432 56.3480741797432 56.3480741797432 56.3480741797432 56.3480741797432 56.3480741797432 56.3480741797432 56.3480741797432 -9999 30.3867403314917 30.3867403314917 30.3867403314917 30.3867403314917 30.3867403314917 30.3867403314917 30.3867403314917 30.3867403314917 30.3867403314917 30.3867403314917 30.3867403314917 30.3867403314917 30.3867403314917 30.3867403314917 30.3867403314917 30.3867403314917 30.3867403314917 30.3867403314917 -9999 -9999 -9999 -9999 -9999 -9999 -9999 -9999 -9999 -9999 -9999 -9999 -9999 -9999 -9999 -9999 -9999 -9999 15.9574468085106 15.9574468085106 15.9574468085106 15.9574468085106 15.9574468085106 15.9574468085106 61.3879003558719 61.3879003558719 61.2691466083151 61.3879003558719 61.3879003558719 60.4203152364273 60.4203152364273 60.4203152364273 64.4475920679887 64.4475920679887 -9999 -9999 -9999 -9999 -9999 -9999 -9999 -9999 -9999 -9999 -9999 -9999 -9999 -9999 -9999 -9999 -9999 -9999 -9999 -9999 -9999 -9999 -9999 -9999 -9999 -9999 -9999 -9999 -9999 -9999 -9999 -9999 -9999 -9999 -9999 -9999 -9999 -9999 -9999 -9999 -9999 -9999 -9999 -9999 -9999 -9999 -9999 -9999 -9999 -9999 -9999 -9999 -9999 -9999 -9999 -9999 -9999 -9999 -9999 -9999 -9999 -9999 -9999 -9999 -9999 -9999 -9999 -9999 -9999 -9999 -9999 -9999 -9999 -9999 -9999 -9999 -9999 -9999 -9999 -9999
-9999 -9999 -9999 -9999 -9999 -9999 -9999 -9999 -9999 -9999 -9999 -9999 -9999 -9999 -9999 35.2697095435685 35.2697095435685 35.2697095435685 35.2697095435685 35.2697095435685 35.2697095435685 35.2697095435685 35.2697095435685 35.2697095435685 35.2697095435685 35.2697095435685 35.2697095435685 35.2697095435685 35.2697095435685 35.2697095435685 35.2697095435685 35.2697095435685 35.2697095435685 35.2697095435685 35.2697095435685 35.2697095435685 35.2697095435685 35.2697095435685 35.2697095435685 35.2697095435685 -9999 -9999 -9999 -9999 -9999 -9999 37.4771480804388 37.4771480804388 37.4771480804388 37.4771480804388 37.4771480804388 37.4771480804388 37.4771480804388 37.4771480804388 37.4771480804388 37.4771480804388 37.4771480804388 37.4771480804388 37.4771480804388 29.4117647058824 29.4117647058824 29.4117647058824 25.1623376623377 25.1623376623377 25.1623376623377 -9999 -9999 -9999 -9999 -9999 -9999 -9999 23.8938053097345 23.8938053097345 23.8938053097345 23.8938053097345 -9999 -9999 -9999 -9999 -9999 -9999 21.1764705882353 21.1764705882353 19 19 19 19 19 19 19 22.5303292894281 24.3664717348928 24.3664717348928 24.3664717348928 24.3664717348928 24.3664717348928 17.0357751277683 17.0357751277683 17.0357751277683 24.3055555555556 24.3055555555556 24.3055555555556 24.3055555555556 23.9669421487603 23.9669421487603 23.9669421487603 23.9669421487603 26.9151138716356 26.9151138716356 26.9151138716356 26.9151138716356 23.9669421487603 23.9669421487603 23.9669421487603 22.5155279503106 22.5155279503106 22.5155279503106 22.5155279503106 22.5155279503106 22.5155279503106 22.5155279503106 22.5155279503106 25.4237288135593 25.4237288135593 25.4237288135593 30.5498981670061 30.5498981670061 21.9665271966527 21.9665271966527 21.9665271966527 21.9665271966527 21.9665271966527 27.6041666666667 28.5204991087344 28.5204991087344 28.5204991087344 28.5204991087344 28.5204991087344 21.2765957446809 27.2108843537415 27.2108843537415 27.2108843537415 27.2108843537415 27.2108843537415 -9999 -9999 -9999 -9999 -9999 -9999 -9999 -9999 -9999 -9999 -9999 -9999 -9999 -9999 -9999 -9999 -9999 -9999 -9999 -9999 -9999 32.967032967033 32.967032967033 39.7111913357401 39.7111913357401 39.7111913357401 39.7111913357401 39.7111913357401 35.0877192982456 35.0877192982456 35.0877192982456 35.0877192982456 35.0877192982456 29.7482837528604 38.8349514563107 38.8349514563107 38.8349514563107 38.8349514563107 38.8349514563107 38.8349514563107 38.8349514563107 37.8787878787879 37.8787878787879 37.8787878787879 32.8798185941043 32.8798185941043 32.8798185941043 19.672131147541 19.672131147541 19.672131147541 37.5 37.5 37.5 37.5 37.5 50.1824817518248 50.1824817518248 50.1824817518248 50.1824817518248 48.411497730711 48.411497730711 48.411497730711 48.411497730711 48.411497730711 48.411497730711 48.411497730711 48.411497730711 57.4324324324324 57.4324324324324 57.4324324324324 61.5384615384615 61.5384615384615 61.5384615384615 61.5384615384615 61.5384615384615 61.5384615384615 61.5808823529412 61.5808823529412 61.5808823529412 61.5808823529412 68.3690280065898 68.3690280065898 68.3690280065898 68.3690280065898 61.0687022900763 61.0687022900763 -9999 -9999 -9999 -9999 45.0733752620545 45.0733752620545 47.438330170778 47.438330170778 55.9440559440559 55.9440559440559 54.2797494780793 54.2797494780793 54.2797494780793 54.2797494780793 48.0349344978166 48.0349344978166 48.0349344978166 74.9506903353057 74.9506903353057 74.9506903353057 75.9109311740891 75.9109311740891 -9999 -9999 -9999 -9999 -9999 -9999 -9999 -9999 -9999 -9999 -9999 -9999 -9999 27.1453590192644 56.420233463035 69.1823899371069 69.1823899371069 76.4023210831721 76.4023210831721 56.3480741797432 56.3480741797432 56.3480741797432 56.3480741797432 56.3480741797432 56.3480741797432 56.3480741797432 -9999 25.2525252525253 25.2525252525253 25.2525252525253 25.2525252525253 25.2525252525253 25.2525252525253 30.3867403314917 30.3867403314917 30.3867403314917 30.3867403314917 30.3867403314917 30.3867403314917 30.3867403314917 30.3867403314917 30.3867403314917 30.3867403314917 30.3867403314917 30.3867403314917 30.3867403314917 30.3867403314917 -9999 -9999 -9999 -9999 -9999 -9999 -9999 -9999 -9999 -9999 -9999 -9999 -9999 -9999 -9999 -9999 -9999 -9999 15.9574468085106 15.9574468085106 15.9574468085106 15.9574468085106 15.9574468085106 15.9574468085106 15.9574468085106 15.9574468085106 15.9574468085106 15.9574468085106 15.9574468085106 15.9574468085106 15.9574468085106 15.9574468085106 60.4203152364273 60.4203152364273 -9999 -9999 -9999 -9999 -9999 -9999 -9999 -9999 -9999 -9999 -9999 -9999 -9999 -9999 -9999 -9999 -9999 -9999 -9999 -9999 -9999 -9999 -9999 -9999 -9999 -9999 -9999 -9999 -9999 -9999 -9999 -9999 -9999 -9999 -9999 -9999 -9999 -9999 -9999 -9999 -9999 -9999 -9999 -9999 -9999 -9999 -9999 -9999 -9999 -9999 -9999 -9999 -9999 -9999 -9999 -9999 -9999 -9999 -9999 -9999 -9999 -9999 -9999 -9999 -9999 -9999 -9999 -9999 -9999 -9999 -9999 -9999 -9999 -9999 -9999 -9999 -9999 -9999 -9999 -9999 -9999
-9999 -9999 -9999 -9999 -9999 -9999 -9999 35.2697095435685 -9999 -9999 -9999 -9999 35.2697095435685 35.2697095435685 35.2697095435685 35.2697095435685 35.2697095435685 35.2697095435685 35.2697095435685 35.2697095435685 35.2697095435685 35.2697095435685 35.2697095435685 35.2697095435685 35.2697095435685 35.2697095435685 35.2697095435685 35.2697095435685 35.2697095435685 35.2697095435685 35.2697095435685 35.2697095435685 35.2697095435685 35.2697095435685 35.2697095435685 35.2697095435685 35.2697095435685 35.2697095435685 35.2697095435685 35.2697095435685 35.2697095435685 -9999 -9999 -9999 37.4771480804388 37.4771480804388 37.4771480804388 37.4771480804388 37.4771480804388 37.4771480804388 37.4771480804388 37.4771480804388 37.4771480804388 37.4771480804388 37.4771480804388 37.4771480804388 37.4771480804388 37.4771480804388 37.4771480804388 29.4117647058824 29.4117647058824 29.4117647058824 29.4117647058824 25.1623376623377 25.1623376623377 -9999 -9999 -9999 -9999 -9999 -9999 -9999 -9999 23.8938053097345 -9999 -9999 -9999 -9999 -9999 -9999 21.1764705882353 21.1764705882353 21.1764705882353 21.1764705882353 19 23.5655737704918 19 19 19 23.5655737704918 19 24.3664717348928 24.3664717348928 24.3664717348928 24.3664717348928 24.3664717348928 17.0357751277683 17.0357751277683 28.125 28.125 28.125 24.3055555555556 24.3055555555556 24.3055555555556 26.9814502529511 26.9814502529511 26.9814502529511 23.9669421487603 26.9151138716356 26.9151138716356 26.9151138716356 26.9151138716356 26.9151138716356 23.9669421487603 23.9669421487603 22.5155279503106 22.5155279503106 22.5155279503106 22.5155279503106 22.5155279503106 22.5155279503106 22.5155279503106 22.5155279503106 25.4237288135593 25.4237288135593 25.4237288135593 30.5498981670061 25.4237288135593 21.9665271966527 21.9665271966527 21.2765957446809 21.2765957446809 21.2765957446809 21.2765957446809 28.5204991087344 27.2108843537415 27.2108843537415 21.2765957446809 21.2765957446809 21.2765957446809 27.2108843537415 27.2108843537415 27.2108843537415 27.2108843537415 -9999 -9999 -9999 -9999 -9999 -9999 -9999 -9999 -9999 -9999 -9999 -9999 -9999 -9999 -9999 -9999 -9999 -9999 -9999 -9999 -9999 -9999 -9999 32.967032967033 39.7111913357401 39.7111913357401 39.7111913357401 39.7111913357401 39.7111913357401 35.0877192982456 35.0877192982456 35.0877192982456 35.0877192982456 35.0877192982456 29.7482837528604 38.8349514563107 38.8349514563107 38.8349514563107 38.8349514563107 38.8349514563107 38.8349514563107 38.8349514563107 38.8349514563107 37.8787878787879 37.8787878787879 37.8787878787879 32.8798185941043 32.8798185941043 32.8798185941043 32.8798185941043 32.8798185941043 32.8798185941043 37.5 37.5 37.5 37.5 50.1824817518248 50.1824817518248 50.1824817518248 48.1927710843374 48.1927710843374 48.1927710843374 48.411497730711 48.411497730711 48.411497730711 48.411497730711 48.411497730711 48.411497730711 57.4324324324324 57.4324324324324 57.4324324324324 59.5744680851064 59.5744680851064 59.5744680851064 59.5744680851064 59.5744680851064 61.5384615384615 61.5808823529412 61.5808823529412 61.5808823529412 61.5808823529412 68.3690280065898 68.3690280065898 68.3690280065898 68.3690280065898 61.0687022900763 61.0687022900763 -9999 -9999 -9999 -9999 45.0733752620545 41.9354838709677 41.9354838709677 41.9354838709677 55.9440559440559 55.9440559440559 54.2797494780793 54.2797494780793 54.2797494780793 54.2797494780793 48.0349344978166 48.0349344978166 48.0349344978166 74.9506903353057 74.9506903353057 74.9506903353057 75.9109311740891 75.9109311740891 -9999 -9999 -9999 -9999 -9999 -9999 -9999 -9999 -9999 -9999 -9999 -9999 -9999 -9999 -9999 -9999 69.1823899371069 69.1823899371069 69.1823899371069 69.1823899371069 56.3480741797432 56.3480741797432 56.3480741797432 56.3480741797432 -9999 25.2525252525253 25.2525252525253 25.2525252525253 25.2525252525253 25.2525252525253 25.2525252525253 25.2525252525253 25.2525252525253 25.2525252525253 25.2525252525253 30.3867403314917 30.3867403314917 30.3867403314917 30.3867403314917 30.3867403314917 30.3867403314917 30.3867403314917 30.3867403314917 30.3867403314917 30.3867403314917 -9999 -9999 -9999 -9999 -9999 -9999 -9999 -9999 -9999 -9999 -9999 -9999 -9999 -9999 -9999 -9999 -9999 -9999 -9999 15.9574468085106 15.9574468085106 15.9574468085106 15.9574468085106 15.9574468085106 15.9574468085106 15.9574468085106 15.9574468085106 15.9574468085106 15.9574468085106 15.9574468085106 15.9574468085106 15.9574468085106 15.9574468085106 15.9574468085106 15.9574468085106 -9999 -9999 -9999 -9999 -9999 -9999 -9999 -9999 -9999 -9999 -9999 -9999 -9999 -9999 -9999 -9999 -9999 -9999 -9999 -9999 -9999 -9999 -9999 -9999 -9999 -9999 -9999 -9999 -9999 -9999 -9999 -9999 -9999 -9999 -9999 -9999 -9999 -9999 -9999 -9999 -9999 -9999 -9999 -9999 -9999 -9999 -9999 -9999 -9999 -9999 -9999 -9999 -9999 -9999 -9999 -9999 -9999 -9999 -9999 -9999 -9999 -9999 -9999 -9999 -9999 -9999 -9999 -9999 -9999 -9999 -9999 -9999 -9999 -9999 -9999 -9999 -9999 -9999 -9999 -9999 -9999 -9999
-9999 -9999 -9999 -9999 -9999 -9999 -9999 35.2697095435685 35.2697095435685 35.2697095435685 35.2697095435685 35.2697095435685 35.2697095435685 35.2697095435685 35.2697095435685 35.2697095435685 35.2697095435685 35.2697095435685 35.2697095435685 35.2697095435685 35.2697095435685 35.2697095435685 35.2697095435685 35.2697095435685 35.2697095435685 35.2697095435685 35.2697095435685 35.2697095435685 35.2697095435685 35.2697095435685 35.2697095435685 35.2697095435685 35.2697095435685 35.2697095435685 35.2697095435685 35.2697095435685 35.2697095435685 35.2697095435685 35.2697095435685 35.2697095435685 35.2697095435685 35.2697095435685 -9999 37.4771480804388 37.4771480804388 37.4771480804388 37.4771480804388 37.4771480804388 37.4771480804388 37.4771480804388 37.4771480804388 37.4771480804388 37.4771480804388 37.4771480804388 37.4771480804388 37.4771480804388 37.4771480804388 37.4771480804388 37.4771480804388 29.4117647058824 25.2747252747253 25.2747252747253 29.4117647058824 25.1623376623377 25.1623376623377 25.1623376623377 -9999 -9999 -9999 -9999 -9999 -9999 -9999 -9999 -9999 -9999 -9999 -9999 21.1764705882353 21.1764705882353 21.1764705882353 21.1764705882353 21.1764705882353 26.1865793780687 23.5655737704918 23.5655737704918 23.5655737704918 23.5655737704918 23.5655737704918 23.5655737704918 23.5655737704918 24.3664717348928 15.3061224489796 15.3061224489796 15.3061224489796 15.3061224489796 28.125 28.125 28.125 28.125 28.125 24.3055555555556 24.3055555555556 24.3055555555556 24.3055555555556 26.9814502529511 26.9814502529511 26.9814502529511 26.9814502529511 26.9151138716356 26.9151138716356 26.9151138716356 21.6165413533835 23.9669421487603 23.9669421487603 23.9669421487603 22.5155279503106 22.5155279503106 22.5155279503106 22.5155279503106 22.5155279503106 22.5155279503106 22.5155279503106 22.5155279503106 25.4237288135593 22.5155279503106 21.2765957446809 21.2765957446809 21.2765957446809 21.2765957446809 21.2765957446809 21.2765957446809 21.2765957446809 21.2765957446809 21.2765957446809 27.2108843537415 27.2108843537415 21.2765957446809 21.2765957446809 21.2765957446809 27.2108843537415 27.2108843537415 27.2108843537415 27.2108843537415 -9999 -9999 -9999 -9999 -9999 -9999 -9999 -9999 -9999 -9999 -9999 -9999 -9999 -9999 -9999 -9999 -9999 -9999 -9999 -9999 -9999 -9999 -9999 32.967032967033 32.967032967033 32.967032967033 39.7111913357401 39.7111913357401 39.7111913357401 39.7111913357401 32.967032967033 32.967032967033 32.967032967033 35.0877192982456 38.8349514563107 38.8349514563107 38.8349514563107 38.8349514563107 38.8349514563107 38.8349514563107 38.8349514563107 38.8349514563107 38.8349514563107 37.8787878787879 37.8787878787879 37.8787878787879 37.8787878787879 34.0356564019449 34.0356564019449 34.0356564019449 -9999 34.0356564019449 37.5 37.5 37.5 37.5 50.1824817518248 50.1824817518248 50.1824817518248 48.1927710843374 48.1927710843374 48.1927710843374 48.411497730711 48.411497730711 48.411497730711 48.411497730711 48.411497730711 48.411497730711 48.411497730711 57.4324324324324 57.4324324324324 59.5744680851064 59.5744680851064 63.8629283489097 63.8629283489097 64.1221374045801 64.1221374045801 64.1221374045801 64.1221374045801 41.8502202643172 61.5808823529412 68.3690280065898 68.3690280065898 68.3690280065898 68.3690280065898 48.3516483516484 48.3516483516484 52.9661016949153 52.9661016949153 52.9661016949153 52.9661016949153 44.2359249329759 53.7383177570093 53.7383177570093 53.7383177570093 53.7383177570093 53.7383177570093 82.051282051282 82.051282051282 82.051282051282 82.051282051282 82.051282051282 65.8682634730539 65.8682634730539 65.8682634730539 65.8682634730539 76.9911504424779 76.9911504424779 76.9911504424779 -9999 -9999 -9999 -9999 -9999 -9999 -9999 -9999 -9999 -9999 -9999 -9999 -9999 -9999 -9999 -9999 -9999 69.1823899371069 69.1823899371069 69.1823899371069 69.1823899371069 -9999 25.2525252525253 25.2525252525253 25.2525252525253 25.2525252525253 25.2525252525253 25.2525252525253 25.2525252525253 25.2525252525253 25.2525252525253 25.2525252525253 25.2525252525253 25.2525252525253 36.7647058823529 36.7647058823529 30.3867403314917 30.3867403314917 30.3867403314917 30.3867403314917 30.3867403314917 30.3867403314917 30.3867403314917 -9999 -9999 -9999 -9999 -9999 -9999 -9999 -9999 -9999 -9999 -9999 -9999 -9999 -9999 -9999 -9999 -9999 -9999 -9999 -9999 15.9574468085106 15.9574468085106 15.9574468085106 15.9574468085106 15.9574468085106 15.9574468085106 15.9574468085106 15.9574468085106 15.9574468085106 15.9574468085106 15.9574468085106 15.9574468085106 15.9574468085106 15.9574468085106 15.9574468085106 15.9574468085106 -9999 -9999 -9999 -9999 -9999 -9999 -9999 -9999 -9999 -9999 -9999 -9999 -9999 -9999 -9999 -9999 -9999 -9999 -9999 -9999 -9999 -9999 -9999 -9999 -9999 -9999 -9999 -9999 -9999 -9999 -9999 -9999 -9999 -9999 -9999 -9999 -9999 -9999 -9999 -9999 -9999 -9999 -9999 -9999 -9999 -9999 -9999 -9999 -9999 -9999 -9999 -9999 -9999 -9999 -9999 -9999 -9999 -9999 -9999 -9999 -9999 -9999 -9999 -9999 -9999 -9999 -9999 -9999 -9999 -9999 -9999 -9999 -9999 -9999 -9999 -9999 -9999 -9999 -9999 -9999 -9999 -9999 -9999
-9999 -9999 -9999 -9999 -9999 -9999 -9999 35.2697095435685 35.2697095435685 35.2697095435685 35.2697095435685 35.2697095435685 35.2697095435685 35.2697095435685 35.2697095435685 35.2697095435685 35.2697095435685 35.2697095435685 35.2697095435685 35.2697095435685 35.2697095435685 35.2697095435685 35.2697095435685 35.2697095435685 35.2697095435685 35.2697095435685 35.2697095435685 35.2697095435685 35.2697095435685 35.2697095435685 35.2697095435685 35.2697095435685 35.2697095435685 35.2697095435685 35.2697095435685 35.2697095435685 35.2697095435685 35.2697095435685 37.4771480804388 42.2680412371134 42.2680412371134 37.4771480804388 37.4771480804388 37.4771480804388 37.4771480804388 37.4771480804388 37.4771480804388 37.4771480804388 37.4771480804388 37.4771480804388 37.4771480804388 37.4771480804388 37.4771480804388 37.4771480804388 37.4771480804388 37.4771480804388 37.4771480804388 37.4771480804388 37.4771480804388 37.4771480804388 29.4117647058824 25.2747252747253 25.2747252747253 25.2747252747253 25.2747252747253 25.2747252747253 -9999 -9999 -9999 -9999 -9999 -9999 -9999 -9999 -9999 -9999 21.1764705882353 21.1764705882353 21.1764705882353 21.1764705882353 21.1764705882353 21.1764705882353 21.1764705882353 26.1865793780687 23.5655737704918 23.5655737704918 23.5655737704918 20.9090909090909 20.9090909090909 20.9090909090909 20.9090909090909 28.9079229122056 15.3061224489796 15.3061224489796 28.9079229122056 28.9079229122056 28.9079229122056 28.125 28.125 28.125 28.125 28.125 24.3055555555556 24.3055555555556 24.3055555555556 26.9814502529511 26.9814502529511 26.9814502529511 26.9814502529511 21.6165413533835 21.6165413533835 21.6165413533835 21.6165413533835 21.6165413533835 23.9669421487603 23.9669421487603 22.5155279503106 22.5155279503106 22.5155279503106 22.5155279503106 22.5155279503106 22.5155279503106 22.5155279503106 21.2765957446809 21.2765957446809 21.2765957446809 21.2765957446809 21.2765957446809 22.1674876847291 22.1674876847291 22.1674876847291 22.1674876847291 21.2765957446809 21.2765957446809 21.2765957446809 27.2108843537415 27.2108843537415 27.2108843537415 21.2765957446809 32.5732899022801 32.5732899022801 28.8808664259928 28.8808664259928 -9999 -9999 -9999 -9999 -9999 -9999 -9999 -9999 -9999 -9999 -9999 -9999 -9999 -9999 -9999 -9999 -9999 -9999 -9999 -9999 -9999 -9999 -9999 -9999 32.967032967033 32.967032967033 -9999 -9999 -9999 -9999 32.967032967033 32.967032967033 32.967032967033 32.967032967033 32.967032967033 32.967032967033 38.8349514563107 38.8349514563107 38.8349514563107 38.8349514563107 38.8349514563107 38.8349514563107 38.8349514563107 38.8349514563107 37.8787878787879 37.8787878787879 37.8787878787879 37.8787878787879 34.0356564019449 34.0356564019449 34.0356564019449 -9999 34.0356564019449 44.3425076452599 44.3425076452599 44.3425076452599 44.3425076452599 52.2755227552276 52.2755227552276 52.2755227552276 52.2755227552276 52.2755227552276 48.1927710843374 48.1927710843374 48.1927710843374 48.1927710843374 52.2755227552276 52.2755227552276 48.411497730711 48.411497730711 57.4324324324324 57.4324324324324 59.5744680851064 59.5744680851064 63.8629283489097 63.8629283489097 64.1221374045801 64.1221374045801 64.1221374045801 64.1221374045801 41.8502202643172 41.8502202643172 67.3575129533679 67.3575129533679 49.1071428571429 49.1071428571429 48.3516483516484 48.3516483516484 52.9661016949153 52.9661016949153 52.9661016949153 52.9661016949153 44.2359249329759 44.2359249329759 44.2359249329759 44.2359249329759 53.7383177570093 53.7383177570093 82.051282051282 82.051282051282 82.051282051282 82.051282051282 82.051282051282 65.8682634730539 65.8682634730539 65.8682634730539 65.8682634730539 76.9911504424779 65.8682634730539 65.8682634730539 -9999 -9999 -9999 -9999 -9999 -9999 -9999 -9999 -9999 -9999 -9999 -9999 -9999 -9999 -9999 -9999 -9999 69.1823899371069 69.1823899371069 -9999 40.1284109149278 40.1284109149278 25.2525252525253 25.2525252525253 25.2525252525253 25.2525252525253 25.2525252525253 25.2525252525253 25.2525252525253 25.2525252525253 25.2525252525253 25.2525252525253 32.6732673267327 32.6732673267327 32.6732673267327 36.7647058823529 35.5521936459909 35.5521936459909 30.3867403314917 30.3867403314917 30.3867403314917 42.6829268292683 42.6829268292683 42.6829268292683 42.6829268292683 42.6829268292683 -9999 -9999 -9999 -9999 -9999 -9999 -9999 -9999 -9999 -9999 -9999 -9999 -9999 -9999 -9999 -9999 65.4205607476635 65.4205607476635 65.4205607476635 65.4205607476635 55.4906542056075 55.4906542056075 15.9574468085106 15.9574468085106 15.9574468085106 15.9574468085106 15.9574468085106 15.9574468085106 15.9574468085106 15.9574468085106 15.9574468085106 -9999 -9999 -9999 -9999 -9999 -9999 -9999 -9999 -9999 -9999 -9999 -9999 -9999 -9999 -9999 -9999 -9999 -9999 -9999 -9999 -9999 -9999 -9999 -9999 -9999 -9999 -9999 -9999 -9999 -9999 -9999 -9999 -9999 -9999 -9999 -9999 -9999 -9999 -9999 -9999 -9999 -9999 -9999 -9999 -9999 -9999 -9999 -9999 -9999 -9999 -9999 -9999 -9999 -9999 -9999 -9999 -9999 -9999 -9999 -9999 -9999 -9999 -9999 -9999 -9999 -9999 -9999 -9999 -9999 -9999 -9999 -9999 -9999 -9999 -9999 -9999 -9999 -9999 -9999 -9999 -9999 -9999 -9999 -9999 -9999
-9999 -9999 -9999 -9999 -9999 -9999 -9999 35.2697095435685 35.2697095435685 35.2697095435685 35.2697095435685 35.2697095435685 35.2697095435685 35.2697095435685 35.2697095435685 35.2697095435685 35.2697095435685 35.2697095435685 35.2697095435685 35.2697095435685 35.2697095435685 35.2697095435685 35.2697095435685 35.2697095435685 35.2697095435685 35.2697095435685 35.2697095435685 35.2697095435685 35.2697095435685 35.2697095435685 35.2697095435685 35.2697095435685 35.2697095435685 35.2697095435685 35.2697095435685 35.2697095435685 35.2697095435685 37.4771480804388 42.2680412371134 42.2680412371134 42.2680412371134 42.2680412371134 37.4771480804388 37.4771480804388 37.4771480804388 37.4771480804388 37.4771480804388 37.4771480804388 37.4771480804388 37.4771480804388 37.4771480804388 37.4771480804388 37.4771480804388 37.4771480804388 37.4771480804388 37.4771480804388 37.4771480804388 37.4771480804388 37.4771480804388 37.4771480804388 37.4771480804388 29.4117647058824 25.2747252747253 25.2747252747253 25.2747252747253 -9999 -9999 -9999 -9999 -9999 -9999 -9999 -9999 21.1764705882353 21.1764705882353 21.1764705882353 21.1764705882353 21.1764705882353 21.1764705882353 26.1865793780687 21.1764705882353 21.1764705882353 21.1764705882353 26.1865793780687 23.5655737704918 23.5655737704918 20.9090909090909 20.9090909090909 20.9090909090909 20.9090909090909 20.9090909090909 28.9079229122056 28.9079229122056 28.9079229122056 28.9079229122056 28.9079229122056 28.9079229122056 28.125 28.125 28.125 28.125 28.125 24.3055555555556 22.6449275362319 22.6449275362319 26.9814502529511 26.9814502529511 26.9814502529511 26.9814502529511 21.6165413533835 21.6165413533835 21.6165413533835 21.6165413533835 21.6165413533835 23.9669421487603 23.9669421487603 22.5155279503106 22.5155279503106 22.5155279503106 21.2765957446809 21.2765957446809 40.1907356948229 40.1907356948229 40.1907356948229 36.0294117647059 36.0294117647059 22.1674876847291 22.1674876847291 22.1674876847291 22.1674876847291 22.1674876847291 22.1674876847291 21.2765957446809 21.2765957446809 21.2765957446809 21.2765957446809 21.2765957446809 32.5732899022801 32.5732899022801 32.5732899022801 32.5732899022801 28.8808664259928 28.8808664259928 -9999 -9999 -9999 -9999 -9999 -9999 -9999 -9999 -9999 -9999 -9999 -9999 -9999 -9999 -9999 -9999 -9999 -9999 -9999 -9999 -9999 -9999 -9999 -9999 -9999 -9999 -9999 -9999 -9999 -9999 -9999 -9999 -9999 -9999 -9999 -9999 -9999 -9999 37.7551020408163 37.7551020408163 37.7551020408163 37.7551020408163 37.7551020408163 37.7551020408163 37.7551020408163 37.7551020408163 37.7551020408163 37.7551020408163 37.7551020408163 34.0356564019449 34.0356564019449 34.0356564019449 34.0356564019449 52.2755227552276 52.2755227552276 52.2755227552276 52.2755227552276 52.2755227552276 52.2755227552276 52.2755227552276 52.2755227552276 52.2755227552276 52.2755227552276 48.1927710843374 48.1927710843374 -9999 52.2755227552276 52.2755227552276 52.2755227552276 53.7848605577689 57.4324324324324 57.4324324324324 59.5744680851064 63.8629283489097 63.8629283489097 63.8629283489097 63.8629283489097 64.1221374045801 64.1221374045801 64.1221374045801 41.8502202643172 41.8502202643172 67.3575129533679 67.3575129533679 49.1071428571429 49.1071428571429 49.1071428571429 49.1071428571429 59.1397849462366 42.9752066115703 42.9752066115703 44.2953020134228 44.2953020134228 44.2359249329759 44.2359249329759 44.2359249329759 44.2359249329759 44.2359249329759 60.4651162790698 60.4651162790698 60.4651162790698 64.0204865556978 64.0204865556978 85.1528384279476 65.8682634730539 65.8682634730539 65.8682634730539 65.8682634730539 65.8682634730539 65.8682634730539 -9999 -9999 -9999 -9999 -9999 -9999 -9999 -9999 -9999 -9999 -9999 -9999 -9999 -9999 -9999 -9999 -9999 -9999 40.1284109149278 40.1284109149278 40.1284109149278 40.1284109149278 40.1284109149278 25.2525252525253 25.2525252525253 25.2525252525253 25.2525252525253 25.2525252525253 25.2525252525253 25.2525252525253 25.2525252525253 32.0855614973262 32.0855614973262 32.6732673267327 32.6732673267327 35.5521936459909 35.5521936459909 42.5925925925926 27.8350515463918 27.8350515463918 32.5396825396825 32.5396825396825 42.6829268292683 42.6829268292683 42.6829268292683 -9999 -9999 -9999 -9999 -9999 51.3245033112583 51.3245033112583 -9999 -9999 -9999 -9999 -9999 -9999 -9999 -9999 65.4205607476635 65.4205607476635 65.4205607476635 65.4205607476635 65.4205607476635 65.4205607476635 65.4205607476635 55.4906542056075 55.4906542056075 55.4906542056075 62.1468926553672 62.1468926553672 62.1468926553672 62.1468926553672 74.6268656716418 15.9574468085106 -9999 -9999 -9999 -9999 -9999 -9999 -9999 -9999 -9999 -9999 -9999 -9999 -9999 -9999 -9999 -9999 -9999 -9999 -9999 -9999 -9999 -9999 -9999 -9999 -9999 -9999 -9999 -9999 -9999 -9999 -9999 -9999 -9999 -9999 -9999 -9999 -9999 -9999 -9999 -9999 -9999 -9999 -9999 -9999 -9999 -9999 -9999 -9999 -9999 -9999 -9999 -9999 -9999 -9999 -9999 -9999 -9999 -9999 -9999 -9999 -9999 -9999 -9999 -9999 -9999 -9999 -9999 -9999 -9999 -9999 -9999 -9999 -9999 -9999 -9999 -9999 -9999 -9999 -9999 -9999 -9999 -9999 -9999 -9999 -9999 -9999
-9999 -9999 -9999 -9999 -9999 35.2697095435685 35.2697095435685 35.2697095435685 35.2697095435685 35.2697095435685 35.2697095435685 35.2697095435685 35.2697095435685 35.2697095435685 35.2697095435685 35.2697095435685 35.2697095435685 35.2697095435685 35.2697095435685 35.2697095435685 35.2697095435685 35.2697095435685 35.2697095435685 35.2697095435685 35.2697095435685 35.2697095435685 37.4771480804388 35.2697095435685 35.2697095435685 37.4771480804388 37.4771480804388 35.2697095435685 35.2697095435685 37.4771480804388 35.2697095435685 37.4771480804388 37.4771480804388 42.2680412371134 42.2680412371134 42.2680412371134 42.2680412371134 42.2680412371134 37.4771480804388 37.4771480804388 37.4771480804388 37.4771480804388 37.4771480804388 37.4771480804388 37.4771480804388 37.4771480804388 37.4771480804388 37.4771480804388 37.4771480804388 37.4771480804388 37.4771480804388 37.4771480804388 37.4771480804388 37.4771480804388 37.4771480804388 37.4771480804388 37.4771480804388 37.4771480804388 25.2747252747253 25.2747252747253 -9999 -9999 -9999 -9999 -9999 21.1764705882353 21.1764705882353 21.1764705882353 21.1764705882353 21.1764705882353 21.1764705882353 21.484375 21.484375 21.1764705882353 21.1764705882353 26.1865793780687 26.1865793780687 26.1865793780687 20.7253886010363 20.7253886010363 20.7253886010363 20.7253886010363 20.7253886010363 20.9090909090909 20.9090909090909 20.9090909090909 20.9090909090909 20.9090909090909 28.9079229122056 28.9079229122056 28.9079229122056 28.9079229122056 28.9079229122056 28.9079229122056 28.125 28.125 28.125 28.125 22.6449275362319 22.6449275362319 22.6449275362319 22.6449275362319 26.9814502529511 26.9814502529511 26.9814502529511 21.7391304347826 21.7391304347826 21.7391304347826 21.6165413533835 21.6165413533835 21.7391304347826 34.6062052505967 34.6062052505967 40.1907356948229 40.1907356948229 40.1907356948229 40.1907356948229 40.1907356948229 40.1907356948229 40.1907356948229 36.0294117647059 36.0294117647059 22.1674876847291 36.0294117647059 22.1674876847291 22.1674876847291 22.1674876847291 22.1674876847291 21.2765957446809 21.2765957446809 32.1252059308072 32.1252059308072 32.5732899022801 32.5732899022801 32.5732899022801 32.5732899022801 32.5732899022801 32.5732899022801 28.8808664259928 -9999 -9999 -9999 -9999 -9999 -9999 -9999 -9999 -9999 -9999 -9999 -9999 -9999 -9999 -9999 -9999 -9999 -9999 -9999 -9999 -9999 -9999 -9999 -9999 -9999 -9999 -9999 -9999 -9999 -9999 -9999 -9999 -9999 -9999 -9999 -9999 -9999 -9999 -9999 37.7551020408163 37.7551020408163 37.7551020408163 -9999 37.7551020408163 37.7551020408163 37.7551020408163 37.7551020408163 37.7551020408163 37.7551020408163 -9999 -9999 -9999 -9999 -9999 -9999 52.2755227552276 52.2755227552276 52.2755227552276 52.2755227552276 52.2755227552276 52.2755227552276 52.2755227552276 52.2755227552276 52.2755227552276 -9999 -9999 -9999 -9999 -9999 -9999 -9999 -9999 -9999 53.7848605577689 63.8629283489097 63.8629283489097 63.8629283489097 63.8629283489097 64.1221374045801 64.1221374045801 41.8502202643172 67.3575129533679 67.3575129533679 67.3575129533679 49.1071428571429 49.1071428571429 49.1071428571429 49.1071428571429 59.1397849462366 71.0955710955711 71.0955710955711 44.2953020134228 44.2953020134228 44.2359249329759 44.2359249329759 44.2359249329759 44.2359249329759 44.2359249329759 64.0204865556978 64.0204865556978 64.0204865556978 64.0204865556978 64.0204865556978 85.1528384279476 65.8682634730539 65.8682634730539 65.8682634730539 65.8682634730539 65.8682634730539 65.8682634730539 -9999 -9999 -9999 -9999 -9999 -9999 -9999 -9999 -9999 -9999 -9999 -9999 -9999 -9999 -9999 -9999 50.3448275862069 50.3448275862069 40.1284109149278 40.1284109149278 40.1284109149278 40.1284109149278 40.1284109149278 40.1284109149278 25.2525252525253 25.2525252525253 25.2525252525253 25.2525252525253 25.2525252525253 25.2525252525253 25.2525252525253 32.0855614973262 32.0855614973262 32.0855614973262 32.6732673267327 31.9410319410319 27.8350515463918 27.8350515463918 27.8350515463918 32.5396825396825 32.5396825396825 40.8163265306122 42.6829268292683 42.6829268292683 -9999 -9999 -9999 -9999 -9999 50.9615384615385 50.9615384615385 50.9615384615385 50.9615384615385 50.9615384615385 50.9615384615385 59.4339622641509 59.4339622641509 -9999 -9999 -9999 -9999 65.4205607476635 65.4205607476635 65.4205607476635 65.4205607476635 65.4205607476635 65.4205607476635 55.4906542056075 55.4906542056075 55.4906542056075 74.6268656716418 62.1468926553672 62.1468926553672 74.6268656716418 74.6268656716418 -9999 -9999 -9999 -9999 -9999 -9999 -9999 -9999 -9999 -9999 -9999 -9999 -9999 -9999 -9999 -9999 -9999 -9999 -9999 -9999 -9999 -9999 -9999 -9999 -9999 -9999 -9999 -9999 -9999 -9999 -9999 -9999 -9999 -9999 -9999 -9999 -9999 -9999 -9999 -9999 -9999 -9999 -9999 -9999 -9999 -9999 -9999 -9999 -9999 -9999 -9999 -9999 -9999 -9999 -9999 -9999 -9999 -9999 -9999 -9999 -9999 -9999 -9999 -9999 -9999 -9999 -9999 -9999 -9999 -9999 -9999 -9999 -9999 -9999 -9999 -9999 -9999 -9999 -9999 -9999 -9999 -9999 -9999 -9999 -9999 -9999 -9999
-9999 -9999 -9999 35.2697095435685 35.2697095435685 35.2697095435685 35.2697095435685 35.2697095435685 35.2697095435685 35.2697095435685 35.2697095435685 35.2697095435685 35.2697095435685 35.2697095435685 35.2697095435685 35.2697095435685 35.2697095435685 35.2697095435685 35.2697095435685 35.2697095435685 35.2697095435685 35.2697095435685 35.2697095435685 35.2697095435685 35.2697095435685 37.4771480804388 37.4771480804388 37.4771480804388 37.4771480804388 37.4771480804388 37.4771480804388 37.4771480804388 37.4771480804388 37.4771480804388 37.4771480804388 37.4771480804388 37.4771480804388 37.4771480804388 42.2680412371134 30.920060331825 30.920060331825 30.920060331825 30.920060331825 37.4771480804388 37.4771480804388 37.4771480804388 37.4771480804388 37.4771480804388 37.4771480804388 37.4771480804388 37.4771480804388 37.4771480804388 37.4771480804388 37.4771480804388 37.4771480804388 37.4771480804388 37.4771480804388 37.4771480804388 37.4771480804388 37.4771480804388 37.4771480804388 37.4771480804388 -9999 -9999 -9999 -9999 23.3069481090589 23.3069481090589 21.1764705882353 21.1764705882353 23.3069481090589 23.3069481090589 23.3069481090589 23.3069481090589 21.484375 21.484375 21.484375 26.1865793780687 26.1865793780687 26.1865793780687 20.7253886010363 20.7253886010363 20.7253886010363 20.7253886010363 20.7253886010363 20.7253886010363 20.7253886010363 28.3950617283951 28.3950617283951 28.3950617283951 28.3950617283951 20.6463195691203 21.8687872763419 21.8687872763419 21.8687872763419 21.8687872763419 21.8687872763419 21.8687872763419 21.8687872763419 21.8687872763419 21.8687872763419 22.6449275362319 22.6449275362319 22.6449275362319 22.6449275362319 22.6449275362319 21.7391304347826 21.7391304347826 21.7391304347826 21.7391304347826 21.6165413533835 21.7391304347826 34.6062052505967 34.6062052505967 34.6062052505967 30.4878048780488 30.4878048780488 40.1907356948229 40.1907356948229 40.1907356948229 40.1907356948229 40.1907356948229 40.1907356948229 40.1907356948229 36.0294117647059 36.0294117647059 36.0294117647059 36.0294117647059 36.0294117647059 22.1674876847291 22.1674876847291 32.1252059308072 32.1252059308072 32.1252059308072 32.1252059308072 32.1252059308072 32.1252059308072 32.5732899022801 32.5732899022801 32.5732899022801 32.5732899022801 43.1578947368421 28.8808664259928 -9999 -9999 -9999 -9999 -9999 -9999 -9999 -9999 -9999 -9999 -9999 -9999 -9999 -9999 -9999 -9999 -9999 -9999 -9999 -9999 -9999 -9999 -9999 -9999 -9999 -9999 -9999 -9999 -9999 -9999 -9999 -9999 -9999 -9999 -9999 -9999 -9999 -9999 -9999 -9999 37.7551020408163 -9999 -9999 -9999 -9999 37.7551020408163 37.7551020408163 -9999 -9999 -9999 -9999 -9999 -9999 -9999 -9999 -9999 -9999 -9999 -9999 -9999 52.2755227552276 52.2755227552276 -9999 -9999 -9999 -9999 -9999 -9999 -9999 -9999 -9999 -9999 -9999 -9999 -9999 53.7848605577689 63.8629283489097 63.8629283489097 64.1221374045801 53.7848605577689 53.7848605577689 67.3575129533679 67.3575129533679 53.7848605577689 53.7848605577689 53.7848605577689 59.1397849462366 59.1397849462366 59.1397849462366 71.0955710955711 71.0955710955711 71.0955710955711 66.735112936345 66.735112936345 44.2359249329759 44.2359249329759 44.2359249329759 44.2359249329759 64.0204865556978 64.0204865556978 64.0204865556978 64.0204865556978 64.0204865556978 85.1528384279476 65.8682634730539 65.8682634730539 -9999 -9999 -9999 -9999 -9999 -9999 -9999 -9999 -9999 -9999 -9999 -9999 -9999 -9999 -9999 -9999 -9999 -9999 50.3448275862069 50.3448275862069 50.3448275862069 40.1284109149278 40.1284109149278 40.1284109149278 40.1284109149278 40.1284109149278 40.1284109149278 40.1284109149278 40.1284109149278 25.2525252525253 25.2525252525253 25.2525252525253 25.2525252525253 25.2525252525253 25.2525252525253 33.7954939341421 33.7954939341421 40.1301518438178 40.1301518438178 48.1927710843374 48.1927710843374 48.1927710843374 32.5396825396825 32.5396825396825 32.5396825396825 40.8163265306122 40.8163265306122 42.6829268292683 34.9099099099099 34.9099099099099 34.9099099099099 35.405872193437 -9999 50.9615384615385 50.9615384615385 50.9615384615385 50.9615384615385 50.9615384615385 50.9615384615385 50.9615384615385 50.9615384615385 50.9615384615385 50.9615384615385 -9999 64.1304347826087 64.1304347826087 64.1304347826087 64.1304347826087 64.1304347826087 65.4205607476635 65.4205607476635 55.4906542056075 55.4906542056075 55.4906542056075 74.6268656716418 74.6268656716418 74.6268656716418 74.6268656716418 -9999 -9999 -9999 -9999 -9999 -9999 -9999 -9999 -9999 -9999 -9999 -9999 -9999 -9999 -9999 -9999 -9999 -9999 -9999 -9999 -9999 -9999 -9999 -9999 -9999 -9999 -9999 -9999 -9999 -9999 -9999 -9999 -9999 -9999 -9999 -9999 -9999 -9999 -9999 -9999 -9999 -9999 -9999 -9999 -9999 -9999 -9999 -9999 -9999 -9999 -9999 -9999 -9999 -9999 -9999 -9999 -9999 -9999 -9999 -9999 -9999 -9999 -9999 -9999 -9999 -9999 -9999 -9999 -9999 -9999 -9999 -9999 -9999 -9999 -9999 -9999 -9999 -9999 -9999 -9999 -9999 -9999 -9999 -9999 -9999 -9999 -9999 -9999
-9999 -9999 -9999 35.2697095435685 35.2697095435685 35.2697095435685 35.2697095435685 35.2697095435685 35.2697095435685 35.2697095435685 35.2697095435685 35.2697095435685 35.2697095435685 35.2697095435685 35.2697095435685 35.2697095435685 35.2697095435685 35.2697095435685 35.2697095435685 35.2697095435685 35.2697095435685 35.2697095435685 35.2697095435685 35.2697095435685 35.2697095435685 37.4771480804388 37.4771480804388 37.4771480804388 37.4771480804388 37.4771480804388 37.4771480804388 37.4771480804388 37.4771480804388 37.4771480804388 37.4771480804388 37.4771480804388 37.4771480804388 37.4771480804388 30.920060331825 30.920060331825 30.920060331825 30.920060331825 30.920060331825 37.4771480804388 37.4771480804388 37.4771480804388 37.4771480804388 37.4771480804388 37.4771480804388 37.4771480804388 37.4771480804388 37.4771480804388 37.4771480804388 37.4771480804388 37.4771480804388 37.4771480804388 37.4771480804388 37.4771480804388 37.4771480804388 37.4771480804388 37.4771480804388 37.4771480804388 26.8292682926829 23.3069481090589 23.3069481090589 23.3069481090589 23.3069481090589 23.3069481090589 23.3069481090589 23.3069481090589 23.3069481090589 23.3069481090589 23.3069481090589 23.3069481090589 23.3069481090589 21.484375 21.484375 23.3069481090589 26.1865793780687 26.1865793780687 20.7253886010363 20.7253886010363 20.7253886010363 20.7253886010363 20.7253886010363 24.7311827956989 20.7253886010363 28.3950617283951 20.6463195691203 20.6463195691203 20.6463195691203 20.6463195691203 20.6463195691203 21.8687872763419 21.8687872763419 21.8687872763419 21.8687872763419 21.8687872763419 21.8687872763419 22.6449275362319 22.6449275362319 22.6449275362319 22.6449275362319 22.6449275362319 22.6449275362319 21.7391304347826 21.7391304347826 21.7391304347826 34.6062052505967 34.6062052505967 34.6062052505967 34.6062052505967 30.4878048780488 30.4878048780488 30.4878048780488 30.4878048780488 30.4878048780488 34.6062052505967 40.1907356948229 40.1907356948229 40.1907356948229 40.1907356948229 40.1907356948229 40.1907356948229 40.1907356948229 36.0294117647059 36.0294117647059 36.0294117647059 36.0294117647059 32.1252059308072 32.1252059308072 32.1252059308072 32.1252059308072 32.1252059308072 32.1252059308072 32.1252059308072 32.1252059308072 32.5732899022801 32.5732899022801 43.1578947368421 43.1578947368421 43.1578947368421 43.1578947368421 28.8808664259928 -9999 -9999 -9999 -9999 -9999 -9999 -9999 -9999 -9999 -9999 -9999 -9999 -9999 -9999 -9999 -9999 -9999 -9999 -9999 -9999 -9999 -9999 -9999 -9999 -9999 -9999 -9999 -9999 -9999 -9999 -9999 -9999 -9999 -9999 -9999 -9999 -9999 -9999 -9999 -9999 -9999 37.7551020408163 -9999 -9999 -9999 -9999 -9999 -9999 -9999 -9999 -9999 -9999 -9999 -9999 -9999 -9999 -9999 -9999 -9999 -9999 -9999 -9999 -9999 -9999 -9999 -9999 -9999 -9999 -9999 -9999 -9999 -9999 -9999 -9999 -9999 -9999 -9999 -9999 -9999 -9999 53.7848605577689 53.7848605577689 53.7848605577689 53.7848605577689 53.7848605577689 59.1397849462366 59.1397849462366 59.1397849462366 71.0955710955711 71.0955710955711 66.735112936345 66.735112936345 66.735112936345 66.735112936345 66.735112936345 66.735112936345 66.815144766147 66.815144766147 66.815144766147 66.815144766147 66.815144766147 66.815144766147 66.815144766147 66.815144766147 -9999 -9999 -9999 -9999 -9999 -9999 -9999 -9999 -9999 -9999 -9999 -9999 -9999 -9999 -9999 -9999 -9999 77.3333333333333 50.3448275862069 50.3448275862069 50.3448275862069 50.3448275862069 40.1284109149278 40.1284109149278 40.1284109149278 40.1284109149278 40.1284109149278 40.1284109149278 40.1284109149278 40.1284109149278 57.3394495412844 25.2525252525253 25.2525252525253 25.2525252525253 25.2525252525253 32.3974082073434 32.3974082073434 37.7358490566038 37.7358490566038 48.1927710843374 48.1927710843374 48.1927710843374 34.9829351535836 34.9829351535836 32.2085889570552 27.5779376498801 27.5779376498801 27.5779376498801 34.9099099099099 36.5853658536585 36.5853658536585 35.405872193437 35.405872193437 37.5586854460094 37.5586854460094 37.5586854460094 50 50 50 50.9615384615385 50.9615384615385 50.9615384615385 50.9615384615385 -9999 61.4035087719298 61.4035087719298 58.2010582010582 58.2010582010582 63.6792452830189 63.6792452830189 64.1304347826087 67.3684210526316 67.3684210526316 67.3684210526316 67.3684210526316 67.3684210526316 74.6268656716418 74.6268656716418 -9999 -9999 -9999 -9999 -9999 -9999 -9999 -9999 -9999 -9999 -9999 -9999 -9999 -9999 -9999 -9999 -9999 -9999 -9999 -9999 -9999 -9999 -9999 -9999 -9999 -9999 -9999 -9999 -9999 -9999 -9999 -9999 -9999 -9999 -9999 -9999 -9999 -9999 -9999 -9999 -9999 -9999 -9999 -9999 -9999 -9999 -9999 -9999 -9999 -9999 -9999 -9999 -9999 -9999 -9999 -9999 -9999 -9999 -9999 -9999 -9999 -9999 -9999 -9999 -9999 -9999 -9999 -9999 -9999 -9999 -9999 -9999 -9999 -9999 -9999 -9999 -9999 -9999 -9999 -9999 -9999 -9999 -9999 -9999 -9999 -9999 -9999 -9999 -9999
-9999 -9999 -9999 35.2697095435685 35.2697095435685 35.2697095435685 35.2697095435685 35.2697095435685 35.2697095435685 35.2697095435685 35.2697095435685 35.2697095435685 35.2697095435685 35.2697095435685 35.2697095435685 35.2697095435685 35.2697095435685 35.2697095435685 35.2697095435685 35.2697095435685 35.2697095435685 35.2697095435685 35.2697095435685 37.4771480804388 37.4771480804388 37.4771480804388 37.4771480804388 37.4771480804388 37.4771480804388 37.4771480804388 37.4771480804388 37.4771480804388 37.4771480804388 37.4771480804388 37.4771480804388 37.4771480804388 37.4771480804388 37.4771480804388 37.4771480804388 30.920060331825 30.920060331825 37.4771480804388 37.4771480804388 37.4771480804388 37.4771480804388 37.4771480804388 37.4771480804388 37.4771480804388 37.4771480804388 37.4771480804388 37.4771480804388 37.4771480804388 37.4771480804388 37.4771480804388 37.4771480804388 37.4771480804388 37.4771480804388 37.4771480804388 37.4771480804388 37.4771480804388 26.8292682926829 26.8292682926829 26.8292682926829 23.3069481090589 23.3069481090589 23.3069481090589 23.3069481090589 23.3069481090589 23.3069481090589 23.3069481090589 23.3069481090589 23.3069481090589 23.3069481090589 23.3069481090589 23.3069481090589 21.484375 21.484375 23.3069481090589 26.1865793780687 26.1865793780687 26.1865793780687 20.7253886010363 24.7311827956989 24.7311827956989 24.7311827956989 24.7311827956989 24.7311827956989 28.3950617283951 28.3950617283951 20.6463195691203 20.6463195691203 20.6463195691203 20.6463195691203 21.8687872763419 21.8687872763419 21.7391304347826 21.7391304347826 21.7391304347826 21.7391304347826 22.6449275362319 22.6449275362319 22.6449275362319 22.6449275362319 21.7391304347826 25.763358778626 25.763358778626 25.763358778626 34.6062052505967 32.3383084577114 32.3383084577114 32.3383084577114 30.4878048780488 30.4878048780488 30.4878048780488 30.4878048780488 30.4878048780488 34.6062052505967 34.6062052505967 40.1907356948229 40.1907356948229 40.1907356948229 40.1907356948229 40.1907356948229 40.1907356948229 40.1907356948229 36.0294117647059 35.0701402805611 35.0701402805611 35.0701402805611 32.1252059308072 32.1252059308072 32.1252059308072 32.1252059308072 32.1252059308072 32.1252059308072 32.1252059308072 32.1252059308072 32.1252059308072 43.1578947368421 43.1578947368421 -9999 -9999 43.1578947368421 -9999 -9999 -9999 -9999 -9999 -9999 -9999 -9999 -9999 -9999 -9999 -9999 -9999 -9999 -9999 -9999 -9999 -9999 -9999 -9999 -9999 -9999 -9999 -9999 -9999 -9999 -9999 -9999 -9999 -9999 -9999 -9999 -9999 -9999 -9999 -9999 -9999 -9999 -9999 -9999 -9999 -9999 -9999 -9999 -9999 -9999 -9999 -9999 -9999 -9999 -9999 -9999 -9999 -9999 -9999 -9999 -9999 -9999 -9999 -9999 -9999 -9999 -9999 -9999 -9999 -9999 -9999 -9999 -9999 -9999 -9999 -9999 -9999 -9999 -9999 -9999 -9999 -9999 -9999 -9999 -9999 -9999 -9999 -9999 -9999 -9999 -9999 -9999 53.7848605577689 66.735112936345 66.735112936345 66.735112936345 66.735112936345 66.735112936345 66.815144766147 66.815144766147 66.815144766147 66.815144766147 66.815144766147 66.815144766147 66.815144766147 66.815144766147 83.9160839160839 83.9160839160839 83.9160839160839 -9999 -9999 -9999 -9999 -9999 -9999 -9999 -9999 -9999 -9999 -9999 -9999 -9999 -9999 -9999 65.9937888198758 47.2972972972973 77.3333333333333 50.3448275862069 45.144804088586 45.144804088586 45.144804088586 40.1284109149278 40.1284109149278 40.1284109149278 40.1284109149278 65.0684931506849 65.0684931506849 65.0684931506849 65.0684931506849 40.1284109149278 57.3394495412844 25.2525252525253 25.2525252525253 25.2525252525253 30.1556420233463 30.1556420233463 30.1556420233463 32.3974082073434 48.1927710843374 48.1927710843374 34.9829351535836 34.9829351535836 34.9829351535836 32.2085889570552 32.2085889570552 32.2085889570552 27.5779376498801 40.7949790794979 34.0136054421769 34.0136054421769 34.0136054421769 35.405872193437 35.405872193437 37.5586854460094 37.5586854460094 45.5904334828102 45.5904334828102 45.5904334828102 45.5904334828102 45.5904334828102 -9999 61.4035087719298 61.4035087719298 61.4035087719298 61.4035087719298 58.2010582010582 58.2010582010582 58.2010582010582 63.6792452830189 63.6792452830189 67.3684210526316 67.3684210526316 67.3684210526316 67.3684210526316 63.6792452830189 -9999 -9999 -9999 -9999 -9999 -9999 -9999 -9999 -9999 -9999 -9999 -9999 -9999 -9999 -9999 -9999 -9999 -9999 -9999 -9999 -9999 -9999 -9999 -9999 -9999 -9999 -9999 -9999 -9999 -9999 -9999 -9999 -9999 -9999 -9999 -9999 -9999 -9999 -9999 -9999 -9999 -9999 -9999 -9999 -9999 -9999 -9999 -9999 -9999 -9999 -9999 -9999 -9999 -9999 -9999 -9999 -9999 -9999 -9999 -9999 -9999 -9999 -9999 -9999 -9999 -9999 -9999 -9999 -9999 -9999 -9999 -9999 -9999 -9999 -9999 -9999 -9999 -9999 -9999 -9999 -9999 -9999 -9999 -9999 -9999 -9999 -9999 -9999 -9999 -9999 -9999
-9999 -9999 35.2697095435685 35.2697095435685 35.2697095435685 35.2697095435685 35.2697095435685 35.2697095435685 35.2697095435685 35.2697095435685 35.2697095435685 35.2697095435685 35.2697095435685 35.2697095435685 35.2697095435685 35.2697095435685 35.2697095435685 35.2697095435685 35.2697095435685 35.2697095435685 35.2697095435685 37.4771480804388 37.4771480804388 37.4771480804388 37.4771480804388 37.4771480804388 37.4771480804388 37.4771480804388 37.4771480804388 37.4771480804388 37.4771480804388 37.4771480804388 37.4771480804388 37.4771480804388 37.4771480804388 37.4771480804388 37.4771480804388 37.4771480804388 37.4771480804388 37.4771480804388 30.920060331825 37.4771480804388 37.4771480804388 37.4771480804388 37.4771480804388 37.4771480804388 37.4771480804388 37.4771480804388 37.4771480804388 37.4771480804388 37.4771480804388 37.4771480804388 37.4771480804388 37.4771480804388 37.4771480804388 37.4771480804388 37.4771480804388 37.4771480804388 26.8292682926829 26.8292682926829 26.8292682926829 26.8292682926829 26.8292682926829 23.3069481090589 23.3069481090589 23.3069481090589 23.3069481090589 23.3069481090589 23.3069481090589 23.3069481090589 23.3069481090589 23.3069481090589 23.3069481090589 23.3069481090589 23.3069481090589 23.3069481090589 23.3069481090589 23.3069481090589 23.3069481090589 26.1865793780687 26.1865793780687 20.7253886010363 20.7253886010363 24.7311827956989 24.7311827956989 24.7311827956989 24.7311827956989 28.3950617283951 28.3950617283951 20.6463195691203 20.6463195691203 20.6463195691203 20.6463195691203 20.6463195691203 21.8687872763419 21.8687872763419 21.7391304347826 21.7391304347826 21.7391304347826 21.7391304347826 25.763358778626 25.763358778626 25.763358778626 25.763358778626 32.3383084577114 32.3383084577114 32.3383084577114 32.3383084577114 32.3383084577114 32.3383084577114 32.3383084577114 30.4878048780488 30.4878048780488 30.4878048780488 30.4878048780488 34.6062052505967 34.6062052505967 34.6062052505967 34.6062052505967 40.1907356948229 40.1907356948229 40.1907356948229 40.1907356948229 40.1907356948229 40.1907356948229 40.1907356948229 35.0701402805611 35.0701402805611 35.0701402805611 35.0701402805611 32.1252059308072 32.1252059308072 -9999 -9999 -9999 -9999 -9999 -9999 -9999 -9999 -9999 -9999 -9999 -9999 -9999 -9999 -9999 -9999 -9999 -9999 -9999 -9999 -9999 -9999 -9999 -9999 -9999 -9999 -9999 -9999 -9999 -9999 -9999 -9999 -9999 -9999 -9999 -9999 -9999 -9999 -9999 -9999 -9999 -9999 -9999 -9999 -9999 -9999 -9999 -9999 -9999 -9999 -9999 -9999 -9999 -9999 -9999 -9999 -9999 -9999 -9999 -9999 -9999 -9999 -9999 -9999 -9999 -9999 -9999 -9999 -9999 -9999 -9999 -9999 -9999 -9999 -9999 -9999 -9999 -9999 -9999 -9999 -9999 -9999 -9999 -9999 -9999 -9999 -9999 -9999 -9999 -9999 -9999 -9999 -9999 -9999 -9999 -9999 -9999 -9999 -9999 -9999 -9999 -9999 53.7848605577689 53.7848605577689 -9999 -9999 -9999 -9999 -9999 -9999 66.815144766147 -9999 -9999 83.9160839160839 83.9160839160839 83.9160839160839 -9999 -9999 -9999 -9999 -9999 -9999 -9999 -9999 -9999 -9999 -9999 -9999 -9999 49.7630331753554 49.7630331753554 47.2972972972973 47.2972972972973 77.3333333333333 45.144804088586 45.144804088586 45.144804088586 46.3678516228748 40.1284109149278 40.1284109149278 40.1284109149278 40.1284109149278 71.5613382899628 71.5613382899628 71.5613382899628 65.0684931506849 61.3333333333333 57.3394495412844 57.3394495412844 25.2525252525253 25.2525252525253 25.2525252525253 25.2525252525253 30.1556420233463 25.2525252525253 25.2525252525253 34.9829351535836 31.6045380875203 31.6045380875203 31.6045380875203 31.6045380875203 32.2085889570552 32.2085889570552 36.4963503649635 36.4963503649635 36.4963503649635 34.0136054421769 35.405872193437 35.405872193437 35.405872193437 50.2544529262086 50.2544529262086 50.2544529262086 50.2544529262086 50.2544529262086 45.5904334828102 -9999 63.8148667601683 63.8148667601683 63.8148667601683 63.8148667601683 63.8148667601683 58.2010582010582 58.2010582010582 58.2010582010582 79.6703296703297 79.6703296703297 79.6703296703297 79.6703296703297 63.6792452830189 63.6792452830189 -9999 -9999 -9999 -9999 -9999 -9999 -9999 -9999 -9999 -9999 -9999 -9999 -9999 -9999 -9999 -9999 -9999 -9999 -9999 -9999 -9999 -9999 -9999 -9999 -9999 -9999 -9999 -9999 -9999 -9999 -9999 -9999 -9999 -9999 -9999 -9999 -9999 -9999 -9999 -9999 -9999 -9999 -9999 -9999 -9999 -9999 -9999 -9999 -9999 -9999 -9999 -9999 -9999 -9999 -9999 -9999 -9999 -9999 -9999 -9999 -9999 -9999 -9999 -9999 -9999 -9999 -9999 -9999 -9999 -9999 -9999 -9999 -9999 -9999 -9999 -9999 -9999 -9999 -9999 -9999 -9999 -9999 -9999 -9999 -9999 -9999 -9999 -9999 -9999 -9999 -9999 -9999
-9999 -9999 35.2697095435685 35.2697095435685 35.2697095435685 35.2697095435685 35.2697095435685 35.2697095435685 35.2697095435685 35.2697095435685 35.2697095435685 35.2697095435685 35.2697095435685 35.2697095435685 35.2697095435685 35.2697095435685 35.2697095435685 35.2697095435685 35.2697095435685 35.2697095435685 37.4771480804388 37.4771480804388 37.4771480804388 37.4771480804388 37.4771480804388 37.4771480804388 37.4771480804388 37.4771480804388 37.4771480804388 37.4771480804388 37.4771480804388 37.4771480804388 37.4771480804388 37.4771480804388 37.4771480804388 37.4771480804388 37.4771480804388 37.4771480804388 37.4771480804388 37.4771480804388 37.4771480804388 37.4771480804388 37.4771480804388 37.4771480804388 37.4771480804388 37.4771480804388 37.4771480804388 37.4771480804388 37.4771480804388 37.4771480804388 37.4771480804388 37.4771480804388 37.4771480804388 37.4771480804388 37.4771480804388 37.4771480804388 26.8292682926829 26.8292682926829 26.8292682926829 26.8292682926829 26.8292682926829 26.8292682926829 26.8292682926829 23.3069481090589 23.3069481090589 23.3069481090589 23.3069481090589 23.3069481090589 23.3069481090589 23.3069481090589 23.3069481090589 23.3069481090589 23.3069481090589 23.3069481090589 23.3069481090589 23.3069481090589 23.3069481090589 23.3069481090589 23.3069481090589 23.9852398523985 23.9852398523985 23.9852398523985 23.9852398523985 23.9852398523985 24.7311827956989 24.7311827956989 21.7391304347826 21.7391304347826 21.7391304347826 20.6463195691203 21.7391304347826 21.7391304347826 20.6463195691203 20.6463195691203 21.8687872763419 21.7391304347826 25.763358778626 25.763358778626 25.763358778626 25.763358778626 31.7796610169492 31.7796610169492 31.7796610169492 31.7796610169492 31.7796610169492 32.3383084577114 32.3383084577114 32.3383084577114 32.3383084577114 32.3383084577114 32.3383084577114 32.3383084577114 32.3383084577114 30.4878048780488 34.6062052505967 34.6062052505967 34.6062052505967 34.6062052505967 34.6062052505967 40.1907356948229 40.1907356948229 40.1907356948229 40.1907356948229 40.1907356948229 40.1907356948229 40.1907356948229 35.0701402805611 35.0701402805611 35.0701402805611 35.0701402805611 35.0701402805611 -9999 -9999 -9999 -9999 -9999 -9999 -9999 -9999 -9999 -9999 -9999 -9999 -9999 -9999 -9999 -9999 -9999 -9999 -9999 -9999 -9999 -9999 -9999 -9999 -9999 -9999 -9999 -9999 -9999 -9999 -9999 -9999 -9999 -9999 -9999 -9999 -9999 -9999 -9999 -9999 -9999 -9999 -9999 -9999 -9999 -9999 -9999 -9999 -9999 -9999 -9999 -9999 -9999 -9999 -9999 -9999 -9999 -9999 -9999 -9999 -9999 -9999 -9999 -9999 -9999 -9999 -9999 -9999 -9999 -9999 -9999 -9999 -9999 -9999 -9999 -9999 -9999 -9999 -9999 -9999 -9999 -9999 -9999 -9999 -9999 -9999 -9999 -9999 -9999 -9999 -9999 -9999 -9999 -9999 -9999 -9999 -9999 -9999 -9999 -9999 -9999 -9999 -9999 -9999 -9999 -9999 -9999 -9999 -9999 -9999 -9999 -9999 -9999 -9999 -9999 -9999 66.815144766147 -9999 -9999 -9999 -9999 -9999 -9999 -9999 -9999 -9999 -9999 65.9937888198758 65.9937888198758 49.7630331753554 49.7630331753554 49.7630331753554 77.3333333333333 77.3333333333333 77.3333333333333 50.3448275862069 46.3678516228748 46.3678516228748 46.3678516228748 40.1284109149278 40.1284109149278 40.1284109149278 71.5613382899628 71.5613382899628 71.5613382899628 71.5613382899628 61.3333333333333 61.3333333333333 57.3394495412844 61.3333333333333 50.3875968992248 25.2525252525253 25.2525252525253 25.2525252525253 25.2525252525253 34.5149253731343 34.5149253731343 34.5149253731343 34.5149253731343 31.6045380875203 32.2085889570552 32.2085889570552 32.2085889570552 34.0136054421769 34.0136054421769 34.0136054421769 34.0136054421769 35.405872193437 35.405872193437 35.405872193437 50.2544529262086 50.2544529262086 50.2544529262086 50.2544529262086 45.5904334828102 -9999 62.3582766439909 62.3582766439909 62.3582766439909 62.3582766439909 69.9233716475096 69.9233716475096 63.8148667601683 66.9642857142857 66.9642857142857 66.9642857142857 69.9404761904762 69.9404761904762 69.9404761904762 63.6792452830189 -9999 -9999 -9999 -9999 -9999 -9999 -9999 -9999 -9999 -9999 -9999 -9999 -9999 -9999 -9999 -9999 -9999 -9999 -9999 -9999 -9999 -9999 -9999 -9999 -9999 -9999 -9999 -9999 -9999 -9999 -9999 -9999 -9999 -9999 -9999 -9999 -9999 -9999 -9999 -9999 -9999 -9999 -9999 -9999 -9999 -9999 -9999 -9999 -9999 -9999 -9999 -9999 -9999 -9999 -9999 -9999 -9999 -9999 -9999 -9999 -9999 -9999 -9999 -9999 -9999 -9999 -9999 -9999 -9999 -9999 -9999 -9999 -9999 -9999 -9999 -9999 -9999 -9999 -9999 -9999 -9999 -9999 -9999 -9999 -9999 -9999 -9999 -9999 -9999 -9999 -9999 -9999 -9999 -9999
-9999 -9999 35.2697095435685 35.2697095435685 35.2697095435685 35.2697095435685 35.2697095435685 35.2697095435685 35.2697095435685 35.2697095435685 35.2697095435685 35.2697095435685 35.2697095435685 35.2697095435685 35.2697095435685 35.2697095435685 35.2697095435685 35.2697095435685 35.2697095435685 37.4771480804388 37.4771480804388 37.4771480804388 37.4771480804388 37.4771480804388 37.4771480804388 37.4771480804388 37.4771480804388 37.4771480804388 37.4771480804388 37.4771480804388 37.4771480804388 37.4771480804388 37.4771480804388 37.4771480804388 37.4771480804388 37.4771480804388 37.4771480804388 37.4771480804388 37.4771480804388 37.4771480804388 37.4771480804388 37.4771480804388 37.4771480804388 37.4771480804388 37.4771480804388 37.4771480804388 37.4771480804388 37.4771480804388 37.4771480804388 37.4771480804388 37.4771480804388 37.4771480804388 37.4771480804388 37.4771480804388 26.8292682926829 26.8292682926829 26.8292682926829 26.8292682926829 26.8292682926829 26.8292682926829 26.8292682926829 26.8292682926829 26.8292682926829 26.8292682926829 23.3069481090589 23.3069481090589 23.3069481090589 23.3069481090589 23.3069481090589 23.3069481090589 23.3069481090589 23.3069481090589 23.3069481090589 23.3069481090589 23.3069481090589 23.3069481090589 23.3069481090589 23.3069481090589 23.3069481090589 23.9852398523985 23.9852398523985 23.9852398523985 23.9852398523985 23.9852398523985 23.9852398523985 21.7391304347826 21.7391304347826 21.7391304347826 21.7391304347826 21.7391304347826 25.763358778626 25.763358778626 25.763358778626 25.763358778626 25.763358778626 25.763358778626 25.6166982922201 25.6166982922201 31.7796610169492 31.7796610169492 31.7796610169492 31.7796610169492 31.7796610169492 31.7796610169492 31.7796610169492 32.3383084577114 32.3383084577114 24.7524752475248 32.3383084577114 32.3383084577114 32.3383084577114 37.3931623931624 37.3931623931624 37.3931623931624 37.3931623931624 37.3931623931624 37.3931623931624 37.3931623931624 34.6062052505967 34.6062052505967 40.1907356948229 40.1907356948229 40.1907356948229 40.1907356948229 43.1578947368421 35.0701402805611 35.0701402805611 35.0701402805611 35.0701402805611 35.0701402805611 43.1578947368421 -9999 -9999 -9999 -9999 -9999 -9999 -9999 -9999 -9999 -9999 -9999 -9999 -9999 -9999 -9999 -9999 -9999 -9999 -9999 -9999 -9999 -9999 -9999 -9999 -9999 -9999 -9999 -9999 -9999 -9999 -9999 -9999 -9999 -9999 -9999 -9999 -9999 -9999 -9999 -9999 -9999 -9999 -9999 -9999 -9999 -9999 -9999 -9999 -9999 -9999 -9999 -9999 -9999 -9999 -9999 -9999 -9999 -9999 -9999 -9999 -9999 -9999 -9999 -9999 -9999 -9999 -9999 -9999 -9999 -9999 -9999 -9999 -9999 -9999 -9999 -9999 -9999 -9999 -9999 -9999 -9999 -9999 -9999 -9999 -9999 -9999 -9999 -9999 -9999 -9999 -9999 -9999 -9999 -9999 -9999 -9999 -9999 -9999 -9999 -9999 -9999 -9999 -9999 -9999 -9999 -9999 -9999 -9999 -9999 -9999 -9999 -9999 66.815144766147 66.815144766147 66.815144766147 -9999 -9999 -9999 -9999 -9999 -9999 -9999 -9999 -9999 -9999 -9999 -9999 65.9937888198758 65.9937888198758 49.7630331753554 49.7630331753554 63.0026809651474 77.3333333333333 77.3333333333333 77.3333333333333 50.3448275862069 46.3678516228748 46.3678516228748 46.3678516228748 46.3678516228748 44.4444444444444 44.4444444444444 44.4444444444444 71.5613382899628 71.5613382899628 71.5613382899628 61.3333333333333 61.3333333333333 61.3333333333333 61.3333333333333 50.3875968992248 50.3875968992248 34.5149253731343 34.5149253731343 34.5149253731343 34.5149253731343 29.082774049217 29.082774049217 46.2287104622871 46.2287104622871 46.2287104622871 32.0441988950276 32.0441988950276 32.0441988950276 32.0441988950276 29.320987654321 40.2097902097902 54.7850208044383 40.2097902097902 40.2097902097902 54.7850208044383 50.2544529262086 50.2544529262086 45.5904334828102 -9999 62.3582766439909 62.3582766439909 59.1497227356747 59.1497227356747 59.1497227356747 69.9233716475096 69.9233716475096 69.9233716475096 65.8995815899582 65.8995815899582 65.8995815899582 65.8995815899582 65.8995815899582 65.8995815899582 -9999 -9999 -9999 -9999 -9999 -9999 -9999 -9999 -9999 -9999 -9999 -9999 -9999 -9999 -9999 -9999 -9999 -9999 -9999 -9999 -9999 -9999 -9999 -9999 -9999 -9999 -9999 -9999 -9999 -9999 -9999 -9999 -9999 -9999 -9999 -9999 -9999 -9999 -9999 -9999 -9999 -9999 -9999 -9999 -9999 -9999 -9999 -9999 -9999 -9999 -9999 -9999 -9999 -9999 -9999 -9999 -9999 -9999 -9999 -9999 -9999 -9999 -9999 -9999 -9999 -9999 -9999 -9999 -9999 -9999 -9999 -9999 -9999 -9999 -9999 -9999 -9999 -9999 -9999 -9999 -9999 -9999 -9999 -9999 -9999 -9999 -9999 -9999 -9999 -9999 -9999 -9999 -9999 -9999 -9999
-9999 35.2697095435685 35.2697095435685 35.2697095435685 35.2697095435685 35.2697095435685 35.2697095435685 35.2697095435685 35.2697095435685 35.2697095435685 35.2697095435685 35.2697095435685 35.2697095435685 35.2697095435685 35.2697095435685 35.2697095435685 35.2697095435685 35.2697095435685 37.4771480804388 37.4771480804388 37.4771480804388 37.4771480804388 37.4771480804388 37.4771480804388 37.4771480804388 37.4771480804388 37.4771480804388 37.4771480804388 37.4771480804388 37.4771480804388 37.4771480804388 37.4771480804388 37.4771480804388 37.4771480804388 37.4771480804388 37.4771480804388 37.4771480804388 37.4771480804388 37.4771480804388 37.4771480804388 37.4771480804388 37.4771480804388 37.4771480804388 37.4771480804388 37.4771480804388 37.4771480804388 37.4771480804388 37.4771480804388 37.4771480804388 37.4771480804388 37.4771480804388 37.4771480804388 26.8292682926829 26.8292682926829 26.8292682926829 26.8292682926829 26.8292682926829 26.8292682926829 26.8292682926829 26.8292682926829 26.8292682926829 26.8292682926829 26.8292682926829 26.8292682926829 23.3069481090589 23.3069481090589 23.3069481090589 23.3069481090589 23.3069481090589 23.3069481090589 23.3069481090589 23.3069481090589 23.3069481090589 23.3069481090589 23.3069481090589 23.3069481090589 23.3069481090589 23.3069481090589 23.3069481090589 23.3069481090589 23.3069481090589 23.3069481090589 21.7391304347826 21.7391304347826 25.763358778626 25.763358778626 25.763358778626 25.763358778626 25.763358778626 25.763358778626 26.6203703703704 26.6203703703704 26.6203703703704 26.6203703703704 26.6203703703704 26.6203703703704 26.6203703703704 26.6203703703704 26.6203703703704 25.6166982922201 25.6166982922201 25.6166982922201 31.7796610169492 31.7796610169492 24.7524752475248 24.7524752475248 24.7524752475248 -9999 -9999 -9999 24.7524752475248 32.3383084577114 37.3931623931624 37.3931623931624 37.3931623931624 37.3931623931624 37.3931623931624 37.3931623931624 34.6062052505967 34.6062052505967 43.1578947368421 40.1907356948229 43.1578947368421 43.1578947368421 43.1578947368421 43.1578947368421 43.1578947368421 43.1578947368421 -9999 -9999 -9999 -9999 -9999 -9999 -9999 -9999 -9999 -9999 -9999 -9999 -9999 -9999 -9999 -9999 -9999 -9999 -9999 -9999 -9999 -9999 -9999 -9999 -9999 -9999 -9999 -9999 -9999 -9999 -9999 -9999 -9999 -9999 -9999 -9999 -9999 -9999 -9999 -9999 -9999 -9999 -9999 -9999 -9999 -9999 -9999 -9999 -9999 -9999 -9999 -9999 -9999 -9999 -9999 -9999 -9999 -9999 -9999 -9999 -9999 -9999 -9999 -9999 -9999 -9999 -9999 -9999 -9999 -9999 -9999 -9999 -9999 -9999 -9999 -9999 -9999 -9999 -9999 -9999 -9999 -9999 -9999 -9999 -9999 -9999 -9999 -9999 -9999 -9999 -9999 -9999 -9999 -9999 -9999 -9999 -9999 -9999 -9999 -9999 -9999 -9999 -9999 -9999 -9999 -9999 -9999 -9999 -9999 -9999 -9999 -9999 -9999 -9999 -9999 66.815144766147 66.815144766147 -9999 -9999 -9999 -9999 -9999 -9999 -9999 -9999 -9999 -9999 -9999 -9999 -9999 65.9937888198758 61.5640599001664 61.5640599001664 61.5640599001664 63.0026809651474 77.3333333333333 77.3333333333333 77.3333333333333 50.3448275862069 50.3448275862069 46.3678516228748 46.3678516228748 46.3678516228748 44.4444444444444 44.4444444444444 44.4444444444444 44.4444444444444 44.4444444444444 44.4444444444444 44.4444444444444 61.3333333333333 61.3333333333333 44.5205479452055 44.5205479452055 44.5205479452055 44.5205479452055 40.5405405405405 34.5149253731343 22.6244343891403 29.082774049217 29.082774049217 46.2287104622871 46.2287104622871 46.2287104622871 32.0441988950276 32.0441988950276 40.2097902097902 40.2097902097902 40.2097902097902 40.2097902097902 40.2097902097902 40.2097902097902 54.7850208044383 54.7850208044383 40.2097902097902 -9999 45.0081833060556 45.0081833060556 45.0081833060556 43.141592920354 59.1497227356747 59.1497227356747 64.1025641025641 64.1025641025641 64.1025641025641 65.8995815899582 65.8995815899582 65.8995815899582 65.8995815899582 65.8995815899582 65.8995815899582 -9999 -9999 -9999 -9999 -9999 -9999 -9999 -9999 -9999 -9999 -9999 -9999 -9999 -9999 -9999 -9999 -9999 -9999 -9999 -9999 -9999 -9999 -9999 -9999 -9999 -9999 -9999 -9999 -9999 -9999 -9999 -9999 -9999 -9999 -9999 -9999 -9999 -9999 -9999 -9999 -9999 -9999 -9999 -9999 -9999 -9999 -9999 -9999 -9999 -9999 -9999 -9999 -9999 -9999 -9999 -9999 -9999 -9999 -9999 -9999 -9999 -9999 -9999 -9999 -9999 -9999 -9999 -9999 -9999 -9999 -9999 -9999 -9999 -9999 -9999 -9999 -9999 -9999 -9999 -9999 -9999 -9999 -9999 -9999 -9999 -9999 -9999 -9999 -9999 -9999 -9999 -9999 -9999 -9999 -9999 -9999
-9999 35.2697095435685 35.2697095435685 35.2697095435685 35.2697095435685 35.2697095435685 35.2697095435685 35.2697095435685 35.2697095435685 35.2697095435685 35.2697095435685 35.2697095435685 35.2697095435685 35.2697095435685 35.2697095435685 35.2697095435685 35.2697095435685 37.4771480804388 37.4771480804388 37.4771480804388 37.4771480804388 37.4771480804388 37.4771480804388 37.4771480804388 37.4771480804388 37.4771480804388 37.4771480804388 37.4771480804388 37.4771480804388 37.4771480804388 37.4771480804388 37.4771480804388 37.4771480804388 37.4771480804388 37.4771480804388 37.4771480804388 37.4771480804388 37.4771480804388 37.4771480804388 37.4771480804388 37.4771480804388 37.4771480804388 37.4771480804388 37.4771480804388 37.4771480804388 37.4771480804388 37.4771480804388 37.4771480804388 37.4771480804388 37.4771480804388 37.4771480804388 26.8292682926829 26.8292682926829 26.8292682926829 26.8292682926829 26.8292682926829 26.8292682926829 26.8292682926829 26.8292682926829 26.8292682926829 26.8292682926829 26.8292682926829 26.8292682926829 26.8292682926829 23.3069481090589 23.3069481090589 23.3069481090589 23.3069481090589 23.3069481090589 23.3069481090589 23.3069481090589 23.3069481090589 23.3069481090589 23.3069481090589 23.3069481090589 23.3069481090589 21.7391304347826 24.5454545454545 25.763358778626 25.763358778626 25.763358778626 25.763358778626 25.763358778626 25.763358778626 25.763358778626 25.5813953488372 25.763358778626 25.763358778626 25.763358778626 25.763358778626 25.763358778626 26.6203703703704 26.6203703703704 26.6203703703704 26.6203703703704 26.6203703703704 26.6203703703704 25.6166982922201 25.6166982922201 25.6166982922201 25.6166982922201 25.6166982922201 31.7796610169492 25.6166982922201 -9999 -9999 -9999 -9999 -9999 -9999 -9999 -9999 -9999 37.3931623931624 37.3931623931624 37.3931623931624 37.3931623931624 37.3931623931624 24.7524752475248 -9999 -9999 -9999 -9999 -9999 43.1578947368421 43.1578947368421 43.1578947368421 43.1578947368421 43.1578947368421 -9999 -9999 -9999 -9999 -9999 -9999 -9999 -9999 -9999 -9999 -9999 -9999 -9999 -9999 -9999 -9999 -9999 -9999 -9999 -9999 -9999 -9999 -9999 -9999 -9999 -9999 -9999 -9999 -9999 -9999 -9999 -9999 -9999 -9999 -9999 -9999 -9999 -9999 -9999 -9999 -9999 -9999 -9999 -9999 -9999 -9999 -9999 -9999 -9999 -9999 -9999 -9999 -9999 -9999 -9999 -9999 -9999 -9999 -9999 -9999 -9999 -9999 -9999 -9999 -9999 -9999 -9999 -9999 -9999 -9999 -9999 -9999 -9999 -9999 -9999 -9999 -9999 -9999 -9999 -9999 -9999 -9999 -9999 -9999 -9999 -9999 -9999 -9999 -9999 -9999 -9999 -9999 -9999 -9999 -9999 -9999 -9999 -9999 -9999 -9999 -9999 -9999 -9999 -9999 -9999 -9999 -9999 -9999 -9999 -9999 -9999 -9999 -9999 -9999 -9999 -9999 66.815144766147 66.815144766147 66.815144766147 -9999 -9999 -9999 -9999 -9999 -9999 -9999 -9999 -9999 -9999 61.5640599001664 61.5640599001664 61.5640599001664 61.5640599001664 63.0026809651474 77.3333333333333 77.3333333333333 77.3333333333333 59.4059405940594 59.4059405940594 59.4059405940594 59.4059405940594 59.4059405940594 59.4059405940594 44.4444444444444 44.4444444444444 44.4444444444444 44.4444444444444 44.4444444444444 24.6575342465753 24.6575342465753 33.8645418326693 33.8645418326693 33.8645418326693 44.5205479452055 39.5927601809955 34.7368421052632 40.5405405405405 40.5405405405405 22.6244343891403 38.1844380403458 38.1844380403458 46.2287104622871 46.2287104622871 32.0441988950276 40.7407407407407 40.2097902097902 40.2097902097902 40.2097902097902 40.2097902097902 40.2097902097902 40.2097902097902 40.2097902097902 40.2097902097902 -9999 45.0081833060556 45.0081833060556 45.0081833060556 45.0081833060556 43.141592920354 43.141592920354 43.141592920354 43.141592920354 43.141592920354 43.141592920354 52.1628498727735 52.1628498727735 65.8995815899582 65.8995815899582 65.8995815899582 65.8995815899582 65.8995815899582 -9999 -9999 -9999 -9999 -9999 -9999 -9999 -9999 -9999 -9999 -9999 -9999 -9999 -9999 -9999 -9999 -9999 -9999 -9999 -9999 -9999 -9999 -9999 -9999 -9999 -9999 -9999 -9999 -9999 -9999 -9999 -9999 -9999 -9999 -9999 -9999 -9999 -9999 -9999 -9999 -9999 -9999 -9999 -9999 -9999 -9999 -9999 -9999 -9999 -9999 -9999 -9999 -9999 -9999 -9999 -9999 -9999 -9999 -9999 -9999 -9999 -9999 -9999 -9999 -9999 -9999 -9999 -9999 -9999 -9999 -9999 -9999 -9999 -9999 -9999 -9999 -9999 -9999 -9999 -9999 -9999 -9999 -9999 -9999 -9999 -9999 -9999 -9999 -9999 -9999 -9999 -9999 -9999 -9999 -9999
-9999 35.2697095435685 35.2697095435685 35.2697095435685 35.2697095435685 35.2697095435685 35.2697095435685 35.2697095435685 35.2697095435685 35.2697095435685 35.2697095435685 35.2697095435685 35.2697095435685 35.2697095435685 35.2697095435685 35.2697095435685 37.4771480804388 37.4771480804388 37.4771480804388 37.4771480804388 37.4771480804388 37.4771480804388 37.4771480804388 37.4771480804388 37.4771480804388 37.4771480804388 37.4771480804388 37.4771480804388 37.4771480804388 37.4771480804388 37.4771480804388 37.4771480804388 37.4771480804388 37.4771480804388 37.4771480804388 37.4771480804388 37.4771480804388 37.4771480804388 37.4771480804388 37.4771480804388 37.4771480804388 37.4771480804388 37.4771480804388 37.4771480804388 37.4771480804388 37.4771480804388 37.4771480804388 37.4771480804388 37.4771480804388 26.8292682926829 26.8292682926829 26.8292682926829 26.8292682926829 26.8292682926829 26.8292682926829 26.8292682926829 26.8292682926829 26.8292682926829 26.8292682926829 26.8292682926829 26.8292682926829 26.8292682926829 26.8292682926829 26.8292682926829 23.3069481090589 23.3069481090589 23.3069481090589 23.3069481090589 23.3069481090589 23.3069481090589 23.3069481090589 23.0312035661218 23.0312035661218 23.0312035661218 23.0312035661218 24.5454545454545 24.5454545454545 24.5454545454545 27.4122807017544 27.4122807017544 27.4122807017544 27.4122807017544 27.4122807017544 25.5813953488372 25.5813953488372 25.5813953488372 25.763358778626 25.763358778626 25.763358778626 25.763358778626 25.763358778626 26.6203703703704 26.6203703703704 26.6203703703704 26.6203703703704 26.6203703703704 26.6203703703704 26.6203703703704 25.6166982922201 25.6166982922201 25.6166982922201 25.6166982922201 25.6166982922201 -9999 -9999 -9999 -9999 -9999 -9999 -9999 -9999 -9999 -9999 -9999 24.7524752475248 24.7524752475248 24.7524752475248 24.7524752475248 -9999 -9999 -9999 -9999 -9999 -9999 43.1578947368421 43.1578947368421 43.1578947368421 43.1578947368421 43.1578947368421 -9999 -9999 -9999 -9999 -9999 -9999 -9999 -9999 -9999 -9999 -9999 -9999 -9999 -9999 -9999 -9999 -9999 -9999 -9999 -9999 -9999 -9999 -9999 -9999 -9999 -9999 -9999 -9999 -9999 -9999 -9999 -9999 -9999 -9999 -9999 -9999 -9999 -9999 -9999 -9999 -9999 -9999 -9999 -9999 -9999 -9999 -9999 -9999 -9999 -9999 -9999 -9999 -9999 -9999 -9999 -9999 -9999 -9999 -9999 -9999 -9999 -9999 -9999 -9999 -9999 -9999 -9999 -9999 -9999 -9999 -9999 -9999 -9999 -9999 -9999 -9999 -9999 -9999 -9999 -9999 -9999 -9999 -9999 -9999 -9999 -9999 -9999 -9999 -9999 -9999 -9999 -9999 -9999 -9999 -9999 -9999 -9999 -9999 -9999 -9999 -9999 -9999 -9999 -9999 -9999 -9999 -9999 -9999 -9999 -9999 -9999 -9999 -9999 -9999 -9999 -9999 -9999 -9999 -9999 -9999 -9999 -9999 -9999 -9999 -9999 -9999 -9999 -9999 -9999 -9999 64.7249190938511 64.7249190938511 64.7249190938511 64.7249190938511 64.7249190938511 77.3333333333333 59.4059405940594 59.4059405940594 59.4059405940594 59.4059405940594 59.4059405940594 59.4059405940594 36.71875 36.71875 36.71875 36.71875 36.71875 36.71875 36.71875 36.71875 33.8645418326693 33.8645418326693 44.5205479452055 44.5205479452055 34.7368421052632 34.7368421052632 40.5405405405405 41.6666666666667 33.8235294117647 33.8235294117647 33.8235294117647 38.1844380403458 40.7407407407407 40.7407407407407 40.7407407407407 40.2097902097902 40.2097902097902 40.2097902097902 40.2097902097902 40.2097902097902 40.2097902097902 -9999 65.4936461388074 45.0081833060556 45.0081833060556 45.0081833060556 45.0081833060556 45.0081833060556 45.0081833060556 43.5897435897436 43.5897435897436 43.5897435897436 43.5897435897436 52.3598820058997 52.3598820058997 52.3598820058997 40.1662049861496 -9999 -9999 65.8995815899582 65.8995815899582 -9999 -9999 -9999 -9999 -9999 -9999 -9999 -9999 -9999 65.8995815899582 65.8995815899582 65.8995815899582 65.8995815899582 65.8995815899582 65.8995815899582 -9999 -9999 -9999 -9999 -9999 -9999 -9999 -9999 -9999 -9999 -9999 -9999 -9999 -9999 -9999 -9999 -9999 -9999 -9999 -9999 -9999 -9999 -9999 -9999 -9999 -9999 -9999 -9999 -9999 -9999 -9999 -9999 -9999 -9999 -9999 -9999 -9999 -9999 -9999 -9999 -9999 -9999 -9999 -9999 -9999 -9999 -9999 -9999 -9999 -9999 -9999 -9999 -9999 -9999 -9999 -9999 -9999 -9999 -9999 -9999 -9999 -9999 -9999 -9999 -9999 -9999 -9999 -9999 -9999 -9999 -9999 -9999 -9999 -9999 -9999 -9999 -9999 -9999 -9999 -9999
-9999 35.2697095435685 35.2697095435685 35.2697095435685 35.2697095435685 35.2697095435685 35.2697095435685 35.2697095435685 35.2697095435685 35.2697095435685 35.2697095435685 35.2697095435685 35.2697095435685 35.2697095435685 35.2697095435685 35.2697095435685 35.2697095435685 37.4771480804388 37.4771480804388 37.4771480804388 37.4771480804388 37.4771480804388 37.4771480804388 37.4771480804388 37.4771480804388 37.4771480804388 37.4771480804388 37.4771480804388 37.4771480804388 37.4771480804388 37.4771480804388 37.4771480804388 37.4771480804388 37.4771480804388 37.4771480804388 37.4771480804388 37.4771480804388 37.4771480804388 37.4771480804388 37.4771480804388 37.4771480804388 37.4771480804388 37.4771480804388 37.4771480804388 37.4771480804388 37.4771480804388 37.4771480804388 26.8292682926829 26.8292682926829 26.8292682926829 26.8292682926829 26.8292682926829 26.8292682926829 26.8292682926829 26.8292682926829 26.8292682926829 26.8292682926829 26.8292682926829 26.8292682926829 26.8292682926829 26.8292682926829 26.8292682926829 26.8292682926829 26.8292682926829 26.8292682926829 23.0312035661218 23.0312035661218 23.0312035661218 23.0312035661218 23.0312035661218 23.0312035661218 23.0312035661218 23.0312035661218 23.0312035661218 24.5454545454545 24.5454545454545 24.5454545454545 24.5454545454545 24.5454545454545 27.4122807017544 27.4122807017544 27.4122807017544 27.4122807017544 27.4122807017544 25.5813953488372 25.5813953488372 25.5813953488372 25.763358778626 25.763358778626 25.763358778626 25.763358778626 26.6203703703704 26.6203703703704 26.6203703703704 26.6203703703704 25.6166982922201 25.6166982922201 25.6166982922201 25.6166982922201 25.6166982922201 25.6166982922201 -9999 -9999 -9999 -9999 -9999 -9999 -9999 -9999 -9999 -9999 -9999 -9999 -9999 -9999 -9999 -9999 -9999 -9999 -9999 -9999 -9999 -9999 -9999 43.1578947368421 -9999 -9999 -9999 -9999 -9999 -9999 -9999 -9999 -9999 -9999 -9999 -9999 -9999 -9999 -9999 -9999 -9999 -9999 -9999 -9999 -9999 -9999 -9999 -9999 -9999 -9999 -9999 -9999 -9999 -9999 -9999 -9999 -9999 -9999 -9999 -9999 -9999 -9999 -9999 -9999 -9999 -9999 -9999 -9999 -9999 -9999 -9999 -9999 -9999 -9999 -9999 -9999 -9999 -9999 -9999 -9999 -9999 -9999 -9999 -9999 -9999 -9999 -9999 -9999 -9999 -9999 -9999 -9999 -9999 -9999 -9999 -9999 -9999 -9999 -9999 -9999 -9999 -9999 -9999 -9999 -9999 -9999 -9999 -9999 -9999 -9999 -9999 -9999 -9999 -9999 -9999 -9999 -9999 -9999 -9999 -9999 -9999 -9999 -9999 -9999 -9999 -9999 -9999 -9999 -9999 -9999 -9999 -9999 -9999 -9999 -9999 -9999 -9999 -9999 -9999 -9999 -9999 -9999 -9999 -9999 -9999 -9999 -9999 -9999 -9999 -9999 -9999 -9999 -9999 -9999 -9999 -9999 -9999 -9999 -9999 -9999 -9999 64.7249190938511 64.7249190938511 77.3333333333333 59.4059405940594 63.1188118811881 63.1188118811881 63.1188118811881 59.4059405940594 59.4059405940594 36.71875 36.71875 36.71875 36.71875 36.71875 36.71875 36.71875 36.71875 39.2953929539295 39.2953929539295 39.2953929539295 39.2953929539295 39.2953929539295 39.2953929539295 39.2953929539295 39.2953929539295 44.5205479452055 44.5205479452055 44.5205479452055 44.5205479452055 44.5205479452055 40.7407407407407 40.2097902097902 40.2097902097902 40.2097902097902 40.2097902097902 40.2097902097902 40.2097902097902 54.0364583333333 65.4936461388074 65.4936461388074 65.4936461388074 65.4936461388074 45.0081833060556 43.4380776340111 45.0081833060556 44.8369565217391 44.8369565217391 44.9438202247191 44.9438202247191 43.5897435897436 40.1662049861496 40.1662049861496 52.3598820058997 -9999 -9999 -9999 65.8995815899582 -9999 -9999 -9999 -9999 -9999 -9999 -9999 -9999 65.8995815899582 65.8995815899582 65.8995815899582 65.8995815899582 -9999 65.8995815899582 65.8995815899582 65.8995815899582 65.8995815899582 -9999 -9999 -9999 -9999 -9999 -9999 -9999 -9999 -9999 -9999 -9999 -9999 -9999 -9999 -9999 -9999 -9999 -9999 -9999 -9999 -9999 -9999 -9999 -9999 -9999 -9999 -9999 -9999 -9999 -9999 -9999 -9999 -9999 -9999 -9999 -9999 -9999 -9999 -9999 -9999 -9999 -9999 -9999 -9999 -9999 -9999 -9999 -9999 -9999 -9999 -9999 -9999 -9999 -9999 -9999 -9999 -9999 -9999 -9999 -9999 -9999 -9999 -9999 -9999 -9999 -9999 -9999 -9999 -9999 -9999 -9999 -9999 -9999 -9999 -9999 -9999 -9999 -9999 -9999
-9999 -9999 -9999 -9999 -9999 35.2697095435685 35.2697095435685 35.2697095435685 35.2697095435685 35.2697095435685 35.2697095435685 35.2697095435685 35.2697095435685 35.2697095435685 35.2697095435685 35.2697095435685 35.2697095435685 37.4771480804388 37.4771480804388 37.4771480804388 37.4771480804388 37.4771480804388 37.4771480804388 37.4771480804388 37.4771480804388 37.4771480804388 37.4771480804388 37.4771480804388 37.4771480804388 37.4771480804388 37.4771480804388 37.4771480804388 37.4771480804388 37.4771480804388 37.4771480804388 37.4771480804388 37.4771480804388 37.4771480804388 37.4771480804388 37.4771480804388 37.4771480804388 37.4771480804388 37.4771480804388 37.4771480804388 37.4771480804388 26.8292682926829 26.8292682926829 26.8292682926829 26.8292682926829 26.8292682926829 26.8292682926829 26.8292682926829 26.8292682926829 26.8292682926829 26.8292682926829 26.8292682926829 26.8292682926829 26.8292682926829 26.8292682926829 26.8292682926829 26.8292682926829 26.8292682926829 26.8292682926829 26.8292682926829 26.8292682926829 23.0312035661218 23.0312035661218 23.0312035661218 23.0312035661218 23.0312035661218 23.0312035661218 23.0312035661218 23.0312035661218 23.0312035661218 23.0312035661218 24.5454545454545 24.5454545454545 24.5454545454545 24.5454545454545 27.4122807017544 27.4122807017544 27.4122807017544 27.4122807017544 25.5813953488372 25.5813953488372 25.5813953488372 25.763358778626 25.763358778626 25.763358778626 25.763358778626 25.763358778626 25.763358778626 24.7524752475248 25.6166982922201 25.6166982922201 25.6166982922201 -9999 -9999 -9999 -9999 -9999 -9999 -9999 -9999 -9999 -9999 -9999 -9999 -9999 -9999 -9999 -9999 -9999 -9999 -9999 -9999 -9999 -9999 -9999 -9999 -9999 -9999 -9999 -9999 -9999 -9999 -9999 -9999 -9999 -9999 -9999 -9999 -9999 -9999 -9999 -9999 -9999 -9999 -9999 -9999 -9999 -9999 -9999 -9999 -9999 -9999 -9999 -9999 -9999 -9999 -9999 -9999 -9999 -9999 -9999 -9999 -9999 -9999 -9999 -9999 -9999 -9999 -9999 -9999 -9999 -9999 -9999 -9999 -9999 -9999 -9999 -9999 -9999 -9999 -9999 -9999 -9999 -9999 -9999 -9999 -9999 -9999 -9999 -9999 -9999 -9999 -9999 -9999 -9999 -9999 -9999 -9999 -9999 -9999 -9999 -9999 -9999 -9999 -9999 -9999 -9999 -9999 -9999 -9999 -9999 -9999 -9999 -9999 -9999 -9999 -9999 -9999 -9999 -9999 -9999 -9999 -9999 -9999 -9999 -9999 -9999 -9999 -9999 -9999 -9999 -9999 -9999 -9999 -9999 -9999 -9999 -9999 -9999 -9999 -9999 -9999 -9999 -9999 -9999 -9999 -9999 -9999 -9999 -9999 -9999 -9999 -9999 -9999 -9999 -9999 -9999 -9999 -9999 -9999 -9999 -9999 -9999 -9999 -9999 -9999 -9999 -9999 -9999 64.7249190938511 59.4059405940594 59.4059405940594 63.1188118811881 63.1188118811881 72.0930232558139 72.0930232558139 72.0930232558139 72.0930232558139 72.0930232558139 36.71875 36.71875 36.71875 36.71875 36.71875 39.2953929539295 39.2953929539295 39.2953929539295 39.2953929539295 39.2953929539295 39.2953929539295 39.2953929539295 34.7222222222222 32.6530612244898 32.6530612244898 27.1629778672032 39.2953929539295 39.2953929539295 27.1629778672032 27.1629778672032 40.2097902097902 40.2097902097902 40.2097902097902 40.2097902097902 -9999 54.0364583333333 54.0364583333333 52.8596187175043 52.8596187175043 65.4936461388074 65.4936461388074 50.9745127436282 50.9745127436282 50.9745127436282 43.4380776340111 43.4380776340111 44.8369565217391 45.9016393442623 40.1662049861496 40.1662049861496 40.1662049861496 -9999 -9999 -9999 -9999 -9999 -9999 -9999 -9999 -9999 -9999 -9999 65.8995815899582 -9999 -9999 65.8995815899582 65.8995815899582 65.8995815899582 65.8995815899582 65.8995815899582 65.8995815899582 65.8995815899582 65.8995815899582 -9999 -9999 -9999 -9999 -9999 -9999 -9999 -9999 -9999 -9999 -9999 -9999 -9999 -9999 -9999 -9999 -9999 -9999 -9999 -9999 -9999 -9999 -9999 -9999 -9999 -9999 -9999 -9999 -9999 -9999 -9999 -9999 -9999 -9999 -9999 -9999 -9999 -9999 -9999 -9999 -9999 -9999 -9999 -9999 -9999 -9999 -9999 -9999 -9999 -9999 -9999 -9999 -9999 -9999 -9999 -9999 -9999 -9999 -9999 -9999 -9999 -9999 -9999 -9999 -9999 -9999 -9999 -9999 -9999 -9999 -9999 -9999 -9999 -9999 -9999 -9999 -9999 -9999 -9999
-9999 -9999 -9999 -9999 -9999 35.2697095435685 35.2697095435685 35.2697095435685 35.2697095435685 35.2697095435685 35.2697095435685 35.2697095435685 35.2697095435685 35.2697095435685 35.2697095435685 35.2697095435685 35.2697095435685 35.2697095435685 37.4771480804388 37.4771480804388 37.4771480804388 37.4771480804388 37.4771480804388 37.4771480804388 37.4771480804388 37.4771480804388 37.4771480804388 37.4771480804388 37.4771480804388 37.4771480804388 37.4771480804388 37.4771480804388 37.4771480804388 37.4771480804388 37.4771480804388 37.4771480804388 37.4771480804388 37.4771480804388 37.4771480804388 37.4771480804388 37.4771480804388 37.4771480804388 37.4771480804388 26.8292682926829 26.8292682926829 26.8292682926829 26.8292682926829 26.8292682926829 26.8292682926829 26.8292682926829 26.8292682926829 26.8292682926829 26.8292682926829 26.8292682926829 26.8292682926829 26.8292682926829 26.8292682926829 26.8292682926829 26.8292682926829 26.8292682926829 26.8292682926829 26.8292682926829 26.8292682926829 26.8292682926829 26.8292682926829 26.0942760942761 26.0942760942761 23.0312035661218 23.0312035661218 23.0312035661218 23.0312035661218 23.0312035661218 23.0312035661218 23.0312035661218 23.0312035661218 24.5454545454545 24.5454545454545 24.5454545454545 24.5454545454545 24.5454545454545 27.4122807017544 27.4122807017544 25.5813953488372 25.5813953488372 25.5813953488372 25.763358778626 25.763358778626 25.763358778626 25.763358778626 24.7524752475248 24.7524752475248 24.7524752475248 24.7524752475248 24.7524752475248 24.7524752475248 -9999 -9999 -9999 -9999 -9999 -9999 -9999 -9999 -9999 -9999 -9999 -9999 -9999 -9999 -9999 -9999 -9999 -9999 -9999 -9999 -9999 -9999 -9999 -9999 -9999 -9999 -9999 -9999 -9999 -9999 -9999 -9999 -9999 -9999 -9999 -9999 -9999 -9999 -9999 -9999 -9999 -9999 -9999 -9999 -9999 -9999 -9999 -9999 -9999 -9999 -9999 -9999 -9999 -9999 -9999 -9999 -9999 -9999 -9999 -9999 -9999 -9999 -9999 -9999 -9999 -9999 -9999 -9999 -9999 -9999 -9999 -9999 -9999 -9999 -9999 -9999 -9999 -9999 -9999 -9999 -9999 -9999 -9999 -9999 -9999 -9999 -9999 -9999 -9999 -9999 -9999 -9999 -9999 -9999 -9999 -9999 -9999 -9999 -9999 -9999 -9999 -9999 -9999 -9999 -9999 -9999 -9999 -9999 -9999 -9999 -9999 -9999 -9999 -9999 -9999 -9999 -9999 -9999 -9999 -9999 -9999 -9999 -9999 -9999 -9999 -9999 -9999 -9999 -9999 -9999 -9999 -9999 -9999 -9999 -9999 -9999 -9999 -9999 -9999 -9999 -9999 -9999 -9999 -9999 -9999 -9999 -9999 -9999 -9999 -9999 -9999 -9999 -9999 -9999 -9999 -9999 -9999 -9999 -9999 -9999 -9999 -9999 -9999 -9999 -9999 -9999 -9999 -9999 -9999 -9999 63.1188118811881 63.1188118811881 63.1188118811881 72.0930232558139 72.0930232558139 72.0930232558139 72.0930232558139 72.0930232558139 51.25 36.71875 36.71875 36.71875 36.71875 39.2953929539295 39.2953929539295 39.2953929539295 39.2953929539295 39.2953929539295 39.2953929539295 39.2953929539295 34.7222222222222 32.6530612244898 32.6530612244898 27.1629778672032 27.1629778672032 27.1629778672032 27.1629778672032 27.1629778672032 27.1629778672032 -9999 -9999 54.0364583333333 54.0364583333333 54.0364583333333 54.0364583333333 52.8596187175043 52.8596187175043 52.8596187175043 65.4936461388074 65.4936461388074 50.9745127436282 31.317494600432 31.317494600432 31.317494600432 45.9016393442623 40.1662049861496 40.1662049861496 40.1662049861496 -9999 -9999 -9999 -9999 -9999 -9999 -9999 -9999 -9999 -9999 65.8995815899582 65.8995815899582 65.8995815899582 65.8995815899582 65.8995815899582 65.8995815899582 65.8995815899582 65.8995815899582 65.8995815899582 65.8995815899582 65.8995815899582 65.8995815899582 -9999 -9999 -9999 -9999 -9999 -9999 -9999 -9999 -9999 -9999 -9999 -9999 -9999 -9999 -9999 -9999 -9999 -9999 -9999 -9999 -9999 -9999 -9999 -9999 -9999 -9999 -9999 -9999 -9999 -9999 -9999 -9999 -9999 -9999 -9999 -9999 -9999 -9999 -9999 -9999 -9999 -9999 -9999 -9999 -9999 -9999 -9999 -9999 -9999 -9999 -9999 -9999 -9999 -9999 -9999 -9999 -9999 -9999 -9999 -9999 -9999 -9999 -9999 -9999 -9999 -9999 -9999 -9999 -9999 -9999 -9999 -9999 -9999 -9999 -9999 -9999 -9999 -9999 -9999 -9999
-9999 35.2697095435685 35.2697095435685 -9999 -9999 35.2697095435685 35.2697095435685 35.2697095435685 35.2697095435685 35.2697095435685 35.2697095435685 35.2697095435685 35.2697095435685 35.2697095435685 35.2697095435685 35.2697095435685 35.2697095435685 35.2697095435685 35.2697095435685 37.4771480804388 37.4771480804388 37.4771480804388 37.4771480804388 37.4771480804388 37.4771480804388 37.4771480804388 37.4771480804388 37.4771480804388 37.4771480804388 37.4771480804388 37.4771480804388 37.4771480804388 37.4771480804388 37.4771480804388 37.4771480804388 37.4771480804388 37.4771480804388 37.4771480804388 37.4771480804388 37.4771480804388 37.4771480804388 26.8292682926829 26.8292682926829 26.8292682926829 26.8292682926829 26.8292682926829 26.8292682926829 26.8292682926829 26.8292682926829 26.8292682926829 26.8292682926829 26.8292682926829 26.8292682926829 26.8292682926829 26.8292682926829 26.8292682926829 26.8292682926829 26.8292682926829 26.8292682926829 26.8292682926829 26.8292682926829 26.8292682926829 26.8292682926829 26.8292682926829 26.8292682926829 26.0942760942761 26.0942760942761 26.0942760942761 23.0312035661218 23.0312035661218 23.0312035661218 23.0312035661218 23.0312035661218 23.0312035661218 23.0312035661218 24.5454545454545 24.5454545454545 24.5454545454545 24.5454545454545 24.5454545454545 25.5813953488372 25.5813953488372 25.5813953488372 25.5813953488372 25.5813953488372 25.5813953488372 24.7524752475248 24.7524752475248 24.7524752475248 24.7524752475248 24.7524752475248 24.7524752475248 24.7524752475248 -9999 -9999 -9999 -9999 -9999 -9999 -9999 -9999 -9999 -9999 -9999 -9999 -9999 -9999 -9999 -9999 -9999 -9999 -9999 -9999 -9999 -9999 -9999 -9999 -9999 -9999 -9999 -9999 -9999 -9999 -9999 -9999 -9999 -9999 -9999 -9999 -9999 -9999 -9999 -9999 -9999 -9999 -9999 -9999 -9999 -9999 -9999 -9999 -9999 -9999 -9999 -9999 -9999 -9999 -9999 -9999 -9999 -9999 -9999 -9999 -9999 -9999 -9999 -9999 -9999 -9999 -9999 -9999 -9999 -9999 -9999 -9999 -9999 -9999 -9999 -9999 -9999 -9999 -9999 -9999 -9999 -9999 -9999 -9999 -9999 -9999 -9999 -9999 -9999 -9999 -9999 -9999 -9999 -9999 -9999 -9999 -9999 -9999 -9999 -9999 -9999 -9999 -9999 -9999 -9999 -9999 -9999 -9999 -9999 -9999 -9999 -9999 -9999 -9999 -9999 -9999 -9999 -9999 -9999 -9999 -9999 -9999 -9999 -9999 -9999 -9999 -9999 -9999 -9999 -9999 -9999 -9999 -9999 -9999 -9999 -9999 -9999 -9999 -9999 -9999 -9999 -9999 -9999 -9999 -9999 -9999 -9999 -9999 -9999 -9999 -9999 -9999 -9999 -9999 -9999 -9999 -9999 -9999 -9999 -9999 -9999 -9999 -9999 -9999 -9999 -9999 -9999 -9999 -9999 -9999 -9999 -9999 -9999 -9999 63.1188118811881 63.1188118811881 72.0930232558139 65.3153153153153 65.3153153153153 51.25 51.25 47.8723404255319 47.8723404255319 36.71875 49.7981157469717 49.7981157469717 49.7981157469717 49.7981157469717 39.2953929539295 39.2953929539295 38.3795309168444 38.3795309168444 38.3795309168444 38.3795309168444 34.7222222222222 27.1629778672032 27.1629778672032 27.1629778672032 -9999 57.7223088923557 57.7223088923557 54.0364583333333 54.0364583333333 54.0364583333333 54.0364583333333 52.8596187175043 52.8596187175043 52.8596187175043 52.8596187175043 52.8596187175043 52.8596187175043 40.9836065573771 40.9836065573771 40.9836065573771 46.8036529680365 31.317494600432 38.0434782608696 38.0434782608696 38.0434782608696 -9999 -9999 -9999 -9999 -9999 -9999 -9999 -9999 -9999 -9999 -9999 65.8995815899582 65.8995815899582 65.8995815899582 65.8995815899582 65.8995815899582 65.8995815899582 65.8995815899582 65.8995815899582 65.8995815899582 65.8995815899582 65.8995815899582 -9999 -9999 -9999 -9999 -9999 -9999 -9999 -9999 -9999 -9999 -9999 -9999 -9999 -9999 -9999 -9999 -9999 -9999 -9999 -9999 -9999 -9999 -9999 -9999 -9999 -9999 -9999 -9999 -9999 -9999 -9999 -9999 -9999 -9999 -9999 -9999 -9999 -9999 -9999 -9999 -9999 -9999 -9999 -9999 -9999 -9999 -9999 -9999 -9999 -9999 -9999 -9999 -9999 -9999 -9999 -9999 -9999 -9999 -9999 -9999 -9999 -9999 -9999 -9999 -9999 -9999 -9999 -9999 -9999 -9999 -9999 -9999 -9999 -9999 -9999 -9999 -9999 -9999 -9999 -9999 -9999
-9999 35.2697095435685 35.2697095435685 35.2697095435685 -9999 35.2697095435685 35.2697095435685 36.5296803652968 36.5296803652968 36.5296803652968 36.5296803652968 36.5296803652968 36.5296803652968 36.5296803652968 36.5296803652968 36.5296803652968 36.5296803652968 36.5296803652968 36.5296803652968 37.4771480804388 37.4771480804388 37.4771480804388 37.4771480804388 37.4771480804388 37.4771480804388 37.4771480804388 37.4771480804388 37.4771480804388 37.4771480804388 37.4771480804388 37.4771480804388 37.4771480804388 37.4771480804388 37.4771480804388 37.4771480804388 37.4771480804388 37.4771480804388 37.4771480804388 37.4771480804388 26.8292682926829 26.8292682926829 26.8292682926829 26.8292682926829 26.8292682926829 26.8292682926829 26.8292682926829 26.8292682926829 26.8292682926829 26.8292682926829 26.8292682926829 26.8292682926829 26.8292682926829 26.8292682926829 26.8292682926829 26.8292682926829 26.8292682926829 24.0274599542334 24.0274599542334 24.0274599542334 24.0274599542334 24.0274599542334 26.8292682926829 26.8292682926829 26.8292682926829 26.8292682926829 26.8292682926829 26.0942760942761 26.0942760942761 26.0942760942761 26.0942760942761 27.7777777777778 27.7777777777778 27.7777777777778 27.7777777777778 27.7777777777778 24.5454545454545 24.5454545454545 24.5454545454545 24.5454545454545 24.5454545454545 25.5813953488372 25.5813953488372 25.5813953488372 25.5813953488372 24.7524752475248 24.7524752475248 24.7524752475248 24.7524752475248 -9999 -9999 -9999 -9999 -9999 -9999 -9999 -9999 -9999 -9999 -9999 -9999 -9999 -9999 -9999 -9999 -9999 -9999 -9999 -9999 -9999 -9999 -9999 -9999 -9999 -9999 -9999 -9999 -9999 -9999 -9999 -9999 -9999 -9999 -9999 -9999 -9999 -9999 -9999 -9999 -9999 -9999 -9999 -9999 -9999 -9999 -9999 -9999 -9999 -9999 -9999 -9999 -9999 -9999 -9999 -9999 -9999 -9999 -9999 -9999 -9999 -9999 -9999 -9999 -9999 -9999 -9999 -9999 -9999 -9999 -9999 -9999 -9999 -9999 -9999 -9999 -9999 -9999 -9999 -9999 -9999 -9999 -9999 -9999 -9999 -9999 -9999 -9999 -9999 -9999 -9999 -9999 -9999 -9999 -9999 -9999 -9999 -9999 -9999 -9999 -9999 -9999 -9999 -9999 -9999 -9999 -9999 -9999 -9999 -9999 -9999 -9999 -9999 -9999 -9999 -9999 -9999 -9999 -9999 -9999 -9999 -9999 -9999 -9999 -9999 -9999 -9999 -9999 -9999 -9999 -9999 -9999 -9999 -9999 -9999 -9999 -9999 -9999 -9999 -9999 -9999 -9999 -9999 -9999 -9999 -9999 -9999 -9999 -9999 -9999 -9999 -9999 -9999 -9999 -9999 -9999 -9999 -9999 -9999 -9999 -9999 -9999 -9999 -9999 -9999 -9999 -9999 -9999 -9999 -9999 -9999 -9999 -9999 -9999 -9999 -9999 -9999 -9999 -9999 -9999 -9999 65.3153153153153 65.3153153153153 65.3153153153153 47.5113122171946 51.25 51.25 47.8723404255319 36.71875 45.6140350877193 38.8007054673721 44.7976878612717 44.7976878612717 49.7981157469717 49.7981157469717 45.1183431952663 45.1183431952663 46.7075038284839 38.3795309168444 27.1629778672032 -9999 57.7223088923557 57.7223088923557 71.0227272727273 57.7223088923557 57.7223088923557 57.7223088923557 54.0364583333333 54.0364583333333 52.8596187175043 52.8596187175043 55.3470919324578 52.8596187175043 52.8596187175043 52.8596187175043 52.8596187175043 46.8036529680365 46.8036529680365 46.8036529680365 38.0434782608696 38.0434782608696 38.0434782608696 38.0434782608696 -9999 -9999 -9999 -9999 -9999 -9999 -9999 -9999 -9999 -9999 -9999 -9999 -9999 65.8995815899582 65.8995815899582 65.8995815899582 65.8995815899582 -9999 -9999 -9999 -9999 -9999 -9999 -9999 -9999 -9999 -9999 -9999 -9999 -9999 -9999 -9999 -9999 -9999 -9999 -9999 -9999 -9999 -9999 -9999 -9999 -9999 -9999 -9999 -9999 -9999 -9999 -9999 -9999 -9999 -9999 -9999 -9999 -9999 -9999 -9999 -9999 -9999 -9999 -9999 -9999 -9999 -9999 -9999 -9999 -9999 -9999 -9999 -9999 -9999 -9999 -9999 -9999 -9999 -9999 -9999 -9999 -9999 -9999 -9999 -9999 -9999 -9999 -9999 -9999 -9999 -9999 -9999 -9999 -9999 -9999 -9999 -9999 -9999 -9999 -9999 -9999 -9999 -9999 -9999 -9999 -9999 -9999 -9999
-9999 -9999 -9999 -9999 -9999 -9999 35.2697095435685 35.2697095435685 36.5296803652968 36.5296803652968 36.5296803652968 36.5296803652968 36.5296803652968 36.5296803652968 36.5296803652968 36.5296803652968 36.5296803652968 36.5296803652968 36.5296803652968 36.5296803652968 37.4771480804388 37.4771480804388 37.4771480804388 37.4771480804388 37.4771480804388 37.4771480804388 37.4771480804388 37.4771480804388 37.4771480804388 37.4771480804388 37.4771480804388 37.4771480804388 37.4771480804388 37.4771480804388 37.4771480804388 37.4771480804388 37.4771480804388 37.4771480804388 26.8292682926829 26.8292682926829 26.8292682926829 26.8292682926829 26.8292682926829 26.8292682926829 26.8292682926829 26.8292682926829 26.8292682926829 26.8292682926829 26.8292682926829 26.8292682926829 26.8292682926829 26.8292682926829 26.8292682926829 24.0274599542334 24.0274599542334 24.0274599542334 24.0274599542334 24.0274599542334 24.0274599542334 24.0274599542334 24.0274599542334 26.8292682926829 23.0547550432277 23.0547550432277 23.0547550432277 23.0547550432277 26.0942760942761 26.0942760942761 26.0942760942761 26.0942760942761 27.7777777777778 27.7777777777778 27.7777777777778 27.7777777777778 27.7777777777778 27.7777777777778 24.5454545454545 24.5454545454545 31.104199066874 31.104199066874 31.104199066874 24.7524752475248 24.7524752475248 24.7524752475248 24.7524752475248 -9999 -9999 -9999 -9999 -9999 -9999 -9999 -9999 -9999 -9999 -9999 -9999 -9999 -9999 -9999 -9999 -9999 -9999 -9999 -9999 -9999 -9999 -9999 -9999 -9999 -9999 -9999 -9999 -9999 -9999 -9999 -9999 -9999 -9999 -9999 -9999 -9999 -9999 -9999 -9999 -9999 -9999 -9999 -9999 -9999 -9999 -9999 -9999 -9999 -9999 -9999 -9999 -9999 -9999 -9999 -9999 -9999 -9999 -9999 -9999 -9999 -9999 -9999 -9999 -9999 -9999 -9999 -9999 -9999 -9999 -9999 -9999 -9999 -9999 -9999 -9999 -9999 -9999 -9999 -9999 -9999 -9999 -9999 -9999 -9999 -9999 -9999 -9999 -9999 -9999 -9999 -9999 -9999 -9999 -9999 -9999 -9999 -9999 -9999 -9999 -9999 -9999 -9999 -9999 -9999 -9999 -9999 -9999 -9999 -9999 -9999 -9999 -9999 -9999 -9999 -9999 -9999 -9999 -9999 -9999 -9999 -9999 -9999 -9999 -9999 -9999 -9999 -9999 -9999 -9999 -9999 -9999 -9999 -9999 -9999 -9999 -9999 -9999 -9999 -9999 -9999 -9999 -9999 -9999 -9999 -9999 -9999 -9999 -9999 -9999 -9999 -9999 -9999 -9999 -9999 -9999 -9999 -9999 -9999 -9999 -9999 -9999 -9999 -9999 -9999 -9999 -9999 -9999 -9999 -9999 -9999 -9999 -9999 -9999 -9999 -9999 -9999 -9999 -9999 -9999 -9999 -9999 -9999 -9999 -9999 -9999 47.0162748643761 47.0162748643761 47.5113122171946 43.2098765432099 43.2098765432099 38.8007054673721 38.8007054673721 38.8007054673721 38.8007054673721 38.8007054673721 38.8007054673721 45.1183431952663 45.1183431952663 45.1183431952663 46.7075038284839 46.7075038284839 -9999 57.7223088923557 71.0227272727273 71.0227272727273 71.0227272727273 57.7223088923557 57.7223088923557 59.3952483801296 54.0364583333333 54.0364583333333 52.8596187175043 55.3470919324578 55.3470919324578 55.3470919324578 52.8596187175043 52.8596187175043 47.4516695957821 47.4516695957821 38.0434782608696 38.0434782608696 38.0434782608696 38.0434782608696 40.1662049861496 -9999 -9999 -9999 -9999 -9999 -9999 -9999 -9999 -9999 -9999 -9999 -9999 -9999 -9999 -9999 -9999 -9999 -9999 -9999 -9999 -9999 -9999 -9999 -9999 -9999 -9999 -9999 -9999 -9999 -9999 -9999 -9999 -9999 -9999 -9999 -9999 -9999 -9999 -9999 -9999 -9999 -9999 -9999 -9999 -9999 -9999 -9999 -9999 -9999 -9999 -9999 -9999 -9999 -9999 -9999 -9999 -9999 -9999 -9999 -9999 -9999 -9999 -9999 -9999 -9999 -9999 -9999 -9999 -9999 -9999 -9999 -9999 -9999 -9999 -9999 -9999 -9999 -9999 -9999 -9999 -9999 -9999 -9999 -9999 -9999 -9999 -9999 -9999 -9999 -9999 -9999 -9999 -9999 -9999 -9999 -9999 -9999 -9999 -9999 -9999 -9999 -9999 -9999 -9999 -9999
-9999 -9999 -9999 -9999 -9999 -9999 -9999 -9999 35.2697095435685 36.5296803652968 36.5296803652968 36.5296803652968 36.5296803652968 36.5296803652968 36.5296803652968 36.5296803652968 36.5296803652968 36.5296803652968 36.5296803652968 36.5296803652968 36.5296803652968 37.4771480804388 37.4771480804388 37.4771480804388 37.4771480804388 37.4771480804388 37.4771480804388 37.4771480804388 37.4771480804388 37.4771480804388 37.4771480804388 37.4771480804388 37.4771480804388 37.4771480804388 37.4771480804388 37.4771480804388 37.4771480804388 37.4771480804388 26.8292682926829 26.8292682926829 26.8292682926829 26.8292682926829 26.8292682926829 26.8292682926829 26.8292682926829 26.8292682926829 26.8292682926829 26.8292682926829 26.8292682926829 26.8292682926829 26.8022181146026 26.8022181146026 26.8022181146026 24.0274599542334 24.0274599542334 24.0274599542334 24.0274599542334 24.0274599542334 24.0274599542334 23.0547550432277 23.0547550432277 23.0547550432277 23.0547550432277 23.0547550432277 23.0547550432277 23.0547550432277 26.0942760942761 26.0942760942761 26.0942760942761 26.0942760942761 26.0942760942761 27.7777777777778 27.7777777777778 31.104199066874 31.104199066874 31.104199066874 31.104199066874 31.104199066874 31.104199066874 31.104199066874 31.104199066874 24.7524752475248 24.7524752475248 -9999 -9999 -9999 -9999 -9999 -9999 -9999 -9999 -9999 -9999 -9999 -9999 -9999 -9999 -9999 -9999 -9999 -9999 -9999 -9999 -9999 -9999 -9999 -9999 -9999 -9999 -9999 -9999 -9999 -9999 -9999 -9999 -9999 -9999 -9999 -9999 -9999 -9999 -9999 -9999 -9999 -9999 -9999 -9999 -9999 -9999 -9999 -9999 -9999 -9999 -9999 -9999 -9999 -9999 -9999 -9999 -9999 -9999 -9999 -9999 -9999 -9999 -9999 -9999 -9999 -9999 -9999 -9999 -9999 -9999 -9999 -9999 -9999 -9999 -9999 -9999 -9999 -9999 -9999 -9999 -9999 -9999 -9999 -9999 -9999 -9999 -9999 -9999 -9999 -9999 -9999 -9999 -9999 -9999 -9999 -9999 -9999 -9999 -9999 -9999 -9999 -9999 -9999 -9999 -9999 -9999 -9999 -9999 -9999 -9999 -9999 -9999 -9999 -9999 -9999 -9999 -9999 -9999 -9999 -9999 -9999 -9999 -9999 -9999 -9999 -9999 -9999 -9999 -9999 -9999 -9999 -9999 -9999 -9999 -9999 -9999 -9999 -9999 -9999 -9999 -9999 -9999 -9999 -9999 -9999 -9999 -9999 -9999 -9999 -9999 -9999 -9999 -9999 -9999 -9999 -9999 -9999 -9999 -9999 -9999 -9999 -9999 -9999 -9999 -9999 -9999 -9999 -9999 -9999 -9999 -9999 -9999 -9999 -9999 -9999 -9999 -9999 -9999 -9999 -9999 -9999 -9999 -9999 -9999 -9999 -9999 -9999 -9999 -9999 -9999 47.0162748643761 47.5113122171946 47.5113122171946 38.8007054673721 38.8007054673721 38.8007054673721 38.8007054673721 38.8007054673721 38.8007054673721 62.5 45.1183431952663 55.8139534883721 46.7075038284839 46.7075038284839 57.7223088923557 57.7223088923557 75.0636132315522 70.3517587939699 70.3517587939699 70.3517587939699 59.3952483801296 59.3952483801296 59.3952483801296 54.0364583333333 52.8596187175043 52.8596187175043 55.3470919324578 55.3470919324578 58.8942307692308 47.8260869565217 47.4516695957821 47.4516695957821 47.4516695957821 38.0434782608696 40.1662049861496 -9999 -9999 -9999 -9999 -9999 -9999 -9999 -9999 -9999 -9999 -9999 -9999 -9999 -9999 -9999 -9999 -9999 -9999 -9999 -9999 -9999 -9999 -9999 -9999 -9999 -9999 -9999 -9999 -9999 -9999 -9999 -9999 -9999 -9999 -9999 -9999 -9999 -9999 -9999 -9999 -9999 -9999 -9999 -9999 -9999 -9999 -9999 -9999 -9999 -9999 -9999 -9999 -9999 -9999 -9999 -9999 -9999 -9999 -9999 -9999 -9999 -9999 -9999 -9999 -9999 -9999 -9999 -9999 -9999 -9999 -9999 -9999 -9999 -9999 -9999 -9999 -9999 -9999 -9999 -9999 -9999 -9999 -9999 -9999 -9999 -9999 -9999 -9999 -9999 -9999 -9999 -9999 -9999 -9999 -9999 -9999 -9999 -9999 -9999 -9999 -9999 -9999 -9999 -9999 -9999 -9999 -9999
-9999 -9999 -9999 -9999 -9999 -9999 -9999 -9999 -9999 -9999 35.2697095435685 36.5296803652968 36.5296803652968 36.5296803652968 36.5296803652968 36.5296803652968 36.5296803652968 36.5296803652968 36.5296803652968 36.5296803652968 36.5296803652968 36.5296803652968 0 37.4771480804388 37.4771480804388 37.4771480804388 37.4771480804388 37.4771480804388 37.4771480804388 37.4771480804388 37.4771480804388 37.4771480804388 37.4771480804388 37.4771480804388 37.4771480804388 37.4771480804388 37.4771480804388 37.4771480804388 26.8292682926829 26.8292682926829 26.8292682926829 26.8292682926829 26.8292682926829 26.8292682926829 26.8292682926829 26.8292682926829 26.8292682926829 26.8292682926829 26.8292682926829 26.8022181146026 26.8022181146026 26.8022181146026 26.8022181146026 24.0274599542334 24.0274599542334 24.0274599542334 23.3812949640288 23.0547550432277 23.0547550432277 23.0547550432277 23.0547550432277 23.0547550432277 23.0547550432277 23.0547550432277 23.0547550432277 23.0547550432277 23.0547550432277 26.0942760942761 26.0942760942761 26.0942760942761 27.7777777777778 27.7777777777778 31.104199066874 31.104199066874 31.104199066874 31.104199066874 31.104199066874 31.104199066874 31.104199066874 31.104199066874 31.104199066874 24.7524752475248 24.7524752475248 -9999 -9999 -9999 -9999 -9999 -9999 -9999 -9999 -9999 -9999 -9999 -9999 -9999 -9999 -9999 -9999 -9999 -9999 -9999 -9999 -9999 -9999 -9999 -9999 -9999 -9999 -9999 -9999 -9999 -9999 -9999 -9999 -9999 -9999 -9999 -9999 -9999 -9999 -9999 -9999 -9999 -9999 -9999 -9999 -9999 -9999 -9999 -9999 -9999 -9999 -9999 -9999 -9999 -9999 -9999 -9999 -9999 -9999 -9999 -9999 -9999 -9999 -9999 -9999 -9999 -9999 -9999 -9999 -9999 -9999 -9999 -9999 -9999 -9999 -9999 -9999 -9999 -9999 -9999 -9999 -9999 -9999 -9999 -9999 -9999 -9999 -9999 -9999 -9999 -9999 -9999 -9999 -9999 -9999 -9999 -9999 -9999 -9999 -9999 -9999 -9999 -9999 -9999 -9999 -9999 -9999 -9999 -9999 -9999 -9999 -9999 -9999 -9999 -9999 -9999 -9999 -9999 -9999 -9999 -9999 -9999 -9999 -9999 -9999 -9999 -9999 -9999 -9999 -9999 -9999 -9999 -9999 -9999 -9999 -9999 -9999 -9999 -9999 -9999 -9999 -9999 -9999 -9999 -9999 -9999 -9999 -9999 -9999 -9999 -9999 -9999 -9999 -9999 -9999 -9999 -9999 -9999 -9999 -9999 -9999 -9999 -9999 -9999 -9999 -9999 -9999 -9999 -9999 -9999 -9999 -9999 -9999 -9999 -9999 -9999 -9999 -9999 -9999 -9999 -9999 -9999 -9999 -9999 -9999 -9999 -9999 -9999 -9999 -9999 -9999 -9999 -9999 59.5903165735568 59.5903165735568 59.5903165735568 38.8007054673721 38.8007054673721 38.8007054673721 62.5 62.5 55.8139534883721 55.8139534883721 46.7075038284839 -9999 57.7223088923557 57.7223088923557 75.0636132315522 70.3517587939699 70.3517587939699 59.3952483801296 59.3952483801296 59.3952483801296 41.5057915057915 41.5057915057915 65.7894736842105 65.7894736842105 55.3470919324578 58.8942307692308 58.8942307692308 58.8942307692308 47.4516695957821 47.4516695957821 -9999 -9999 -9999 -9999 -9999 -9999 -9999 -9999 -9999 -9999 -9999 -9999 -9999 -9999 -9999 -9999 -9999 -9999 -9999 -9999 -9999 -9999 -9999 -9999 -9999 -9999 -9999 -9999 -9999 -9999 -9999 -9999 -9999 -9999 -9999 -9999 -9999 -9999 -9999 -9999 -9999 -9999 -9999 -9999 -9999 -9999 -9999 -9999 -9999 -9999 -9999 -9999 -9999 -9999 -9999 -9999 -9999 -9999 -9999 -9999 -9999 -9999 -9999 -9999 -9999 -9999 -9999 -9999 -9999 -9999 -9999 -9999 -9999 -9999 -9999 -9999 -9999 -9999 -9999 -9999 -9999 -9999 -9999 -9999 -9999 -9999 -9999 -9999 -9999 -9999 -9999 -9999 -9999 -9999 -9999 -9999 -9999 -9999 -9999 -9999 -9999 -9999 -9999 -9999 -9999 -9999 -9999 -9999 -9999 -9999
-9999 -9999 -9999 -9999 -9999 -9999 -9999 -9999 -9999 -9999 35.2697095435685 35.2697095435685 36.5296803652968 36.5296803652968 36.5296803652968 36.5296803652968 36.5296803652968 36.5296803652968 36.5296803652968 36.5296803652968 36.5296803652968 36.5296803652968 0 37.4771480804388 37.4771480804388 37.4771480804388 37.4771480804388 37.4771480804388 37.4771480804388 37.4771480804388 37.4771480804388 37.4771480804388 37.4771480804388 37.4771480804388 37.4771480804388 37.4771480804388 37.4771480804388 26.8292682926829 26.8292682926829 26.8292682926829 26.8292682926829 26.8292682926829 26.8292682926829 26.8292682926829 26.8292682926829 26.8292682926829 26.8022181146026 26.8022181146026 26.8022181146026 26.8022181146026 26.8022181146026 26.8022181146026 26.8022181146026 23.3812949640288 23.3812949640288 23.3812949640288 23.3812949640288 23.0547550432277 23.0547550432277 23.0547550432277 23.0547550432277 23.0547550432277 23.0547550432277 23.0547550432277 23.0547550432277 23.0547550432277 23.0547550432277 26.0942760942761 31.104199066874 27.7777777777778 27.7777777777778 27.7777777777778 31.104199066874 31.104199066874 31.104199066874 31.104199066874 31.104199066874 31.104199066874 31.104199066874 31.104199066874 31.104199066874 -9999 -9999 -9999 -9999 -9999 -9999 -9999 -9999 -9999 -9999 -9999 -9999 -9999 -9999 -9999 -9999 -9999 -9999 -9999 -9999 -9999 -9999 -9999 -9999 -9999 -9999 -9999 -9999 -9999 -9999 -9999 -9999 -9999 -9999 -9999 -9999 -9999 -9999 -9999 -9999 -9999 -9999 -9999 -9999 -9999 -9999 -9999 -9999 -9999 -9999 -9999 -9999 -9999 -9999 -9999 -9999 -9999 -9999 -9999 -9999 -9999 -9999 -9999 -9999 -9999 -9999 -9999 -9999 -9999 -9999 -9999 -9999 -9999 -9999 -9999 -9999 -9999 -9999 -9999 -9999 -9999 -9999 -9999 -9999 -9999 -9999 -9999 -9999 -9999 -9999 -9999 -9999 -9999 -9999 -9999 -9999 -9999 -9999 -9999 -9999 -9999 -9999 -9999 -9999 -9999 -9999 -9999 -9999 -9999 -9999 -9999 -9999 -9999 -9999 -9999 -9999 -9999 -9999 -9999 -9999 -9999 -9999 -9999 -9999 -9999 -9999 -9999 -9999 -9999 -9999 -9999 -9999 -9999 -9999 -9999 -9999 -9999 -9999 -9999 -9999 -9999 -9999 -9999 -9999 -9999 -9999 -9999 -9999 -9999 -9999 -9999 -9999 -9999 -9999 -9999 -9999 -9999 -9999 -9999 -9999 -9999 -9999 -9999 -9999 -9999 -9999 -9999 -9999 -9999 -9999 -9999 -9999 -9999 -9999 -9999 -9999 -9999 -9999 -9999 -9999 -9999 -9999 -9999 -9999 -9999 -9999 -9999 -9999 -9999 -9999 -9999 -9999 -9999 -9999 -9999 -9999 59.5903165735568 59.5903165735568 59.5903165735568 59.5903165735568 62.5 62.5 59.5903165735568 59.5903165735568 59.5903165735568 57.7223088923557 57.7223088923557 57.7223088923557 75.0636132315522 75.0636132315522 75.0636132315522 75.0636132315522 75.0636132315522 41.5057915057915 41.5057915057915 41.5057915057915 65.7894736842105 47.4516695957821 47.4516695957821 47.4516695957821 47.4516695957821 47.4516695957821 -9999 -9999 -9999 -9999 -9999 -9999 -9999 -9999 -9999 -9999 -9999 -9999 -9999 -9999 -9999 -9999 -9999 -9999 -9999 -9999 -9999 -9999 -9999 -9999 -9999 -9999 -9999 -9999 -9999 -9999 -9999 -9999 -9999 -9999 -9999 -9999 -9999 -9999 -9999 -9999 -9999 -9999 -9999 -9999 -9999 -9999 -9999 -9999 -9999 -9999 -9999 -9999 -9999 -9999 -9999 -9999 -9999 -9999 -9999 -9999 -9999 -9999 -9999 -9999 -9999 -9999 -9999 -9999 -9999 -9999 -9999 -9999 -9999 -9999 -9999 -9999 -9999 -9999 -9999 -9999 -9999 -9999 -9999 -9999 -9999 -9999 -9999 -9999 -9999 -9999 -9999 -9999 -9999 -9999 -9999 -9999 -9999 -9999 -9999 -9999 -9999 -9999 -9999 -9999 -9999 -9999 -9999 -9999 -9999 -9999 -9999 -9999
-9999 -9999 -9999 -9999 -9999 -9999 -9999 -9999 -9999 35.2697095435685 35.2697095435685 35.2697095435685 35.2697095435685 35.2697095435685 36.5296803652968 36.5296803652968 36.5296803652968 36.5296803652968 36.5296803652968 36.5296803652968 36.5296803652968 36.5296803652968 0 0 37.4771480804388 37.4771480804388 37.4771480804388 37.4771480804388 37.4771480804388 37.4771480804388 37.4771480804388 37.4771480804388 37.4771480804388 37.4771480804388 37.4771480804388 37.4771480804388 37.4771480804388 26.8292682926829 26.8292682926829 26.8292682926829 26.8292682926829 26.8292682926829 26.8292682926829 26.8292682926829 26.8022181146026 26.8022181146026 26.8022181146026 26.8022181146026 26.8022181146026 26.8022181146026 23.3812949640288 23.3812949640288 23.3812949640288 23.3812949640288 23.3812949640288 23.3812949640288 23.3812949640288 23.3812949640288 23.0547550432277 23.0547550432277 23.0547550432277 23.0547550432277 23.0547550432277 23.0547550432277 23.0547550432277 23.0547550432277 23.0547550432277 31.104199066874 31.104199066874 31.104199066874 31.104199066874 31.104199066874 -9999 31.104199066874 31.104199066874 31.104199066874 -9999 -9999 -9999 31.104199066874 31.104199066874 -9999 -9999 -9999 -9999 -9999 -9999 -9999 -9999 -9999 -9999 -9999 -9999 -9999 -9999 -9999 -9999 -9999 -9999 -9999 -9999 -9999 -9999 -9999 -9999 -9999 -9999 -9999 -9999 -9999 -9999 -9999 -9999 -9999 -9999 -9999 -9999 -9999 -9999 -9999 -9999 -9999 -9999 -9999 -9999 -9999 -9999 -9999 -9999 -9999 -9999 -9999 -9999 -9999 -9999 -9999 -9999 -9999 -9999 -9999 -9999 -9999 -9999 -9999 -9999 -9999 -9999 -9999 -9999 -9999 -9999 -9999 -9999 -9999 -9999 -9999 -9999 -9999 -9999 -9999 -9999 -9999 -9999 -9999 -9999 -9999 -9999 -9999 -9999 -9999 -9999 -9999 -9999 -9999 -9999 -9999 -9999 -9999 -9999 -9999 -9999 -9999 -9999 -9999 -9999 -9999 -9999 -9999 -9999 -9999 -9999 -9999 -9999 -9999 -9999 -9999 -9999 -9999 -9999 -9999 -9999 -9999 -9999 -9999 -9999 -9999 -9999 -9999 -9999 -9999 -9999 -9999 -9999 -9999 -9999 -9999 -9999 -9999 -9999 -9999 -9999 -9999 -9999 -9999 -9999 -9999 -9999 -9999 -9999 -9999 -9999 -9999 -9999 -9999 -9999 -9999 -9999 -9999 -9999 -9999 -9999 -9999 -9999 -9999 -9999 -9999 -9999 -9999 -9999 -9999 -9999 -9999 -9999 -9999 -9999 -9999 -9999 -9999 -9999 -9999 -9999 -9999 -9999 -9999 -9999 -9999 -9999 -9999 -9999 -9999 -9999 -9999 -9999 -9999 -9999 -9999 -9999 -9999 -9999 -9999 -9999 -9999 -9999 -9999 -9999 -9999 75.0636132315522 75.0636132315522 -9999 -9999 -9999 -9999 -9999 -9999 -9999 -9999 -9999 -9999 -9999 -9999 -9999 -9999 -9999 -9999 -9999 -9999 -9999 -9999 -9999 -9999 -9999 -9999 -9999 -9999 -9999 -9999 40.1662049861496 40.1662049861496 40.1662049861496 40.1662049861496 -9999 -9999 -9999 -9999 -9999 -9999 -9999 -9999 -9999 -9999 -9999 -9999 -9999 -9999 -9999 -9999 -9999 -9999 -9999 -9999 -9999 -9999 -9999 -9999 -9999 -9999 -9999 -9999 -9999 -9999 -9999 -9999 -9999 -9999 -9999 -9999 -9999 -9999 -9999 -9999 -9999 -9999 -9999 -9999 -9999 -9999 -9999 -9999 -9999 -9999 -9999 -9999 -9999 -9999 -9999 -9999 -9999 -9999 -9999 -9999 -9999 -9999 -9999 -9999 -9999 -9999 -9999 -9999 -9999 -9999 -9999 -9999 -9999 -9999 -9999 -9999 -9999 -9999 -9999 -9999 -9999 -9999 -9999 -9999 -9999 -9999 -9999 -9999 -9999 -9999 -9999 -9999 -9999 -9999 -9999
-9999 -9999 -9999 -9999 -9999 -9999 -9999 -9999 -9999 -9999 35.2697095435685 35.2697095435685 35.2697095435685 35.2697095435685 35.2697095435685 35.2697095435685 36.5296803652968 36.5296803652968 36.5296803652968 36.5296803652968 36.5296803652968 36.5296803652968 0 0 37.4771480804388 37.4771480804388 37.4771480804388 37.4771480804388 37.4771480804388 37.4771480804388 37.4771480804388 37.4771480804388 37.4771480804388 37.4771480804388 37.4771480804388 37.4771480804388 37.4771480804388 26.8292682926829 26.8292682926829 26.8292682926829 20.1535508637236 20.1535508637236 20.1535508637236 26.8022181146026 26.8022181146026 26.8022181146026 26.8022181146026 26.8022181146026 26.8022181146026 26.8022181146026 23.3812949640288 23.3812949640288 23.3812949640288 23.3812949640288 23.3812949640288 23.3812949640288 23.3812949640288 23.3812949640288 23.0547550432277 23.0547550432277 23.0547550432277 23.0547550432277 23.0547550432277 23.0547550432277 21.6049382716049 21.6049382716049 21.6049382716049 -9999 -9999 -9999 -9999 -9999 -9999 -9999 -9999 -9999 -9999 -9999 -9999 -9999 -9999 -9999 -9999 -9999 -9999 -9999 -9999 -9999 -9999 -9999 -9999 -9999 -9999 -9999 -9999 -9999 -9999 -9999 -9999 -9999 -9999 -9999 -9999 -9999 -9999 -9999 -9999 -9999 -9999 -9999 -9999 -9999 -9999 -9999 -9999 -9999 -9999 -9999 -9999 -9999 -9999 -9999 -9999 -9999 -9999 -9999 -9999 -9999 -9999 -9999 -9999 -9999 -9999 -9999 -9999 -9999 -9999 -9999 -9999 -9999 -9999 -9999 -9999 -9999 -9999 -9999 -9999 -9999 -9999 -9999 -9999 -9999 -9999 -9999 -9999 -9999 -9999 -9999 -9999 -9999 -9999 -9999 -9999 -9999 -9999 -9999 -9999 -9999 -9999 -9999 -9999 -9999 -9999 -9999 -9999 -9999 -9999 -9999 -9999 -9999 -9999 -9999 -9999 -9999 -9999 -9999 -9999 -9999 -9999 -9999 -9999 -9999 -9999 -9999 -9999 -9999 -9999 -9999 -9999 -9999 -9999 -9999 -9999 -9999 -9999 -9999 -9999 -9999 -9999 -9999 -9999 -9999 -9999 -9999 -9999 -9999 -9999 -9999 -9999 -9999 -9999 -9999 -9999 -9999 -9999 -9999 -9999 -9999 -9999 -9999 -9999 -9999 -9999 -9999 -9999 -9999 -9999 -9999 -9999 -9999 -9999 -9999 -9999 -9999 -9999 -9999 -9999 -9999 -9999 -9999 -9999 -9999 -9999 -9999 -9999 -9999 -9999 -9999 -9999 -9999 -9999 -9999 -9999 -9999 -9999 -9999 -9999 -9999 -9999 -9999 -9999 -9999 -9999 -9999 -9999 -9999 -9999 -9999 -9999 -9999 -9999 -9999 -9999 -9999 -9999 -9999 -9999 -9999 -9999 -9999 -9999 -9999 -9999 -9999 -9999 -9999 -9999 -9999 -9999 -9999 -9999 -9999 -9999 -9999 -9999 -9999 -9999 -9999 -9999 -9999 -9999 -9999 -9999 -9999 -9999 -9999 -9999 40.1662049861496 -9999 -9999 -9999 -9999 -9999 -9999 -9999 -9999 -9999 -9999 -9999 -9999 -9999 -9999 -9999 -9999 -9999 -9999 -9999 -9999 -9999 -9999 -9999 -9999 -9999 -9999 -9999 -9999 -9999 -9999 -9999 -9999 -9999 -9999 -9999 -9999 -9999 -9999 -9999 -9999 -9999 -9999 -9999 -9999 -9999 -9999 -9999 -9999 -9999 -9999 -9999 -9999 -9999 -9999 -9999 -9999 -9999 -9999 -9999 -9999 -9999 -9999 -9999 -9999 -9999 -9999 -9999 -9999 -9999 -9999 -9999 -9999 -9999 -9999 -9999 -9999 -9999 -9999 -9999 -9999 -9999 -9999 -9999 -9999 -9999 -9999 -9999 -9999 -9999 -9999 -9999 -9999 -9999 -9999 -9999 -9999 -9999
-9999 -9999 -9999 -9999 -9999 -9999 -9999 -9999 -9999 -9999 -9999 -9999 35.2697095435685 35.2697095435685 35.2697095435685 35.2697095435685 35.2697095435685 36.5296803652968 36.5296803652968 36.5296803652968 36.5296803652968 36.5296803652968 0 0 37.4771480804388 37.4771480804388 37.4771480804388 37.4771480804388 37.4771480804388 37.4771480804388 37.4771480804388 37.4771480804388 37.4771480804388 37.4771480804388 37.4771480804388 37.4771480804388 37.4771480804388 26.8292682926829 26.8292682926829 20.1535508637236 20.1535508637236 20.1535508637236 20.1535508637236 26.8022181146026 26.8022181146026 26.8022181146026 26.8022181146026 26.8022181146026 26.8022181146026 26.8022181146026 23.3812949640288 23.3812949640288 23.3812949640288 23.3812949640288 23.3812949640288 23.3812949640288 23.3812949640288 23.3812949640288 21.6049382716049 21.6049382716049 21.6049382716049 21.6049382716049 21.6049382716049 21.6049382716049 21.6049382716049 -9999 -9999 -9999 -9999 -9999 -9999 -9999 -9999 -9999 -9999 -9999 -9999 -9999 -9999 -9999 -9999 -9999 -9999 -9999 -9999 -9999 -9999 -9999 -9999 -9999 -9999 -9999 -9999 -9999 -9999 -9999 -9999 -9999 -9999 -9999 -9999 -9999 -9999 -9999 -9999 -9999 -9999 -9999 -9999 -9999 -9999 -9999 -9999 -9999 -9999 -9999 -9999 -9999 -9999 -9999 -9999 -9999 -9999 -9999 -9999 -9999 -9999 -9999 -9999 -9999 -9999 -9999 -9999 -9999 -9999 -9999 -9999 -9999 -9999 -9999 -9999 -9999 -9999 -9999 -9999 -9999 -9999 -9999 -9999 -9999 -9999 -9999 -9999 -9999 -9999 -9999 -9999 -9999 -9999 -9999 -9999 -9999 -9999 -9999 -9999 -9999 -9999 -9999 -9999 -9999 -9999 -9999 -9999 -9999 -9999 -9999 -9999 -9999 -9999 -9999 -9999 -9999 -9999 -9999 -9999 -9999 -9999 -9999 -9999 -9999 -9999 -9999 -9999 -9999 -9999 -9999 -9999 -9999 -9999 -9999 -9999 -9999 -9999 -9999 -9999 -9999 -9999 -9999 -9999 -9999 -9999 -9999 -9999 -9999 -9999 -9999 -9999 -9999 -9999 -9999 -9999 -9999 -9999 -9999 -9999 -9999 -9999 -9999 -9999 -9999 -9999 -9999 -9999 -9999 -9999 -9999 -9999 -9999 -9999 -9999 -9999 -9999 -9999 -9999 -9999 -9999 -9999 -9999 -9999 -9999 -9999 -9999 -9999 -9999 -9999 -9999 -9999 -9999 -9999 -9999 -9999 -9999 -9999 -9999 -9999 -9999 -9999 -9999 -9999 -9999 -9999 -9999 -9999 -9999 -9999 -9999 -9999 -9999 -9999 -9999 -9999 -9999 -9999 -9999 -9999 -9999 -9999 -9999 -9999 -9999 -9999 -9999 -9999 -9999 -9999 -9999 -9999 -9999 -9999 -9999 -9999 -9999 -9999 -9999 -9999 -9999 -9999 -9999 -9999 -9999 -9999 -9999 -9999 -9999 -9999 -9999 -9999 -9999 -9999 -9999 -9999 -9999 -9999 -9999 -9999 -9999 -9999 -9999 -9999 -9999 -9999 -9999 -9999 -9999 -9999 -9999 -9999 -9999 -9999 -9999 -9999 -9999 -9999 -9999 -9999 -9999 -9999 -9999 -9999 -9999 -9999 -9999 -9999 -9999 -9999 -9999 -9999 -9999 -9999 -9999 -9999 -9999 -9999 -9999 -9999 -9999 -9999 -9999 -9999 -9999 -9999 -9999 -9999 -9999 -9999 -9999 -9999 -9999 -9999 -9999 -9999 -9999 -9999 -9999 -9999 -9999 -9999 -9999 -9999 -9999 -9999 -9999 -9999 -9999 -9999 -9999 -9999 -9999 -9999 -9999 -9999 -9999 -9999 -9999 -9999 -9999 -9999 -9999 -9999 -9999 -9999 -9999 -9999 -9999 -9999
-9999 -9999 -9999 -9999 -9999 -9999 -9999 -9999 -9999 -9999 -9999 -9999 -9999 35.2697095435685 35.2697095435685 35.2697095435685 36.5296803652968 36.5296803652968 36.5296803652968 36.5296803652968 47.1567267683773 0 0 0 0 37.4771480804388 37.4771480804388 37.4771480804388 37.4771480804388 37.4771480804388 37.4771480804388 37.4771480804388 37.4771480804388 37.4771480804388 37.4771480804388 37.4771480804388 37.4771480804388 26.8292682926829 26.8292682926829 20.1535508637236 20.1535508637236 20.1535508637236 20.1535508637236 20.1535508637236 20.1535508637236 20.1535508637236 26.8022181146026 26.8022181146026 26.8022181146026 26.8022181146026 23.3812949640288 23.3812949640288 23.3812949640288 23.3812949640288 23.3812949640288 23.3812949640288 21.6049382716049 -9999 -9999 -9999 -9999 -9999 -9999 -9999 -9999 -9999 -9999 -9999 -9999 -9999 -9999 -9999 -9999 -9999 -9999 -9999 -9999 -9999 -9999 -9999 -9999 -9999 -9999 -9999 -9999 -9999 -9999 -9999 -9999 -9999 -9999 -9999 -9999 -9999 -9999 -9999 -9999 -9999 -9999 -9999 -9999 -9999 -9999 -9999 -9999 -9999 -9999 -9999 -9999 -9999 -9999 -9999 -9999 -9999 -9999 -9999 -9999 -9999 -9999 -9999 -9999 -9999 -9999 -9999 -9999 -9999 -9999 -9999 -9999 -9999 -9999 -9999 -9999 -9999 -9999 -9999 -9999 -9999 -9999 -9999 -9999 -9999 -9999 -9999 -9999 -9999 -9999 -9999 -9999 -9999 -9999 -9999 -9999 -9999 -9999 -9999 -9999 -9999 -9999 -9999 -9999 -9999 -9999 -9999 -9999 -9999 -9999 -9999 -9999 -9999 -9999 -9999 -9999 -9999 -9999 -9999 -9999 -9999 -9999 -9999 -9999 -9999 -9999 -9999 -9999 -9999 -9999 -9999 -9999 -9999 -9999 -9999 -9999 -9999 -9999 -9999 -9999 -9999 -9999 -9999 -9999 -9999 -9999 -9999 -9999 -9999 -9999 -9999 -9999 -9999 -9999 -9999 -9999 -9999 -9999 -9999 -9999 -9999 -9999 -9999 -9999 -9999 -9999 -9999 -9999 -9999 -9999 -9999 -9999 -9999 -9999 -9999 -9999 -9999 -9999 -9999 -9999 -9999 -9999 -9999 -9999 -9999 -9999 -9999 -9999 -9999 -9999 -9999 -9999 -9999 -9999 -9999 -9999 -9999 -9999 -9999 -9999 -9999 -9999 -9999 -9999 -9999 -9999 -9999 -9999 -9999 -9999 -9999 -9999 -9999 -9999 -9999 -9999 -9999 -9999 -9999 -9999 -9999 -9999 -9999 -9999 -9999 -9999 -9999 -9999 -9999 -9999 -9999 -9999 -9999 -9999 -9999 -9999 -9999 -9999 -9999 -9999 -9999 -9999 -9999 -9999 -9999 -9999 -9999 -9999 -9999 -9999 -9999 -9999 -9999 -9999 -9999 -9999 -9999 -9999 -9999 -9999 -9999 -9999 -9999 -9999 -9999 -9999 -9999 -9999 -9999 -9999 -9999 -9999 -9999 -9999 -9999 -9999 -9999 -9999 -9999 -9999 -9999 -9999 -9999 -9999 -9999 -9999 -9999 -9999 -9999 -9999 -9999 -9999 -9999 -9999 -9999 -9999 -9999 -9999 -9999 -9999 -9999 -9999 -9999 -9999 -9999 -9999 -9999 -9999 -9999 -9999 -9999 -9999 -9999 -9999 -9999 -9999 -9999 -9999 -9999 -9999 -9999 -9999 -9999 -9999 -9999 -9999 -9999 -9999 -9999 -9999 -9999 -9999 -9999 -9999 -9999 -9999 -9999 -9999 -9999 -9999 -9999 -9999 -9999 -9999 -9999 -9999 -9999 -9999 -9999 -9999 -9999 -9999 -9999 -9999 -9999 -9999 -9999 -9999
-9999 -9999 -9999 -9999 -9999 -9999 -9999 -9999 -9999 -9999 -9999 -9999 -9999 -9999 35.2697095435685 35.2697095435685 36.5296803652968 36.5296803652968 36.5296803652968 47.1567267683773 47.1567267683773 0 0 0 0 37.4771480804388 37.4771480804388 37.4771480804388 37.4771480804388 37.4771480804388 37.4771480804388 37.4771480804388 37.4771480804388 37.4771480804388 37.4771480804388 37.4771480804388 26.8292682926829 26.8292682926829 26.8292682926829 20.1535508637236 20.1535508637236 20.1535508637236 20.1535508637236 20.1535508637236 20.1535508637236 21.6049382716049 21.6049382716049 21.6049382716049 21.6049382716049 21.6049382716049 23.3812949640288 23.3812949640288 23.3812949640288 21.6049382716049 -9999 -9999 -9999 -9999 -9999 -9999 -9999 -9999 -9999 -9999 -9999 -9999 -9999 -9999 -9999 -9999 -9999 -9999 -9999 -9999 -9999 -9999 -9999 -9999 -9999 -9999 -9999 -9999 -9999 -9999 -9999 -9999 -9999 -9999 -9999 -9999 -9999 -9999 -9999 -9999 -9999 -9999 -9999 -9999 -9999 -9999 -9999 -9999 -9999 -9999 -9999 -9999 -9999 -9999 -9999 -9999 -9999 -9999 -9999 -9999 -9999 -9999 -9999 -9999 -9999 -9999 -9999 -9999 -9999 -9999 -9999 -9999 -9999 -9999 -9999 -9999 -9999 -9999 -9999 -9999 -9999 -9999 -9999 -9999 -9999 -9999 -9999 -9999 -9999 -9999 -9999 -9999 -9999 -9999 -9999 -9999 -9999 -9999 -9999 -9999 -9999 -9999 -9999 -9999 -9999 -9999 -9999 -9999 -9999 -9999 -9999 -9999 -9999 -9999 -9999 -9999 -9999 -9999 -9999 -9999 -9999 -9999 -9999 -9999 -9999 -9999 -9999 -9999 -9999 -9999 -9999 -9999 -9999 -9999 -9999 -9999 -9999 -9999 -9999 -9999 -9999 -9999 -9999 -9999 -9999 -9999 -9999 -9999 -9999 -9999 -9999 -9999 -9999 -9999 -9999 -9999 -9999 -9999 -9999 -9999 -9999 -9999 -9999 -9999 -9999 -9999 -9999 -9999 -9999 -9999 -9999 -9999 -9999 -9999 -9999 -9999 -9999 -9999 -9999 -9999 -9999 -9999 -9999 -9999 -9999 -9999 -9999 -9999 -9999 -9999 -9999 -9999 -9999 -9999 -9999 -9999 -9999 -9999 -9999 -9999 -9999 -9999 -9999 -9999 -9999 -9999 -9999 -9999 -9999 -9999 -9999 -9999 -9999 -9999 -9999 -9999 -9999 -9999 -9999 -9999 -9999 -9999 -9999 -9999 -9999 -9999 -9999 -9999 -9999 -9999 -9999 -9999 -9999 -9999 -9999 -9999 -9999 -9999 -9999 -9999 -9999 -9999 -9999 -9999 -9999 -9999 -9999 -9999 -9999 -9999 -9999 -9999 -9999 -9999 -9999 -9999 -9999 -9999 -9999 -9999 -9999 -9999 -9999 -9999 -9999 -9999 -9999 -9999 -9999 -9999 -9999 -9999 -9999 -9999 -9999 -9999 -9999 -9999 -9999 -9999 -9999 -9999 -9999 -9999 -9999 -9999 -9999 -9999 -9999 -9999 -9999 -9999 -9999 -9999 -9999 -9999 -9999 -9999 -9999 -9999 -9999 -9999 -9999 -9999 -9999 -9999 -9999 -9999 -9999 -9999 -9999 -9999 -9999 -9999 -9999 -9999 -9999 -9999 -9999 -9999 -9999 -9999 -9999 -9999 -9999 -9999 -9999 -9999 -9999 -9999 -9999 -9999 -9999 -9999 -9999 -9999 -9999 -9999 -9999 -9999 -9999 -9999 -9999 -9999 -9999 -9999 -9999 -9999 -9999 -9999 -9999 -9999 -9999 -9999 -9999 -9999 -9999 -9999 -9999 -9999 -9999
-9999 -9999 -9999 -9999 -9999 -9999 -9999 -9999 -9999 -9999 -9999 -9999 -9999 -9999 -9999 47.1567267683773 47.1567267683773 36.5296803652968 36.5296803652968 47.1567267683773 47.1567267683773 0 0 0 48.0225988700565 48.0225988700565 37.4771480804388 37.4771480804388 37.4771480804388 37.4771480804388 37.4771480804388 37.4771480804388 37.4771480804388 37.4771480804388 37.4771480804388 37.4771480804388 26.8292682926829 26.8292682926829 20.1535508637236 20.1535508637236 20.1535508637236 20.1535508637236 20.1535508637236 21.6049382716049 21.6049382716049 21.6049382716049 21.6049382716049 21.6049382716049 21.6049382716049 21.6049382716049 23.3812949640288 -9999 -9999 -9999 -9999 -9999 -9999 -9999 -9999 -9999 -9999 -9999 -9999 -9999 -9999 -9999 -9999 -9999 -9999 -9999 -9999 -9999 -9999 -9999 -9999 -9999 -9999 -9999 -9999 -9999 -9999 -9999 -9999 -9999 -9999 -9999 -9999 -9999 -9999 -9999 -9999 -9999 -9999 -9999 -9999 -9999 -9999 -9999 -9999 -9999 -9999 -9999 -9999 -9999 -9999 -9999 -9999 -9999 -9999 -9999 -9999 -9999 -9999 -9999 -9999 -9999 -9999 -9999 -9999 -9999 -9999 -9999 -9999 -9999 -9999 -9999 -9999 -9999 -9999 -9999 -9999 -9999 -9999 -9999 -9999 -9999 -9999 -9999 -9999 -9999 -9999 -9999 -9999 -9999 -9999 -9999 -9999 -9999 -9999 -9999 -9999 -9999 -9999 -9999 -9999 -9999 -9999 -9999 -9999 -9999 -9999 -9999 -9999 -9999 -9999 -9999 -9999 -9999 -9999 -9999 -9999 -9999 -9999 -9999 -9999 -9999 -9999 -9999 -9999 -9999 -9999 -9999 -9999 -9999 -9999 -9999 -9999 -9999 -9999 -9999 -9999 -9999 -9999 -9999 -9999 -9999 -9999 -9999 -9999 -9999 -9999 -9999 -9999 -9999 -9999 -9999 -9999 -9999 -9999 -9999 -9999 -9999 -9999 -9999 -9999 -9999 -9999 -9999 -9999 -9999 -9999 -9999 -9999 -9999 -9999 -9999 -9999 -9999 -9999 -9999 -9999 -9999 -9999 -9999 -9999 -9999 -9999 -9999 -9999 -9999 -9999 -9999 -9999 -9999 -9999 -9999 -9999 -9999 -9999 -9999 -9999 -9999 -9999 -9999 -9999 -9999 -9999 -9999 -9999 -9999 -9999 -9999 -9999 -9999 -9999 -9999 -9999 -9999 -9999 -9999 -9999 -9999 -9999 -9999 -9999 -9999 -9999 -9999 -9999 -9999 -9999 -9999 -9999 -9999 -9999 -9999 -9999 -9999 -9999 -9999 -9999 -9999 -9999 -9999 -9999 -9999 -9999 -9999 -9999 -9999 -9999 -9999 -9999 -9999 -9999 -9999 -9999 -9999 -9999 -9999 -9999 -9999 -9999 -9999 -9999 -9999 -9999 -9999 -9999 -9999 -9999 -9999 -9999 -9999 -9999 -9999 -9999 -9999 -9999 -9999 -9999 -9999 -9999 -9999 -9999 -9999 -9999 -9999 -9999 -9999 -9999 -9999 -9999 -9999 -9999 -9999 -9999 -9999 -9999 -9999 -9999 -9999 -9999 -9999 -9999 -9999 -9999 -9999 -9999 -9999 -9999 -9999 -9999 -9999 -9999 -9999 -9999 -9999 -9999 -9999 -9999 -9999 -9999 -9999 -9999 -9999 -9999 -9999 -9999 -9999 -9999 -9999 -9999 -9999 -9999 -9999 -9999 -9999 -9999 -9999 -9999 -9999 -9999 -9999 -9999 -9999 -9999 -9999 -9999 -9999 -9999 -9999 -9999 -9999 -9999 -9999 -9999 -9999 -9999 -9999 -9999 -9999 -9999 -9999 -9999
-9999 -9999 -9999 -9999 -9999 -9999 -9999 -9999 -9999 -9999 -9999 -9999 -9999 -9999 -9999 -9999 47.1567267683773 47.1567267683773 47.1567267683773 47.1567267683773 47.1567267683773 48.0225988700565 48.0225988700565 48.0225988700565 30.3030303030303 30.3030303030303 37.4771480804388 37.4771480804388 37.4771480804388 37.4771480804388 37.4771480804388 37.4771480804388 37.4771480804388 37.4771480804388 37.4771480804388 37.4771480804388 26.8292682926829 26.8292682926829 20.1535508637236 20.1535508637236 21.6049382716049 21.6049382716049 21.6049382716049 21.6049382716049 21.6049382716049 21.6049382716049 21.6049382716049 21.6049382716049 -9999 21.6049382716049 -9999 -9999 -9999 -9999 -9999 -9999 -9999 -9999 -9999 -9999 -9999 -9999 -9999 -9999 -9999 -9999 -9999 -9999 -9999 -9999 -9999 -9999 -9999 -9999 -9999 -9999 -9999 -9999 -9999 -9999 -9999 -9999 -9999 -9999 -9999 -9999 -9999 -9999 -9999 -9999 -9999 -9999 -9999 -9999 -9999 -9999 -9999 -9999 -9999 -9999 -9999 -9999 -9999 -9999 -9999 -9999 -9999 -9999 -9999 -9999 -9999 -9999 -9999 -9999 -9999 -9999 -9999 -9999 -9999 -9999 -9999 -9999 -9999 -9999 -9999 -9999 -9999 -9999 -9999 -9999 -9999 -9999 -9999 -9999 -9999 -9999 -9999 -9999 -9999 -9999 -9999 -9999 -9999 -9999 -9999 -9999 -9999 -9999 -9999 -9999 -9999 -9999 -9999 -9999 -9999 -9999 -9999 -9999 -9999 -9999 -9999 -9999 -9999 -9999 -9999 -9999 -9999 -9999 -9999 -9999 -9999 -9999 -9999 -9999 -9999 -9999 -9999 -9999 -9999 -9999 -9999 -9999 -9999 -9999 -9999 -9999 -9999 -9999 -9999 -9999 -9999 -9999 -9999 -9999 -9999 -9999 -9999 -9999 -9999 -9999 -9999 -9999 -9999 -9999 -9999 -9999 -9999 -9999 -9999 -9999 -9999 -9999 -9999 -9999 -9999 -9999 -9999 -9999 -9999 -9999 -9999 -9999 -9999 -9999 -9999 -9999 -9999 -9999 -9999 -9999 -9999 -9999 -9999 -9999 -9999 -9999 -9999 -9999 -9999 -9999 -9999 -9999 -9999 -9999 -9999 -9999 -9999 -9999 -9999 -9999 -9999 -9999 -9999 -9999 -9999 -9999 -9999 -9999 -9999 -9999 -9999 -9999 -9999 -9999 -9999 -9999 -9999 -9999 -9999 -9999 -9999 -9999 -9999 -9999 -9999 -9999 -9999 -9999 -9999 -9999 -9999 -9999 -9999 -9999 -9999 -9999 -9999 -9999 -9999 -9999 -9999 -9999 -9999 -9999 -9999 -9999 -9999 -9999 -9999 -9999 -9999 -9999 -9999 -9999 -9999 -9999 -9999 -9999 -9999 -9999 -9999 -9999 -9999 -9999 -9999 -9999 -9999 -9999 -9999 -9999 -9999 -9999 -9999 -9999 -9999 -9999 -9999 -9999 -9999 -9999 -9999 -9999 -9999 -9999 -9999 -9999 -9999 -9999 -9999 -9999 -9999 -9999 -9999 -9999 -9999 -9999 -9999 -9999 -9999 -9999 -9999 -9999 -9999 -9999 -9999 -9999 -9999 -9999 -9999 -9999 -9999 -9999 -9999 -9999 -9999 -9999 -9999 -9999 -9999 -9999 -9999 -9999 -9999 -9999 -9999 -9999 -9999 -9999 -9999 -9999 -9999 -9999 -9999 -9999 -9999 -9999 -9999 -9999 -9999 -9999 -9999 -9999 -9999 -9999 -9999 -9999 -9999 -9999 -9999 -9999 -9999 -9999 -9999 -9999 -9999 -9999 -9999 -9999 -9999 -9999 -9999 -9999 -9999 -9999 -9999
-9999 -9999 -9999 -9999 -9999 -9999 -9999 -9999 -9999 -9999 -9999 -9999 -9999 -9999 -9999 -9999 47.1567267683773 47.1567267683773 47.1567267683773 47.1567267683773 43.5458786936236 48.0225988700565 48.0225988700565 48.0225988700565 30.3030303030303 30.3030303030303 30.3030303030303 37.4771480804388 37.4771480804388 37.4771480804388 37.4771480804388 37.4771480804388 37.4771480804388 37.4771480804388 37.4771480804388 37.4771480804388 26.8292682926829 20.1535508637236 20.1535508637236 20.1535508637236 21.6049382716049 21.6049382716049 21.6049382716049 21.6049382716049 21.6049382716049 21.6049382716049 21.6049382716049 -9999 -9999 -9999 -9999 -9999 -9999 -9999 -9999 -9999 -9999 -9999 -9999 -9999 -9999 -9999 -9999 -9999 -9999 -9999 -9999 -9999 -9999 -9999 -9999 -9999 -9999 -9999 -9999 -9999 -9999 -9999 -9999 -9999 -9999 -9999 -9999 -9999 -9999 -9999 -9999 -9999 -9999 -9999 -9999 -9999 -9999 -9999 -9999 -9999 -9999 -9999 -9999 -9999 -9999 -9999 -9999 -9999 -9999 -9999 -9999 -9999 -9999 -9999 -9999 -9999 -9999 -9999 -9999 -9999 -9999 -9999 -9999 -9999 -9999 -9999 -9999 -9999 -9999 -9999 -9999 -9999 -9999 -9999 -9999 -9999 -9999 -9999 -9999 -9999 -9999 -9999 -9999 -9999 -9999 -9999 -9999 -9999 -9999 -9999 -9999 -9999 -9999 -9999 -9999 -9999 -9999 -9999 -9999 -9999 -9999 -9999 -9999 -9999 -9999 -9999 -9999 -9999 -9999 -9999 -9999 -9999 -9999 -9999 -9999 -9999 -9999 -9999 -9999 -9999 -9999 -9999 -9999 -9999 -9999 -9999 -9999 -9999 -9999 -9999 -9999 -9999 -9999 -9999 -9999 -9999 -9999 -9999 -9999 -9999 -9999 -9999 -9999 -9999 -9999 -9999 -9999 -9999 -9999 -9999 -9999 -9999 -9999 -9999 -9999 -9999 -9999 -9999 -9999 -9999 -9999 -9999 -9999 -9999 -9999 -9999 -9999 -9999 -9999 -9999 -9999 -9999 -9999 -9999 -9999 -9999 -9999 -9999 -9999 -9999 -9999 -9999 -9999 -9999 -9999 -9999 -9999 -9999 -9999 -9999 -9999 -9999 -9999 -9999 -9999 -9999 -9999 -9999 -9999 -9999 -9999 -9999 -9999 -9999 -9999 -9999 -9999 -9999 -9999 -9999 -9999 -9999 -9999 -9999 -9999 -9999 -9999 -9999 -9999 -9999 -9999 -9999 -9999 -9999 -9999 -9999 -9999 -9999 -9999 -9999 -9999 -9999 -9999 -9999 -9999 -9999 -9999 -9999 -9999 -9999 -9999 -9999 -9999 -9999 -9999 -9999 -9999 -9999 -9999 -9999 -9999 -9999 -9999 -9999 -9999 -9999 -9999 -9999 -9999 -9999 -9999 -9999 -9999 -9999 -9999 -9999 -9999 -9999 -9999 -9999 -9999 -9999 -9999 -9999 -9999 -9999 -9999 -9999 -9999 -9999 -9999 -9999 -9999 -9999 -9999 -9999 -9999 -9999 -9999 -9999 -9999 -9999 -9999 -9999 -9999 -9999 -9999 -9999 -9999 -9999 -9999 -9999 -9999 -9999 -9999 -9999 -9999 -9999 -9999 -9999 -9999 -9999 -9999 -9999 -9999 -9999 -9999 -9999 -9999 -9999 -9999 -9999 -9999 -9999 -9999 -9999 -9999 -9999 -9999 -9999 -9999 -9999 -9999 -9999 -9999 -9999 -9999 -9999 -9999 -9999 -9999 -9999 -9999 -9999 -9999 -9999 -9999 -9999 -9999 -9999 -9999 -9999 -9999 -9999 -9999 -9999 -9999 -9999 -9999
-9999 -9999 -9999 -9999 -9999 -9999 -9999 -9999 -9999 -9999 -9999 -9999 -9999 -9999 47.1567267683773 -9999 47.1567267683773 47.1567267683773 47.1567267683773 43.5458786936236 43.5458786936236 48.0225988700565 48.0225988700565 48.0225988700565 48.0225988700565 30.3030303030303 30.3030303030303 37.4771480804388 37.4771480804388 37.4771480804388 37.4771480804388 37.4771480804388 37.4771480804388 37.4771480804388 37.4771480804388 26.8292682926829 21.6049382716049 21.6049382716049 21.6049382716049 21.6049382716049 21.6049382716049 21.6049382716049 21.6049382716049 21.6049382716049 21.6049382716049 21.6049382716049 21.6049382716049 -9999 -9999 -9999 -9999 -9999 -9999 -9999 -9999 -9999 -9999 -9999 -9999 -9999 -9999 -9999 -9999 -9999 -9999 -9999 -9999 -9999 -9999 -9999 -9999 -9999 -9999 -9999 -9999 -9999 -9999 -9999 -9999 -9999 -9999 -9999 -9999 -9999 -9999 -9999 -9999 -9999 -9999 -9999 -9999 -9999 -9999 -9999 -9999 -9999 -9999 -9999 -9999 -9999 -9999 -9999 -9999 -9999 -9999 -9999 -9999 -9999 -9999 -9999 -9999 -9999 -9999 -9999 -9999 -9999 -9999 -9999 -9999 -9999 -9999 -9999 -9999 -9999 -9999 -9999 -9999 -9999 -9999 -9999 -9999 -9999 -9999 -9999 -9999 -9999 -9999 -9999 -9999 -9999 -9999 -9999 -9999 -9999 -9999 -9999 -9999 -9999 -9999 -9999 -9999 -9999 -9999 -9999 -9999 -9999 -9999 -9999 -9999 -9999 -9999 -9999 -9999 -9999 -9999 -9999 -9999 -9999 -9999 -9999 -9999 -9999 -9999 -9999 -9999 -9999 -9999 -9999 -9999 -9999 -9999 -9999 -9999 -9999 -9999 -9999 -9999 -9999 -9999 -9999 -9999 -9999 -9999 -9999 -9999 -9999 -9999 -9999 -9999 -9999 -9999 -9999 -9999 -9999 -9999 -9999 -9999 -9999 -9999 -9999 -9999 -9999 -9999 -9999 -9999 -9999 -9999 -9999 -9999 -9999 -9999 -9999 -9999 -9999 -9999 -9999 -9999 -9999 -9999 -9999 -9999 -9999 -9999 -9999 -9999 -9999 -9999 -9999 -9999 -9999 -9999 -9999 -9999 -9999 -9999 -9999 -9999 -9999 -9999 -9999 -9999 -9999 -9999 -9999 -9999 -9999 -9999 -9999 -9999 -9999 -9999 -9999 -9999 -9999 -9999 -9999 -9999 -9999 -9999 -9999 -9999 -9999 -9999 -9999 -9999 -9999 -9999 -9999 -9999 -9999 -9999 -9999 -9999 -9999 -9999 -9999 -9999 -9999 -9999 -9999 -9999 -9999 -9999 -9999 -9999 -9999 -9999 -9999 -9999 -9999 -9999 -9999 -9999 -9999 -9999 -9999 -9999 -9999 -9999 -9999 -9999 -9999 -9999 -9999 -9999 -9999 -9999 -9999 -9999 -9999 -9999 -9999 -9999 -9999 -9999 -9999 -9999 -9999 -9999 -9999 -9999 -9999 -9999 -9999 -9999 -9999 -9999 -9999 -9999 -9999 -9999 -9999 -9999 -9999 -9999 -9999 -9999 -9999 -9999 -9999 -9999 -9999 -9999 -9999 -9999 -9999 -9999 -9999 -9999 -9999 -9999 -9999 -9999 -9999 -9999 -9999 -9999 -9999 -9999 -9999 -9999 -9999 -9999 -9999 -9999 -9999 -9999 -9999 -9999 -9999 -9999 -9999 -9999 -9999 -9999 -9999 -9999 -9999 -9999 -9999 -9999 -9999 -9999 -9999 -9999 -9999 -9999 -9999 -9999 -9999 -9999 -9999 -9999 -9999 -9999 -9999 -9999 -9999 -9999 -9999 -9999 -9999 -9999 -9999 -9999
-9999 -9999 -9999 -9999 -9999 -9999 -9999 -9999 -9999 -9999 -9999 -9999 -9999 -9999 -9999 -9999 -9999 47.1567267683773 43.5458786936236 43.5458786936236 43.5458786936236 43.5458786936236 43.5458786936236 43.5458786936236 30.3030303030303 30.3030303030303 30.3030303030303 37.4771480804388 37.4771480804388 37.4771480804388 37.4771480804388 37.4771480804388 -9999 -9999 -9999 -9999 -9999 -9999 21.6049382716049 21.6049382716049 21.6049382716049 21.6049382716049 21.6049382716049 21.6049382716049 21.6049382716049 21.6049382716049 -9999 -9999 -9999 -9999 -9999 -9999 -9999 -9999 -9999 -9999 -9999 -9999 -9999 -9999 -9999 -9999 -9999 -9999 -9999 -9999 -9999 -9999 -9999 -9999 -9999 -9999 -9999 -9999 -9999 -9999 -9999 -9999 -9999 -9999 -9999 -9999 -9999 -9999 -9999 -9999 -9999 -9999 -9999 -9999 -9999 -9999 -9999 -9999 -9999 -9999 -9999 -9999 -9999 -9999 -9999 -9999 -9999 -9999 -9999 -9999 -9999 -9999 -9999 -9999 -9999 -9999 -9999 -9999 -9999 -9999 -9999 -9999 -9999 -9999 -9999 -9999 -9999 -9999 -9999 -9999 -9999 -9999 -9999 -9999 -9999 -9999 -9999 -9999 -9999 -9999 -9999 -9999 -9999 -9999 -9999 -9999 -9999 -9999 -9999 -9999 -9999 -9999 -9999 -9999 -9999 -9999 -9999 -9999 -9999 -9999 -9999 -9999 -9999 -9999 -9999 -9999 -9999 -9999 -9999 -9999 -9999 -9999 -9999 -9999 -9999 -9999 -9999 -9999 -9999 -9999 -9999 -9999 -9999 -9999 -9999 -9999 -9999 -9999 -9999 -9999 -9999 -9999 -9999 -9999 -9999 -9999 -9999 -9999 -9999 -9999 -9999 -9999 -9999 -9999 -9999 -9999 -9999 -9999 -9999 -9999 -9999 -9999 -9999 -9999 -9999 -9999 -9999 -9999 -9999 -9999 -9999 -9999 -9999 -9999 -9999 -9999 -9999 -9999 -9999 -9999 -9999 -9999 -9999 -9999 -9999 -9999 -9999 -9999 -9999 -9999 -9999 -9999 -9999 -9999 -9999 -9999 -9999 -9999 -9999 -9999 -9999 -9999 -9999 -9999 -9999 -9999 -9999 -9999 -9999 -9999 -9999 -9999 -9999 -9999 -9999 -9999 -9999 -9999 -9999 -9999 -9999 -9999 -9999 -9999 -9999 -9999 -9999 -9999 -9999 -9999 -9999 -9999 -9999 -9999 -9999 -9999 -9999 -9999 -9999 -9999 -9999 -9999 -9999 -9999 -9999 -9999 -9999 -9999 -9999 -9999 -9999 -9999 -9999 -9999 -9999 -9999 -9999 -9999 -9999 -9999 -9999 -9999 -9999 -9999 -9999 -9999 -9999 -9999 -9999 -9999 -9999 -9999 -9999 -9999 -9999 -9999 -9999 -9999 -9999 -9999 -9999 -9999 -9999 -9999 -9999 -9999 -9999 -9999 -9999 -9999 -9999 -9999 -9999 -9999 -9999 -9999 -9999 -9999 -9999 -9999 -9999 -9999 -9999 -9999 -9999 -9999 -9999 -9999 -9999 -9999 -9999 -9999 -9999 -9999 -9999 -9999 -9999 -9999 -9999 -9999 -9999 -9999 -9999 -9999 -9999 -9999 -9999 -9999 -9999 -9999 -9999 -9999 -9999 -9999 -9999 -9999 -9999 -9999 -9999 -9999 -9999 -9999 -9999 -9999 -9999 -9999 -9999 -9999 -9999 -9999 -9999 -9999 -9999 -9999 -9999 -9999 -9999 -9999 -9999 -9999 -9999 -9999 -9999 -9999 -9999 -9999 -9999 -9999 -9999
-9999 -9999 -9999 -9999 -9999 -9999 -9999 -9999 -9999 -9999 -9999 -9999 -9999 -9999 -9999 -9999 -9999 -9999 -9999 -9999 -9999 -9999 43.5458786936236 43.5458786936236 30.3030303030303 30.3030303030303 43.5458786936236 37.4771480804388 37.4771480804388 -9999 -9999 -9999 -9999 -9999 -9999 -9999 -9999 -9999 -9999 -9999 -9999 -9999 -9999 -9999 -9999 -9999 -9999 -9999 -9999 -9999 -9999 -9999 -9999 -9999 -9999 -9999 -9999 -9999 -9999 -9999 -9999 -9999 -9999 -9999 -9999 -9999 -9999 -9999 -9999 -9999 -9999 -9999 -9999 -9999 -9999 -9999 -9999 -9999 -9999 -9999 -9999 -9999 -9999 -9999 -9999 -9999 -9999 -9999 -9999 -9999 -9999 -9999 -9999 -9999 -9999 -9999 -9999 -9999 -9999 -9999 -9999 -9999 -9999 -9999 -9999 -9999 -9999 -9999 -9999 -9999 -9999 -9999 -9999 -9999 -9999 -9999 -9999 -9999 -9999 -9999 -9999 -9999 -9999 -9999 -9999 -9999 -9999 -9999 -9999 -9999 -9999 -9999 -9999 -9999 -9999 -9999 -9999 -9999 -9999 -9999 -9999 -9999 -9999 -9999 -9999 -9999 -9999 -9999 -9999 -9999 -9999 -9999 -9999 -9999 -9999 -9999 -9999 -9999 -9999 -9999 -9999 -9999 -9999 -9999 -9999 -9999 -9999 -9999 -9999 -9999 -9999 -9999 -9999 -9999 -9999 -9999 -9999 -9999 -9999 -9999 -9999 -9999 -9999 -9999 -9999 -9999 -9999 -9999 -9999 -9999 -9999 -9999 -9999 -9999 -9999 -9999 -9999 -9999 -9999 -9999 -9999 -9999 -9999 -9999 -9999 -9999 -9999 -9999 -9999 -9999 -9999 -9999 -9999 -9999 -9999 -9999 -9999 -9999 -9999 -9999 -9999 -9999 -9999 -9999 -9999 -9999 -9999 -9999 -9999 -9999 -9999 -9999 -9999 -9999 -9999 -9999 -9999 -9999 -9999 -9999 -9999 -9999 -9999 -9999 -9999 -9999 -9999 -9999 -9999 -9999 -9999 -9999 -9999 -9999 -9999 -9999 -9999 -9999 -9999 -9999 -9999 -9999 -9999 -9999 -9999 -9999 -9999 -9999 -9999 -9999 -9999 -9999 -9999 -9999 -9999 -9999 -9999 -9999 -9999 -9999 -9999 -9999 -9999 -9999 -9999 -9999 -9999 -9999 -9999 -9999 -9999 -9999 -9999 -9999 -9999 -9999 -9999 -9999 -9999 -9999 -9999 -9999 -9999 -9999 -9999 -9999 -9999 -9999 -9999 -9999 -9999 -9999 -9999 -9999 -9999 -9999 -9999 -9999 -9999 -9999 -9999 -9999 -9999 -9999 -9999 -9999 -9999 -9999 -9999 -9999 -9999 -9999 -9999 -9999 -9999 -9999 -9999 -9999 -9999 -9999 -9999 -9999 -9999 -9999 -9999 -9999 -9999 -9999 -9999 -9999 -9999 -9999 -9999 -9999 -9999 -9999 -9999 -9999 -9999 -9999 -9999 -9999 -9999 -9999 -9999 -9999 -9999 -9999 -9999 -9999 -9999 -9999 -9999 -9999 -9999 -9999 -9999 -9999 -9999 -9999 -9999 -9999 -9999 -9999 -9999 -9999 -9999 -9999 -9999 -9999 -9999 -9999 -9999 -9999 -9999 -9999 -9999 -9999 -9999 -9999 -9999 -9999 -9999 -9999 -9999 -9999 -9999 -9999 -9999 -9999 -9999 -9999 -9999 -9999 -9999
